/* XPM */
static const char *mi_explosion00[] = {
/* columns rows colors chars-per-pixel */
"583 536 171 2 ",
"   c None",
".  c #6F311F",
"X  c #70321F",
"o  c #71331F",
"O  c #72321E",
"+  c #75341F",
"@  c #743320",
"#  c #763320",
"$  c #773420",
"%  c #783420",
"&  c #793520",
"*  c #7A3520",
"=  c #7C3520",
"-  c #7D3721",
";  c #7E3721",
":  c #803821",
">  c #823821",
",  c #813822",
"<  c #833922",
"1  c #843921",
"2  c #843822",
"3  c #853A23",
"4  c #873A22",
"5  c #883A22",
"6  c #893A22",
"7  c #8B3B22",
"8  c #8C3B23",
"9  c #8E3B24",
"0  c #8F3D24",
"q  c #903D23",
"w  c #923D23",
"e  c #913E24",
"r  c #933E25",
"t  c #943E24",
"y  c #953F24",
"u  c #963F24",
"i  c #983F24",
"p  c #994025",
"a  c #9B4125",
"s  c #9A4026",
"d  c #9D4125",
"f  c #9E4325",
"g  c #9F4226",
"h  c #A04326",
"j  c #A14227",
"k  c #A24326",
"l  c #A34326",
"z  c #A54327",
"x  c #A44427",
"c  c #A64427",
"v  c #A74527",
"b  c #A84327",
"n  c #A94627",
"m  c #AC4627",
"M  c #AD4627",
"N  c #AB4728",
"B  c #AE4728",
"V  c #B04828",
"C  c #B04829",
"Z  c #B24828",
"A  c #B44929",
"S  c #B44A29",
"D  c #B64A28",
"F  c #B74B29",
"G  c #BA4B2A",
"H  c #BC4A29",
"J  c #BC4C2A",
"K  c #BF4D2A",
"L  c #BE4D2B",
"P  c #C14C2A",
"I  c #C14E2B",
"U  c #C44F2A",
"Y  c #C6502B",
"T  c #C7502C",
"R  c #C9502B",
"E  c #C8512B",
"W  c #CA512C",
"Q  c #CB512C",
"!  c #CB532C",
"~  c #CB522D",
"^  c #CC532C",
"/  c #CC542C",
"(  c #CD562C",
")  c #CD572D",
"_  c #CE592D",
"`  c #CF5A2D",
"'  c #CF5C2D",
"]  c #D05D2D",
"[  c #D05E2D",
"{  c #D1602D",
"}  c #D1612D",
"|  c #D2622D",
" . c #D3642D",
".. c #D3652D",
"X. c #D4672D",
"o. c #D5682D",
"O. c #D56A2D",
"+. c #D66B2D",
"@. c #D66C2D",
"#. c #D66D2D",
"$. c #D76F2D",
"%. c #D8702D",
"&. c #D8712D",
"*. c #D9732D",
"=. c #D9742D",
"-. c #DA762D",
";. c #DB772D",
":. c #DB782D",
">. c #DB792D",
",. c #DC7B2D",
"<. c #DD7C2D",
"1. c #DD7D2D",
"2. c #DE7F2D",
"3. c #DE802D",
"4. c #DF812D",
"5. c #E0832D",
"6. c #E0842D",
"7. c #E1862D",
"8. c #E1872D",
"9. c #E2882D",
"0. c #E2892D",
"q. c #E38A2D",
"w. c #E38C2D",
"e. c #E48D2D",
"r. c #E48E2D",
"t. c #E58F2D",
"y. c #E5902D",
"u. c #E5912D",
"i. c #E6922D",
"p. c #E7942D",
"a. c #E7962D",
"s. c #E8972D",
"d. c #E8982D",
"f. c #E9992D",
"g. c #EA9B2D",
"h. c #EA9C2D",
"j. c #EA9D2D",
"k. c #EB9E2D",
"l. c #ECA02E",
"z. c #ECA22E",
"x. c #EDA32E",
"c. c #EDA42D",
"v. c #EEA62E",
"b. c #EEA72E",
"n. c #EFA82E",
"m. c #F0A92E",
"M. c #F0AA2E",
"N. c #F0AB2E",
"B. c #F1AC2E",
"V. c #F1AE2E",
"C. c #F2AF2E",
"Z. c #F2B12E",
"A. c #F3B22E",
"S. c #F4B32E",
"D. c #F4B42E",
"F. c #F5B52E",
"G. c #F5B62E",
"H. c #F5B72E",
"J. c #F6B82E",
"K. c #F6B92E",
"L. c #F7BB2E",
"P. c #F8BD2E",
"I. c #F8BF2E",
"U. c #F9C02E",
"Y. c #FAC12E",
"T. c #FAC32E",
"R. c #FBC52E",
"E. c #FCC82E",
"W. c #FDCA2E",
"Q. c #FFCD2E",
"!. c None",
/* pixels */
"!.!.!.!.!.!.!.!.!.!.!.!.!.!.!.!.!.!.!.!.!.!.!.!.!.!.!.!.!.!.!.!.!.!.!.!.!.!.!.!.!.!.!.!.!.!.!.!.!.!.!.!.!.!.!.!.!.!.!.!.!.!.!.!.!.!.!.!.!.!.!.!.!.!.!.!.!.!.!.!.!.!.!.!.!.!.!.!.!.!.!.!.!.!.!.!.!.!.!.!.!.!.!.!.!.!.!.!.!.!.!.!.!.!.!.!.!.!.!.!.!.!.!.!.!.!.!.!.!.!.!.!.!.!.!.!.!.!.!.!.!.!.!.!.!.!.!.!.!.!.!.!.!.!.!.!.!.!.!.!.!.!.!.!.!.!.!.!.!.!.!.!.!.!.!.!.!.!.!.!.!.!.!.!.!.!.!.!.!.!.!.!.!.!.!.!.!.!.!.!.!.!.!.!.!.!.!.!.!.!.!.!.!.!.!.!.!.!.!.!.!.!.!.!.!.!.!.!.!.!.!.!.!.!.!.!.!.!.!.!.!.!.!.!.!.!.!.!.!.!.!.!.!.!.!.!.!.!.!.!.!.!.!.!.!.!.!.!.!.!.!.!.!.!.!.!.!.!.!.!.!.!.!.!.!.!.!.!.!.!.!.!.!.!.!.!.!.!.!.!.!.!.!.!.!.!.!.!.!.!.!.!.!.!.!.!.!.!.!.!.!.!.!.!.!.!.!.!.!.!.!.!.!.!.!.!.!.!.!.!.!.!.!.!.!.!.!.!.!.!.!.!.!.!.!.!.!.!.!.!.!.!.!.!.!.!.!.!.!.!.!.!.!.!.!.!.!.!.!.!.!.!.!.!.!.!.!.!.!.!.!.!.!.!.!.!.!.!.!.!.!.!.!.!.!.!.!.!.!.!.!.!.!.!.!.!.!.!.!.!.!.!.!.!.!.!.!.!.!.!.!.!.!.!.!.!.!.!.!.!.!.!.!.!.!.!.!.!.!.!.!.!.!.!.!.!.!.!.!.!.!.!.!.!.!.!.!.!.!.!.!.!.!.!.!.!.!.!.!.!.!.!.!.!.!.!.!.!.!.!.!.!.!.!.!.!.!.!.!.!.!.!.!.!.!.!.!.!.!.!.!.!.!.!.!.!.!.!.!.!.!.!.!.!.!.!.!.!.!.!.!.!.!.!.!.!.!.!.!.!.!.!.!.!.!.!.!.!.!.!.!.!.!.!.!.!.!.!.!.!.!.!.!.!.!.!.!.!.!.!.!.!.!.!.!.!.!.!.!.!.!.!.!.",
"!.!.!.!.!.!.!.!.!.!.!.!.!.!.!.!.!.!.!.!.!.!.!.!.!.!.!.!.!.!.!.!.!.!.!.!.!.!.!.!.!.!.!.!.!.!.!.!.!.!.!.!.!.!.!.!.!.!.!.!.!.!.!.!.!.!.!.!.!.!.!.!.!.!.!.!.!.!.!.!.!.!.!.!.!.!.!.!.!.!.!.!.!.!.!.!.!.!.!.!.!.!.!.!.!.!.!.!.!.!.!.!.!.!.!.!.!.!.!.!.!.!.!.!.!.!.!.!.!.!.!.!.!.!.!.!.!.!.!.!.!.!.!.!.!.!.!.!.!.!.!.!.!.!.!.!.!.!.!.!.!.!.!.!.!.!.!.!.!.!.!.!.!.!.!.!.!.!.!.!.!.!.!.!.!.!.!.!.!.!.!.!.!.!.!.!.!.!.!.!.!.!.!.!.!.!.!.!.!.!.!.!.!.!.!.!.!.!.!.!.!.!.!.!.!.!.!.!.!.!.!.!.!.!.!.!.!.!.!.!.!.!.!.!.!.!.!.!.!.!.!.!.!.!.!.!.!.!.!.!.!.!.!.!.!.!.!.!.!.!.!.!.!.!.!.!.!.!.!.!.!.!.!.!.!.!.!.!.!.!.!.!.!.!.!.!.!.!.!.!.!.!.!.!.!.!.!.!.!.!.!.!.!.!.!.!.!.!.!.!.!.!.!.!.!.!.!.!.!.!.!.!.!.!.!.!.!.!.!.!.!.!.!.!.!.!.!.!.!.!.!.!.!.!.!.!.!.!.!.!.!.!.!.!.!.!.!.!.!.!.!.!.!.!.!.!.!.!.!.!.!.!.!.!.!.!.!.!.!.!.!.!.!.!.!.!.!.!.!.!.!.!.!.!.!.!.!.!.!.!.!.!.!.!.!.!.!.!.!.!.!.!.!.!.!.!.!.!.!.!.!.!.!.!.!.!.!.!.!.!.!.!.!.!.!.!.!.!.!.!.!.!.!.!.!.!.!.!.!.!.!.!.!.!.!.!.!.!.!.!.!.!.!.!.!.!.!.!.!.!.!.!.!.!.!.!.!.!.!.!.!.!.!.!.!.!.!.!.!.!.!.!.!.!.!.!.!.!.!.!.!.!.!.!.!.!.!.!.!.!.!.!.!.!.!.!.!.!.!.!.!.!.!.!.!.!.!.!.!.!.!.!.!.!.!.!.!.!.!.!.!.!.!.!.!.!.!.!.!.!.!.!.!.!.!.!.!.!.!.!.!.!.!.!.!.!.!.!.!.!.!.!.!.",
"!.!.!.!.!.!.!.!.!.!.!.!.!.!.!.!.!.!.!.!.!.!.!.!.!.!.!.!.!.!.!.!.!.!.!.!.!.!.!.!.!.!.!.!.!.!.!.!.!.!.!.!.!.!.!.!.!.!.!.!.!.!.!.!.!.!.!.!.!.!.!.!.!.!.!.!.!.!.!.!.!.!.!.!.!.!.!.!.!.!.!.!.!.!.!.!.!.!.!.!.!.!.!.!.!.!.!.!.!.!.!.!.!.!.!.!.!.!.!.!.!.!.!.!.!.!.!.!.!.!.!.!.!.!.!.!.!.!.!.!.!.!.!.!.!.!.!.!.!.!.!.!.!.!.!.!.!.!.!.!.!.!.!.!.!.!.!.!.!.!.!.!.!.!.!.!.!.!.!.!.!.!.!.!.!.!.!.!.!.!.!.!.!.!.!.!.!.!.!.!.!.!.!.!.!.!.!.!.!.!.!.!.!.!.!.!.!.!.!.!.!.!.!.!.!.!.!.!.!.!.!.!.!.!.!.!.!.!.!.!.!.!.!.!.!.!.!.!.!.!.!.!.!.!.!.!.!.!.!.!.!.!.!.!.!.!.!.!.!.!.!.!.!.!.!.!.!.!.!.!.!.!.!.!.!.!.!.!.!.!.!.!.!.!.!.!.!.!.!.!.!.!.!.!.!.!.!.!.!.!.!.!.!.!.!.!.!.!.!.!.!.!.!.!.!.!.!.!.!.!.!.!.!.!.!.!.!.!.!.!.!.!.!.!.!.!.!.!.!.!.!.!.!.!.!.!.!.!.!.!.!.!.!.!.!.!.!.!.!.!.!.!.!.!.!.!.!.!.!.!.!.!.!.!.!.!.!.!.!.!.!.!.!.!.!.!.!.!.!.!.!.!.!.!.!.!.!.!.!.!.!.!.!.!.!.!.!.!.!.!.!.!.!.!.!.!.!.!.!.!.!.!.!.!.!.!.!.!.!.!.!.!.!.!.!.!.!.!.!.!.!.!.!.!.!.!.!.!.!.!.!.!.!.!.!.!.!.!.!.!.!.!.!.!.!.!.!.!.!.!.!.!.!.!.!.!.!.!.!.!.!.!.!.!.!.!.!.!.!.!.!.!.!.!.!.!.!.!.!.!.!.!.!.!.!.!.!.!.!.!.!.!.!.!.!.!.!.!.!.!.!.!.!.!.!.!.!.!.!.!.!.!.!.!.!.!.!.!.!.!.!.!.!.!.!.!.!.!.!.!.!.!.!.!.!.!.!.!.!.!.!.!.!.!.!.!.!.!.!.!.!.!.!.",
"!.!.!.!.!.!.!.!.!.!.!.!.!.!.!.!.!.!.!.!.!.!.!.!.!.!.!.!.!.!.!.!.!.!.!.!.!.!.!.!.!.!.!.!.!.!.!.!.!.!.!.!.!.!.!.!.!.!.!.!.!.!.!.!.!.!.!.!.!.!.!.!.!.!.!.!.!.!.!.!.!.!.!.!.!.!.!.!.!.!.!.!.!.!.!.!.!.!.!.!.!.!.!.!.!.!.!.!.!.!.!.!.!.!.!.!.!.!.!.!.!.!.!.!.!.!.!.!.!.!.!.!.!.!.!.!.!.!.!.!.!.!.!.!.!.!.!.!.!.!.!.!.!.!.!.!.!.!.!.!.!.!.!.!.!.!.!.!.!.!.!.!.!.!.!.!.!.!.!.!.!.!.!.!.!.!.!.!.!.!.!.!.!.!.!.!.!.!.!.!.!.!.!.!.!.!.!.!.!.!.!.!.!.!.!.!.!.!.!.!.!.!.!.!.!.!.!.!.!.!.!.!.!.!.!.!.!.!.!.!.!.!.!.!.!.!.!.!.!.!.!.!.!.!.!.!.!.!.!.!.!.!.!.!.!.!.!.!.!.!.!.!.!.!.!.!.!.!.!.!.!.!.!.!.!.!.!.!.!.!.!.!.!.!.!.!.!.!.!.!.!.!.!.!.!.!.!.!.!.!.!.!.!.!.!.!.!.!.!.!.!.!.!.!.!.!.!.!.!.!.!.!.!.!.!.!.!.!.!.!.!.!.!.!.!.!.!.!.!.!.!.!.!.!.!.!.!.!.!.!.!.!.!.!.!.!.!.!.!.!.!.!.!.!.!.!.!.!.!.!.!.!.!.!.!.!.!.!.!.!.!.!.!.!.!.!.!.!.!.!.!.!.!.!.!.!.!.!.!.!.!.!.!.!.!.!.!.!.!.!.!.!.!.!.!.!.!.!.!.!.!.!.!.!.!.!.!.!.!.!.!.!.!.!.!.!.!.!.!.!.!.!.!.!.!.!.!.!.!.!.!.!.!.!.!.!.!.!.!.!.!.!.!.!.!.!.!.!.!.!.!.!.!.!.!.!.!.!.!.!.!.!.!.!.!.!.!.!.!.!.!.!.!.!.!.!.!.!.!.!.!.!.!.!.!.!.!.!.!.!.!.!.!.!.!.!.!.!.!.!.!.!.!.!.!.!.!.!.!.!.!.!.!.!.!.!.!.!.!.!.!.!.!.!.!.!.!.!.!.!.!.!.!.!.!.!.!.!.!.!.!.!.!.!.!.!.!.!.!.!.!.!.!.",
"!.!.!.!.!.!.!.!.!.!.!.!.!.!.!.!.!.!.!.!.!.!.!.!.!.!.!.!.!.!.!.!.!.!.!.!.!.!.!.!.!.!.!.!.!.!.!.!.!.!.!.!.!.!.!.!.!.!.!.!.!.!.!.!.!.!.!.!.!.!.!.!.!.!.!.!.!.!.!.!.!.!.!.!.!.!.!.!.!.!.!.!.!.!.!.!.!.!.!.!.!.!.!.!.!.!.!.!.!.!.!.!.!.!.!.!.!.!.!.!.!.!.!.!.!.!.!.!.!.!.!.!.!.!.!.!.!.!.!.!.!.!.!.!.!.!.!.!.!.!.!.!.!.!.!.!.!.!.!.!.!.!.!.!.!.!.!.!.!.!.!.!.!.!.!.!.!.!.!.!.!.!.!.!.!.!.!.!.!.!.!.!.!.!.!.!.!.!.!.!.!.!.!.!.!.!.!.!.!.!.!.!.!.!.!.!.!.!.!.!.!.!.!.!.!.!.!.!.!.!.!.!.!.!.!.!.!.!.!.!.!.!.!.!.!.!.!.!.!.!.!.!.!.!.!.!.!.!.!.!.!.!.!.!.!.!.!.!.!.!.!.!.!.!.!.!.!.!.!.!.!.!.!.!.!.!.!.!.!.!.!.!.!.!.!.!.!.!.!.!.!.!.!.!.!.!.!.!.!.!.!.!.!.!.!.!.!.!.!.!.!.!.!.!.!.!.!.!.!.!.!.!.!.!.!.!.!.!.!.!.!.!.!.!.!.!.!.!.!.!.!.!.!.!.!.!.!.!.!.!.!.!.!.!.!.!.!.!.!.!.!.!.!.!.!.!.!.!.!.!.!.!.!.!.!.!.!.!.!.!.!.!.!.!.!.!.!.!.!.!.!.!.!.!.!.!.!.!.!.!.!.!.!.!.!.!.!.!.!.!.!.!.!.!.!.!.!.!.!.!.!.!.!.!.!.!.!.!.!.!.!.!.!.!.!.!.!.!.!.!.!.!.!.!.!.!.!.!.!.!.!.!.!.!.!.!.!.!.!.!.!.!.!.!.!.!.!.!.!.!.!.!.!.!.!.!.!.!.!.!.!.!.!.!.!.!.!.!.!.!.!.!.!.!.!.!.!.!.!.!.!.!.!.!.!.!.!.!.!.!.!.!.!.!.!.!.!.!.!.!.!.!.!.!.!.!.!.!.!.!.!.!.!.!.!.!.!.!.!.!.!.!.!.!.!.!.!.!.!.!.!.!.!.!.!.!.!.!.!.!.!.!.!.!.!.!.!.!.!.!.!.!.!.",
"!.!.!.!.!.!.!.!.!.!.!.!.!.!.!.!.!.!.!.!.!.!.!.!.!.!.!.!.!.!.!.!.!.!.!.!.!.!.!.!.!.!.!.!.!.!.!.!.!.!.!.!.!.!.!.!.!.!.!.!.!.!.!.!.!.!.!.!.!.!.!.!.!.!.!.!.!.!.!.!.!.!.!.!.!.!.!.!.!.!.!.!.!.!.!.!.!.!.!.!.!.!.!.!.!.!.!.!.!.!.!.!.!.!.!.!.!.!.!.!.!.!.!.!.!.!.!.!.!.!.!.!.!.!.!.!.!.!.!.!.!.!.!.!.!.!.!.!.!.!.!.!.!.!.!.!.!.!.!.!.!.!.!.!.!.!.!.!.!.!.!.!.!.!.!.!.!.!.!.!.!.!.!.!.!.!.!.!.!.!.!.!.!.!.!.!.!.!.!.!.!.!.!.!.!.!.!.!.!.!.!.!.!.!.!.!.!.!.!.!.!.!.!.!.!.!.!.!.!.!.!.!.!.!.!.!.!.!.!.!.!.!.!.!.!.!.!.!.!.!.!.!.!.!.!.!.!.!.!.!.!.!.!.!.!.!.!.!.!.!.!.!.!.!.!.!.!.!.!.!.!.!.!.!.!.!.!.!.!.!.!.!.!.!.!.!.!.!.!.!.!.!.!.!.!.!.!.!.!.!.!.!.!.!.!.!.!.!.!.!.!.!.!.!.!.!.!.!.!.!.!.!.!.!.!.!.!.!.!.!.!.!.!.!.!.!.!.!.!.!.!.!.!.!.!.!.!.!.!.!.!.!.!.!.!.!.!.!.!.!.!.!.!.!.!.!.!.!.!.!.!.!.!.!.!.!.!.!.!.!.!.!.!.!.!.!.!.!.!.!.!.!.!.!.!.!.!.!.!.!.!.!.!.!.!.!.!.!.!.!.!.!.!.!.!.!.!.!.!.!.!.!.!.!.!.!.!.!.!.!.!.!.!.!.!.!.!.!.!.!.!.!.!.!.!.!.!.!.!.!.!.!.!.!.!.!.!.!.!.!.!.!.!.!.!.!.!.!.!.!.!.!.!.!.!.!.!.!.!.!.!.!.!.!.!.!.!.!.!.!.!.!.!.!.!.!.!.!.!.!.!.!.!.!.!.!.!.!.!.!.!.!.!.!.!.!.!.!.!.!.!.!.!.!.!.!.!.!.!.!.!.!.!.!.!.!.!.!.!.!.!.!.!.!.!.!.!.!.!.!.!.!.!.!.!.!.!.!.!.!.!.!.!.!.!.!.!.!.!.!.!.!.!.",
"!.!.!.!.!.!.!.!.!.!.!.!.!.!.!.!.!.!.!.!.!.!.!.!.!.!.!.!.!.!.!.!.!.!.!.!.!.!.!.!.!.!.!.!.!.!.!.!.!.!.!.!.!.!.!.!.!.!.!.!.!.!.!.!.!.!.!.!.!.!.!.!.!.!.!.!.!.!.!.!.!.!.!.!.!.!.!.!.!.!.!.!.!.!.!.!.!.!.!.!.!.!.!.!.!.!.!.!.!.!.!.!.!.!.!.!.!.!.!.!.!.!.!.!.!.!.!.!.!.!.!.!.!.!.!.!.!.!.!.!.!.!.!.!.!.!.!.!.!.!.!.!.!.!.!.!.!.!.!.!.!.!.!.!.!.!.!.!.!.!.!.!.!.!.!.!.!.!.!.!.!.!.!.!.!.!.!.!.!.!.!.!.!.!.!.!.!.!.!.!.!.!.!.!.!.!.!.!.!.!.!.!.!.!.!.!.!.!.!.!.!.!.!.!.!.!.!.!.!.!.!.!.!.!.!.!.!.!.!.!.!.!.!.!.!.!.!.!.!.!.!.!.!.!.!.!.!.!.!.!.!.!.!.!.!.!.!.!.!.!.!.!.!.!.!.!.!.!.!.!.!.!.!.!.!.!.!.!.!.!.!.!.!.!.!.!.!.!.!.!.!.!.!.!.!.!.!.!.!.!.!.!.!.!.!.!.!.!.!.!.!.!.!.!.!.!.!.!.!.!.!.!.!.!.!.!.!.!.!.!.!.!.!.!.!.!.!.!.!.!.!.!.!.!.!.!.!.!.!.!.!.!.!.!.!.!.!.!.!.!.!.!.!.!.!.!.!.!.!.!.!.!.!.!.!.!.!.!.!.!.!.!.!.!.!.!.!.!.!.!.!.!.!.!.!.!.!.!.!.!.!.!.!.!.!.!.!.!.!.!.!.!.!.!.!.!.!.!.!.!.!.!.!.!.!.!.!.!.!.!.!.!.!.!.!.!.!.!.!.!.!.!.!.!.!.!.!.!.!.!.!.!.!.!.!.!.!.!.!.!.!.!.!.!.!.!.!.!.!.!.!.!.!.!.!.!.!.!.!.!.!.!.!.!.!.!.!.!.!.!.!.!.!.!.!.!.!.!.!.!.!.!.!.!.!.!.!.!.!.!.!.!.!.!.!.!.!.!.!.!.!.!.!.!.!.!.!.!.!.!.!.!.!.!.!.!.!.!.!.!.!.!.!.!.!.!.!.!.!.!.!.!.!.!.!.!.!.!.!.!.!.!.!.!.!.!.!.!.!.!.!.!.!.",
"!.!.!.!.!.!.!.!.!.!.!.!.!.!.!.!.!.!.!.!.!.!.!.!.!.!.!.!.!.!.!.!.!.!.!.!.!.!.!.!.!.!.!.!.!.!.!.!.!.!.!.!.!.!.!.!.!.!.!.!.!.!.!.!.!.!.!.!.!.!.!.!.!.!.!.!.!.!.!.!.!.!.!.!.!.!.!.!.!.!.!.!.!.!.!.!.!.!.!.!.!.!.!.!.!.!.!.!.!.!.!.!.!.!.!.!.!.!.!.!.!.!.!.!.!.!.!.!.!.!.!.!.!.!.!.!.!.!.!.!.!.!.!.!.!.!.!.!.!.!.!.!.!.!.!.!.!.!.!.!.!.!.!.!.!.!.!.!.!.!.!.!.!.!.!.!.!.!.!.!.!.!.!.!.!.!.!.!.!.!.!.!.!.!.!.!.!.!.!.!.!.!.!.!.!.!.!.!.!.!.!.!.!.!.!.!.!.!.!.!.!.!.!.!.!.!.!.!.!.!.!.!.!.!.!.!.!.!.!.!.!.!.!.!.!.!.!.!.!.!.!.!.!.!.!.!.!.!.!.!.!.!.!.!.!.!.!.!.!.!.!.!.!.!.!.!.!.!.!.!.!.!.!.!.!.!.!.!.!.!.!.!.!.!.!.!.!.!.!.!.!.!.!.!.!.!.!.!.!.!.!.!.!.!.!.!.!.!.!.!.!.!.!.!.!.!.!.!.!.!.!.!.!.!.!.!.!.!.!.!.!.!.!.!.!.!.!.!.!.!.!.!.!.!.!.!.!.!.!.!.!.!.!.!.!.!.!.!.!.!.!.!.!.!.!.!.!.!.!.!.!.!.!.!.!.!.!.!.!.!.!.!.!.!.!.!.!.!.!.!.!.!.!.!.!.!.!.!.!.!.!.!.!.!.!.!.!.!.!.!.!.!.!.!.!.!.!.!.!.!.!.!.!.!.!.!.!.!.!.!.!.!.!.!.!.!.!.!.!.!.!.!.!.!.!.!.!.!.!.!.!.!.!.!.!.!.!.!.!.!.!.!.!.!.!.!.!.!.!.!.!.!.!.!.!.!.!.!.!.!.!.!.!.!.!.!.!.!.!.!.!.!.!.!.!.!.!.!.!.!.!.!.!.!.!.!.!.!.!.!.!.!.!.!.!.!.!.!.!.!.!.!.!.!.!.!.!.!.!.!.!.!.!.!.!.!.!.!.!.!.!.!.!.!.!.!.!.!.!.!.!.!.!.!.!.!.!.!.!.!.!.!.!.!.!.!.!.!.!.!.!.!.!.",
"!.!.!.!.!.!.!.!.!.!.!.!.!.!.!.!.!.!.!.!.!.!.!.!.!.!.!.!.!.!.!.!.!.!.!.!.!.!.!.!.!.!.!.!.!.!.!.!.!.!.!.!.!.!.!.!.!.!.!.!.!.!.!.!.!.!.!.!.!.!.!.!.!.!.!.!.!.!.!.!.!.!.!.!.!.!.!.!.!.!.!.!.!.!.!.!.!.!.!.!.!.!.!.!.!.!.!.!.!.!.!.!.!.!.!.!.!.!.!.!.!.!.!.!.!.!.!.!.!.!.!.!.!.!.!.!.!.!.!.!.!.!.!.!.!.!.!.!.!.!.!.!.!.!.!.!.!.!.!.!.!.!.!.!.!.!.!.!.!.!.!.!.!.!.!.!.!.!.!.!.!.!.!.!.!.!.!.!.!.!.!.!.!.!.!.!.!.!.!.!.!.!.!.!.!.!.!.!.!.!.!.!.!.!.!.!.!.!.!.!.!.!.!.!.!.!.!.!.!.!.!.!.!.!.!.!.!.!.!.!.!.!.!.!.!.!.!.!.!.!.!.!.!.!.!.!.!.!.!.!.!.!.!.!.!.!.!.!.!.!.!.!.!.!.!.!.!.!.!.!.!.!.!.!.!.!.!.!.!.!.!.!.!.!.!.!.!.!.!.!.!.!.!.!.!.!.!.!.!.!.!.!.!.!.!.!.!.!.!.!.!.!.!.!.!.!.!.!.!.!.!.!.!.!.!.!.!.!.!.!.!.!.!.!.!.!.!.!.!.!.!.!.!.!.!.!.!.!.!.!.!.!.!.!.!.!.!.!.!.!.!.!.!.!.!.!.!.!.!.!.!.!.!.!.!.!.!.!.!.!.!.!.!.!.!.!.!.!.!.!.!.!.!.!.!.!.!.!.!.!.!.!.!.!.!.!.!.!.!.!.!.!.!.!.!.!.!.!.!.!.!.!.!.!.!.!.!.!.!.!.!.!.!.!.!.!.!.!.!.!.!.!.!.!.!.!.!.!.!.!.!.!.!.!.!.!.!.!.!.!.!.!.!.!.!.!.!.!.!.!.!.!.!.!.!.!.!.!.!.!.!.!.!.!.!.!.!.!.!.!.!.!.!.!.!.!.!.!.!.!.!.!.!.!.!.!.!.!.!.!.!.!.!.!.!.!.!.!.!.!.!.!.!.!.!.!.!.!.!.!.!.!.!.!.!.!.!.!.!.!.!.!.!.!.!.!.!.!.!.!.!.!.!.!.!.!.!.!.!.!.!.!.!.!.!.!.!.!.!.!.!.!.!.",
"!.!.!.!.!.!.!.!.!.!.!.!.!.!.!.!.!.!.!.!.!.!.!.!.!.!.!.!.!.!.!.!.!.!.!.!.!.!.!.!.!.!.!.!.!.!.!.!.!.!.!.!.!.!.!.!.!.!.!.!.!.!.!.!.!.!.!.!.!.!.!.!.!.!.!.!.!.!.!.!.!.!.!.!.!.!.!.!.!.!.!.!.!.!.!.!.!.!.!.!.!.!.!.!.!.!.!.!.!.!.!.!.!.!.!.!.!.!.!.!.!.!.!.!.!.!.!.!.!.!.!.!.!.!.!.!.!.!.!.!.!.!.!.!.!.!.!.!.!.!.!.!.!.!.!.!.!.!.!.!.!.!.!.!.!.!.!.!.!.!.!.!.!.!.!.!.!.!.!.!.!.!.!.!.!.!.!.!.!.!.!.!.!.!.!.!.!.!.!.!.!.!.!.!.!.!.!.!.!.!.!.!.!.!.!.!.!.!.!.!.!.!.!.!.!.!.!.!.!.!.!.!.!.!.!.!.!.!.!.!.!.!.!.!.!.!.!.!.!.!.!.!.!.!.!.!.!.!.!.!.!.!.!.!.!.!.!.!.!.!.!.!.!.!.!.!.!.!.!.!.!.!.!.!.!.!.!.!.!.!.!.!.!.!.!.!.!.!.!.!.!.!.!.!.!.!.!.!.!.!.!.!.!.!.!.!.!.!.!.!.!.!.!.!.!.!.!.!.!.!.!.!.!.!.!.!.!.!.!.!.!.!.!.!.!.!.!.!.!.!.!.!.!.!.!.!.!.!.!.!.!.!.!.!.!.!.!.!.!.!.!.!.!.!.!.!.!.!.!.!.!.!.!.!.!.!.!.!.!.!.!.!.!.!.!.!.!.!.!.!.!.!.!.!.!.!.!.!.!.!.!.!.!.!.!.!.!.!.!.!.!.!.!.!.!.!.!.!.!.!.!.!.!.!.!.!.!.!.!.!.!.!.!.!.!.!.!.!.!.!.!.!.!.!.!.!.!.!.!.!.!.!.!.!.!.!.!.!.!.!.!.!.!.!.!.!.!.!.!.!.!.!.!.!.!.!.!.!.!.!.!.!.!.!.!.!.!.!.!.!.!.!.!.!.!.!.!.!.!.!.!.!.!.!.!.!.!.!.!.!.!.!.!.!.!.!.!.!.!.!.!.!.!.!.!.!.!.!.!.!.!.!.!.!.!.!.!.!.!.!.!.!.!.!.!.!.!.!.!.!.!.!.!.!.!.!.!.!.!.!.!.!.!.!.!.!.!.!.!.!.!.!.!.",
"!.!.!.!.!.!.!.!.!.!.!.!.!.!.!.!.!.!.!.!.!.!.!.!.!.!.!.!.!.!.!.!.!.!.!.!.!.!.!.!.!.!.!.!.!.!.!.!.!.!.!.!.!.!.!.!.!.!.!.!.!.!.!.!.!.!.!.!.!.!.!.!.!.!.!.!.!.!.!.!.!.!.!.!.!.!.!.!.!.!.!.!.!.!.!.!.!.!.!.!.!.!.!.!.!.!.!.!.!.!.!.!.!.!.!.!.!.!.!.!.!.!.!.!.!.!.!.!.!.!.!.!.!.!.!.!.!.!.!.!.!.!.!.!.!.!.!.!.!.!.!.!.!.!.!.!.!.!.!.!.!.!.!.!.!.!.!.!.!.!.!.!.!.!.!.!.!.!.!.!.!.!.!.!.!.!.!.!.!.!.!.!.!.!.!.!.!.!.!.!.!.!.!.!.!.!.!.!.!.!.!.!.!.!.!.!.!.!.!.!.!.!.!.!.!.!.!.!.!.!.!.!.!.!.!.!.!.!.!.!.!.!.!.!.!.!.!.!.!.!.!.!.!.!.!.!.!.!.!.!.!.!.!.!.!.!.!.!.!.!.!.!.!.!.!.!.!.!.!.!.!.!.!.!.!.!.!.!.!.!.!.!.!.!.!.!.!.!.!.!.!.!.!.!.!.!.!.!.!.!.!.!.!.!.!.!.!.!.!.!.!.!.!.!.!.!.!.!.!.!.!.!.!.!.!.!.!.!.!.!.!.!.!.!.!.!.!.!.!.!.!.!.!.!.!.!.!.!.!.!.!.!.!.!.!.!.!.!.!.!.!.!.!.!.!.!.!.!.!.!.!.!.!.!.!.!.!.!.!.!.!.!.!.!.!.!.!.!.!.!.!.!.!.!.!.!.!.!.!.!.!.!.!.!.!.!.!.!.!.!.!.!.!.!.!.!.!.!.!.!.!.!.!.!.!.!.!.!.!.!.!.!.!.!.!.!.!.!.!.!.!.!.!.!.!.!.!.!.!.!.!.!.!.!.!.!.!.!.!.!.!.!.!.!.!.!.!.!.!.!.!.!.!.!.!.!.!.!.!.!.!.!.!.!.!.!.!.!.!.!.!.!.!.!.!.!.!.!.!.!.!.!.!.!.!.!.!.!.!.!.!.!.!.!.!.!.!.!.!.!.!.!.!.!.!.!.!.!.!.!.!.!.!.!.!.!.!.!.!.!.!.!.!.!.!.!.!.!.!.!.!.!.!.!.!.!.!.!.!.!.!.!.!.!.!.!.!.!.!.!.!.!.!.",
"!.!.!.!.!.!.!.!.!.!.!.!.!.!.!.!.!.!.!.!.!.!.!.!.!.!.!.!.!.!.!.!.!.!.!.!.!.!.!.!.!.!.!.!.!.!.!.!.!.!.!.!.!.!.!.!.!.!.!.!.!.!.!.!.!.!.!.!.!.!.!.!.!.!.!.!.!.!.!.!.!.!.!.!.!.!.!.!.!.!.!.!.!.!.!.!.!.!.!.!.!.!.!.!.!.!.!.!.!.!.!.!.!.!.!.!.!.!.!.!.!.!.!.!.!.!.!.!.!.!.!.!.!.!.!.!.!.!.!.!.!.!.!.!.!.!.!.!.!.!.!.!.!.!.!.!.!.!.!.!.!.!.!.!.!.!.!.!.!.!.!.!.!.!.!.!.!.!.!.!.!.!.!.!.!.!.!.!.!.!.!.!.!.!.!.!.!.!.!.!.!.!.!.!.!.!.!.!.!.!.!.!.!.!.!.!.!.!.!.!.!.!.!.!.!.!.!.!.!.!.!.!.!.!.!.!.!.!.!.!.!.!.!.!.!.!.!.!.!.!.!.!.!.!.!.!.!.!.!.!.!.!.!.!.!.!.!.!.!.!.!.!.!.!.!.!.!.!.!.!.!.!.!.!.!.!.!.!.!.!.!.!.!.!.!.!.!.!.!.!.!.!.!.!.!.!.!.!.!.!.!.!.!.!.!.!.!.!.!.!.!.!.!.!.!.!.!.!.!.!.!.!.!.!.!.!.!.!.!.!.!.!.!.!.!.!.!.!.!.!.!.!.!.!.!.!.!.!.!.!.!.!.!.!.!.!.!.!.!.!.!.!.!.!.!.!.!.!.!.!.!.!.!.!.!.!.!.!.!.!.!.!.!.!.!.!.!.!.!.!.!.!.!.!.!.!.!.!.!.!.!.!.!.!.!.!.!.!.!.!.!.!.!.!.!.!.!.!.!.!.!.!.!.!.!.!.!.!.!.!.!.!.!.!.!.!.!.!.!.!.!.!.!.!.!.!.!.!.!.!.!.!.!.!.!.!.!.!.!.!.!.!.!.!.!.!.!.!.!.!.!.!.!.!.!.!.!.!.!.!.!.!.!.!.!.!.!.!.!.!.!.!.!.!.!.!.!.!.!.!.!.!.!.!.!.!.!.!.!.!.!.!.!.!.!.!.!.!.!.!.!.!.!.!.!.!.!.!.!.!.!.!.!.!.!.!.!.!.!.!.!.!.!.!.!.!.!.!.!.!.!.!.!.!.!.!.!.!.!.!.!.!.!.!.!.!.!.!.!.!.!.!.!.",
"!.!.!.!.!.!.!.!.!.!.!.!.!.!.!.!.!.!.!.!.!.!.!.!.!.!.!.!.!.!.!.!.!.!.!.!.!.!.!.!.!.!.!.!.!.!.!.!.!.!.!.!.!.!.!.!.!.!.!.!.!.!.!.!.!.!.!.!.!.!.!.!.!.!.!.!.!.!.!.!.!.!.!.!.!.!.!.!.!.!.!.!.!.!.!.!.!.!.!.!.!.!.!.!.!.!.!.!.!.!.!.!.!.!.!.!.!.!.!.!.!.!.!.!.!.!.!.!.!.!.!.!.!.!.!.!.!.!.!.!.!.!.!.!.!.!.!.!.!.!.!.!.!.!.!.!.!.!.!.!.!.!.!.!.!.!.!.!.!.!.!.!.!.!.!.!.!.!.!.!.!.!.!.!.!.!.!.!.!.!.!.!.!.!.!.!.!.!.!.!.!.!.!.!.!.!.!.!.!.!.!.!.!.!.!.!.!.!.!.!.!.!.!.!.!.!.!.!.!.!.!.!.!.!.!.!.!.!.!.!.!.!.!.!.!.!.!.!.!.!.!.!.!.!.!.!.!.!.!.!.!.!.!.!.!.!.!.!.!.!.!.!.!.!.!.!.!.!.!.!.!.!.!.!.!.!.!.!.!.!.!.!.!.!.!.!.!.!.!.!.!.!.!.!.!.!.!.!.!.!.!.!.!.!.!.!.!.!.!.!.!.!.!.!.!.!.!.!.!.!.!.!.!.!.!.!.!.!.!.!.!.!.!.!.!.!.!.!.!.!.!.!.!.!.!.!.!.!.!.!.!.!.!.!.!.!.!.!.!.!.!.!.!.!.!.!.!.!.!.!.!.!.!.!.!.!.!.!.!.!.!.!.!.!.!.!.!.!.!.!.!.!.!.!.!.!.!.!.!.!.!.!.!.!.!.!.!.!.!.!.!.!.!.!.!.!.!.!.!.!.!.!.!.!.!.!.!.!.!.!.!.!.!.!.!.!.!.!.!.!.!.!.!.!.!.!.!.!.!.!.!.!.!.!.!.!.!.!.!.!.!.!.!.!.!.!.!.!.!.!.!.!.!.!.!.!.!.!.!.!.!.!.!.!.!.!.!.!.!.!.!.!.!.!.!.!.!.!.!.!.!.!.!.!.!.!.!.!.!.!.!.!.!.!.!.!.!.!.!.!.!.!.!.!.!.!.!.!.!.!.!.!.!.!.!.!.!.!.!.!.!.!.!.!.!.!.!.!.!.!.!.!.!.!.!.!.!.!.!.!.!.!.!.!.!.!.!.!.!.!.!.!.!.",
"!.!.!.!.!.!.!.!.!.!.!.!.!.!.!.!.!.!.!.!.!.!.!.!.!.!.!.!.!.!.!.!.!.!.!.!.!.!.!.!.!.!.!.!.!.!.!.!.!.!.!.!.!.!.!.!.!.!.!.!.!.!.!.!.!.!.!.!.!.!.!.!.!.!.!.!.!.!.!.!.!.!.!.!.!.!.!.!.!.!.!.!.!.!.!.!.!.!.!.!.!.!.!.!.!.!.!.!.!.!.!.!.!.!.!.!.!.!.!.!.!.!.!.!.!.!.!.!.!.!.!.!.!.!.!.!.!.!.!.!.!.!.!.!.!.!.!.!.!.!.!.!.!.!.!.!.!.!.!.!.!.!.!.!.!.!.!.!.!.!.!.!.!.!.!.!.!.!.!.!.!.!.!.!.!.!.!.!.!.!.!.!.!.!.!.!.!.!.!.!.!.!.!.!.!.!.!.!.!.!.!.!.!.!.!.!.!.!.!.!.!.!.!.!.!.!.!.!.!.!.!.!.!.!.!.!.!.!.!.!.!.!.!.!.!.!.!.!.!.!.!.!.!.!.!.!.!.!.!.!.!.!.!.!.!.!.!.!.!.!.!.!.!.!.!.!.!.!.!.!.!.!.!.!.!.!.!.!.!.!.!.!.!.!.!.!.!.!.!.!.!.!.!.!.!.!.!.!.!.!.!.!.!.!.!.!.!.!.!.!.!.!.!.!.!.!.!.!.!.!.!.!.!.!.!.!.!.!.!.!.!.!.!.!.!.!.!.!.!.!.!.!.!.!.!.!.!.!.!.!.!.!.!.!.!.!.!.!.!.!.!.!.!.!.!.!.!.!.!.!.!.!.!.!.!.!.!.!.!.!.!.!.!.!.!.!.!.!.!.!.!.!.!.!.!.!.!.!.!.!.!.!.!.!.!.!.!.!.!.!.!.!.!.!.!.!.!.!.!.!.!.!.!.!.!.!.!.!.!.!.!.!.!.!.!.!.!.!.!.!.!.!.!.!.!.!.!.!.!.!.!.!.!.!.!.!.!.!.!.!.!.!.!.!.!.!.!.!.!.!.!.!.!.!.!.!.!.!.!.!.!.!.!.!.!.!.!.!.!.!.!.!.!.!.!.!.!.!.!.!.!.!.!.!.!.!.!.!.!.!.!.!.!.!.!.!.!.!.!.!.!.!.!.!.!.!.!.!.!.!.!.!.!.!.!.!.!.!.!.!.!.!.!.!.!.!.!.!.!.!.!.!.!.!.!.!.!.!.!.!.!.!.!.!.!.!.!.!.!.!.!.!.!.",
"!.!.!.!.!.!.!.!.!.!.!.!.!.!.!.!.!.!.!.!.!.!.!.!.!.!.!.!.!.!.!.!.!.!.!.!.!.!.!.!.!.!.!.!.!.!.!.!.!.!.!.!.!.!.!.!.!.!.!.!.!.!.!.!.!.!.!.!.!.!.!.!.!.!.!.!.!.!.!.!.!.!.!.!.!.!.!.!.!.!.!.!.!.!.!.!.!.!.!.!.!.!.!.!.!.!.!.!.!.!.!.!.!.!.!.!.!.!.!.!.!.!.!.!.!.!.!.!.!.!.!.!.!.!.!.!.!.!.!.!.!.!.!.!.!.!.!.!.!.!.!.!.!.!.!.!.!.!.!.!.!.!.!.!.!.!.!.!.!.!.!.!.!.!.!.!.!.!.!.!.!.!.!.!.!.!.!.!.!.!.!.!.!.!.!.!.!.!.!.!.!.!.!.!.!.!.!.!.!.!.!.!.!.!.!.!.!.!.!.!.!.!.!.!.!.!.!.!.!.!.!.!.!.!.!.!.!.!.!.!.!.!.!.!.!.!.!.!.!.!.!.!.!.!.!.!.!.!.!.!.!.!.!.!.!.!.!.!.!.!.!.!.!.!.!.!.!.!.!.!.!.!.!.!.!.!.!.!.!.!.!.!.!.!.!.!.!.!.!.!.!.!.!.!.!.!.!.!.!.!.!.!.!.!.!.!.!.!.!.!.!.!.!.!.!.!.!.!.!.!.!.!.!.!.!.!.!.!.!.!.!.!.!.!.!.!.!.!.!.!.!.!.!.!.!.!.!.!.!.!.!.!.!.!.!.!.!.!.!.!.!.!.!.!.!.!.!.!.!.!.!.!.!.!.!.!.!.!.!.!.!.!.!.!.!.!.!.!.!.!.!.!.!.!.!.!.!.!.!.!.!.!.!.!.!.!.!.!.!.!.!.!.!.!.!.!.!.!.!.!.!.!.!.!.!.!.!.!.!.!.!.!.!.!.!.!.!.!.!.!.!.!.!.!.!.!.!.!.!.!.!.!.!.!.!.!.!.!.!.!.!.!.!.!.!.!.!.!.!.!.!.!.!.!.!.!.!.!.!.!.!.!.!.!.!.!.!.!.!.!.!.!.!.!.!.!.!.!.!.!.!.!.!.!.!.!.!.!.!.!.!.!.!.!.!.!.!.!.!.!.!.!.!.!.!.!.!.!.!.!.!.!.!.!.!.!.!.!.!.!.!.!.!.!.!.!.!.!.!.!.!.!.!.!.!.!.!.!.!.!.!.!.!.!.!.!.!.!.!.!.!.!.!.",
"!.!.!.!.!.!.!.!.!.!.!.!.!.!.!.!.!.!.!.!.!.!.!.!.!.!.!.!.!.!.!.!.!.!.!.!.!.!.!.!.!.!.!.!.!.!.!.!.!.!.!.!.!.!.!.!.!.!.!.!.!.!.!.!.!.!.!.!.!.!.!.!.!.!.!.!.!.!.!.!.!.!.!.!.!.!.!.!.!.!.!.!.!.!.!.!.!.!.!.!.!.!.!.!.!.!.!.!.!.!.!.!.!.!.!.!.!.!.!.!.!.!.!.!.!.!.!.!.!.!.!.!.!.!.!.!.!.!.!.!.!.!.!.!.!.!.!.!.!.!.!.!.!.!.!.!.!.!.!.!.!.!.!.!.!.!.!.!.!.!.!.!.!.!.!.!.!.!.!.!.!.!.!.!.!.!.!.!.!.!.!.!.!.!.!.!.!.!.!.!.!.!.!.!.!.!.!.!.!.!.!.!.!.!.!.!.!.!.!.!.!.!.!.!.!.!.!.!.!.!.!.!.!.!.!.!.!.!.!.!.!.!.!.!.!.!.!.!.!.!.!.!.!.!.!.!.!.!.!.!.!.!.!.!.!.!.!.!.!.!.!.!.!.!.!.!.!.!.!.!.!.!.!.!.!.!.!.!.!.!.!.!.!.!.!.!.!.!.!.!.!.!.!.!.!.!.!.!.!.!.!.!.!.!.!.!.!.!.!.!.!.!.!.!.!.!.!.!.!.!.!.!.!.!.!.!.!.!.!.!.!.!.!.!.!.!.!.!.!.!.!.!.!.!.!.!.!.!.!.!.!.!.!.!.!.!.!.!.!.!.!.!.!.!.!.!.!.!.!.!.!.!.!.!.!.!.!.!.!.!.!.!.!.!.!.!.!.!.!.!.!.!.!.!.!.!.!.!.!.!.!.!.!.!.!.!.!.!.!.!.!.!.!.!.!.!.!.!.!.!.!.!.!.!.!.!.!.!.!.!.!.!.!.!.!.!.!.!.!.!.!.!.!.!.!.!.!.!.!.!.!.!.!.!.!.!.!.!.!.!.!.!.!.!.!.!.!.!.!.!.!.!.!.!.!.!.!.!.!.!.!.!.!.!.!.!.!.!.!.!.!.!.!.!.!.!.!.!.!.!.!.!.!.!.!.!.!.!.!.!.!.!.!.!.!.!.!.!.!.!.!.!.!.!.!.!.!.!.!.!.!.!.!.!.!.!.!.!.!.!.!.!.!.!.!.!.!.!.!.!.!.!.!.!.!.!.!.!.!.!.!.!.!.!.!.!.!.!.!.!.!.!.!.",
"!.!.!.!.!.!.!.!.!.!.!.!.!.!.!.!.!.!.!.!.!.!.!.!.!.!.!.!.!.!.!.!.!.!.!.!.!.!.!.!.!.!.!.!.!.!.!.!.!.!.!.!.!.!.!.!.!.!.!.!.!.!.!.!.!.!.!.!.!.!.!.!.!.!.!.!.!.!.!.!.!.!.!.!.!.!.!.!.!.!.!.!.!.!.!.!.!.!.!.!.!.!.!.!.!.!.!.!.!.!.!.!.!.!.!.!.!.!.!.!.!.!.!.!.!.!.!.!.!.!.!.!.!.!.!.!.!.!.!.!.!.!.!.!.!.!.!.!.!.!.!.!.!.!.!.!.!.!.!.!.!.!.!.!.!.!.!.!.!.!.!.!.!.!.!.!.!.!.!.!.!.!.!.!.!.!.!.!.!.!.!.!.!.!.!.!.!.!.!.!.!.!.!.!.!.!.!.!.!.!.!.!.!.!.!.!.!.!.!.!.!.!.!.!.!.!.!.!.!.!.!.!.!.!.!.!.!.!.!.!.!.!.!.!.!.!.!.!.!.!.!.!.!.!.!.!.!.!.!.!.!.!.!.!.!.!.!.!.!.!.!.!.!.!.!.!.!.!.!.!.!.!.!.!.!.!.!.!.!.!.!.!.!.!.!.!.!.!.!.!.!.!.!.!.!.!.!.!.!.!.!.!.!.!.!.!.!.!.!.!.!.!.!.!.!.!.!.!.!.!.!.!.!.!.!.!.!.!.!.!.!.!.!.!.!.!.!.!.!.!.!.!.!.!.!.!.!.!.!.!.!.!.!.!.!.!.!.!.!.!.!.!.!.!.!.!.!.!.!.!.!.!.!.!.!.!.!.!.!.!.!.!.!.!.!.!.!.!.!.!.!.!.!.!.!.!.!.!.!.!.!.!.!.!.!.!.!.!.!.!.!.!.!.!.!.!.!.!.!.!.!.!.!.!.!.!.!.!.!.!.!.!.!.!.!.!.!.!.!.!.!.!.!.!.!.!.!.!.!.!.!.!.!.!.!.!.!.!.!.!.!.!.!.!.!.!.!.!.!.!.!.!.!.!.!.!.!.!.!.!.!.!.!.!.!.!.!.!.!.!.!.!.!.!.!.!.!.!.!.!.!.!.!.!.!.!.!.!.!.!.!.!.!.!.!.!.!.!.!.!.!.!.!.!.!.!.!.!.!.!.!.!.!.!.!.!.!.!.!.!.!.!.!.!.!.!.!.!.!.!.!.!.!.!.!.!.!.!.!.!.!.!.!.!.!.!.!.!.!.!.!.!.!.",
"!.!.!.!.!.!.!.!.!.!.!.!.!.!.!.!.!.!.!.!.!.!.!.!.!.!.!.!.!.!.!.!.!.!.!.!.!.!.!.!.!.!.!.!.!.!.!.!.!.!.!.!.!.!.!.!.!.!.!.!.!.!.!.!.!.!.!.!.!.!.!.!.!.!.!.!.!.!.!.!.!.!.!.!.!.!.!.!.!.!.!.!.!.!.!.!.!.!.!.!.!.!.!.!.!.!.!.!.!.!.!.!.!.!.!.!.!.!.!.!.!.!.!.!.!.!.!.!.!.!.!.!.!.!.!.!.!.!.!.!.!.!.!.!.!.!.!.!.!.!.!.!.!.!.!.!.!.!.!.!.!.!.!.!.!.!.!.!.!.!.!.!.!.!.!.!.!.!.!.!.!.!.!.!.!.!.!.!.!.!.!.!.!.!.!.!.!.!.!.!.!.!.!.!.!.!.!.!.!.!.!.!.!.!.!.!.!.!.!.!.!.!.!.!.!.!.!.!.!.!.!.!.!.!.!.!.!.!.!.!.!.!.!.!.!.!.!.!.!.!.!.!.!.!.!.!.!.!.!.!.!.!.!.!.!.!.!.!.!.!.!.!.!.!.!.!.!.!.!.!.!.!.!.!.!.!.!.!.!.!.!.!.!.!.!.!.!.!.!.!.!.!.!.!.!.!.!.!.!.!.!.!.!.!.!.!.!.!.!.!.!.!.!.!.!.!.!.!.!.!.!.!.!.!.!.!.!.!.!.!.!.!.!.!.!.!.!.!.!.!.!.!.!.!.!.!.!.!.!.!.!.!.!.!.!.!.!.!.!.!.!.!.!.!.!.!.!.!.!.!.!.!.!.!.!.!.!.!.!.!.!.!.!.!.!.!.!.!.!.!.!.!.!.!.!.!.!.!.!.!.!.!.!.!.!.!.!.!.!.!.!.!.!.!.!.!.!.!.!.!.!.!.!.!.!.!.!.!.!.!.!.!.!.!.!.!.!.!.!.!.!.!.!.!.!.!.!.!.!.!.!.!.!.!.!.!.!.!.!.!.!.!.!.!.!.!.!.!.!.!.!.!.!.!.!.!.!.!.!.!.!.!.!.!.!.!.!.!.!.!.!.!.!.!.!.!.!.!.!.!.!.!.!.!.!.!.!.!.!.!.!.!.!.!.!.!.!.!.!.!.!.!.!.!.!.!.!.!.!.!.!.!.!.!.!.!.!.!.!.!.!.!.!.!.!.!.!.!.!.!.!.!.!.!.!.!.!.!.!.!.!.!.!.!.!.!.!.!.!.!.!.!.!.",
"!.!.!.!.!.!.!.!.!.!.!.!.!.!.!.!.!.!.!.!.!.!.!.!.!.!.!.!.!.!.!.!.!.!.!.!.!.!.!.!.!.!.!.!.!.!.!.!.!.!.!.!.!.!.!.!.!.!.!.!.!.!.!.!.!.!.!.!.!.!.!.!.!.!.!.!.!.!.!.!.!.!.!.!.!.!.!.!.!.!.!.!.!.!.!.!.!.!.!.!.!.!.!.!.!.!.!.!.!.!.!.!.!.!.!.!.!.!.!.!.!.!.!.!.!.!.!.!.!.!.!.!.!.!.!.!.!.!.!.!.!.!.!.!.!.!.!.!.!.!.!.!.!.!.!.!.!.!.!.!.!.!.!.!.!.!.!.!.!.!.!.!.!.!.!.!.!.!.!.!.!.!.!.!.!.!.!.!.!.!.!.!.!.!.!.!.!.!.!.!.!.!.!.!.!.!.!.!.!.!.!.!.!.!.!.!.!.!.!.!.!.!.!.!.!.!.!.!.!.!.!.!.!.!.!.!.!.!.!.!.!.!.!.!.!.!.!.!.!.!.!.!.!.!.!.!.!.!.!.!.!.!.!.!.!.!.!.!.!.!.!.!.!.!.!.!.!.!.!.!.!.!.!.!.!.!.!.!.!.!.!.!.!.!.!.!.!.!.!.!.!.!.!.!.!.!.!.!.!.!.!.!.!.!.!.!.!.!.!.!.!.!.!.!.!.!.!.!.!.!.!.!.!.!.!.!.!.!.!.!.!.!.!.!.!.!.!.!.!.!.!.!.!.!.!.!.!.!.!.!.!.!.!.!.!.!.!.!.!.!.!.!.!.!.!.!.!.!.!.!.!.!.!.!.!.!.!.!.!.!.!.!.!.!.!.!.!.!.!.!.!.!.!.!.!.!.!.!.!.!.!.!.!.!.!.!.!.!.!.!.!.!.!.!.!.!.!.!.!.!.!.!.!.!.!.!.!.!.!.!.!.!.!.!.!.!.!.!.!.!.!.!.!.!.!.!.!.!.!.!.!.!.!.!.!.!.!.!.!.!.!.!.!.!.!.!.!.!.!.!.!.!.!.!.!.!.!.!.!.!.!.!.!.!.!.!.!.!.!.!.!.!.!.!.!.!.!.!.!.!.!.!.!.!.!.!.!.!.!.!.!.!.!.!.!.!.!.!.!.!.!.!.!.!.!.!.!.!.!.!.!.!.!.!.!.!.!.!.!.!.!.!.!.!.!.!.!.!.!.!.!.!.!.!.!.!.!.!.!.!.!.!.!.!.!.!.!.!.!.!.!.!.!.",
"!.!.!.!.!.!.!.!.!.!.!.!.!.!.!.!.!.!.!.!.!.!.!.!.!.!.!.!.!.!.!.!.!.!.!.!.!.!.!.!.!.!.!.!.!.!.!.!.!.!.!.!.!.!.!.!.!.!.!.!.!.!.!.!.!.!.!.!.!.!.!.!.!.!.!.!.!.!.!.!.!.!.!.!.!.!.!.!.!.!.!.!.!.!.!.!.!.!.!.!.!.!.!.!.!.!.!.!.!.!.!.!.!.!.!.!.!.!.!.!.!.!.!.!.!.!.!.!.!.!.!.!.!.!.!.!.!.!.!.!.!.!.!.!.!.!.!.!.!.!.!.!.!.!.!.!.!.!.!.!.!.!.!.!.!.!.!.!.!.!.!.!.!.!.!.!.!.!.!.!.!.!.!.!.!.!.!.!.!.!.!.!.!.!.!.!.!.!.!.!.!.!.!.!.!.!.!.!.!.!.!.!.!.!.!.!.!.!.!.!.!.!.!.!.!.!.!.!.!.!.!.!.!.!.!.!.!.!.!.!.!.!.!.!.!.!.!.!.!.!.!.!.!.!.!.!.!.!.!.!.!.!.!.!.!.!.!.!.!.!.!.!.!.!.!.!.!.!.!.!.!.!.!.!.!.!.!.!.!.!.!.!.!.!.!.!.!.!.!.!.!.!.!.!.!.!.!.!.!.!.!.!.!.!.!.!.!.!.!.!.!.!.!.!.!.!.!.!.!.!.!.!.!.!.!.!.!.!.!.!.!.!.!.!.!.!.!.!.!.!.!.!.!.!.!.!.!.!.!.!.!.!.!.!.!.!.!.!.!.!.!.!.!.!.!.!.!.!.!.!.!.!.!.!.!.!.!.!.!.!.!.!.!.!.!.!.!.!.!.!.!.!.!.!.!.!.!.!.!.!.!.!.!.!.!.!.!.!.!.!.!.!.!.!.!.!.!.!.!.!.!.!.!.!.!.!.!.!.!.!.!.!.!.!.!.!.!.!.!.!.!.!.!.!.!.!.!.!.!.!.!.!.!.!.!.!.!.!.!.!.!.!.!.!.!.!.!.!.!.!.!.!.!.!.!.!.!.!.!.!.!.!.!.!.!.!.!.!.!.!.!.!.!.!.!.!.!.!.!.!.!.!.!.!.!.!.!.!.!.!.!.!.!.!.!.!.!.!.!.!.!.!.!.!.!.!.!.!.!.!.!.!.!.!.!.!.!.!.!.!.!.!.!.!.!.!.!.!.!.!.!.!.!.!.!.!.!.!.!.!.!.!.!.!.!.!.!.!.!.!.!.!.!.",
"!.!.!.!.!.!.!.!.!.!.!.!.!.!.!.!.!.!.!.!.!.!.!.!.!.!.!.!.!.!.!.!.!.!.!.!.!.!.!.!.!.!.!.!.!.!.!.!.!.!.!.!.!.!.!.!.!.!.!.!.!.!.!.!.!.!.!.!.!.!.!.!.!.!.!.!.!.!.!.!.!.!.!.!.!.!.!.!.!.!.!.!.!.!.!.!.!.!.!.!.!.!.!.!.!.!.!.!.!.!.!.!.!.!.!.!.!.!.!.!.!.!.!.!.!.!.!.!.!.!.!.!.!.!.!.!.!.!.!.!.!.!.!.!.!.!.!.!.!.!.!.!.!.!.!.!.!.!.!.!.!.!.!.!.!.!.!.!.!.!.!.!.!.!.!.!.!.!.!.!.!.!.!.!.!.!.!.!.!.!.!.!.!.!.!.!.!.!.!.!.!.!.!.!.!.!.!.!.!.!.!.!.!.!.!.!.!.!.!.!.!.!.!.!.!.!.!.!.!.!.!.!.!.!.!.!.!.!.!.!.!.!.!.!.!.!.!.!.!.!.!.!.!.!.!.!.!.!.!.!.!.!.!.!.!.!.!.!.!.!.!.!.!.!.!.!.!.!.!.!.!.!.!.!.!.!.!.!.!.!.!.!.!.!.!.!.!.!.!.!.!.!.!.!.!.!.!.!.!.!.!.!.!.!.!.!.!.!.!.!.!.!.!.!.!.!.!.!.!.!.!.!.!.!.!.!.!.!.!.!.!.!.!.!.!.!.!.!.!.!.!.!.!.!.!.!.!.!.!.!.!.!.!.!.!.!.!.!.!.!.!.!.!.!.!.!.!.!.!.!.!.!.!.!.!.!.!.!.!.!.!.!.!.!.!.!.!.!.!.!.!.!.!.!.!.!.!.!.!.!.!.!.!.!.!.!.!.!.!.!.!.!.!.!.!.!.!.!.!.!.!.!.!.!.!.!.!.!.!.!.!.!.!.!.!.!.!.!.!.!.!.!.!.!.!.!.!.!.!.!.!.!.!.!.!.!.!.!.!.!.!.!.!.!.!.!.!.!.!.!.!.!.!.!.!.!.!.!.!.!.!.!.!.!.!.!.!.!.!.!.!.!.!.!.!.!.!.!.!.!.!.!.!.!.!.!.!.!.!.!.!.!.!.!.!.!.!.!.!.!.!.!.!.!.!.!.!.!.!.!.!.!.!.!.!.!.!.!.!.!.!.!.!.!.!.!.!.!.!.!.!.!.!.!.!.!.!.!.!.!.!.!.!.!.!.!.!.!.!.!.!.!.!.",
"!.!.!.!.!.!.!.!.!.!.!.!.!.!.!.!.!.!.!.!.!.!.!.!.!.!.!.!.!.!.!.!.!.!.!.!.!.!.!.!.!.!.!.!.!.!.!.!.!.!.!.!.!.!.!.!.!.!.!.!.!.!.!.!.!.!.!.!.!.!.!.!.!.!.!.!.!.!.!.!.!.!.!.!.!.!.!.!.!.!.!.!.!.!.!.!.!.!.!.!.!.!.!.!.!.!.!.!.!.!.!.!.!.!.!.!.!.!.!.!.!.!.!.!.!.!.!.!.!.!.!.!.!.!.!.!.!.!.!.!.!.!.!.!.!.!.!.!.!.!.!.!.!.!.!.!.!.!.!.!.!.!.!.!.!.!.!.!.!.!.!.!.!.!.!.!.!.!.!.!.!.!.!.!.!.!.!.!.!.!.!.!.!.!.!.!.!.!.!.!.!.!.!.!.!.!.!.!.!.!.!.!.!.!.!.!.!.!.!.!.!.!.!.!.!.!.!.!.!.!.!.!.!.!.!.!.!.!.!.!.!.!.!.!.!.!.!.!.!.!.!.!.!.!.!.!.!.!.!.!.!.!.!.!.!.!.!.!.!.!.!.!.!.!.!.!.!.!.!.!.!.!.!.!.!.!.!.!.!.!.!.!.!.!.!.!.!.!.!.!.!.!.!.!.!.!.!.!.!.!.!.!.!.!.!.!.!.!.!.!.!.!.!.!.!.!.!.!.!.!.!.!.!.!.!.!.!.!.!.!.!.!.!.!.!.!.!.!.!.!.!.!.!.!.!.!.!.!.!.!.!.!.!.!.!.!.!.!.!.!.!.!.!.!.!.!.!.!.!.!.!.!.!.!.!.!.!.!.!.!.!.!.!.!.!.!.!.!.!.!.!.!.!.!.!.!.!.!.!.!.!.!.!.!.!.!.!.!.!.!.!.!.!.!.!.!.!.!.!.!.!.!.!.!.!.!.!.!.!.!.!.!.!.!.!.!.!.!.!.!.!.!.!.!.!.!.!.!.!.!.!.!.!.!.!.!.!.!.!.!.!.!.!.!.!.!.!.!.!.!.!.!.!.!.!.!.!.!.!.!.!.!.!.!.!.!.!.!.!.!.!.!.!.!.!.!.!.!.!.!.!.!.!.!.!.!.!.!.!.!.!.!.!.!.!.!.!.!.!.!.!.!.!.!.!.!.!.!.!.!.!.!.!.!.!.!.!.!.!.!.!.!.!.!.!.!.!.!.!.!.!.!.!.!.!.!.!.!.!.!.!.!.!.!.!.!.!.!.!.!.!.!.!.",
"!.!.!.!.!.!.!.!.!.!.!.!.!.!.!.!.!.!.!.!.!.!.!.!.!.!.!.!.!.!.!.!.!.!.!.!.!.!.!.!.!.!.!.!.!.!.!.!.!.!.!.!.!.!.!.!.!.!.!.!.!.!.!.!.!.!.!.!.!.!.!.!.!.!.!.!.!.!.!.!.!.!.!.!.!.!.!.!.!.!.!.!.!.!.!.!.!.!.!.!.!.!.!.!.!.!.!.!.!.!.!.!.!.!.!.!.!.!.!.!.!.!.!.!.!.!.!.!.!.!.!.!.!.!.!.!.!.!.!.!.!.!.!.!.!.!.!.!.!.!.!.!.!.!.!.!.!.!.!.!.!.!.!.!.!.!.!.!.!.!.!.!.!.!.!.!.!.!.!.!.!.!.!.!.!.!.!.!.!.!.!.!.!.!.!.!.!.!.!.!.!.!.!.!.!.!.!.!.!.!.!.!.!.!.!.!.!.!.!.!.!.!.!.!.!.!.!.!.!.!.!.!.!.!.!.!.!.!.!.!.!.!.!.!.!.!.!.!.!.!.!.!.!.!.!.!.!.!.!.!.!.!.!.!.!.!.!.!.!.!.!.!.!.!.!.!.!.!.!.!.!.!.!.!.!.!.!.!.!.!.!.!.!.!.!.!.!.!.!.!.!.!.!.!.!.!.!.!.!.!.!.!.!.!.!.!.!.!.!.!.!.!.!.!.!.!.!.!.!.!.!.!.!.!.!.!.!.!.!.!.!.!.!.!.!.!.!.!.!.!.!.!.!.!.!.!.!.!.!.!.!.!.!.!.!.!.!.!.!.!.!.!.!.!.!.!.!.!.!.!.!.!.!.!.!.!.!.!.!.!.!.!.!.!.!.!.!.!.!.!.!.!.!.!.!.!.!.!.!.!.!.!.!.!.!.!.!.!.!.!.!.!.!.!.!.!.!.!.!.!.!.!.!.!.!.!.!.!.!.!.!.!.!.!.!.!.!.!.!.!.!.!.!.!.!.!.!.!.!.!.!.!.!.!.!.!.!.!.!.!.!.!.!.!.!.!.!.!.!.!.!.!.!.!.!.!.!.!.!.!.!.!.!.!.!.!.!.!.!.!.!.!.!.!.!.!.!.!.!.!.!.!.!.!.!.!.!.!.!.!.!.!.!.!.!.!.!.!.!.!.!.!.!.!.!.!.!.!.!.!.!.!.!.!.!.!.!.!.!.!.!.!.!.!.!.!.!.!.!.!.!.!.!.!.!.!.!.!.!.!.!.!.!.!.!.!.!.!.!.!.!.!.!.",
"!.!.!.!.!.!.!.!.!.!.!.!.!.!.!.!.!.!.!.!.!.!.!.!.!.!.!.!.!.!.!.!.!.!.!.!.!.!.!.!.!.!.!.!.!.!.!.!.!.!.!.!.!.!.!.!.!.!.!.!.!.!.!.!.!.!.!.!.!.!.!.!.!.!.!.!.!.!.!.!.!.!.!.!.!.!.!.!.!.!.!.!.!.!.!.!.!.!.!.!.!.!.!.!.!.!.!.!.!.!.!.!.!.!.!.!.!.!.!.!.!.!.!.!.!.!.!.!.!.!.!.!.!.!.!.!.!.!.!.!.!.!.!.!.!.!.!.!.!.!.!.!.!.!.!.!.!.!.!.!.!.!.!.!.!.!.!.!.!.!.!.!.!.!.!.!.!.!.!.!.!.!.!.!.!.!.!.!.!.!.!.!.!.!.!.!.!.!.!.!.!.!.!.!.!.!.!.!.!.!.!.!.!.!.!.!.!.!.!.!.!.!.!.!.!.!.!.!.!.!.!.!.!.!.!.!.!.!.!.!.!.!.!.!.!.!.!.!.!.!.!.!.!.!.!.!.!.!.!.!.!.!.!.!.!.!.!.!.!.!.!.!.!.!.!.!.!.!.!.!.!.!.!.!.!.!.!.!.!.!.!.!.!.!.!.!.!.!.!.!.!.!.!.!.!.!.!.!.!.!.!.!.!.!.!.!.!.!.!.!.!.!.!.!.!.!.!.!.!.!.!.!.!.!.!.!.!.!.!.!.!.!.!.!.!.!.!.!.!.!.!.!.!.!.!.!.!.!.!.!.!.!.!.!.!.!.!.!.!.!.!.!.!.!.!.!.!.!.!.!.!.!.!.!.!.!.!.!.!.!.!.!.!.!.!.!.!.!.!.!.!.!.!.!.!.!.!.!.!.!.!.!.!.!.!.!.!.!.!.!.!.!.!.!.!.!.!.!.!.!.!.!.!.!.!.!.!.!.!.!.!.!.!.!.!.!.!.!.!.!.!.!.!.!.!.!.!.!.!.!.!.!.!.!.!.!.!.!.!.!.!.!.!.!.!.!.!.!.!.!.!.!.!.!.!.!.!.!.!.!.!.!.!.!.!.!.!.!.!.!.!.!.!.!.!.!.!.!.!.!.!.!.!.!.!.!.!.!.!.!.!.!.!.!.!.!.!.!.!.!.!.!.!.!.!.!.!.!.!.!.!.!.!.!.!.!.!.!.!.!.!.!.!.!.!.!.!.!.!.!.!.!.!.!.!.!.!.!.!.!.!.!.!.!.!.!.!.!.!.!.!.!.!.",
"!.!.!.!.!.!.!.!.!.!.!.!.!.!.!.!.!.!.!.!.!.!.!.!.!.!.!.!.!.!.!.!.!.!.!.!.!.!.!.!.!.!.!.!.!.!.!.!.!.!.!.!.!.!.!.!.!.!.!.!.!.!.!.!.!.!.!.!.!.!.!.!.!.!.!.!.!.!.!.!.!.!.!.!.!.!.!.!.!.!.!.!.!.!.!.!.!.!.!.!.!.!.!.!.!.!.!.!.!.!.!.!.!.!.!.!.!.!.!.!.!.!.!.!.!.!.!.!.!.!.!.!.!.!.!.!.!.!.!.!.!.!.!.!.!.!.!.!.!.!.!.!.!.!.!.!.!.!.!.!.!.!.!.!.!.!.!.!.!.!.!.!.!.!.!.!.!.!.!.!.!.!.!.!.!.!.!.!.!.!.!.!.!.!.!.!.!.!.!.!.!.!.!.!.!.!.!.!.!.!.!.!.!.!.!.!.!.!.!.!.!.!.!.!.!.!.!.!.!.!.!.!.!.!.!.!.!.!.!.!.!.!.!.!.!.!.!.!.!.!.!.!.!.!.!.!.!.!.!.!.!.!.!.!.!.!.!.!.!.!.!.!.!.!.!.!.!.!.!.!.!.!.!.!.!.!.!.!.!.!.!.!.!.!.!.!.!.!.!.!.!.!.!.!.!.!.!.!.!.!.!.!.!.!.!.!.!.!.!.!.!.!.!.!.!.!.!.!.!.!.!.!.!.!.!.!.!.!.!.!.!.!.!.!.!.!.!.!.!.!.!.!.!.!.!.!.!.!.!.!.!.!.!.!.!.!.!.!.!.!.!.!.!.!.!.!.!.!.!.!.!.!.!.!.!.!.!.!.!.!.!.!.!.!.!.!.!.!.!.!.!.!.!.!.!.!.!.!.!.!.!.!.!.!.!.!.!.!.!.!.!.!.!.!.!.!.!.!.!.!.!.!.!.!.!.!.!.!.!.!.!.!.!.!.!.!.!.!.!.!.!.!.!.!.!.!.!.!.!.!.!.!.!.!.!.!.!.!.!.!.!.!.!.!.!.!.!.!.!.!.!.!.!.!.!.!.!.!.!.!.!.!.!.!.!.!.!.!.!.!.!.!.!.!.!.!.!.!.!.!.!.!.!.!.!.!.!.!.!.!.!.!.!.!.!.!.!.!.!.!.!.!.!.!.!.!.!.!.!.!.!.!.!.!.!.!.!.!.!.!.!.!.!.!.!.!.!.!.!.!.!.!.!.!.!.!.!.!.!.!.!.!.!.!.!.!.!.!.!.!.!.!.!.",
"!.!.!.!.!.!.!.!.!.!.!.!.!.!.!.!.!.!.!.!.!.!.!.!.!.!.!.!.!.!.!.!.!.!.!.!.!.!.!.!.!.!.!.!.!.!.!.!.!.!.!.!.!.!.!.!.!.!.!.!.!.!.!.!.!.!.!.!.!.!.!.!.!.!.!.!.!.!.!.!.!.!.!.!.!.!.!.!.!.!.!.!.!.!.!.!.!.!.!.!.!.!.!.!.!.!.!.!.!.!.!.!.!.!.!.!.!.!.!.!.!.!.!.!.!.!.!.!.!.!.!.!.!.!.!.!.!.!.!.!.!.!.!.!.!.!.!.!.!.!.!.!.!.!.!.!.!.!.!.!.!.!.!.!.!.!.!.!.!.!.!.!.!.!.!.!.!.!.!.!.!.!.!.!.!.!.!.!.!.!.!.!.!.!.!.!.!.!.!.!.!.!.!.!.!.!.!.!.!.!.!.!.!.!.!.!.!.!.!.!.!.!.!.!.!.!.!.!.!.!.!.!.!.!.!.!.!.!.!.!.!.!.!.!.!.!.!.!.!.!.!.!.!.!.!.!.!.!.!.!.!.!.!.!.!.!.!.!.!.!.!.!.!.!.!.!.!.!.!.!.!.!.!.!.!.!.!.!.!.!.!.!.!.!.!.!.!.!.!.!.!.!.!.!.!.!.!.!.!.!.!.!.!.!.!.!.!.!.!.!.!.!.!.!.!.!.!.!.!.!.!.!.!.!.!.!.!.!.!.!.!.!.!.!.!.!.!.!.!.!.!.!.!.!.!.!.!.!.!.!.!.!.!.!.!.!.!.!.!.!.!.!.!.!.!.!.!.!.!.!.!.!.!.!.!.!.!.!.!.!.!.!.!.!.!.!.!.!.!.!.!.!.!.!.!.!.!.!.!.!.!.!.!.!.!.!.!.!.!.!.!.!.!.!.!.!.!.!.!.!.!.!.!.!.!.!.!.!.!.!.!.!.!.!.!.!.!.!.!.!.!.!.!.!.!.!.!.!.!.!.!.!.!.!.!.!.!.!.!.!.!.!.!.!.!.!.!.!.!.!.!.!.!.!.!.!.!.!.!.!.!.!.!.!.!.!.!.!.!.!.!.!.!.!.!.!.!.!.!.!.!.!.!.!.!.!.!.!.!.!.!.!.!.!.!.!.!.!.!.!.!.!.!.!.!.!.!.!.!.!.!.!.!.!.!.!.!.!.!.!.!.!.!.!.!.!.!.!.!.!.!.!.!.!.!.!.!.!.!.!.!.!.!.!.!.!.!.!.!.!.!.!.!.",
"!.!.!.!.!.!.!.!.!.!.!.!.!.!.!.!.!.!.!.!.!.!.!.!.!.!.!.!.!.!.!.!.!.!.!.!.!.!.!.!.!.!.!.!.!.!.!.!.!.!.!.!.!.!.!.!.!.!.!.!.!.!.!.!.!.!.!.!.!.!.!.!.!.!.!.!.!.!.!.!.!.!.!.!.!.!.!.!.!.!.!.!.!.!.!.!.!.!.!.!.!.!.!.!.!.!.!.!.!.!.!.!.!.!.!.!.!.!.!.!.!.!.!.!.!.!.!.!.!.!.!.!.!.!.!.!.!.!.!.!.!.!.!.!.!.!.!.!.!.!.!.!.!.!.!.!.!.!.!.!.!.!.!.!.!.!.!.!.!.!.!.!.!.!.!.!.!.!.!.!.!.!.!.!.!.!.!.!.!.!.!.!.!.!.!.!.!.!.!.!.!.!.!.!.!.!.!.!.!.!.!.!.!.!.!.!.!.!.!.!.!.!.!.!.!.!.!.!.!.!.!.!.!.!.!.!.!.!.!.!.!.!.!.!.!.!.!.!.!.!.!.!.!.!.!.!.!.!.!.!.!.!.!.!.!.!.!.!.!.!.!.!.!.!.!.!.!.!.!.!.!.!.!.!.!.!.!.!.!.!.!.!.!.!.!.!.!.!.!.!.!.!.!.!.!.!.!.!.!.!.!.!.!.!.!.!.!.!.!.!.!.!.!.!.!.!.!.!.!.!.!.!.!.!.!.!.!.!.!.!.!.!.!.!.!.!.!.!.!.!.!.!.!.!.!.!.!.!.!.!.!.!.!.!.!.!.!.!.!.!.!.!.!.!.!.!.!.!.!.!.!.!.!.!.!.!.!.!.!.!.!.!.!.!.!.!.!.!.!.!.!.!.!.!.!.!.!.!.!.!.!.!.!.!.!.!.!.!.!.!.!.!.!.!.!.!.!.!.!.!.!.!.!.!.!.!.!.!.!.!.!.!.!.!.!.!.!.!.!.!.!.!.!.!.!.!.!.!.!.!.!.!.!.!.!.!.!.!.!.!.!.!.!.!.!.!.!.!.!.!.!.!.!.!.!.!.!.!.!.!.!.!.!.!.!.!.!.!.!.!.!.!.!.!.!.!.!.!.!.!.!.!.!.!.!.!.!.!.!.!.!.!.!.!.!.!.!.!.!.!.!.!.!.!.!.!.!.!.!.!.!.!.!.!.!.!.!.!.!.!.!.!.!.!.!.!.!.!.!.!.!.!.!.!.!.!.!.!.!.!.!.!.!.!.!.!.!.!.!.!.!.!.!.",
"!.!.!.!.!.!.!.!.!.!.!.!.!.!.!.!.!.!.!.!.!.!.!.!.!.!.!.!.!.!.!.!.!.!.!.!.!.!.!.!.!.!.!.!.!.!.!.!.!.!.!.!.!.!.!.!.!.!.!.!.!.!.!.!.!.!.!.!.!.!.!.!.!.!.!.!.!.!.!.!.!.!.!.!.!.!.!.!.!.!.!.!.!.!.!.!.!.!.!.!.!.!.!.!.!.!.!.!.!.!.!.!.!.!.!.!.!.!.!.!.!.!.!.!.!.!.!.!.!.!.!.!.!.!.!.!.!.!.!.!.!.!.!.!.!.!.!.!.!.!.!.!.!.!.!.!.!.!.!.!.!.!.!.!.!.!.!.!.!.!.!.!.!.!.!.!.!.!.!.!.!.!.!.!.!.!.!.!.!.!.!.!.!.!.!.!.!.!.!.!.!.!.!.!.!.!.!.!.!.!.!.!.!.!.!.!.!.!.!.!.!.!.!.!.!.!.!.!.!.!.!.!.!.!.!.!.!.!.!.!.!.!.!.!.!.!.!.!.!.!.!.!.!.!.!.!.!.!.!.!.!.!.!.!.!.!.!.!.!.!.!.!.!.!.!.!.!.!.!.!.!.!.!.!.!.!.!.!.!.!.!.!.!.!.!.!.!.!.!.!.!.!.!.!.!.!.!.!.!.!.!.!.!.!.!.!.!.!.!.!.!.!.!.!.!.!.!.!.!.!.!.!.!.!.!.!.!.!.!.!.!.!.!.!.!.!.!.!.!.!.!.!.!.!.!.!.!.!.!.!.!.!.!.!.!.!.!.!.!.!.!.!.!.!.!.!.!.!.!.!.!.!.!.!.!.!.!.!.!.!.!.!.!.!.!.!.!.!.!.!.!.!.!.!.!.!.!.!.!.!.!.!.!.!.!.!.!.!.!.!.!.!.!.!.!.!.!.!.!.!.!.!.!.!.!.!.!.!.!.!.!.!.!.!.!.!.!.!.!.!.!.!.!.!.!.!.!.!.!.!.!.!.!.!.!.!.!.!.!.!.!.!.!.!.!.!.!.!.!.!.!.!.!.!.!.!.!.!.!.!.!.!.!.!.!.!.!.!.!.!.!.!.!.!.!.!.!.!.!.!.!.!.!.!.!.!.!.!.!.!.!.!.!.!.!.!.!.!.!.!.!.!.!.!.!.!.!.!.!.!.!.!.!.!.!.!.!.!.!.!.!.!.!.!.!.!.!.!.!.!.!.!.!.!.!.!.!.!.!.!.!.!.!.!.!.!.!.!.!.!.!.!.!.",
"!.!.!.!.!.!.!.!.!.!.!.!.!.!.!.!.!.!.!.!.!.!.!.!.!.!.!.!.!.!.!.!.!.!.!.!.!.!.!.!.!.!.!.!.!.!.!.!.!.!.!.!.!.!.!.!.!.!.!.!.!.!.!.!.!.!.!.!.!.!.!.!.!.!.!.!.!.!.!.!.!.!.!.!.!.!.!.!.!.!.!.!.!.!.!.!.!.!.!.!.!.!.!.!.!.!.!.!.!.!.!.!.!.!.!.!.!.!.!.!.!.!.!.!.!.!.!.!.!.!.!.!.!.!.!.!.!.!.!.!.!.!.!.!.!.!.!.!.!.!.!.!.!.!.!.!.!.!.!.!.!.!.!.!.!.!.!.!.!.!.!.!.!.!.!.!.!.!.!.!.!.!.!.!.!.!.!.!.!.!.!.!.!.!.!.!.!.!.!.!.!.!.!.!.!.!.!.!.!.!.!.!.!.!.!.!.!.!.!.!.!.!.!.!.!.!.!.!.!.!.!.!.!.!.!.!.!.!.!.!.!.!.!.!.!.!.!.!.!.!.!.!.!.!.!.!.!.!.!.!.!.!.!.!.!.!.!.!.!.!.!.!.!.!.!.!.!.!.!.!.!.!.!.!.!.!.!.!.!.!.!.!.!.!.!.!.!.!.!.!.!.!.!.!.!.!.!.!.!.!.!.!.!.!.!.!.!.!.!.!.!.!.!.!.!.!.!.!.!.!.!.!.!.!.!.!.!.!.!.!.!.!.!.!.!.!.!.!.!.!.!.!.!.!.!.!.!.!.!.!.!.!.!.!.!.!.!.!.!.!.!.!.!.!.!.!.!.!.!.!.!.!.!.!.!.!.!.!.!.!.!.!.!.!.!.!.!.!.!.!.!.!.!.!.!.!.!.!.!.!.!.!.!.!.!.!.!.!.!.!.!.!.!.!.!.!.!.!.!.!.!.!.!.!.!.!.!.!.!.!.!.!.!.!.!.!.!.!.!.!.!.!.!.!.!.!.!.!.!.!.!.!.!.!.!.!.!.!.!.!.!.!.!.!.!.!.!.!.!.!.!.!.!.!.!.!.!.!.!.!.!.!.!.!.!.!.!.!.!.!.!.!.!.!.!.!.!.!.!.!.!.!.!.!.!.!.!.!.!.!.!.!.!.!.!.!.!.!.!.!.!.!.!.!.!.!.!.!.!.!.!.!.!.!.!.!.!.!.!.!.!.!.!.!.!.!.!.!.!.!.!.!.!.!.!.!.!.!.!.!.!.!.!.!.!.!.!.!.!.!.!.!.!.",
"!.!.!.!.!.!.!.!.!.!.!.!.!.!.!.!.!.!.!.!.!.!.!.!.!.!.!.!.!.!.!.!.!.!.!.!.!.!.!.!.!.!.!.!.!.!.!.!.!.!.!.!.!.!.!.!.!.!.!.!.!.!.!.!.!.!.!.!.!.!.!.!.!.!.!.!.!.!.!.!.!.!.!.!.!.!.!.!.!.!.!.!.!.!.!.!.!.!.!.!.!.!.!.!.!.!.!.!.!.!.!.!.!.!.!.!.!.!.!.!.!.!.!.!.!.!.!.!.!.!.!.!.!.!.!.!.!.!.!.!.!.!.!.!.!.!.!.!.!.!.!.!.!.!.!.!.!.!.!.!.!.!.!.!.!.!.!.!.!.!.!.!.!.!.!.!.!.!.!.!.!.!.!.!.!.!.!.!.!.!.!.!.!.!.!.!.!.!.!.!.!.!.!.!.!.!.!.!.!.!.!.!.!.!.!.!.!.!.!.!.!.!.!.!.!.!.!.!.!.!.!.!.!.!.!.!.!.!.!.!.!.!.!.!.!.!.!.!.!.!.!.!.!.!.!.!.!.!.!.!.!.!.!.!.!.!.!.!.!.!.!.!.!.!.!.!.!.!.!.!.!.!.!.!.!.!.!.!.!.!.!.!.!.!.!.!.!.!.!.!.!.!.!.!.!.!.!.!.!.!.!.!.!.!.!.!.!.!.!.!.!.!.!.!.!.!.!.!.!.!.!.!.!.!.!.!.!.!.!.!.!.!.!.!.!.!.!.!.!.!.!.!.!.!.!.!.!.!.!.!.!.!.!.!.!.!.!.!.!.!.!.!.!.!.!.!.!.!.!.!.!.!.!.!.!.!.!.!.!.!.!.!.!.!.!.!.!.!.!.!.!.!.!.!.!.!.!.!.!.!.!.!.!.!.!.!.!.!.!.!.!.!.!.!.!.!.!.!.!.!.!.!.!.!.!.!.!.!.!.!.!.!.!.!.!.!.!.!.!.!.!.!.!.!.!.!.!.!.!.!.!.!.!.!.!.!.!.!.!.!.!.!.!.!.!.!.!.!.!.!.!.!.!.!.!.!.!.!.!.!.!.!.!.!.!.!.!.!.!.!.!.!.!.!.!.!.!.!.!.!.!.!.!.!.!.!.!.!.!.!.!.!.!.!.!.!.!.!.!.!.!.!.!.!.!.!.!.!.!.!.!.!.!.!.!.!.!.!.!.!.!.!.!.!.!.!.!.!.!.!.!.!.!.!.!.!.!.!.!.!.!.!.!.!.!.!.!.!.!.!.!.!.!.",
"!.!.!.!.!.!.!.!.!.!.!.!.!.!.!.!.!.!.!.!.!.!.!.!.!.!.!.!.!.!.!.!.!.!.!.!.!.!.!.!.!.!.!.!.!.!.!.!.!.!.!.!.!.!.!.!.!.!.!.!.!.!.!.!.!.!.!.!.!.!.!.!.!.!.!.!.!.!.!.!.!.!.!.!.!.!.!.!.!.!.!.!.!.!.!.!.!.!.!.!.!.!.!.!.!.!.!.!.!.!.!.!.!.!.!.!.!.!.!.!.!.!.!.!.!.!.!.!.!.!.!.!.!.!.!.!.!.!.!.!.!.!.!.!.!.!.!.!.!.!.!.!.!.!.!.!.!.!.!.!.!.!.!.!.!.!.!.!.!.!.!.!.!.!.!.!.!.!.!.!.!.!.!.!.!.!.!.!.!.!.!.!.!.!.!.!.!.!.!.!.!.!.!.!.!.!.!.!.!.!.!.!.!.!.!.!.!.!.!.!.!.!.!.!.!.!.!.!.!.!.!.!.!.!.!.!.!.!.!.!.!.!.!.!.!.!.!.!.!.!.!.!.!.!.!.!.!.!.!.!.!.!.!.!.!.!.!.!.!.!.!.!.!.!.!.!.!.!.!.!.!.!.!.!.!.!.!.!.!.!.!.!.!.!.!.!.!.!.!.!.!.!.!.!.!.!.!.!.!.!.!.!.!.!.!.!.!.!.!.!.!.!.!.!.!.!.!.!.!.!.!.!.!.!.!.!.!.!.!.!.!.!.!.!.!.!.!.!.!.!.!.!.!.!.!.!.!.!.!.!.!.!.!.!.!.!.!.!.!.!.!.!.!.!.!.!.!.!.!.!.!.!.!.!.!.!.!.!.!.!.!.!.!.!.!.!.!.!.!.!.!.!.!.!.!.!.!.!.!.!.!.!.!.!.!.!.!.!.!.!.!.!.!.!.!.!.!.!.!.!.!.!.!.!.!.!.!.!.!.!.!.!.!.!.!.!.!.!.!.!.!.!.!.!.!.!.!.!.!.!.!.!.!.!.!.!.!.!.!.!.!.!.!.!.!.!.!.!.!.!.!.!.!.!.!.!.!.!.!.!.!.!.!.!.!.!.!.!.!.!.!.!.!.!.!.!.!.!.!.!.!.!.!.!.!.!.!.!.!.!.!.!.!.!.!.!.!.!.!.!.!.!.!.!.!.!.!.!.!.!.!.!.!.!.!.!.!.!.!.!.!.!.!.!.!.!.!.!.!.!.!.!.!.!.!.!.!.!.!.!.!.!.!.!.!.!.!.!.!.!.!.!.!.",
"!.!.!.!.!.!.!.!.!.!.!.!.!.!.!.!.!.!.!.!.!.!.!.!.!.!.!.!.!.!.!.!.!.!.!.!.!.!.!.!.!.!.!.!.!.!.!.!.!.!.!.!.!.!.!.!.!.!.!.!.!.!.!.!.!.!.!.!.!.!.!.!.!.!.!.!.!.!.!.!.!.!.!.!.!.!.!.!.!.!.!.!.!.!.!.!.!.!.!.!.!.!.!.!.!.!.!.!.!.!.!.!.!.!.!.!.!.!.!.!.!.!.!.!.!.!.!.!.!.!.!.!.!.!.!.!.!.!.!.!.!.!.!.!.!.!.!.!.!.!.!.!.!.!.!.!.!.!.!.!.!.!.!.!.!.!.!.!.!.!.!.!.!.!.!.!.!.!.!.!.!.!.!.!.!.!.!.!.!.!.!.!.!.!.!.!.!.!.!.!.!.!.!.!.!.!.!.!.!.!.!.!.!.!.!.!.!.!.!.!.!.!.!.!.!.!.!.!.!.!.!.!.!.!.!.!.!.!.!.!.!.!.!.!.!.!.!.!.!.!.!.!.!.!.!.!.!.!.!.!.!.!.!.!.!.!.!.!.!.!.!.!.!.!.!.!.!.!.!.!.!.!.!.!.!.!.!.!.!.!.!.!.!.!.!.!.!.!.!.!.!.!.!.!.!.!.!.!.!.!.!.!.!.!.!.!.!.!.!.!.!.!.!.!.!.!.!.!.!.!.!.!.!.!.!.!.!.!.!.!.!.!.!.!.!.!.!.!.!.!.!.!.!.!.!.!.!.!.!.!.!.!.!.!.!.!.!.!.!.!.!.!.!.!.!.!.!.!.!.!.!.!.!.!.!.!.!.!.!.!.!.!.!.!.!.!.!.!.!.!.!.!.!.!.!.!.!.!.!.!.!.!.!.!.!.!.!.!.!.!.!.!.!.!.!.!.!.!.!.!.!.!.!.!.!.!.!.!.!.!.!.!.!.!.!.!.!.!.!.!.!.!.!.!.!.!.!.!.!.!.!.!.!.!.!.!.!.!.!.!.!.!.!.!.!.!.!.!.!.!.!.!.!.!.!.!.!.!.!.!.!.!.!.!.!.!.!.!.!.!.!.!.!.!.!.!.!.!.!.!.!.!.!.!.!.!.!.!.!.!.!.!.!.!.!.!.!.!.!.!.!.!.!.!.!.!.!.!.!.!.!.!.!.!.!.!.!.!.!.!.!.!.!.!.!.!.!.!.!.!.!.!.!.!.!.!.!.!.!.!.!.!.!.!.!.!.!.!.!.!.!.!.!.",
"!.!.!.!.!.!.!.!.!.!.!.!.!.!.!.!.!.!.!.!.!.!.!.!.!.!.!.!.!.!.!.!.!.!.!.!.!.!.!.!.!.!.!.!.!.!.!.!.!.!.!.!.!.!.!.!.!.!.!.!.!.!.!.!.!.!.!.!.!.!.!.!.!.!.!.!.!.!.!.!.!.!.!.!.!.!.!.!.!.!.!.!.!.!.!.!.!.!.!.!.!.!.!.!.!.!.!.!.!.!.!.!.!.!.!.!.!.!.!.!.!.!.!.!.!.!.!.!.!.!.!.!.!.!.!.!.!.!.!.!.!.!.!.!.!.!.!.!.!.!.!.!.!.!.!.!.!.!.!.!.!.!.!.!.!.!.!.!.!.!.!.!.!.!.!.!.!.!.!.!.!.!.!.!.!.!.!.!.!.!.!.!.!.!.!.!.!.!.!.!.!.!.!.!.!.!.!.!.!.!.!.!.!.!.!.!.!.!.!.!.!.!.!.!.!.!.!.!.!.!.!.!.!.!.!.!.!.!.!.!.!.!.!.!.!.!.!.!.!.!.!.!.!.!.!.!.!.!.!.!.!.!.!.!.!.!.!.!.!.!.!.!.!.!.!.!.!.!.!.!.!.!.!.!.!.!.!.!.!.!.!.!.!.!.!.!.!.!.!.!.!.!.!.!.!.!.!.!.!.!.!.!.!.!.!.!.!.!.!.!.!.!.!.!.!.!.!.!.!.!.!.!.!.!.!.!.!.!.!.!.!.!.!.!.!.!.!.!.!.!.!.!.!.!.!.!.!.!.!.!.!.!.!.!.!.!.!.!.!.!.!.!.!.!.!.!.!.!.!.!.!.!.!.!.!.!.!.!.!.!.!.!.!.!.!.!.!.!.!.!.!.!.!.!.!.!.!.!.!.!.!.!.!.!.!.!.!.!.!.!.!.!.!.!.!.!.!.!.!.!.!.!.!.!.!.!.!.!.!.!.!.!.!.!.!.!.!.!.!.!.!.!.!.!.!.!.!.!.!.!.!.!.!.!.!.!.!.!.!.!.!.!.!.!.!.!.!.!.!.!.!.!.!.!.!.!.!.!.!.!.!.!.!.!.!.!.!.!.!.!.!.!.!.!.!.!.!.!.!.!.!.!.!.!.!.!.!.!.!.!.!.!.!.!.!.!.!.!.!.!.!.!.!.!.!.!.!.!.!.!.!.!.!.!.!.!.!.!.!.!.!.!.!.!.!.!.!.!.!.!.!.!.!.!.!.!.!.!.!.!.!.!.!.!.!.!.!.!.!.!.!.!.!.",
"!.!.!.!.!.!.!.!.!.!.!.!.!.!.!.!.!.!.!.!.!.!.!.!.!.!.!.!.!.!.!.!.!.!.!.!.!.!.!.!.!.!.!.!.!.!.!.!.!.!.!.!.!.!.!.!.!.!.!.!.!.!.!.!.!.!.!.!.!.!.!.!.!.!.!.!.!.!.!.!.!.!.!.!.!.!.!.!.!.!.!.!.!.!.!.!.!.!.!.!.!.!.!.!.!.!.!.!.!.!.!.!.!.!.!.!.!.!.!.!.!.!.!.!.!.!.!.!.!.!.!.!.!.!.!.!.!.!.!.!.!.!.!.!.!.!.!.!.!.!.!.!.!.!.!.!.!.!.!.!.!.!.!.!.!.!.!.!.!.!.!.!.!.!.!.!.!.!.!.!.!.!.!.!.!.!.!.!.!.!.!.!.!.!.!.!.!.!.!.!.!.!.!.!.!.!.!.!.!.!.!.!.!.!.!.!.!.!.!.!.!.!.!.!.!.!.!.!.!.!.!.!.!.!.!.!.!.!.!.!.!.!.!.!.!.!.!.!.!.!.!.!.!.!.!.!.!.!.!.!.!.!.!.!.!.!.!.!.!.!.!.!.!.!.!.!.!.!.!.!.!.!.!.!.!.!.!.!.!.!.!.!.!.!.!.!.!.!.!.!.!.!.!.!.!.!.!.!.!.!.!.!.!.!.!.!.!.!.!.!.!.!.!.!.!.!.!.!.!.!.!.!.!.!.!.!.!.!.!.!.!.!.!.!.!.!.!.!.!.!.!.!.!.!.!.!.!.!.!.!.!.!.!.!.!.!.!.!.!.!.!.!.!.!.!.!.!.!.!.!.!.!.!.!.!.!.!.!.!.!.!.!.!.!.!.!.!.!.!.!.!.!.!.!.!.!.!.!.!.!.!.!.!.!.!.!.!.!.!.!.!.!.!.!.!.!.!.!.!.!.!.!.!.!.!.!.!.!.!.!.!.!.!.!.!.!.!.!.!.!.!.!.!.!.!.!.!.!.!.!.!.!.!.!.!.!.!.!.!.!.!.!.!.!.!.!.!.!.!.!.!.!.!.!.!.!.!.!.!.!.!.!.!.!.!.!.!.!.!.!.!.!.!.!.!.!.!.!.!.!.!.!.!.!.!.!.!.!.!.!.!.!.!.!.!.!.!.!.!.!.!.!.!.!.!.!.!.!.!.!.!.!.!.!.!.!.!.!.!.!.!.!.!.!.!.!.!.!.!.!.!.!.!.!.!.!.!.!.!.!.!.!.!.!.!.!.!.!.!.!.!.!.!.",
"!.!.!.!.!.!.!.!.!.!.!.!.!.!.!.!.!.!.!.!.!.!.!.!.!.!.!.!.!.!.!.!.!.!.!.!.!.!.!.!.!.!.!.!.!.!.!.!.!.!.!.!.!.!.!.!.!.!.!.!.!.!.!.!.!.!.!.!.!.!.!.!.!.!.!.!.!.!.!.!.!.!.!.!.!.!.!.!.!.!.!.!.!.!.!.!.!.!.!.!.!.!.!.!.!.!.!.!.!.!.!.!.!.!.!.!.!.!.!.!.!.!.!.!.!.!.!.!.!.!.!.!.!.!.!.!.!.!.!.!.!.!.!.!.!.!.!.!.!.!.!.!.!.!.!.!.!.!.!.!.!.!.!.!.!.!.!.!.!.!.!.!.!.!.!.!.!.!.!.!.!.!.!.!.!.!.!.!.!.!.!.!.!.!.!.!.!.!.!.!.!.!.!.!.!.!.!.!.!.!.!.!.!.!.!.!.!.!.!.!.!.!.!.!.!.!.!.!.!.!.!.!.!.!.!.!.!.!.!.!.!.!.!.!.!.!.!.!.!.!.!.!.!.!.!.!.!.!.!.!.!.!.!.!.!.!.!.!.!.!.!.!.!.!.!.!.!.!.!.!.!.!.!.!.!.!.!.!.!.!.!.!.!.!.!.!.!.!.!.!.!.!.!.!.!.!.!.!.!.!.!.!.!.!.!.!.!.!.!.!.!.!.!.!.!.!.!.!.!.!.!.!.!.!.!.!.!.!.!.!.!.!.!.!.!.!.!.!.!.!.!.!.!.!.!.!.!.!.!.!.!.!.!.!.!.!.!.!.!.!.!.!.!.!.!.!.!.!.!.!.!.!.!.!.!.!.!.!.!.!.!.!.!.!.!.!.!.!.!.!.!.!.!.!.!.!.!.!.!.!.!.!.!.!.!.!.!.!.!.!.!.!.!.!.!.!.!.!.!.!.!.!.!.!.!.!.!.!.!.!.!.!.!.!.!.!.!.!.!.!.!.!.!.!.!.!.!.!.!.!.!.!.!.!.!.!.!.!.!.!.!.!.!.!.!.!.!.!.!.!.!.!.!.!.!.!.!.!.!.!.!.!.!.!.!.!.!.!.!.!.!.!.!.!.!.!.!.!.!.!.!.!.!.!.!.!.!.!.!.!.!.!.!.!.!.!.!.!.!.!.!.!.!.!.!.!.!.!.!.!.!.!.!.!.!.!.!.!.!.!.!.!.!.!.!.!.!.!.!.!.!.!.!.!.!.!.!.!.!.!.!.!.!.!.!.!.!.!.!.!.!.!.!.",
"!.!.!.!.!.!.!.!.!.!.!.!.!.!.!.!.!.!.!.!.!.!.!.!.!.!.!.!.!.!.!.!.!.!.!.!.!.!.!.!.!.!.!.!.!.!.!.!.!.!.!.!.!.!.!.!.!.!.!.!.!.!.!.!.!.!.!.!.!.!.!.!.!.!.!.!.!.!.!.!.!.!.!.!.!.!.!.!.!.!.!.!.!.!.!.!.!.!.!.!.!.!.!.!.!.!.!.!.!.!.!.!.!.!.!.!.!.!.!.!.!.!.!.!.!.!.!.!.!.!.!.!.!.!.!.!.!.!.!.!.!.!.!.!.!.!.!.!.!.!.!.!.!.!.!.!.!.!.!.!.!.!.!.!.!.!.!.!.!.!.!.!.!.!.!.!.!.!.!.!.!.!.!.!.!.!.!.!.!.!.!.!.!.!.!.!.!.!.!.!.!.!.!.!.!.!.!.!.!.!.!.!.!.!.!.!.!.!.!.!.!.!.!.!.!.!.!.!.!.!.!.!.!.!.!.!.!.!.!.!.!.!.!.!.!.!.!.!.!.!.!.!.!.!.!.!.!.!.!.!.!.!.!.!.!.!.!.!.!.!.!.!.!.!.!.!.!.!.!.!.!.!.!.!.!.!.!.!.!.!.!.!.!.!.!.!.!.!.!.!.!.!.!.!.!.!.!.!.!.!.!.!.!.!.!.!.!.!.!.!.!.!.!.!.!.!.!.!.!.!.!.!.!.!.!.!.!.!.!.!.!.!.!.!.!.!.!.!.!.!.!.!.!.!.!.!.!.!.!.!.!.!.!.!.!.!.!.!.!.!.!.!.!.!.!.!.!.!.!.!.!.!.!.!.!.!.!.!.!.!.!.!.!.!.!.!.!.!.!.!.!.!.!.!.!.!.!.!.!.!.!.!.!.!.!.!.!.!.!.!.!.!.!.!.!.!.!.!.!.!.!.!.!.!.!.!.!.!.!.!.!.!.!.!.!.!.!.!.!.!.!.!.!.!.!.!.!.!.!.!.!.!.!.!.!.!.!.!.!.!.!.!.!.!.!.!.!.!.!.!.!.!.!.!.!.!.!.!.!.!.!.!.!.!.!.!.!.!.!.!.!.!.!.!.!.!.!.!.!.!.!.!.!.!.!.!.!.!.!.!.!.!.!.!.!.!.!.!.!.!.!.!.!.!.!.!.!.!.!.!.!.!.!.!.!.!.!.!.!.!.!.!.!.!.!.!.!.!.!.!.!.!.!.!.!.!.!.!.!.!.!.!.!.!.!.!.!.!.!.!.!.!.!.",
"!.!.!.!.!.!.!.!.!.!.!.!.!.!.!.!.!.!.!.!.!.!.!.!.!.!.!.!.!.!.!.!.!.!.!.!.!.!.!.!.!.!.!.!.!.!.!.!.!.!.!.!.!.!.!.!.!.!.!.!.!.!.!.!.!.!.!.!.!.!.!.!.!.!.!.!.!.!.!.!.!.!.!.!.!.!.!.!.!.!.!.!.!.!.!.!.!.!.!.!.!.!.!.!.!.!.!.!.!.!.!.!.!.!.!.!.!.!.!.!.!.!.!.!.!.!.!.!.!.!.!.!.!.!.!.!.!.!.!.!.!.!.!.!.!.!.!.!.!.!.!.!.!.!.!.!.!.!.!.!.!.!.!.!.!.!.!.!.!.!.!.!.!.!.!.!.!.!.!.!.!.!.!.!.!.!.!.!.!.!.!.!.!.!.!.!.!.!.!.!.!.!.!.!.!.!.!.!.!.!.!.!.!.!.!.!.!.!.!.!.!.!.!.!.!.!.!.!.!.!.!.!.!.!.!.!.!.!.!.!.!.!.!.!.!.!.!.!.!.!.!.!.!.!.!.!.!.!.!.!.!.!.!.!.!.!.!.!.!.!.!.!.!.!.!.!.!.!.!.!.!.!.!.!.!.!.!.!.!.!.!.!.!.!.!.!.!.!.!.!.!.!.!.!.!.!.!.!.!.!.!.!.!.!.!.!.!.!.!.!.!.!.!.!.!.!.!.!.!.!.!.!.!.!.!.!.!.!.!.!.!.!.!.!.!.!.!.!.!.!.!.!.!.!.!.!.!.!.!.!.!.!.!.!.!.!.!.!.!.!.!.!.!.!.!.!.!.!.!.!.!.!.!.!.!.!.!.!.!.!.!.!.!.!.!.!.!.!.!.!.!.!.!.!.!.!.!.!.!.!.!.!.!.!.!.!.!.!.!.!.!.!.!.!.!.!.!.!.!.!.!.!.!.!.!.!.!.!.!.!.!.!.!.!.!.!.!.!.!.!.!.!.!.!.!.!.!.!.!.!.!.!.!.!.!.!.!.!.!.!.!.!.!.!.!.!.!.!.!.!.!.!.!.!.!.!.!.!.!.!.!.!.!.!.!.!.!.!.!.!.!.!.!.!.!.!.!.!.!.!.!.!.!.!.!.!.!.!.!.!.!.!.!.!.!.!.!.!.!.!.!.!.!.!.!.!.!.!.!.!.!.!.!.!.!.!.!.!.!.!.!.!.!.!.!.!.!.!.!.!.!.!.!.!.!.!.!.!.!.!.!.!.!.!.!.!.!.!.!.!.!.!.!.",
"!.!.!.!.!.!.!.!.!.!.!.!.!.!.!.!.!.!.!.!.!.!.!.!.!.!.!.!.!.!.!.!.!.!.!.!.!.!.!.!.!.!.!.!.!.!.!.!.!.!.!.!.!.!.!.!.!.!.!.!.!.!.!.!.!.!.!.!.!.!.!.!.!.!.!.!.!.!.!.!.!.!.!.!.!.!.!.!.!.!.!.!.!.!.!.!.!.!.!.!.!.!.!.!.!.!.!.!.!.!.!.!.!.!.!.!.!.!.!.!.!.!.!.!.!.!.!.!.!.!.!.!.!.!.!.!.!.!.!.!.!.!.!.!.!.!.!.!.!.!.!.!.!.!.!.!.!.!.!.!.!.!.!.!.!.!.!.!.!.!.!.!.!.!.!.!.!.!.!.!.!.!.!.!.!.!.!.!.!.!.!.!.!.!.!.!.!.!.!.!.!.!.!.!.!.!.!.!.!.!.!.!.!.!.!.!.!.!.!.!.!.!.!.!.!.!.!.!.!.!.!.!.!.!.!.!.!.!.!.!.!.!.!.!.!.!.!.!.!.!.!.!.!.!.!.!.!.!.!.!.!.!.!.!.!.!.!.!.!.!.!.!.!.!.!.!.!.!.!.!.!.!.!.!.!.!.!.!.!.!.!.!.!.!.!.!.!.!.!.!.!.!.!.!.!.!.!.!.!.!.!.!.!.!.!.!.!.!.!.!.!.!.!.!.!.!.!.!.!.!.!.!.!.!.!.!.!.!.!.!.!.!.!.!.!.!.!.!.!.!.!.!.!.!.!.!.!.!.!.!.!.!.!.!.!.!.!.!.!.!.!.!.!.!.!.!.!.!.!.!.!.!.!.!.!.!.!.!.!.!.!.!.!.!.!.!.!.!.!.!.!.!.!.!.!.!.!.!.!.!.!.!.!.!.!.!.!.!.!.!.!.!.!.!.!.!.!.!.!.!.!.!.!.!.!.!.!.!.!.!.!.!.!.!.!.!.!.!.!.!.!.!.!.!.!.!.!.!.!.!.!.!.!.!.!.!.!.!.!.!.!.!.!.!.!.!.!.!.!.!.!.!.!.!.!.!.!.!.!.!.!.!.!.!.!.!.!.!.!.!.!.!.!.!.!.!.!.!.!.!.!.!.!.!.!.!.!.!.!.!.!.!.!.!.!.!.!.!.!.!.!.!.!.!.!.!.!.!.!.!.!.!.!.!.!.!.!.!.!.!.!.!.!.!.!.!.!.!.!.!.!.!.!.!.!.!.!.!.!.!.!.!.!.!.!.!.!.!.!.!.!.!.!.",
"!.!.!.!.!.!.!.!.!.!.!.!.!.!.!.!.!.!.!.!.!.!.!.!.!.!.!.!.!.!.!.!.!.!.!.!.!.!.!.!.!.!.!.!.!.!.!.!.!.!.!.!.!.!.!.!.!.!.!.!.!.!.!.!.!.!.!.!.!.!.!.!.!.!.!.!.!.!.!.!.!.!.!.!.!.!.!.!.!.!.!.!.!.!.!.!.!.!.!.!.!.!.!.!.!.!.!.!.!.!.!.!.!.!.!.!.!.!.!.!.!.!.!.!.!.!.!.!.!.!.!.!.!.!.!.!.!.!.!.!.!.!.!.!.!.!.!.!.!.!.!.!.!.!.!.!.!.!.!.!.!.!.!.!.!.!.!.!.!.!.!.!.!.!.!.!.!.!.!.!.!.!.!.!.!.!.!.!.!.!.!.!.!.!.!.!.!.!.!.!.!.!.!.!.!.!.!.!.!.!.!.!.!.!.!.!.!.!.!.!.!.!.!.!.!.!.!.!.!.!.!.!.!.!.!.!.!.!.!.!.!.!.!.!.!.!.!.!.!.!.!.!.!.!.!.!.!.!.!.!.!.!.!.!.!.!.!.!.!.!.!.!.!.!.!.!.!.!.!.!.!.!.!.!.!.!.!.!.!.!.!.!.!.!.!.!.!.!.!.!.!.!.!.!.!.!.!.!.!.!.!.!.!.!.!.!.!.!.!.!.!.!.!.!.!.!.!.!.!.!.!.!.!.!.!.!.!.!.!.!.!.!.!.!.!.!.!.!.!.!.!.!.!.!.!.!.!.!.!.!.!.!.!.!.!.!.!.!.!.!.!.!.!.!.!.!.!.!.!.!.!.!.!.!.!.!.!.!.!.!.!.!.!.!.!.!.!.!.!.!.!.!.!.!.!.!.!.!.!.!.!.!.!.!.!.!.!.!.!.!.!.!.!.!.!.!.!.!.!.!.!.!.!.!.!.!.!.!.!.!.!.!.!.!.!.!.!.!.!.!.!.!.!.!.!.!.!.!.!.!.!.!.!.!.!.!.!.!.!.!.!.!.!.!.!.!.!.!.!.!.!.!.!.!.!.!.!.!.!.!.!.!.!.!.!.!.!.!.!.!.!.!.!.!.!.!.!.!.!.!.!.!.!.!.!.!.!.!.!.!.!.!.!.!.!.!.!.!.!.!.!.!.!.!.!.!.!.!.!.!.!.!.!.!.!.!.!.!.!.!.!.!.!.!.!.!.!.!.!.!.!.!.!.!.!.!.!.!.!.!.!.!.!.!.!.!.!.!.!.!.!.!.!.",
"!.!.!.!.!.!.!.!.!.!.!.!.!.!.!.!.!.!.!.!.!.!.!.!.!.!.!.!.!.!.!.!.!.!.!.!.!.!.!.!.!.!.!.!.!.!.!.!.!.!.!.!.!.!.!.!.!.!.!.!.!.!.!.!.!.!.!.!.!.!.!.!.!.!.!.!.!.!.!.!.!.!.!.!.!.!.!.!.!.!.!.!.!.!.!.!.!.!.!.!.!.!.!.!.!.!.!.!.!.!.!.!.!.!.!.!.!.!.!.!.!.!.!.!.!.!.!.!.!.!.!.!.!.!.!.!.!.!.!.!.!.!.!.!.!.!.!.!.!.!.!.!.!.!.!.!.!.!.!.!.!.!.!.!.!.!.!.!.!.!.!.!.!.!.!.!.!.!.!.!.!.!.!.!.!.!.!.!.!.!.!.!.!.!.!.!.!.!.!.!.!.!.!.!.!.!.!.!.!.!.!.!.!.!.!.!.!.!.!.!.!.!.!.!.!.!.!.!.!.!.!.!.!.!.!.!.!.!.!.!.!.!.!.!.!.!.!.!.!.!.!.!.!.!.!.!.!.!.!.!.!.!.!.!.!.!.!.!.!.!.!.!.!.!.!.!.!.!.!.!.!.!.!.!.!.!.!.!.!.!.!.!.!.!.!.!.!.!.!.!.!.!.!.!.!.!.!.!.!.!.!.!.!.!.!.!.!.!.!.!.!.!.!.!.!.!.!.!.!.!.!.!.!.!.!.!.!.!.!.!.!.!.!.!.!.!.!.!.!.!.!.!.!.!.!.!.!.!.!.!.!.!.!.!.!.!.!.!.!.!.!.!.!.!.!.!.!.!.!.!.!.!.!.!.!.!.!.!.!.!.!.!.!.!.!.!.!.!.!.!.!.!.!.!.!.!.!.!.!.!.!.!.!.!.!.!.!.!.!.!.!.!.!.!.!.!.!.!.!.!.!.!.!.!.!.!.!.!.!.!.!.!.!.!.!.!.!.!.!.!.!.!.!.!.!.!.!.!.!.!.!.!.!.!.!.!.!.!.!.!.!.!.!.!.!.!.!.!.!.!.!.!.!.!.!.!.!.!.!.!.!.!.!.!.!.!.!.!.!.!.!.!.!.!.!.!.!.!.!.!.!.!.!.!.!.!.!.!.!.!.!.!.!.!.!.!.!.!.!.!.!.!.!.!.!.!.!.!.!.!.!.!.!.!.!.!.!.!.!.!.!.!.!.!.!.!.!.!.!.!.!.!.!.!.!.!.!.!.!.!.!.!.!.!.!.!.!.!.!.!.!.!.!.",
"!.!.!.!.!.!.!.!.!.!.!.!.!.!.!.!.!.!.!.!.!.!.!.!.!.!.!.!.!.!.!.!.!.!.!.!.!.!.!.!.!.!.!.!.!.!.!.!.!.!.!.!.!.!.!.!.!.!.!.!.!.!.!.!.!.!.!.!.!.!.!.!.!.!.!.!.!.!.!.!.!.!.!.!.!.!.!.!.!.!.!.!.!.!.!.!.!.!.!.!.!.!.!.!.!.!.!.!.!.!.!.!.!.!.!.!.!.!.!.!.!.!.!.!.!.!.!.!.!.!.!.!.!.!.!.!.!.!.!.!.!.!.!.!.!.!.!.!.!.!.!.!.!.!.!.!.!.!.!.!.!.!.!.!.!.!.!.!.!.!.!.!.!.!.!.!.!.!.!.!.!.!.!.!.!.!.!.!.!.!.!.!.!.!.!.!.!.!.!.!.!.!.!.!.!.!.!.!.!.!.!.!.!.!.!.!.!.!.!.!.!.!.!.!.!.!.!.!.!.!.!.!.!.!.!.!.!.!.!.!.!.!.!.!.!.!.!.!.!.!.!.!.!.!.!.!.!.!.!.!.!.!.!.!.!.!.!.!.!.!.!.!.!.!.!.!.!.!.!.!.!.!.!.!.!.!.!.!.!.!.!.!.!.!.!.!.!.!.!.!.!.!.!.!.!.!.!.!.!.!.!.!.!.!.!.!.!.!.!.!.!.!.!.!.!.!.!.!.!.!.!.!.!.!.!.!.!.!.!.!.!.!.!.!.!.!.!.!.!.!.!.!.!.!.!.!.!.!.!.!.!.!.!.!.!.!.!.!.!.!.!.!.!.!.!.!.!.!.!.!.!.!.!.!.!.!.!.!.!.!.!.!.!.!.!.!.!.!.!.!.!.!.!.!.!.!.!.!.!.!.!.!.!.!.!.!.!.!.!.!.!.!.!.!.!.!.!.!.!.!.!.!.!.!.!.!.!.!.!.!.!.!.!.!.!.!.!.!.!.!.!.!.!.!.!.!.!.!.!.!.!.!.!.!.!.!.!.!.!.!.!.!.!.!.!.!.!.!.!.!.!.!.!.!.!.!.!.!.!.!.!.!.!.!.!.!.!.!.!.!.!.!.!.!.!.!.!.!.!.!.!.!.!.!.!.!.!.!.!.!.!.!.!.!.!.!.!.!.!.!.!.!.!.!.!.!.!.!.!.!.!.!.!.!.!.!.!.!.!.!.!.!.!.!.!.!.!.!.!.!.!.!.!.!.!.!.!.!.!.!.!.!.!.!.!.!.!.!.!.!.!.!.!.",
"!.!.!.!.!.!.!.!.!.!.!.!.!.!.!.!.!.!.!.!.!.!.!.!.!.!.!.!.!.!.!.!.!.!.!.!.!.!.!.!.!.!.!.!.!.!.!.!.!.!.!.!.!.!.!.!.!.!.!.!.!.!.!.!.!.!.!.!.!.!.!.!.!.!.!.!.!.!.!.!.!.!.!.!.!.!.!.!.!.!.!.!.!.!.!.!.!.!.!.!.!.!.!.!.!.!.!.!.!.!.!.!.!.!.!.!.!.!.!.!.!.!.!.!.!.!.!.!.!.!.!.!.!.!.!.!.!.!.!.!.!.!.!.!.!.!.!.!.!.!.!.!.!.!.!.!.!.!.!.!.!.!.!.!.!.!.!.!.!.!.!.!.!.!.!.!.!.!.!.!.!.!.!.!.!.!.!.!.!.!.!.!.!.!.!.!.!.!.!.!.!.!.!.!.!.!.!.!.!.!.!.!.!.!.!.!.!.!.!.!.!.!.!.!.!.!.!.!.!.!.!.!.!.!.!.!.!.!.!.!.!.!.!.!.!.!.!.!.!.!.!.!.!.!.!.!.!.!.!.!.!.!.!.!.!.!.!.!.!.!.!.!.!.!.!.!.!.!.!.!.!.!.!.!.!.!.!.!.!.!.!.!.!.!.!.!.!.!.!.!.!.!.!.!.!.!.!.!.!.!.!.!.!.!.!.!.!.!.!.!.!.!.!.!.!.!.!.!.!.!.!.!.!.!.!.!.!.!.!.!.!.!.!.!.!.!.!.!.!.!.!.!.!.!.!.!.!.!.!.!.!.!.!.!.!.!.!.!.!.!.!.!.!.!.!.!.!.!.!.!.!.!.!.!.!.!.!.!.!.!.!.!.!.!.!.!.!.!.!.!.!.!.!.!.!.!.!.!.!.!.!.!.!.!.!.!.!.!.!.!.!.!.!.!.!.!.!.!.!.!.!.!.!.!.!.!.!.!.!.!.!.!.!.!.!.!.!.!.!.!.!.!.!.!.!.!.!.!.!.!.!.!.!.!.!.!.!.!.!.!.!.!.!.!.!.!.!.!.!.!.!.!.!.!.!.!.!.!.!.!.!.!.!.!.!.!.!.!.!.!.!.!.!.!.!.!.!.!.!.!.!.!.!.!.!.!.!.!.!.!.!.!.!.!.!.!.!.!.!.!.!.!.!.!.!.!.!.!.!.!.!.!.!.!.!.!.!.!.!.!.!.!.!.!.!.!.!.!.!.!.!.!.!.!.!.!.!.!.!.!.!.!.!.!.!.!.!.!.!.!.!.!.!.",
"!.!.!.!.!.!.!.!.!.!.!.!.!.!.!.!.!.!.!.!.!.!.!.!.!.!.!.!.!.!.!.!.!.!.!.!.!.!.!.!.!.!.!.!.!.!.!.!.!.!.!.!.!.!.!.!.!.!.!.!.!.!.!.!.!.!.!.!.!.!.!.!.!.!.!.!.!.!.!.!.!.!.!.!.!.!.!.!.!.!.!.!.!.!.!.!.!.!.!.!.!.!.!.!.!.!.!.!.!.!.!.!.!.!.!.!.!.!.!.!.!.!.!.!.!.!.!.!.!.!.!.!.!.!.!.!.!.!.!.!.!.!.!.!.!.!.!.!.!.!.!.!.!.!.!.!.!.!.!.!.!.!.!.!.!.!.!.!.!.!.!.!.!.!.!.!.!.!.!.!.!.!.!.!.!.!.!.!.!.!.!.!.!.!.!.!.!.!.!.!.!.!.!.!.!.!.!.!.!.!.!.!.!.!.!.!.!.!.!.!.!.!.!.!.!.!.!.!.!.!.!.!.!.!.!.!.!.!.!.!.!.!.!.!.!.!.!.!.!.!.!.!.!.!.!.!.!.!.!.!.!.!.!.!.!.!.!.!.!.!.!.!.!.!.!.!.!.!.!.!.!.!.!.!.!.!.!.!.!.!.!.!.!.!.!.!.!.!.!.!.!.!.!.!.!.!.!.!.!.!.!.!.!.!.!.!.!.!.!.!.!.!.!.!.!.!.!.!.!.!.!.!.!.!.!.!.!.!.!.!.!.!.!.!.!.!.!.!.!.!.!.!.!.!.!.!.!.!.!.!.!.!.!.!.!.!.!.!.!.!.!.!.!.!.!.!.!.!.!.!.!.!.!.!.!.!.!.!.!.!.!.!.!.!.!.!.!.!.!.!.!.!.!.!.!.!.!.!.!.!.!.!.!.!.!.!.!.!.!.!.!.!.!.!.!.!.!.!.!.!.!.!.!.!.!.!.!.!.!.!.!.!.!.!.!.!.!.!.!.!.!.!.!.!.!.!.!.!.!.!.!.!.!.!.!.!.!.!.!.!.!.!.!.!.!.!.!.!.!.!.!.!.!.!.!.!.!.!.!.!.!.!.!.!.!.!.!.!.!.!.!.!.!.!.!.!.!.!.!.!.!.!.!.!.!.!.!.!.!.!.!.!.!.!.!.!.!.!.!.!.!.!.!.!.!.!.!.!.!.!.!.!.!.!.!.!.!.!.!.!.!.!.!.!.!.!.!.!.!.!.!.!.!.!.!.!.!.!.!.!.!.!.!.!.!.!.!.!.!.!.!.!.!.",
"!.!.!.!.!.!.!.!.!.!.!.!.!.!.!.!.!.!.!.!.!.!.!.!.!.!.!.!.!.!.!.!.!.!.!.!.!.!.!.!.!.!.!.!.!.!.!.!.!.!.!.!.!.!.!.!.!.!.!.!.!.!.!.!.!.!.!.!.!.!.!.!.!.!.!.!.!.!.!.!.!.!.!.!.!.!.!.!.!.!.!.!.!.!.!.!.!.!.!.!.!.!.!.!.!.!.!.!.!.!.!.!.!.!.!.!.!.!.!.!.!.!.!.!.!.!.!.!.!.!.!.!.!.!.!.!.!.!.!.!.!.!.!.!.!.!.!.!.!.!.!.!.!.!.!.!.!.!.!.!.!.!.!.!.!.!.!.!.!.!.!.!.!.!.!.!.!.!.!.!.!.!.!.!.!.!.!.!.!.!.!.!.!.!.!.!.!.!.!.!.!.!.!.!.!.!.!.!.!.!.!.!.!.!.!.!.!.!.!.!.!.!.!.!.!.!.!.!.!.!.!.!.!.!.!.!.!.!.!.!.!.!.!.!.!.!.!.!.!.!.!.!.!.!.!.!.!.!.!.!.!.!.!.!.!.!.!.!.!.!.!.!.!.!.!.!.!.!.!.!.!.!.!.!.!.!.!.!.!.!.!.!.!.!.!.!.!.!.!.!.!.!.!.!.!.!.!.!.!.!.!.!.!.!.!.!.!.!.!.!.!.!.!.!.!.!.!.!.!.!.!.!.!.!.!.!.!.!.!.!.!.!.!.!.!.!.!.!.!.!.!.!.!.!.!.!.!.!.!.!.!.!.!.!.!.!.!.!.!.!.!.!.!.!.!.!.!.!.!.!.!.!.!.!.!.!.!.!.!.!.!.!.!.!.!.!.!.!.!.!.!.!.!.!.!.!.!.!.!.!.!.!.!.!.!.!.!.!.!.!.!.!.!.!.!.!.!.!.!.!.!.!.!.!.!.!.!.!.!.!.!.!.!.!.!.!.!.!.!.!.!.!.!.!.!.!.!.!.!.!.!.!.!.!.!.!.!.!.!.!.!.!.!.!.!.!.!.!.!.!.!.!.!.!.!.!.!.!.!.!.!.!.!.!.!.!.!.!.!.!.!.!.!.!.!.!.!.!.!.!.!.!.!.!.!.!.!.!.!.!.!.!.!.!.!.!.!.!.!.!.!.!.!.!.!.!.!.!.!.!.!.!.!.!.!.!.!.!.!.!.!.!.!.!.!.!.!.!.!.!.!.!.!.!.!.!.!.!.!.!.!.!.!.!.!.!.!.!.!.!.!.!.!.",
"!.!.!.!.!.!.!.!.!.!.!.!.!.!.!.!.!.!.!.!.!.!.!.!.!.!.!.!.!.!.!.!.!.!.!.!.!.!.!.!.!.!.!.!.!.!.!.!.!.!.!.!.!.!.!.!.!.!.!.!.!.!.!.!.!.!.!.!.!.!.!.!.!.!.!.!.!.!.!.!.!.!.!.!.!.!.!.!.!.!.!.!.!.!.!.!.!.!.!.!.!.!.!.!.!.!.!.!.!.!.!.!.!.!.!.!.!.!.!.!.!.!.!.!.!.!.!.!.!.!.!.!.!.!.!.!.!.!.!.!.!.!.!.!.!.!.!.!.!.!.!.!.!.!.!.!.!.!.!.!.!.!.!.!.!.!.!.!.!.!.!.!.!.!.!.!.!.!.!.!.!.!.!.!.!.!.!.!.!.!.!.!.!.!.!.!.!.!.!.!.!.!.!.!.!.!.!.!.!.!.!.!.!.!.!.!.!.!.!.!.!.!.!.!.!.!.!.!.!.!.!.!.!.!.!.!.!.!.!.!.!.!.!.!.!.!.!.!.!.!.!.!.!.!.!.!.!.!.!.!.!.!.!.!.!.!.!.!.!.!.!.!.!.!.!.!.!.!.!.!.!.!.!.!.!.!.!.!.!.!.!.!.!.!.!.!.!.!.!.!.!.!.!.!.!.!.!.!.!.!.!.!.!.!.!.!.!.!.!.!.!.!.!.!.!.!.!.!.!.!.!.!.!.!.!.!.!.!.!.!.!.!.!.!.!.!.!.!.!.!.!.!.!.!.!.!.!.!.!.!.!.!.!.!.!.!.!.!.!.!.!.!.!.!.!.!.!.!.!.!.!.!.!.!.!.!.!.!.!.!.!.!.!.!.!.!.!.!.!.!.!.!.!.!.!.!.!.!.!.!.!.!.!.!.!.!.!.!.!.!.!.!.!.!.!.!.!.!.!.!.!.!.!.!.!.!.!.!.!.!.!.!.!.!.!.!.!.!.!.!.!.!.!.!.!.!.!.!.!.!.!.!.!.!.!.!.!.!.!.!.!.!.!.!.!.!.!.!.!.!.!.!.!.!.!.!.!.!.!.!.!.!.!.!.!.!.!.!.!.!.!.!.!.!.!.!.!.!.!.!.!.!.!.!.!.!.!.!.!.!.!.!.!.!.!.!.!.!.!.!.!.!.!.!.!.!.!.!.!.!.!.!.!.!.!.!.!.!.!.!.!.!.!.!.!.!.!.!.!.!.!.!.!.!.!.!.!.!.!.!.!.!.!.!.!.!.!.!.!.!.!.!.!.",
"!.!.!.!.!.!.!.!.!.!.!.!.!.!.!.!.!.!.!.!.!.!.!.!.!.!.!.!.!.!.!.!.!.!.!.!.!.!.!.!.!.!.!.!.!.!.!.!.!.!.!.!.!.!.!.!.!.!.!.!.!.!.!.!.!.!.!.!.!.!.!.!.!.!.!.!.!.!.!.!.!.!.!.!.!.!.!.!.!.!.!.!.!.!.!.!.!.!.!.!.!.!.!.!.!.!.!.!.!.!.!.!.!.!.!.!.!.!.!.!.!.!.!.!.!.!.!.!.!.!.!.!.!.!.!.!.!.!.!.!.!.!.!.!.!.!.!.!.!.!.!.!.!.!.!.!.!.!.!.!.!.!.!.!.!.!.!.!.!.!.!.!.!.!.!.!.!.!.!.!.!.!.!.!.!.!.!.!.!.!.!.!.!.!.!.!.!.!.!.!.!.!.!.!.!.!.!.!.!.!.!.!.!.!.!.!.!.!.!.!.!.!.!.!.!.!.!.!.!.!.!.!.!.!.!.!.!.!.!.!.!.!.!.!.!.!.!.!.!.!.!.!.!.!.!.!.!.!.!.!.!.!.!.!.!.!.!.!.!.!.!.!.!.!.!.!.!.!.!.!.!.!.!.!.!.!.!.!.!.!.!.!.!.!.!.!.!.!.!.!.!.!.!.!.!.!.!.!.!.!.!.!.!.!.!.!.!.!.!.!.!.!.!.!.!.!.!.!.!.!.!.!.!.!.!.!.!.!.!.!.!.!.!.!.!.!.!.!.!.!.!.!.!.!.!.!.!.!.!.!.!.!.!.!.!.!.!.!.!.!.!.!.!.!.!.!.!.!.!.!.!.!.!.!.!.!.!.!.!.!.!.!.!.!.!.!.!.!.!.!.!.!.!.!.!.!.!.!.!.!.!.!.!.!.!.!.!.!.!.!.!.!.!.!.!.!.!.!.!.!.!.!.!.!.!.!.!.!.!.!.!.!.!.!.!.!.!.!.!.!.!.!.!.!.!.!.!.!.!.!.!.!.!.!.!.!.!.!.!.!.!.!.!.!.!.!.!.!.!.!.!.!.!.!.!.!.!.!.!.!.!.!.!.!.!.!.!.!.!.!.!.!.!.!.!.!.!.!.!.!.!.!.!.!.!.!.!.!.!.!.!.!.!.!.!.!.!.!.!.!.!.!.!.!.!.!.!.!.!.!.!.!.!.!.!.!.!.!.!.!.!.!.!.!.!.!.!.!.!.!.!.!.!.!.!.!.!.!.!.!.!.!.!.!.!.!.!.!.!.!.!.!.!.",
"!.!.!.!.!.!.!.!.!.!.!.!.!.!.!.!.!.!.!.!.!.!.!.!.!.!.!.!.!.!.!.!.!.!.!.!.!.!.!.!.!.!.!.!.!.!.!.!.!.!.!.!.!.!.!.!.!.!.!.!.!.!.!.!.!.!.!.!.!.!.!.!.!.!.!.!.!.!.!.!.!.!.!.!.!.!.!.!.!.!.!.!.!.!.!.!.!.!.!.!.!.!.!.!.!.!.!.!.!.!.!.!.!.!.!.!.!.!.!.!.!.!.!.!.!.!.!.!.!.!.!.!.!.!.!.!.!.!.!.!.!.!.!.!.!.!.!.!.!.!.!.!.!.!.!.!.!.!.!.!.!.!.!.!.!.!.!.!.!.!.!.!.!.!.!.!.!.!.!.!.!.!.!.!.!.!.!.!.!.!.!.!.!.!.!.!.!.!.!.!.!.!.!.!.!.!.!.!.!.!.!.!.!.!.!.!.!.!.!.!.!.!.!.!.!.!.!.!.!.!.!.!.!.!.!.!.!.!.!.!.!.!.!.!.!.!.!.!.!.!.!.!.!.!.!.!.!.!.!.!.!.!.!.!.!.!.!.!.!.!.!.!.!.!.!.!.!.!.!.!.!.!.!.!.!.!.!.!.!.!.!.!.!.!.!.!.!.!.!.!.!.!.!.!.!.!.!.!.!.!.!.!.!.!.!.!.!.!.!.!.!.!.!.!.!.!.!.!.!.!.!.!.!.!.!.!.!.!.!.!.!.!.!.!.!.!.!.!.!.!.!.!.!.!.!.!.!.!.!.!.!.!.!.!.!.!.!.!.!.!.!.!.!.!.!.!.!.!.!.!.!.!.!.!.!.!.!.!.!.!.!.!.!.!.!.!.!.!.!.!.!.!.!.!.!.!.!.!.!.!.!.!.!.!.!.!.!.!.!.!.!.!.!.!.!.!.!.!.!.!.!.!.!.!.!.!.!.!.!.!.!.!.!.!.!.!.!.!.!.!.!.!.!.!.!.!.!.!.!.!.!.!.!.!.!.!.!.!.!.!.!.!.!.!.!.!.!.!.!.!.!.!.!.!.!.!.!.!.!.!.!.!.!.!.!.!.!.!.!.!.!.!.!.!.!.!.!.!.!.!.!.!.!.!.!.!.!.!.!.!.!.!.!.!.!.!.!.!.!.!.!.!.!.!.!.!.!.!.!.!.!.!.!.!.!.!.!.!.!.!.!.!.!.!.!.!.!.!.!.!.!.!.!.!.!.!.!.!.!.!.!.!.!.!.!.!.!.!.!.!.!.!.!.",
"!.!.!.!.!.!.!.!.!.!.!.!.!.!.!.!.!.!.!.!.!.!.!.!.!.!.!.!.!.!.!.!.!.!.!.!.!.!.!.!.!.!.!.!.!.!.!.!.!.!.!.!.!.!.!.!.!.!.!.!.!.!.!.!.!.!.!.!.!.!.!.!.!.!.!.!.!.!.!.!.!.!.!.!.!.!.!.!.!.!.!.!.!.!.!.!.!.!.!.!.!.!.!.!.!.!.!.!.!.!.!.!.!.!.!.!.!.!.!.!.!.!.!.!.!.!.!.!.!.!.!.!.!.!.!.!.!.!.!.!.!.!.!.!.!.!.!.!.!.!.!.!.!.!.!.!.!.!.!.!.!.!.!.!.!.!.!.!.!.!.!.!.!.!.!.!.!.!.!.!.!.!.!.!.!.!.!.!.!.!.!.!.!.!.!.!.!.!.!.!.!.!.!.!.!.!.!.!.!.!.!.!.!.!.!.!.!.!.!.!.!.!.!.!.!.!.!.!.!.!.!.!.!.!.!.!.!.!.!.!.!.!.!.!.!.!.!.!.!.!.!.!.!.!.!.!.!.!.!.!.!.!.!.!.!.!.!.!.!.!.!.!.!.!.!.!.!.!.!.!.!.!.!.!.!.!.!.!.!.!.!.!.!.!.!.!.!.!.!.!.!.!.!.!.!.!.!.!.!.!.!.!.!.!.!.!.!.!.!.!.!.!.!.!.!.!.!.!.!.!.!.!.!.!.!.!.!.!.!.!.!.!.!.!.!.!.!.!.!.!.!.!.!.!.!.!.!.!.!.!.!.!.!.!.!.!.!.!.!.!.!.!.!.!.!.!.!.!.!.!.!.!.!.!.!.!.!.!.!.!.!.!.!.!.!.!.!.!.!.!.!.!.!.!.!.!.!.!.!.!.!.!.!.!.!.!.!.!.!.!.!.!.!.!.!.!.!.!.!.!.!.!.!.!.!.!.!.!.!.!.!.!.!.!.!.!.!.!.!.!.!.!.!.!.!.!.!.!.!.!.!.!.!.!.!.!.!.!.!.!.!.!.!.!.!.!.!.!.!.!.!.!.!.!.!.!.!.!.!.!.!.!.!.!.!.!.!.!.!.!.!.!.!.!.!.!.!.!.!.!.!.!.!.!.!.!.!.!.!.!.!.!.!.!.!.!.!.!.!.!.!.!.!.!.!.!.!.!.!.!.!.!.!.!.!.!.!.!.!.!.!.!.!.!.!.!.!.!.!.!.!.!.!.!.!.!.!.!.!.!.!.!.!.!.!.!.!.!.!.!.!.!.!.",
"!.!.!.!.!.!.!.!.!.!.!.!.!.!.!.!.!.!.!.!.!.!.!.!.!.!.!.!.!.!.!.!.!.!.!.!.!.!.!.!.!.!.!.!.!.!.!.!.!.!.!.!.!.!.!.!.!.!.!.!.!.!.!.!.!.!.!.!.!.!.!.!.!.!.!.!.!.!.!.!.!.!.!.!.!.!.!.!.!.!.!.!.!.!.!.!.!.!.!.!.!.!.!.!.!.!.!.!.!.!.!.!.!.!.!.!.!.!.!.!.!.!.!.!.!.!.!.!.!.!.!.!.!.!.!.!.!.!.!.!.!.!.!.!.!.!.!.!.!.!.!.!.!.!.!.!.!.!.!.!.!.!.!.!.!.!.!.!.!.!.!.!.!.!.!.!.!.!.!.!.!.!.!.!.!.!.!.!.!.!.!.!.!.!.!.!.!.!.!.!.!.!.!.!.!.!.!.!.!.!.!.!.!.!.!.!.!.!.!.!.!.!.!.!.!.!.!.!.!.!.!.!.!.!.!.!.!.!.!.!.!.!.!.!.!.!.!.!.!.!.!.!.!.!.!.!.!.!.!.!.!.!.!.!.!.!.!.!.!.!.!.!.!.!.!.!.!.!.!.!.!.!.!.!.!.!.!.!.!.!.!.!.!.!.!.!.!.!.!.!.!.!.!.!.!.!.!.!.!.!.!.!.!.!.!.!.!.!.!.!.!.!.!.!.!.!.!.!.!.!.!.!.!.!.!.!.!.!.!.!.!.!.!.!.!.!.!.!.!.!.!.!.!.!.!.!.!.!.!.!.!.!.!.!.!.!.!.!.!.!.!.!.!.!.!.!.!.!.!.!.!.!.!.!.!.!.!.!.!.!.!.!.!.!.!.!.!.!.!.!.!.!.!.!.!.!.!.!.!.!.!.!.!.!.!.!.!.!.!.!.!.!.!.!.!.!.!.!.!.!.!.!.!.!.!.!.!.!.!.!.!.!.!.!.!.!.!.!.!.!.!.!.!.!.!.!.!.!.!.!.!.!.!.!.!.!.!.!.!.!.!.!.!.!.!.!.!.!.!.!.!.!.!.!.!.!.!.!.!.!.!.!.!.!.!.!.!.!.!.!.!.!.!.!.!.!.!.!.!.!.!.!.!.!.!.!.!.!.!.!.!.!.!.!.!.!.!.!.!.!.!.!.!.!.!.!.!.!.!.!.!.!.!.!.!.!.!.!.!.!.!.!.!.!.!.!.!.!.!.!.!.!.!.!.!.!.!.!.!.!.!.!.!.!.!.!.!.!.!.!.!.!.!.",
"!.!.!.!.!.!.!.!.!.!.!.!.!.!.!.!.!.!.!.!.!.!.!.!.!.!.!.!.!.!.!.!.!.!.!.!.!.!.!.!.!.!.!.!.!.!.!.!.!.!.!.!.!.!.!.!.!.!.!.!.!.!.!.!.!.!.!.!.!.!.!.!.!.!.!.!.!.!.!.!.!.!.!.!.!.!.!.!.!.!.!.!.!.!.!.!.!.!.!.!.!.!.!.!.!.!.!.!.!.!.!.!.!.!.!.!.!.!.!.!.!.!.!.!.!.!.!.!.!.!.!.!.!.!.!.!.!.!.!.!.!.!.!.!.!.!.!.!.!.!.!.!.!.!.!.!.!.!.!.!.!.!.!.!.!.!.!.!.!.!.!.!.!.!.!.!.!.!.!.!.!.!.!.!.!.!.!.!.!.!.!.!.!.!.!.!.!.!.!.!.!.!.!.!.!.!.!.!.!.!.!.!.!.!.!.!.!.!.!.!.!.!.!.!.!.!.!.!.!.!.!.!.!.!.!.!.!.!.!.!.!.!.!.!.!.!.!.!.!.!.!.!.!.!.!.!.!.!.!.!.!.!.!.!.!.!.!.!.!.!.!.!.!.!.!.!.!.!.!.!.!.!.!.!.!.!.!.!.!.!.!.!.!.!.!.!.!.!.!.!.!.!.!.!.!.!.!.!.!.!.!.!.!.!.!.!.!.!.!.!.!.!.!.!.!.!.!.!.!.!.!.!.!.!.!.!.!.!.!.!.!.!.!.!.!.!.!.!.!.!.!.!.!.!.!.!.!.!.!.!.!.!.!.!.!.!.!.!.!.!.!.!.!.!.!.!.!.!.!.!.!.!.!.!.!.!.!.!.!.!.!.!.!.!.!.!.!.!.!.!.!.!.!.!.!.!.!.!.!.!.!.!.!.!.!.!.!.!.!.!.!.!.!.!.!.!.!.!.!.!.!.!.!.!.!.!.!.!.!.!.!.!.!.!.!.!.!.!.!.!.!.!.!.!.!.!.!.!.!.!.!.!.!.!.!.!.!.!.!.!.!.!.!.!.!.!.!.!.!.!.!.!.!.!.!.!.!.!.!.!.!.!.!.!.!.!.!.!.!.!.!.!.!.!.!.!.!.!.!.!.!.!.!.!.!.!.!.!.!.!.!.!.!.!.!.!.!.!.!.!.!.!.!.!.!.!.!.!.!.!.!.!.!.!.!.!.!.!.!.!.!.!.!.!.!.!.!.!.!.!.!.!.!.!.!.!.!.!.!.!.!.!.!.!.!.!.!.!.!.!.!.!.!.",
"!.!.!.!.!.!.!.!.!.!.!.!.!.!.!.!.!.!.!.!.!.!.!.!.!.!.!.!.!.!.!.!.!.!.!.!.!.!.!.!.!.!.!.!.!.!.!.!.!.!.!.!.!.!.!.!.!.!.!.!.!.!.!.!.!.!.!.!.!.!.!.!.!.!.!.!.!.!.!.!.!.!.!.!.!.!.!.!.!.!.!.!.!.!.!.!.!.!.!.!.!.!.!.!.!.!.!.!.!.!.!.!.!.!.!.!.!.!.!.!.!.!.!.!.!.!.!.!.!.!.!.!.!.!.!.!.!.!.!.!.!.!.!.!.!.!.!.!.!.!.!.!.!.!.!.!.!.!.!.!.!.!.!.!.!.!.!.!.!.!.!.!.!.!.!.!.!.!.!.!.!.!.!.!.!.!.!.!.!.!.!.!.!.!.!.!.!.!.!.!.!.!.!.!.!.!.!.!.!.!.!.!.!.!.!.!.!.!.!.!.!.!.!.!.!.!.!.!.!.!.!.!.!.!.!.!.!.!.!.!.!.!.!.!.!.!.!.!.!.!.!.!.!.!.!.!.!.!.!.!.!.!.!.!.!.!.!.!.!.!.!.!.!.!.!.!.!.!.!.!.!.!.!.!.!.!.!.!.!.!.!.!.!.!.!.!.!.!.!.!.!.!.!.!.!.!.!.!.!.!.!.!.!.!.!.!.!.!.!.!.!.!.!.!.!.!.!.!.!.!.!.!.!.!.!.!.!.!.!.!.!.!.!.!.!.!.!.!.!.!.!.!.!.!.!.!.!.!.!.!.!.!.!.!.!.!.!.!.!.!.!.!.!.!.!.!.!.!.!.!.!.!.!.!.!.!.!.!.!.!.!.!.!.!.!.!.!.!.!.!.!.!.!.!.!.!.!.!.!.!.!.!.!.!.!.!.!.!.!.!.!.!.!.!.!.!.!.!.!.!.!.!.!.!.!.!.!.!.!.!.!.!.!.!.!.!.!.!.!.!.!.!.!.!.!.!.!.!.!.!.!.!.!.!.!.!.!.!.!.!.!.!.!.!.!.!.!.!.!.!.!.!.!.!.!.!.!.!.!.!.!.!.!.!.!.!.!.!.!.!.!.!.!.!.!.!.!.!.!.!.!.!.!.!.!.!.!.!.!.!.!.!.!.!.!.!.!.!.!.!.!.!.!.!.!.!.!.!.!.!.!.!.!.!.!.!.!.!.!.!.!.!.!.!.!.!.!.!.!.!.!.!.!.!.!.!.!.!.!.!.!.!.!.!.!.!.!.!.!.!.!.!.!.",
"!.!.!.!.!.!.!.!.!.!.!.!.!.!.!.!.!.!.!.!.!.!.!.!.!.!.!.!.!.!.!.!.!.!.!.!.!.!.!.!.!.!.!.!.!.!.!.!.!.!.!.!.!.!.!.!.!.!.!.!.!.!.!.!.!.!.!.!.!.!.!.!.!.!.!.!.!.!.!.!.!.!.!.!.!.!.!.!.!.!.!.!.!.!.!.!.!.!.!.!.!.!.!.!.!.!.!.!.!.!.!.!.!.!.!.!.!.!.!.!.!.!.!.!.!.!.!.!.!.!.!.!.!.!.!.!.!.!.!.!.!.!.!.!.!.!.!.!.!.!.!.!.!.!.!.!.!.!.!.!.!.!.!.!.!.!.!.!.!.!.!.!.!.!.!.!.!.!.!.!.!.!.!.!.!.!.!.!.!.!.!.!.!.!.!.!.!.!.!.!.!.!.!.!.!.!.!.!.!.!.!.!.!.!.!.!.!.!.!.!.!.!.!.!.!.!.!.!.!.!.!.!.!.!.!.!.!.!.!.!.!.!.!.!.!.!.!.!.!.!.!.!.!.!.!.!.!.!.!.!.!.!.!.!.!.!.!.!.!.!.!.!.!.!.!.!.!.!.!.!.!.!.!.!.!.!.!.!.!.!.!.!.!.!.!.!.!.!.!.!.!.!.!.!.!.!.!.!.!.!.!.!.!.!.!.!.!.!.!.!.!.!.!.!.!.!.!.!.!.!.!.!.!.!.!.!.!.!.!.!.!.!.!.!.!.!.!.!.!.!.!.!.!.!.!.!.!.!.!.!.!.!.!.!.!.!.!.!.!.!.!.!.!.!.!.!.!.!.!.!.!.!.!.!.!.!.!.!.!.!.!.!.!.!.!.!.!.!.!.!.!.!.!.!.!.!.!.!.!.!.!.!.!.!.!.!.!.!.!.!.!.!.!.!.!.!.!.!.!.!.!.!.!.!.!.!.!.!.!.!.!.!.!.!.!.!.!.!.!.!.!.!.!.!.!.!.!.!.!.!.!.!.!.!.!.!.!.!.!.!.!.!.!.!.!.!.!.!.!.!.!.!.!.!.!.!.!.!.!.!.!.!.!.!.!.!.!.!.!.!.!.!.!.!.!.!.!.!.!.!.!.!.!.!.!.!.!.!.!.!.!.!.!.!.!.!.!.!.!.!.!.!.!.!.!.!.!.!.!.!.!.!.!.!.!.!.!.!.!.!.!.!.!.!.!.!.!.!.!.!.!.!.!.!.!.!.!.!.!.!.!.!.!.!.!.!.!.!.!.!.!.!.!.",
"!.!.!.!.!.!.!.!.!.!.!.!.!.!.!.!.!.!.!.!.!.!.!.!.!.!.!.!.!.!.!.!.!.!.!.!.!.!.!.!.!.!.!.!.!.!.!.!.!.!.!.!.!.!.!.!.!.!.!.!.!.!.!.!.!.!.!.!.!.!.!.!.!.!.!.!.!.!.!.!.!.!.!.!.!.!.!.!.!.!.!.!.!.!.!.!.!.!.!.!.!.!.!.!.!.!.!.!.!.!.!.!.!.!.!.!.!.!.!.!.!.!.!.!.!.!.!.!.!.!.!.!.!.!.!.!.!.!.!.!.!.!.!.!.!.!.!.!.!.!.!.!.!.!.!.!.!.!.!.!.!.!.!.!.!.!.!.!.!.!.!.!.!.!.!.!.!.!.!.!.!.!.!.!.!.!.!.!.!.!.!.!.!.!.!.!.!.!.!.!.!.!.!.!.!.!.!.!.!.!.!.!.!.!.!.!.!.!.!.!.!.!.!.!.!.!.!.!.!.!.!.!.!.!.!.!.!.!.!.!.!.!.!.!.!.!.!.!.!.!.!.!.!.!.!.!.!.!.!.!.!.!.!.!.!.!.!.!.!.!.!.!.!.!.!.!.!.!.!.!.!.!.!.!.!.!.!.!.!.!.!.!.!.!.!.!.!.!.!.!.!.!.!.!.!.!.!.!.!.!.!.!.!.!.!.!.!.!.!.!.!.!.!.!.!.!.!.!.!.!.!.!.!.!.!.!.!.!.!.!.!.!.!.!.!.!.!.!.!.!.!.!.!.!.!.!.!.!.!.!.!.!.!.!.!.!.!.!.!.!.!.!.!.!.!.!.!.!.!.!.!.!.!.!.!.!.!.!.!.!.!.!.!.!.!.!.!.!.!.!.!.!.!.!.!.!.!.!.!.!.!.!.!.!.!.!.!.!.!.!.!.!.!.!.!.!.!.!.!.!.!.!.!.!.!.!.!.!.!.!.!.!.!.!.!.!.!.!.!.!.!.!.!.!.!.!.!.!.!.!.!.!.!.!.!.!.!.!.!.!.!.!.!.!.!.!.!.!.!.!.!.!.!.!.!.!.!.!.!.!.!.!.!.!.!.!.!.!.!.!.!.!.!.!.!.!.!.!.!.!.!.!.!.!.!.!.!.!.!.!.!.!.!.!.!.!.!.!.!.!.!.!.!.!.!.!.!.!.!.!.!.!.!.!.!.!.!.!.!.!.!.!.!.!.!.!.!.!.!.!.!.!.!.!.!.!.!.!.!.!.!.!.!.!.!.!.!.!.!.!.!.!.!.",
"!.!.!.!.!.!.!.!.!.!.!.!.!.!.!.!.!.!.!.!.!.!.!.!.!.!.!.!.!.!.!.!.!.!.!.!.!.!.!.!.!.!.!.!.!.!.!.!.!.!.!.!.!.!.!.!.!.!.!.!.!.!.!.!.!.!.!.!.!.!.!.!.!.!.!.!.!.!.!.!.!.!.!.!.!.!.!.!.!.!.!.!.!.!.!.!.!.!.!.!.!.!.!.!.!.!.!.!.!.!.!.!.!.!.!.!.!.!.!.!.!.!.!.!.!.!.!.!.!.!.!.!.!.!.!.!.!.!.!.!.!.!.!.!.!.!.!.!.!.!.!.!.!.!.!.!.!.!.!.!.!.!.!.!.!.!.!.!.!.!.!.!.!.!.!.!.!.!.!.!.!.!.!.!.!.!.!.!.!.!.!.!.!.!.!.!.!.!.!.!.!.!.!.!.!.!.!.!.!.!.!.!.!.!.!.!.!.!.!.!.!.!.!.!.!.!.!.!.!.!.!.!.!.!.!.!.!.!.!.!.!.!.!.!.!.!.!.!.!.!.!.!.!.!.!.!.!.!.!.!.!.!.!.!.!.!.!.!.!.!.!.!.!.!.!.!.!.!.!.!.!.!.!.!.!.!.!.!.!.!.!.!.!.!.!.!.!.!.!.!.!.!.!.!.!.!.!.!.!.!.!.!.!.!.!.!.!.!.!.!.!.!.!.!.!.!.!.!.!.!.!.!.!.!.!.!.!.!.!.!.!.!.!.!.!.!.!.!.!.!.!.!.!.!.!.!.!.!.!.!.!.!.!.!.!.!.!.!.!.!.!.!.!.!.!.!.!.!.!.!.!.!.!.!.!.!.!.!.!.!.!.!.!.!.!.!.!.!.!.!.!.!.!.!.!.!.!.!.!.!.!.!.!.!.!.!.!.!.!.!.!.!.!.!.!.!.!.!.!.!.!.!.!.!.!.!.!.!.!.!.!.!.!.!.!.!.!.!.!.!.!.!.!.!.!.!.!.!.!.!.!.!.!.!.!.!.!.!.!.!.!.!.!.!.!.!.!.!.!.!.!.!.!.!.!.!.!.!.!.!.!.!.!.!.!.!.!.!.!.!.!.!.!.!.!.!.!.!.!.!.!.!.!.!.!.!.!.!.!.!.!.!.!.!.!.!.!.!.!.!.!.!.!.!.!.!.!.!.!.!.!.!.!.!.!.!.!.!.!.!.!.!.!.!.!.!.!.!.!.!.!.!.!.!.!.!.!.!.!.!.!.!.!.!.!.!.!.!.!.!.!.!.!.",
"!.!.!.!.!.!.!.!.!.!.!.!.!.!.!.!.!.!.!.!.!.!.!.!.!.!.!.!.!.!.!.!.!.!.!.!.!.!.!.!.!.!.!.!.!.!.!.!.!.!.!.!.!.!.!.!.!.!.!.!.!.!.!.!.!.!.!.!.!.!.!.!.!.!.!.!.!.!.!.!.!.!.!.!.!.!.!.!.!.!.!.!.!.!.!.!.!.!.!.!.!.!.!.!.!.!.!.!.!.!.!.!.!.!.!.!.!.!.!.!.!.!.!.!.!.!.!.!.!.!.!.!.!.!.!.!.!.!.!.!.!.!.!.!.!.!.!.!.!.!.!.!.!.!.!.!.!.!.!.!.!.!.!.!.!.!.!.!.!.!.!.!.!.!.!.!.!.!.!.!.!.!.!.!.!.!.!.!.!.!.!.!.!.!.!.!.!.!.!.!.!.!.!.!.!.!.!.!.!.!.!.!.!.!.!.!.!.!.!.!.!.!.!.!.!.!.!.!.!.!.!.!.!.!.!.!.!.!.!.!.!.!.!.!.!.!.!.!.!.!.!.!.!.!.!.!.!.!.!.!.!.!.!.!.!.!.!.!.!.!.!.!.!.!.!.!.!.!.!.!.!.!.!.!.!.!.!.!.!.!.!.!.!.!.!.!.!.!.!.!.!.!.!.!.!.!.!.!.!.!.!.!.!.!.!.!.!.!.!.!.!.!.!.!.!.!.!.!.!.!.!.!.!.!.!.!.!.!.!.!.!.!.!.!.!.!.!.!.!.!.!.!.!.!.!.!.!.!.!.!.!.!.!.!.!.!.!.!.!.!.!.!.!.!.!.!.!.!.!.!.!.!.!.!.!.!.!.!.!.!.!.!.!.!.!.!.!.!.!.!.!.!.!.!.!.!.!.!.!.!.!.!.!.!.!.!.!.!.!.!.!.!.!.!.!.!.!.!.!.!.!.!.!.!.!.!.!.!.!.!.!.!.!.!.!.!.!.!.!.!.!.!.!.!.!.!.!.!.!.!.!.!.!.!.!.!.!.!.!.!.!.!.!.!.!.!.!.!.!.!.!.!.!.!.!.!.!.!.!.!.!.!.!.!.!.!.!.!.!.!.!.!.!.!.!.!.!.!.!.!.!.!.!.!.!.!.!.!.!.!.!.!.!.!.!.!.!.!.!.!.!.!.!.!.!.!.!.!.!.!.!.!.!.!.!.!.!.!.!.!.!.!.!.!.!.!.!.!.!.!.!.!.!.!.!.!.!.!.!.!.!.!.!.!.!.!.!.!.!.!.!.!.!.",
"!.!.!.!.!.!.!.!.!.!.!.!.!.!.!.!.!.!.!.!.!.!.!.!.!.!.!.!.!.!.!.!.!.!.!.!.!.!.!.!.!.!.!.!.!.!.!.!.!.!.!.!.!.!.!.!.!.!.!.!.!.!.!.!.!.!.!.!.!.!.!.!.!.!.!.!.!.!.!.!.!.!.!.!.!.!.!.!.!.!.!.!.!.!.!.!.!.!.!.!.!.!.!.!.!.!.!.!.!.!.!.!.!.!.!.!.!.!.!.!.!.!.!.!.!.!.!.!.!.!.!.!.!.!.!.!.!.!.!.!.!.!.!.!.!.!.!.!.!.!.!.!.!.!.!.!.!.!.!.!.!.!.!.!.!.!.!.!.!.!.!.!.!.!.!.!.!.!.!.!.!.!.!.!.!.!.!.!.!.!.!.!.!.!.!.!.!.!.!.!.!.!.!.!.!.!.!.!.!.!.!.!.!.!.!.!.!.!.!.!.!.!.!.!.!.!.!.!.!.!.!.!.!.!.!.!.!.!.!.!.!.!.!.!.!.!.!.!.!.!.!.!.!.!.!.!.!.!.!.!.!.!.!.!.!.!.!.!.!.!.!.!.!.!.!.!.!.!.!.!.!.!.!.!.!.!.!.!.!.!.!.!.!.!.!.!.!.!.!.!.!.!.!.!.!.!.!.!.!.!.!.!.!.!.!.!.!.!.!.!.!.!.!.!.!.!.!.!.!.!.!.!.!.!.!.!.!.!.!.!.!.!.!.!.!.!.!.!.!.!.!.!.!.!.!.!.!.!.!.!.!.!.!.!.!.!.!.!.!.!.!.!.!.!.!.!.!.!.!.!.!.!.!.!.!.!.!.!.!.!.!.!.!.!.!.!.!.!.!.!.!.!.!.!.!.!.!.!.!.!.!.!.!.!.!.!.!.!.!.!.!.!.!.!.!.!.!.!.!.!.!.!.!.!.!.!.!.!.!.!.!.!.!.!.!.!.!.!.!.!.!.!.!.!.!.!.!.!.!.!.!.!.!.!.!.!.!.!.!.!.!.!.!.!.!.!.!.!.!.!.!.!.!.!.!.!.!.!.!.!.!.!.!.!.!.!.!.!.!.!.!.!.!.!.!.!.!.!.!.!.!.!.!.!.!.!.!.!.!.!.!.!.!.!.!.!.!.!.!.!.!.!.!.!.!.!.!.!.!.!.!.!.!.!.!.!.!.!.!.!.!.!.!.!.!.!.!.!.!.!.!.!.!.!.!.!.!.!.!.!.!.!.!.!.!.!.!.!.!.!.!.!.!.",
"!.!.!.!.!.!.!.!.!.!.!.!.!.!.!.!.!.!.!.!.!.!.!.!.!.!.!.!.!.!.!.!.!.!.!.!.!.!.!.!.!.!.!.!.!.!.!.!.!.!.!.!.!.!.!.!.!.!.!.!.!.!.!.!.!.!.!.!.!.!.!.!.!.!.!.!.!.!.!.!.!.!.!.!.!.!.!.!.!.!.!.!.!.!.!.!.!.!.!.!.!.!.!.!.!.!.!.!.!.!.!.!.!.!.!.!.!.!.!.!.!.!.!.!.!.!.!.!.!.!.!.!.!.!.!.!.!.!.!.!.!.!.!.!.!.!.!.!.!.!.!.!.!.!.!.!.!.!.!.!.!.!.!.!.!.!.!.!.!.!.!.!.!.!.!.!.!.!.!.!.!.!.!.!.!.!.!.!.!.!.!.!.!.!.!.!.!.!.!.!.!.!.!.!.!.!.!.!.!.!.!.!.!.!.!.!.!.!.!.!.!.!.!.!.!.!.!.!.!.!.!.!.!.!.!.!.!.!.!.!.!.!.!.!.!.!.!.!.!.!.!.!.!.!.!.!.!.!.!.!.!.!.!.!.!.!.!.!.!.!.!.!.!.!.!.!.!.!.!.!.!.!.!.!.!.!.!.!.!.!.!.!.!.!.!.!.!.!.!.!.!.!.!.!.!.!.!.!.!.!.!.!.!.!.!.!.!.!.!.!.!.!.!.!.!.!.!.!.!.!.!.!.!.!.!.!.!.!.!.!.!.!.!.!.!.!.!.!.!.!.!.!.!.!.!.!.!.!.!.!.!.!.!.!.!.!.!.!.!.!.!.!.!.!.!.!.!.!.!.!.!.!.!.!.!.!.!.!.!.!.!.!.!.!.!.!.!.!.!.!.!.!.!.!.!.!.!.!.!.!.!.!.!.!.!.!.!.!.!.!.!.!.!.!.!.!.!.!.!.!.!.!.!.!.!.!.!.!.!.!.!.!.!.!.!.!.!.!.!.!.!.!.!.!.!.!.!.!.!.!.!.!.!.!.!.!.!.!.!.!.!.!.!.!.!.!.!.!.!.!.!.!.!.!.!.!.!.!.!.!.!.!.!.!.!.!.!.!.!.!.!.!.!.!.!.!.!.!.!.!.!.!.!.!.!.!.!.!.!.!.!.!.!.!.!.!.!.!.!.!.!.!.!.!.!.!.!.!.!.!.!.!.!.!.!.!.!.!.!.!.!.!.!.!.!.!.!.!.!.!.!.!.!.!.!.!.!.!.!.!.!.!.!.!.!.!.!.!.!.!.!.!.!.",
"!.!.!.!.!.!.!.!.!.!.!.!.!.!.!.!.!.!.!.!.!.!.!.!.!.!.!.!.!.!.!.!.!.!.!.!.!.!.!.!.!.!.!.!.!.!.!.!.!.!.!.!.!.!.!.!.!.!.!.!.!.!.!.!.!.!.!.!.!.!.!.!.!.!.!.!.!.!.!.!.!.!.!.!.!.!.!.!.!.!.!.!.!.!.!.!.!.!.!.!.!.!.!.!.!.!.!.!.!.!.!.!.!.!.!.!.!.!.!.!.!.!.!.!.!.!.!.!.!.!.!.!.!.!.!.!.!.!.!.!.!.!.!.!.!.!.!.!.!.!.!.!.!.!.!.!.!.!.!.!.!.!.!.!.!.!.!.!.!.!.!.!.!.!.!.!.!.!.!.!.!.!.!.!.!.!.!.!.!.!.!.!.!.!.!.!.!.!.!.!.!.!.!.!.!.!.!.!.!.!.!.!.!.!.!.!.!.!.!.!.!.!.!.!.!.!.!.!.!.!.!.!.!.!.!.!.!.!.!.!.!.!.!.!.!.!.!.!.!.!.!.!.!.!.!.!.!.!.!.!.!.!.!.!.!.!.!.!.!.!.!.!.!.!.!.!.!.!.!.!.!.!.!.!.!.!.!.!.!.!.!.!.!.!.!.!.!.!.!.!.!.!.!.!.!.!.!.!.!.!.!.!.!.!.!.!.!.!.!.!.!.!.!.!.!.!.!.!.!.!.!.!.!.!.!.!.!.!.!.!.!.!.!.!.!.!.!.!.!.!.!.!.!.!.!.!.!.!.!.!.!.!.!.!.!.!.!.!.!.!.!.!.!.!.!.!.!.!.!.!.!.!.!.!.!.!.!.!.!.!.!.!.!.!.!.!.!.!.!.!.!.!.!.!.!.!.!.!.!.!.!.!.!.!.!.!.!.!.!.!.!.!.!.!.!.!.!.!.!.!.!.!.!.!.!.!.!.!.!.!.!.!.!.!.!.!.!.!.!.!.!.!.!.!.!.!.!.!.!.!.!.!.!.!.!.!.!.!.!.!.!.!.!.!.!.!.!.!.!.!.!.!.!.!.!.!.!.!.!.!.!.!.!.!.!.!.!.!.!.!.!.!.!.!.!.!.!.!.!.!.!.!.!.!.!.!.!.!.!.!.!.!.!.!.!.!.!.!.!.!.!.!.!.!.!.!.!.!.!.!.!.!.!.!.!.!.!.!.!.!.!.!.!.!.!.!.!.!.!.!.!.!.!.!.!.!.!.!.!.!.!.!.!.!.!.!.!.!.!.!.!.!.!.",
"!.!.!.!.!.!.!.!.!.!.!.!.!.!.!.!.!.!.!.!.!.!.!.!.!.!.!.!.!.!.!.!.!.!.!.!.!.!.!.!.!.!.!.!.!.!.!.!.!.!.!.!.!.!.!.!.!.!.!.!.!.!.!.!.!.!.!.!.!.!.!.!.!.!.!.!.!.!.!.!.!.!.!.!.!.!.!.!.!.!.!.!.!.!.!.!.!.!.!.!.!.!.!.!.!.!.!.!.!.!.!.!.!.!.!.!.!.!.!.!.!.!.!.!.!.!.!.!.!.!.!.!.!.!.!.!.!.!.!.!.!.!.!.!.!.!.!.!.!.!.!.!.!.!.!.!.!.!.!.!.!.!.!.!.!.!.!.!.!.!.!.!.!.!.!.!.!.!.!.!.!.!.!.!.!.!.!.!.!.!.!.!.!.!.!.!.!.!.!.!.!.!.!.!.!.!.!.!.!.!.!.!.!.!.!.!.!.!.!.!.!.!.!.!.!.!.!.!.!.!.!.!.!.!.!.!.!.!.!.!.!.!.!.!.!.!.!.!.!.!.!.!.!.!.!.!.!.!.!.!.!.!.!.!.!.!.!.!.!.!.!.!.!.!.!.!.!.!.!.!.!.!.!.!.!.!.!.!.!.!.!.!.!.!.!.!.!.!.!.!.!.!.!.!.!.!.!.!.!.!.!.!.!.!.!.!.!.!.!.!.!.!.!.!.!.!.!.!.!.!.!.!.!.!.!.!.!.!.!.!.!.!.!.!.!.!.!.!.!.!.!.!.!.!.!.!.!.!.!.!.!.!.!.!.!.!.!.!.!.!.!.!.!.!.!.!.!.!.!.!.!.!.!.!.!.!.!.!.!.!.!.!.!.!.!.!.!.!.!.!.!.!.!.!.!.!.!.!.!.!.!.!.!.!.!.!.!.!.!.!.!.!.!.!.!.!.!.!.!.!.!.!.!.!.!.!.!.!.!.!.!.!.!.!.!.!.!.!.!.!.!.!.!.!.!.!.!.!.!.!.!.!.!.!.!.!.!.!.!.!.!.!.!.!.!.!.!.!.!.!.!.!.!.!.!.!.!.!.!.!.!.!.!.!.!.!.!.!.!.!.!.!.!.!.!.!.!.!.!.!.!.!.!.!.!.!.!.!.!.!.!.!.!.!.!.!.!.!.!.!.!.!.!.!.!.!.!.!.!.!.!.!.!.!.!.!.!.!.!.!.!.!.!.!.!.!.!.!.!.!.!.!.!.!.!.!.!.!.!.!.!.!.!.!.!.!.!.!.!.!.!.!.!.",
"!.!.!.!.!.!.!.!.!.!.!.!.!.!.!.!.!.!.!.!.!.!.!.!.!.!.!.!.!.!.!.!.!.!.!.!.!.!.!.!.!.!.!.!.!.!.!.!.!.!.!.!.!.!.!.!.!.!.!.!.!.!.!.!.!.!.!.!.!.!.!.!.!.!.!.!.!.!.!.!.!.!.!.!.!.!.!.!.!.!.!.!.!.!.!.!.!.!.!.!.!.!.!.!.!.!.!.!.!.!.!.!.!.!.!.!.!.!.!.!.!.!.!.!.!.!.!.!.!.!.!.!.!.!.!.!.!.!.!.!.!.!.!.!.!.!.!.!.!.!.!.!.!.!.!.!.!.!.!.!.!.!.!.!.!.!.!.!.!.!.!.!.!.!.!.!.!.!.!.!.!.!.!.!.!.!.!.!.!.!.!.!.!.!.!.!.!.!.!.!.!.!.!.!.!.!.!.!.!.!.!.!.!.!.!.!.!.!.!.!.!.!.!.!.!.!.!.!.!.!.!.!.!.!.!.!.!.!.!.!.!.!.!.!.!.!.!.!.!.!.!.!.!.!.!.!.!.!.!.!.!.!.!.!.!.!.!.!.!.!.!.!.!.!.!.!.!.!.!.!.!.!.!.!.!.!.!.!.!.!.!.!.!.!.!.!.!.!.!.!.!.!.!.!.!.!.!.!.!.!.!.!.!.!.!.!.!.!.!.!.!.!.!.!.!.!.!.!.!.!.!.!.!.!.!.!.!.!.!.!.!.!.!.!.!.!.!.!.!.!.!.!.!.!.!.!.!.!.!.!.!.!.!.!.!.!.!.!.!.!.!.!.!.!.!.!.!.!.!.!.!.!.!.!.!.!.!.!.!.!.!.!.!.!.!.!.!.!.!.!.!.!.!.!.!.!.!.!.!.!.!.!.!.!.!.!.!.!.!.!.!.!.!.!.!.!.!.!.!.!.!.!.!.!.!.!.!.!.!.!.!.!.!.!.!.!.!.!.!.!.!.!.!.!.!.!.!.!.!.!.!.!.!.!.!.!.!.!.!.!.!.!.!.!.!.!.!.!.!.!.!.!.!.!.!.!.!.!.!.!.!.!.!.!.!.!.!.!.!.!.!.!.!.!.!.!.!.!.!.!.!.!.!.!.!.!.!.!.!.!.!.!.!.!.!.!.!.!.!.!.!.!.!.!.!.!.!.!.!.!.!.!.!.!.!.!.!.!.!.!.!.!.!.!.!.!.!.!.!.!.!.!.!.!.!.!.!.!.!.!.!.!.!.!.!.!.!.!.!.!.!.!.!.",
"!.!.!.!.!.!.!.!.!.!.!.!.!.!.!.!.!.!.!.!.!.!.!.!.!.!.!.!.!.!.!.!.!.!.!.!.!.!.!.!.!.!.!.!.!.!.!.!.!.!.!.!.!.!.!.!.!.!.!.!.!.!.!.!.!.!.!.!.!.!.!.!.!.!.!.!.!.!.!.!.!.!.!.!.!.!.!.!.!.!.!.!.!.!.!.!.!.!.!.!.!.!.!.!.!.!.!.!.!.!.!.!.!.!.!.!.!.!.!.!.!.!.!.!.!.!.!.!.!.!.!.!.!.!.!.!.!.!.!.!.!.!.!.!.!.!.!.!.!.!.!.!.!.!.!.!.!.!.!.!.!.!.!.!.!.!.!.!.!.!.!.!.!.!.!.!.!.!.!.!.!.!.!.!.!.!.!.!.!.!.!.!.!.!.!.!.!.!.!.!.!.!.!.!.!.!.!.!.!.!.!.!.!.!.!.!.!.!.!.!.!.!.!.!.!.!.!.!.!.!.!.!.!.!.!.!.!.!.!.!.!.!.!.!.!.!.!.!.!.!.!.!.!.!.!.!.!.!.!.!.!.!.!.!.!.!.!.!.!.!.!.!.!.!.!.!.!.!.!.!.!.!.!.!.!.!.!.!.!.!.!.!.!.!.!.!.!.!.!.!.!.!.!.!.!.!.!.!.!.!.!.!.!.!.!.!.!.!.!.!.!.!.!.!.!.!.!.!.!.!.!.!.!.!.!.!.!.!.!.!.!.!.!.!.!.!.!.!.!.!.!.!.!.!.!.!.!.!.!.!.!.!.!.!.!.!.!.!.!.!.!.!.!.!.!.!.!.!.!.!.!.!.!.!.!.!.!.!.!.!.!.!.!.!.!.!.!.!.!.!.!.!.!.!.!.!.!.!.!.!.!.!.!.!.!.!.!.!.!.!.!.!.!.!.!.!.!.!.!.!.!.!.!.!.!.!.!.!.!.!.!.!.!.!.!.!.!.!.!.!.!.!.!.!.!.!.!.!.!.!.!.!.!.!.!.!.!.!.!.!.!.!.!.!.!.!.!.!.!.!.!.!.!.!.!.!.!.!.!.!.!.!.!.!.!.!.!.!.!.!.!.!.!.!.!.!.!.!.!.!.!.!.!.!.!.!.!.!.!.!.!.!.!.!.!.!.!.!.!.!.!.!.!.!.!.!.!.!.!.!.!.!.!.!.!.!.!.!.!.!.!.!.!.!.!.!.!.!.!.!.!.!.!.!.!.!.!.!.!.!.!.!.!.!.!.!.!.!.!.!.!.!.!.",
"!.!.!.!.!.!.!.!.!.!.!.!.!.!.!.!.!.!.!.!.!.!.!.!.!.!.!.!.!.!.!.!.!.!.!.!.!.!.!.!.!.!.!.!.!.!.!.!.!.!.!.!.!.!.!.!.!.!.!.!.!.!.!.!.!.!.!.!.!.!.!.!.!.!.!.!.!.!.!.!.!.!.!.!.!.!.!.!.!.!.!.!.!.!.!.!.!.!.!.!.!.!.!.!.!.!.!.!.!.!.!.!.!.!.!.!.!.!.!.!.!.!.!.!.!.!.!.!.!.!.!.!.!.!.!.!.!.!.!.!.!.!.!.!.!.!.!.!.!.!.!.!.!.!.!.!.!.!.!.!.!.!.!.!.!.!.!.!.!.!.!.!.!.!.!.!.!.!.!.!.!.!.!.!.!.!.!.!.!.!.!.!.!.!.!.!.!.!.!.!.!.!.!.!.!.!.!.!.!.!.!.!.!.!.!.!.!.!.!.!.!.!.!.!.!.!.!.!.!.!.!.!.!.!.!.!.!.!.!.!.!.!.!.!.!.!.!.!.!.!.!.!.!.!.!.!.!.!.!.!.!.!.!.!.!.!.!.!.!.!.!.!.!.!.!.!.!.!.!.!.!.!.!.!.!.!.!.!.!.!.!.!.!.!.!.!.!.!.!.!.!.!.!.!.!.!.!.!.!.!.!.!.!.!.!.!.!.!.!.!.!.!.!.!.!.!.!.!.!.!.!.!.!.!.!.!.!.!.!.!.!.!.!.!.!.!.!.!.!.!.!.!.!.!.!.!.!.!.!.!.!.!.!.!.!.!.!.!.!.!.!.!.!.!.!.!.!.!.!.!.!.!.!.!.!.!.!.!.!.!.!.!.!.!.!.!.!.!.!.!.!.!.!.!.!.!.!.!.!.!.!.!.!.!.!.!.!.!.!.!.!.!.!.!.!.!.!.!.!.!.!.!.!.!.!.!.!.!.!.!.!.!.!.!.!.!.!.!.!.!.!.!.!.!.!.!.!.!.!.!.!.!.!.!.!.!.!.!.!.!.!.!.!.!.!.!.!.!.!.!.!.!.!.!.!.!.!.!.!.!.!.!.!.!.!.!.!.!.!.!.!.!.!.!.!.!.!.!.!.!.!.!.!.!.!.!.!.!.!.!.!.!.!.!.!.!.!.!.!.!.!.!.!.!.!.!.!.!.!.!.!.!.!.!.!.!.!.!.!.!.!.!.!.!.!.!.!.!.!.!.!.!.!.!.!.!.!.!.!.!.!.!.!.!.!.!.!.!.!.!.!.!.!.",
"!.!.!.!.!.!.!.!.!.!.!.!.!.!.!.!.!.!.!.!.!.!.!.!.!.!.!.!.!.!.!.!.!.!.!.!.!.!.!.!.!.!.!.!.!.!.!.!.!.!.!.!.!.!.!.!.!.!.!.!.!.!.!.!.!.!.!.!.!.!.!.!.!.!.!.!.!.!.!.!.!.!.!.!.!.!.!.!.!.!.!.!.!.!.!.!.!.!.!.!.!.!.!.!.!.!.!.!.!.!.!.!.!.!.!.!.!.!.!.!.!.!.!.!.!.!.!.!.!.!.!.!.!.!.!.!.!.!.!.!.!.!.!.!.!.!.!.!.!.!.!.!.!.!.!.!.!.!.!.!.!.!.!.!.!.!.!.!.!.!.!.!.!.!.!.!.!.!.!.!.!.!.!.!.!.!.!.!.!.!.!.!.!.!.!.!.!.!.!.!.!.!.!.!.!.!.!.!.!.!.!.!.!.!.!.!.!.!.!.!.!.!.!.!.!.!.!.!.!.!.!.!.!.!.!.!.!.!.!.!.!.!.!.!.!.!.!.!.!.!.!.!.!.!.!.!.!.!.!.!.!.!.!.!.!.!.!.!.!.!.!.!.!.!.!.!.!.!.!.!.!.!.!.!.!.!.!.!.!.!.!.!.!.!.!.!.!.!.!.!.!.!.!.!.!.!.!.!.!.!.!.!.!.!.!.!.!.!.!.!.!.!.!.!.!.!.!.!.!.!.!.!.!.!.!.!.!.!.!.!.!.!.!.!.!.!.!.!.!.!.!.!.!.!.!.!.!.!.!.!.!.!.!.!.!.!.!.!.!.!.!.!.!.!.!.!.!.!.!.!.!.!.!.!.!.!.!.!.!.!.!.!.!.!.!.!.!.!.!.!.!.!.!.!.!.!.!.!.!.!.!.!.!.!.!.!.!.!.!.!.!.!.!.!.!.!.!.!.!.!.!.!.!.!.!.!.!.!.!.!.!.!.!.!.!.!.!.!.!.!.!.!.!.!.!.!.!.!.!.!.!.!.!.!.!.!.!.!.!.!.!.!.!.!.!.!.!.!.!.!.!.!.!.!.!.!.!.!.!.!.!.!.!.!.!.!.!.!.!.!.!.!.!.!.!.!.!.!.!.!.!.!.!.!.!.!.!.!.!.!.!.!.!.!.!.!.!.!.!.!.!.!.!.!.!.!.!.!.!.!.!.!.!.!.!.!.!.!.!.!.!.!.!.!.!.!.!.!.!.!.!.!.!.!.!.!.!.!.!.!.!.!.!.!.!.!.!.!.!.!.!.!.!.",
"!.!.!.!.!.!.!.!.!.!.!.!.!.!.!.!.!.!.!.!.!.!.!.!.!.!.!.!.!.!.!.!.!.!.!.!.!.!.!.!.!.!.!.!.!.!.!.!.!.!.!.!.!.!.!.!.!.!.!.!.!.!.!.!.!.!.!.!.!.!.!.!.!.!.!.!.!.!.!.!.!.!.!.!.!.!.!.!.!.!.!.!.!.!.!.!.!.!.!.!.!.!.!.!.!.!.!.!.!.!.!.!.!.!.!.!.!.!.!.!.!.!.!.!.!.!.!.!.!.!.!.!.!.!.!.!.!.!.!.!.!.!.!.!.!.!.!.!.!.!.!.!.!.!.!.!.!.!.!.!.!.!.!.!.!.!.!.!.!.!.!.!.!.!.!.!.!.!.!.!.!.!.!.!.!.!.!.!.!.!.!.!.!.!.!.!.!.!.!.!.!.!.!.!.!.!.!.!.!.!.!.!.!.!.!.!.!.!.!.!.!.!.!.!.!.!.!.!.!.!.!.!.!.!.!.!.!.!.!.!.!.!.!.!.!.!.!.!.!.!.!.!.!.!.!.!.!.!.!.!.!.!.!.!.!.!.!.!.!.!.!.!.!.!.!.!.!.!.!.!.!.!.!.!.!.!.!.!.!.!.!.!.!.!.!.!.!.!.!.!.!.!.!.!.!.!.!.!.!.!.!.!.!.!.!.!.!.!.!.!.!.!.!.!.!.!.!.!.!.!.!.!.!.!.!.!.!.!.!.!.!.!.!.!.!.!.!.!.!.!.!.!.!.!.!.!.!.!.!.!.!.!.!.!.!.!.!.!.!.!.!.!.!.!.!.!.!.!.!.!.!.!.!.!.!.!.!.!.!.!.!.!.!.!.!.!.!.!.!.!.!.!.!.!.!.!.!.!.!.!.!.!.!.!.!.!.!.!.!.!.!.!.!.!.!.!.!.!.!.!.!.!.!.!.!.!.!.!.!.!.!.!.!.!.!.!.!.!.!.!.!.!.!.!.!.!.!.!.!.!.!.!.!.!.!.!.!.!.!.!.!.!.!.!.!.!.!.!.!.!.!.!.!.!.!.!.!.!.!.!.!.!.!.!.!.!.!.!.!.!.!.!.!.!.!.!.!.!.!.!.!.!.!.!.!.!.!.!.!.!.!.!.!.!.!.!.!.!.!.!.!.!.!.!.!.!.!.!.!.!.!.!.!.!.!.!.!.!.!.!.!.!.!.!.!.!.!.!.!.!.!.!.!.!.!.!.!.!.!.!.!.!.!.!.!.!.!.!.!.!.!.!.!.",
"!.!.!.!.!.!.!.!.!.!.!.!.!.!.!.!.!.!.!.!.!.!.!.!.!.!.!.!.!.!.!.!.!.!.!.!.!.!.!.!.!.!.!.!.!.!.!.!.!.!.!.!.!.!.!.!.!.!.!.!.!.!.!.!.!.!.!.!.!.!.!.!.!.!.!.!.!.!.!.!.!.!.!.!.!.!.!.!.!.!.!.!.!.!.!.!.!.!.!.!.!.!.!.!.!.!.!.!.!.!.!.!.!.!.!.!.!.!.!.!.!.!.!.!.!.!.!.!.!.!.!.!.!.!.!.!.!.!.!.!.!.!.!.!.!.!.!.!.!.!.!.!.!.!.!.!.!.!.!.!.!.!.!.!.!.!.!.!.!.!.!.!.!.!.!.!.!.!.!.!.!.!.!.!.!.!.!.!.!.!.!.!.!.!.!.!.!.!.!.!.!.!.!.!.!.!.!.!.!.!.!.!.!.!.!.!.!.!.!.!.!.!.!.!.!.!.!.!.!.!.!.!.!.!.!.!.!.!.!.!.!.!.!.!.!.!.!.!.!.!.!.!.!.!.!.!.!.!.!.!.!.!.        !.  !.!.!.!.!.!.!.!.!.!.!.!.!.!.!.!.!.!.!.!.!.!.!.!.!.!.!.!.!.!.!.!.!.!.!.!.!.!.!.!.!.!.!.!.!.!.!.!.!.!.!.!.!.!.!.!.!.!.!.!.!.!.!.!.!.!.!.!.!.!.!.!.!.!.!.!.!.!.!.!.!.!.!.!.!.!.!.!.!.!.!.!.!.!.!.!.!.!.!.!.!.!.!.!.!.!.!.!.!.!.!.!.!.!.!.!.!.!.!.!.!.!.!.!.!.!.!.!.!.!.!.!.!.!.!.!.!.!.!.!.!.!.!.!.!.!.!.!.!.!.!.!.!.!.!.!.!.!.!.!.!.!.!.!.!.!.!.!.!.!.!.!.!.!.!.!.!.!.!.!.!.!.!.!.!.!.!.!.!.!.!.!.!.!.!.!.!.!.!.!.!.!.!.!.!.!.!.!.!.!.!.!.!.!.!.!.!.!.!.!.!.!.!.!.!.!.!.!.!.!.!.!.!.!.!.!.!.!.!.!.!.!.!.!.!.!.!.!.!.!.!.!.!.!.!.!.!.!.!.!.!.!.!.!.!.!.!.!.!.!.!.!.!.!.!.!.!.!.!.!.!.!.!.!.!.!.!.!.!.!.!.!.!.!.!.!.!.!.!.!.!.!.!.!.!.!.!.!.!.!.!.!.!.!.!.",
"!.!.!.!.!.!.!.!.!.!.!.!.!.!.!.!.!.!.!.!.!.!.!.!.!.!.!.!.!.!.!.!.!.!.!.!.!.!.!.!.!.!.!.!.!.!.!.!.!.!.!.!.!.!.!.!.!.!.!.!.!.!.!.!.!.!.!.!.!.!.!.!.!.!.!.!.!.!.!.!.!.!.!.!.!.!.!.!.!.!.!.!.!.!.!.!.!.!.!.!.!.!.!.!.!.!.!.!.!.!.!.!.!.!.!.!.!.!.!.!.!.!.!.!.!.!.!.!.!.!.!.!.!.!.!.!.!.!.!.!.!.!.!.!.!.!.!.!.!.!.!.!.!.!.!.!.!.!.!.!.!.!.!.!.!.!.!.!.!.!.!.!.!.!.!.!.!.!.!.!.!.!.!.!.!.!.!.!.!.!.!.!.!.!.!.!.!.!.!.!.!.!.!.!.!.!.!.!.!.!.!.!.!.!.!.!.!.!.!.!.!.!.!.!.!.!.!.!.!.!.!.!.!.!.!.!.!.!.!.!.  X X X X       !.!.!.!.!.!.!.!.!.!.!.!.!.!.      X       !.!.!.!.!.!.!.!.!.!.!.!.!.!.!.!.!.!.!.!.!.!.!.!.!.!.!.!.!.!.!.!.!.!.!.!.!.!.!.!.!.!.!.!.!.!.!.!.!.!.!.!.!.!.!.!.!.!.!.!.!.!.!.!.!.!.!.!.!.!.!.!.!.!.!.!.!.!.!.!.!.!.!.!.!.!.!.!.!.!.!.!.!.!.!.!.!.!.!.!.!.!.!.!.!.!.!.!.!.!.!.!.!.!.!.!.!.!.!.!.!.!.!.!.!.!.!.!.!.!.!.!.!.!.!.!.!.!.!.!.!.!.!.!.!.!.!.!.!.!.!.!.!.!.!.!.!.!.!.!.!.!.!.!.!.!.!.!.!.!.!.!.!.!.!.!.!.!.!.!.!.!.!.!.!.!.!.!.!.!.!.!.!.!.!.!.!.!.!.!.!.!.!.!.!.!.!.!.!.!.!.!.!.!.!.!.!.!.!.!.!.!.!.!.!.!.!.!.!.!.!.!.!.!.!.!.!.!.!.!.!.!.!.!.!.!.!.!.!.!.!.!.!.!.!.!.!.!.!.!.!.!.!.!.!.!.!.!.!.!.!.!.!.!.!.!.!.!.!.!.!.!.!.!.!.!.!.!.!.!.!.!.!.!.!.!.!.!.!.!.!.!.!.!.!.!.!.!.!.!.!.!.!.!.",
"!.!.!.!.!.!.!.!.!.!.!.!.!.!.!.!.!.!.!.!.!.!.!.!.!.!.!.!.!.!.!.!.!.!.!.!.!.!.!.!.!.!.!.!.!.!.!.!.!.!.!.!.!.!.!.!.!.!.!.!.!.!.!.!.!.!.!.!.!.!.!.!.!.!.!.!.!.!.!.!.!.!.!.!.!.!.!.!.!.!.!.!.!.!.!.!.!.!.!.!.!.!.!.!.!.!.!.!.!.!.!.!.!.!.!.!.!.!.!.!.!.!.!.!.!.!.!.!.!.!.!.!.!.!.!.!.!.!.!.!.!.!.!.!.!.!.!.!.!.!.!.!.!.!.!.!.!.!.!.!.!.!.!.!.!.!.!.!.!.!.!.!.!.!.!.!.!.!.!.!.!.!.!.!.!.!.!.!.!.!.!.!.!.!.!.!.!.!.!.!.!.!.!.!.!.!.!.!.!.!.!.!.!.!.!.!.!.!.!.!.!.!.!.!.!.!.!.!.!.!.!.!.!.!.!.!.!.!.!.  X X @ @ @ X @ X         !.!.!.!.!.            X X X X X X   !.!.!.!.!.!.!.!.!.!.!.!.!.!.!.!.!.!.!.!.!.!.!.!.!.!.!.!.!.!.!.!.!.!.!.!.!.!.!.!.!.!.!.!.!.!.!.!.!.!.!.!.!.!.!.!.!.!.!.!.!.!.!.!.!.!.!.!.!.!.!.!.!.!.!.!.!.!.!.!.!.!.!.!.!.!.!.!.!.!.!.!.!.!.!.!.!.!.!.!.!.!.!.!.!.!.!.!.!.!.!.!.!.!.!.!.!.!.!.!.!.!.!.!.!.!.!.!.!.!.!.!.!.!.!.!.!.!.!.!.!.!.!.!.!.!.!.!.!.!.!.!.!.!.!.!.!.!.!.!.!.!.!.!.!.!.!.!.!.!.!.!.!.!.!.!.!.!.!.!.!.!.!.!.!.!.!.!.!.!.!.!.!.!.!.!.!.!.!.!.!.!.!.!.!.!.!.!.!.!.!.!.!.!.!.!.!.!.!.!.!.!.!.!.!.!.!.!.!.!.!.!.!.!.!.!.!.!.!.!.!.!.!.!.!.!.!.!.!.!.!.!.!.!.!.!.!.!.!.!.!.!.!.!.!.!.!.!.!.!.!.!.!.!.!.!.!.!.!.!.!.!.!.!.!.!.!.!.!.!.!.!.!.!.!.!.!.!.!.!.!.!.!.!.!.!.!.!.!.!.!.!.!.",
"!.!.!.!.!.!.!.!.!.!.!.!.!.!.!.!.!.!.!.!.!.!.!.!.!.!.!.!.!.!.!.!.!.!.!.!.!.!.!.!.!.!.!.!.!.!.!.!.!.!.!.!.!.!.!.!.!.!.!.!.!.!.!.!.!.!.!.!.!.!.!.!.!.!.!.!.!.!.!.!.!.!.!.!.!.!.!.!.!.!.!.!.!.!.!.!.!.!.!.!.!.!.!.!.!.!.!.!.!.!.!.!.!.!.!.!.!.!.!.!.!.!.!.!.!.!.!.!.!.!.!.!.!.!.!.!.!.!.!.!.!.!.!.!.!.!.!.!.!.!.!.!.!.!.!.!.!.!.!.!.!.!.!.!.!.!.!.!.!.!.!.!.!.!.!.!.!.!.!.!.!.!.!.!.!.!.!.!.!.!.!.!.!.!.!.!.!.!.!.!.!.!.!.!.!.!.!.!.!.!.!.!.!.!.!.!.!.!.!.!.!.!.!.!.!.!.!.!.!.!.!.!.!.!.!.!.!.!.  X X + & & & & @ + @ X X X X   X   X   X X       X X X X X X   !.!.!.!.!.!.!.!.!.!.!.!.!.!.!.!.!.!.!.!.!.!.!.!.!.!.!.!.!.!.!.!.!.!.!.!.!.!.!.!.!.!.!.!.!.!.!.!.!.!.!.!.!.!.!.!.!.!.!.!.!.!.!.!.!.!.!.!.!.!.!.!.!.!.!.!.!.!.!.!.!.!.!.!.!.!.!.!.!.!.!.!.!.!.!.!.!.!.!.!.!.!.!.!.!.!.!.!.!.!.!.!.!.!.!.!.!.!.!.!.!.!.!.!.!.!.!.!.!.!.!.!.!.!.!.!.!.!.!.!.!.!.!.!.!.!.!.!.!.!.!.!.!.!.!.!.!.!.!.!.!.!.!.!.!.!.!.!.!.!.!.!.!.!.!.!.!.!.!.!.!.!.!.!.!.!.!.!.!.!.!.!.!.!.!.!.!.!.!.!.!.!.!.!.!.!.!.!.!.!.!.!.!.!.!.!.!.!.!.!.!.!.!.!.!.!.!.!.!.!.!.!.!.!.!.!.!.!.!.!.!.!.!.!.!.!.!.!.!.!.!.!.!.!.!.!.!.!.!.!.!.!.!.!.!.!.!.!.!.!.!.!.!.!.!.!.!.!.!.!.!.!.!.!.!.!.!.!.!.!.!.!.!.!.!.!.!.!.!.!.!.!.!.!.!.!.!.!.!.!.!.!.!.",
"!.!.!.!.!.!.!.!.!.!.!.!.!.!.!.!.!.!.!.!.!.!.!.!.!.!.!.!.!.!.!.!.!.!.!.!.!.!.!.!.!.!.!.!.!.!.!.!.!.!.!.!.!.!.!.!.!.!.!.!.!.!.!.!.!.!.!.!.!.!.!.!.!.!.!.!.!.!.!.!.!.!.!.!.!.!.!.!.!.!.!.!.!.!.!.!.!.!.!.!.!.!.!.!.!.!.!.!.!.!.!.!.!.!.!.!.!.!.!.!.!.!.!.!.!.!.!.!.!.!.!.!.!.!.!.!.!.!.!.!.!.!.!.!.!.!.!.!.!.!.!.!.!.!.!.!.!.!.!.!.!.!.!.!.!.!.!.!.!.!.!.!.!.!.!.!.!.!.!.!.!.!.!.!.!.!.!.!.!.!.!.!.!.!.!.!.!.!.!.!.!.!.!.!.!.!.!.!.!.!.!.!.!.!.!.!.!.!.!.!.!.!.!.!.!.!.!.!.!.!.!.  !.!.!.!.    X X @ $ & - - & & $ @ X X @ @ @ @ @ X X X X X X   X X X X X X X !.  !.!.!.!.!.!.!.!.!.!.!.!.!.!.!.!.!.!.!.!.!.!.!.!.!.!.!.!.!.!.!.!.!.!.!.!.!.!.!.!.!.!.!.!.!.!.!.!.!.!.!.!.!.!.!.!.!.!.!.!.!.!.!.!.!.!.!.!.!.!.!.!.!.!.!.!.!.!.!.!.!.!.!.!.!.!.!.!.!.!.!.!.!.!.!.!.!.!.!.!.!.!.!.!.!.!.!.!.!.!.!.!.!.!.!.!.!.!.!.!.!.!.!.!.!.!.!.!.!.!.!.!.!.!.!.!.!.!.!.!.!.!.!.!.!.!.!.!.!.!.!.!.!.!.!.!.!.!.!.!.!.!.!.!.!.!.!.!.!.!.!.!.!.!.!.!.!.!.!.!.!.!.!.!.!.!.!.!.!.!.!.!.!.!.!.!.!.!.!.!.!.!.!.!.!.!.!.!.!.!.!.!.!.!.!.!.!.!.!.!.!.!.!.!.!.!.!.!.!.!.!.!.!.!.!.!.!.!.!.!.!.!.!.!.!.!.!.!.!.!.!.!.!.!.!.!.!.!.!.!.!.!.!.!.!.!.!.!.!.!.!.!.!.!.!.!.!.!.!.!.!.!.!.!.!.!.!.!.!.!.!.!.!.!.!.!.!.!.!.!.!.!.!.!.!.!.!.!.!.!.!.",
"!.!.!.!.!.!.!.!.!.!.!.!.!.!.!.!.!.!.!.!.!.!.!.!.!.!.!.!.!.!.!.!.!.!.!.!.!.!.!.!.!.!.!.!.!.!.!.!.!.!.!.!.!.!.!.!.!.!.!.!.!.!.!.!.!.!.!.!.!.!.!.!.!.!.!.!.!.!.!.!.!.!.!.!.!.!.!.!.!.!.!.!.!.!.!.!.!.!.!.!.!.!.!.!.!.!.!.!.!.!.!.!.!.!.!.!.!.!.!.!.!.!.!.!.!.!.!.!.!.!.!.!.!.!.!.!.!.!.!.!.!.!.!.!.!.!.!.!.!.!.!.!.!.!.!.!.!.!.!.!.!.!.!.!.!.!.!.!.!.!.!.!.!.!.!.!.!.!.!.!.!.!.!.!.!.!.!.!.!.!.!.!.!.!.!.!.!.!.!.!.!.!.!.!.!.!.!.!.!.!.!.!.!.!.!.!.!.!.!.!.!.!.!.!.  X           X X X X X X + + @ $ & & - - - & & @ $ @ $ & & & @ @ @ X X X X X X X X @ X X X     !.!.!.!.!.!.!.!.!.!.!.!.!.!.!.!.!.!.!.!.!.!.!.!.!.!.!.!.!.!.!.!.!.!.!.!.!.!.!.!.!.!.!.!.!.!.!.!.!.!.!.!.!.!.!.!.!.!.!.!.!.!.!.!.!.!.!.!.!.!.!.!.!.!.!.!.!.!.!.!.!.!.!.!.!.!.!.!.!.!.!.!.!.!.!.!.!.!.!.!.!.!.!.!.!.!.!.!.!.!.!.!.!.!.!.!.!.!.!.!.!.!.!.!.!.!.!.!.!.!.!.!.!.!.!.!.!.!.!.!.!.!.!.!.!.!.!.!.!.!.!.!.!.!.!.!.!.!.!.!.!.!.!.!.!.!.!.!.!.!.!.!.!.!.!.!.!.!.!.!.!.!.!.!.!.!.!.!.!.!.!.!.!.!.!.!.!.!.!.!.!.!.!.!.!.!.!.!.!.!.!.!.!.!.!.!.!.!.!.!.!.!.!.!.!.!.!.!.!.!.!.!.!.!.!.!.!.!.!.!.!.!.!.!.!.!.!.!.!.!.!.!.!.!.!.!.!.!.!.!.!.!.!.!.!.!.!.!.!.!.!.!.!.!.!.!.!.!.!.!.!.!.!.!.!.!.!.!.!.!.!.!.!.!.!.!.!.!.!.!.!.!.!.!.!.!.!.!.!.!.!.",
"!.!.!.!.!.!.!.!.!.!.!.!.!.!.!.!.!.!.!.!.!.!.!.!.!.!.!.!.!.!.!.!.!.!.!.!.!.!.!.!.!.!.!.!.!.!.!.!.!.!.!.!.!.!.!.!.!.!.!.!.!.!.!.!.!.!.!.!.!.!.!.!.!.!.!.!.!.!.!.!.!.!.!.!.!.!.!.!.!.!.!.!.!.!.!.!.!.!.!.!.!.!.!.!.!.!.!.!.!.!.!.!.!.!.!.!.!.!.!.!.!.!.!.!.!.!.!.!.!.!.!.!.!.!.!.!.!.!.!.!.!.!.!.!.!.!.!.!.!.!.!.!.!.!.!.!.!.!.!.!.!.!.!.!.!.!.!.!.!.!.!.!.!.!.!.!.!.!.!.!.!.!.!.!.!.!.!.!.!.!.!.!.!.!.!.!.!.!.!.!.!.!.!.!.!.!.!.!.!.!.!.!.!.!.!.!.!.!.!.!.!.!.    X X X X X X X @ @ @ X @ + $ & & & - - , , - - & & & - & - - & & & @ + X X X X @ @ + @ @ @ X X     !.!.!.!.!.!.!.!.!.!.!.!.!.!.!.!.!.!.!.!.!.!.!.!.!.!.!.!.!.!.!.!.!.!.!.!.!.!.!.!.!.!.!.!.!.!.!.!.!.!.!.!.!.!.!.!.!.!.!.!.!.!.!.!.!.!.!.!.!.!.!.!.!.!.!.!.!.!.!.!.!.!.!.!.!.!.!.!.!.!.!.!.!.!.!.!.!.!.!.!.!.!.!.!.!.!.!.!.!.!.!.!.!.!.!.!.!.!.!.!.!.!.!.!.!.!.!.!.!.!.!.!.!.!.!.!.!.!.!.!.!.!.!.!.!.!.!.!.!.!.!.!.!.!.!.!.!.!.!.!.!.!.!.!.!.!.!.!.!.!.!.!.!.!.!.!.!.!.!.!.!.!.!.!.!.!.!.!.!.!.!.!.!.!.!.!.!.!.!.!.!.!.!.!.!.!.!.!.!.!.!.!.!.!.!.!.!.!.!.!.!.!.!.!.!.!.!.!.!.!.!.!.!.!.!.!.!.!.!.!.!.!.!.!.!.!.!.!.!.!.!.!.!.!.!.!.!.!.!.!.!.!.!.!.!.!.!.!.!.!.!.!.!.!.!.!.!.!.!.!.!.!.!.!.!.!.!.!.!.!.!.!.!.!.!.!.!.!.!.!.!.!.!.!.!.!.!.!.!.!.",
"!.!.!.!.!.!.!.!.!.!.!.!.!.!.!.!.!.!.!.!.!.!.!.!.!.!.!.!.!.!.!.!.!.!.!.!.!.!.!.!.!.!.!.!.!.!.!.!.!.!.!.!.!.!.!.!.!.!.!.!.!.!.!.!.!.!.!.!.!.!.!.!.!.!.!.!.!.!.!.!.!.!.!.!.!.!.!.!.!.!.!.!.!.!.!.!.!.!.!.!.!.!.!.!.!.!.!.!.!.!.!.!.!.!.!.!.!.!.!.!.!.!.!.!.!.!.!.!.!.!.!.!.!.!.!.!.!.!.!.!.!.!.!.!.!.!.!.!.!.!.!.!.!.!.!.!.!.!.!.!.!.!.!.!.!.!.!.!.!.!.!.!.!.!.!.!.!.!.!.!.!.!.!.!.!.!.!.!.!.!.!.!.!.!.!.!.!.!.!.!.!.!.!.!.!.!.!.!.!.!.!.!.!.!.!.!.!.!.!.      X X X X X X X X X @ @ @ $ @ & & - - - - , , , , , - - - - - , , - - & & & @ + @ + @ @ + @ @ + @ X       !.!.!.!.!.!.!.!.!.!.!.!.!.!.!.!.!.!.!.!.!.!.!.!.!.!.!.!.!.!.!.!.!.!.!.!.!.!.!.!.!.!.!.!.!.!.!.!.!.!.!.!.!.!.!.!.!.!.!.!.!.!.!.!.!.!.!.!.!.!.!.!.!.!.!.!.!.!.!.!.!.!.!.!.!.!.!.!.!.!.!.!.!.!.!.!.!.!.!.!.!.!.!.!.!.!.!.!.!.!.!.!.!.!.!.!.!.!.!.!.!.!.!.!.!.!.!.!.!.!.!.!.!.!.!.!.!.!.!.!.!.!.!.!.!.!.!.!.!.!.!.!.!.!.!.!.!.!.!.!.!.!.!.!.!.!.!.!.!.!.!.!.!.!.!.!.!.!.!.!.!.!.!.!.!.!.!.!.!.!.!.!.!.!.!.!.!.!.!.!.!.!.!.!.!.!.!.!.!.!.!.!.!.!.!.!.!.!.!.!.!.!.!.!.!.!.!.!.!.!.!.!.!.!.!.!.!.!.!.!.!.!.!.!.!.!.!.!.!.!.!.!.!.!.!.!.!.!.!.!.!.!.!.!.!.!.!.!.!.!.!.!.!.!.!.!.!.!.!.!.!.!.!.!.!.!.!.!.!.!.!.!.!.!.!.!.!.!.!.!.!.!.!.!.!.!.!.!.!.",
"!.!.!.!.!.!.!.!.!.!.!.!.!.!.!.!.!.!.!.!.!.!.!.!.!.!.!.!.!.!.!.!.!.!.!.!.!.!.!.!.!.!.!.!.!.!.!.!.!.!.!.!.!.!.!.!.!.!.!.!.!.!.!.!.!.!.!.!.!.!.!.!.!.!.!.!.!.!.!.!.!.!.!.!.!.!.!.!.!.!.!.!.!.!.!.!.!.!.!.!.!.!.!.!.!.!.!.!.!.!.!.!.!.!.!.!.!.!.!.!.!.!.!.!.!.!.!.!.!.!.!.!.!.!.!.!.!.!.!.!.!.!.!.!.!.!.!.!.!.!.!.!.!.!.!.!.!.!.!.!.!.!.!.!.!.!.!.!.!.!.!.!.!.!.!.!.!.!.!.!.!.!.!.!.!.!.!.!.!.!.!.!.!.!.!.!.!.!.!.!.!.!.!.!.!.!.!.!.!.!.!.!.!.!.!.!.    X X X X X @ @ @ @ @ X X + $ & & & & & - - , - , , , 2 2 , , , , , , , 2 , , - - & & $ $ $ + @ @ @ $ $ @ X X   X   !.!.!.!.!.!.!.!.!.!.!.!.!.!.!.!.!.!.!.!.!.!.!.!.!.!.!.!.!.!.!.!.!.!.!.!.!.!.!.!.!.!.!.!.!.!.!.!.!.!.!.!.!.!.!.!.!.!.!.!.!.!.!.!.!.!.!.!.!.!.!.!.!.!.!.!.!.!.!.!.!.!.!.!.!.!.!.!.!.!.!.!.!.!.!.!.!.!.!.!.!.!.!.!.!.!.!.!.!.!.!.!.!.!.!.!.!.!.!.!.!.!.!.!.!.!.!.!.!.!.!.!.!.!.!.!.!.!.!.!.!.!.!.!.!.!.!.!.!.!.!.!.!.!.!.!.!.!.!.!.!.!.!.!.!.!.!.!.!.!.!.!.!.!.!.!.!.!.!.!.!.!.!.!.!.!.!.!.!.!.!.!.!.!.!.!.!.!.!.!.!.!.!.!.!.!.!.!.!.!.!.!.!.!.!.!.!.!.!.!.!.!.!.!.!.!.!.!.!.!.!.!.!.!.!.!.!.!.!.!.!.!.!.!.!.!.!.!.!.!.!.!.!.!.!.!.!.!.!.!.!.!.!.!.!.!.!.!.!.!.!.!.!.!.!.!.!.!.!.!.!.!.!.!.!.!.!.!.!.!.!.!.!.!.!.!.!.!.!.!.!.!.!.!.!.!.!.!.",
"!.!.!.!.!.!.!.!.!.!.!.!.!.!.!.!.!.!.!.!.!.!.!.!.!.!.!.!.!.!.!.!.!.!.!.!.!.!.!.!.!.!.!.!.!.!.!.!.!.!.!.!.!.!.!.!.!.!.!.!.!.!.!.!.!.!.!.!.!.!.!.!.!.!.!.!.!.!.!.!.!.!.!.!.!.!.!.!.!.!.!.!.!.!.!.!.!.!.!.!.!.!.!.!.!.!.!.!.!.!.!.!.!.!.!.!.!.!.!.!.!.!.!.!.!.!.!.!.!.!.!.!.!.!.!.!.!.!.!.!.!.!.!.!.!.!.!.!.!.!.!.!.!.!.!.!.!.!.!.!.!.!.!.!.!.!.!.!.!.!.!.!.!.!.!.!.!.!.!.!.!.!.!.!.!.!.!.!.!.!.!.!.!.!.!.!.!.!.!.!.        !.!.!.!.!.!.!.!.!.!.!.!.  X X X @ @ + + + $ @ @ @ @ @ & & & & & - - , , , , , 2 2 2 2 2 2 2 , 2 2 2 2 2 , - & & & & $ + + @ + @ $ + X X X X   !.!.!.!.!.!.!.!.!.!.!.!.!.!.!.!.!.!.!.!.!.!.!.!.!.!.!.!.!.!.!.!.!.!.!.!.!.!.!.!.!.!.!.!.!.!.!.!.!.!.!.!.!.!.!.!.!.!.!.!.!.!.!.!.!.!.!.!.!.!.!.!.!.!.!.!.!.!.!.!.!.!.!.!.!.!.!.!.!.!.!.!.!.!.!.!.!.!.!.!.!.!.!.!.!.!.!.!.!.!.!.!.!.!.!.!.!.!.!.!.!.!.!.!.!.!.!.!.!.!.!.!.!.!.!.!.!.!.!.!.!.!.!.!.!.!.!.!.!.!.!.!.!.!.!.!.!.!.!.!.!.!.!.!.!.!.!.!.!.!.!.!.!.!.!.!.!.!.!.!.!.!.!.!.!.!.!.!.!.!.!.!.!.!.!.!.!.!.!.!.!.!.!.!.!.!.!.!.!.!.!.!.!.!.!.!.!.!.!.!.!.!.!.!.!.!.!.!.!.!.!.!.!.!.!.!.!.!.!.!.!.!.!.!.!.!.!.!.!.!.!.!.!.!.!.!.!.!.!.!.!.!.!.!.!.!.!.!.!.!.!.!.!.!.!.!.!.!.!.!.!.!.!.!.!.!.!.!.!.!.!.!.!.!.!.!.!.!.!.!.!.!.!.!.!.!.!.!.",
"!.!.!.!.!.!.!.!.!.!.!.!.!.!.!.!.!.!.!.!.!.!.!.!.!.!.!.!.!.!.!.!.!.!.!.!.!.!.!.!.!.!.!.!.!.!.!.!.!.!.!.!.!.!.!.!.!.!.!.!.!.!.!.!.!.!.!.!.!.!.!.!.!.!.!.!.!.!.!.!.!.!.!.!.!.!.!.!.!.!.!.!.!.!.!.!.!.!.!.!.!.!.!.!.!.!.!.!.!.!.!.!.!.!.!.!.!.!.!.!.!.!.!.!.!.!.!.!.!.!.!.!.!.!.!.!.!.!.!.!.!.!.!.!.!.!.!.!.!.!.!.!.!.!.!.!.!.!.!.!.!.!.!.!.!.!.!.!.!.!.!.!.!.!.!.!.!.!.!.!.!.!.!.!.!.!.!.!.!.!.!.!.!.!.!.!.!.!.!.  X X X X   !.!.!.!.!.!.!.!.!.!.    X X X @ @ @ @ @ & @ $ $ $ & & & - - - , , , , , 2 2 6 6 6 6 6 6 6 6 6 6 6 2 2 2 , - - & & $ $ $ $ & $ $ + X X X   X   !.!.!.!.!.!.!.!.!.!.!.!.!.!.!.!.!.!.!.!.!.!.!.!.!.!.!.!.!.!.!.!.!.!.!.!.!.!.!.!.!.!.!.!.!.!.!.!.!.!.!.!.!.!.!.!.!.!.!.!.!.!.!.!.!.!.!.!.!.!.!.!.!.!.!.!.!.!.!.!.!.!.!.!.!.!.!.!.!.!.!.!.!.!.!.!.!.!.!.!.!.!.!.!.!.!.!.!.!.!.!.!.!.!.!.!.!.!.!.!.!.!.!.!.!.!.!.!.!.!.!.!.!.!.!.!.!.!.!.!.!.!.!.!.!.!.!.!.!.!.!.!.!.!.!.!.!.!.!.!.!.!.!.!.!.!.!.!.!.!.!.!.!.!.!.!.!.!.!.!.!.!.!.!.!.!.!.!.!.!.!.!.!.!.!.!.!.!.!.!.!.!.!.!.!.!.!.!.!.!.!.!.!.!.!.!.!.!.!.!.!.!.!.!.!.!.!.!.!.!.!.!.!.!.!.!.!.!.!.!.!.!.!.!.!.!.!.!.!.!.!.!.!.!.!.!.!.!.!.!.!.!.!.!.!.!.!.!.!.!.!.!.!.!.!.!.!.!.!.!.!.!.!.!.!.!.!.!.!.!.!.!.!.!.!.!.!.!.!.!.!.!.!.!.!.!.!.",
"!.!.!.!.!.!.!.!.!.!.!.!.!.!.!.!.!.!.!.!.!.!.!.!.!.!.!.!.!.!.!.!.!.!.!.!.!.!.!.!.!.!.!.!.!.!.!.!.!.!.!.!.!.!.!.!.!.!.!.!.!.!.!.!.!.!.!.!.!.!.!.!.!.!.!.!.!.!.!.!.!.!.!.!.!.!.!.!.!.!.!.!.!.!.!.!.!.!.!.!.!.!.!.!.!.!.!.!.!.!.!.!.!.!.!.!.!.!.!.!.!.!.!.!.!.!.!.!.!.!.!.!.!.!.!.!.!.!.!.!.!.!.!.!.!.!.!.!.!.!.!.!.!.!.!.!.!.!.!.!.!.!.!.!.!.!.!.!.!.!.!.!.!.!.!.!.!.!.!.!.!.!.!.!.!.!.!.!.!.!.!.!.!.!.!.!.!.!.  X X X X X X         !.!.!.!.!.!.    X X X X + @ + $ & & & & & & - - - - - - , , , , 2 2 6 8 9 9 9 0 0 q 9 8 8 8 6 2 , , - & & & & & & & & & $ + X     X X   !.!.!.!.!.!.!.!.!.!.!.!.!.!.!.!.!.!.!.!.!.!.!.!.!.    !.!.!.!.!.!.!.!.!.!.!.!.!.!.!.!.!.!.!.!.!.!.!.!.!.!.!.!.!.!.!.!.!.!.!.!.!.!.!.!.!.!.!.!.!.!.!.!.!.!.!.!.!.!.!.!.!.!.!.!.!.!.!.!.!.!.!.!.!.!.!.!.!.!.!.!.!.!.!.!.!.!.!.!.!.!.!.!.!.!.!.!.!.!.!.!.!.!.!.!.!.!.!.!.!.!.!.!.!.!.!.!.!.!.!.!.!.!.!.!.!.!.!.!.!.!.!.!.!.!.!.!.!.!.!.!.!.!.!.!.!.!.!.!.!.!.!.!.!.!.!.!.!.!.!.!.!.!.!.!.!.!.!.!.!.!.!.!.!.!.!.!.!.!.!.!.!.!.!.!.!.!.!.!.!.!.!.!.!.!.!.!.!.!.!.!.!.!.!.!.!.!.!.!.!.!.!.!.!.!.!.!.!.!.!.!.!.!.!.!.!.!.!.!.!.!.!.!.!.!.!.!.!.!.!.!.!.!.!.!.!.!.!.!.!.!.!.!.!.!.!.!.!.!.!.!.!.!.!.!.!.!.!.!.!.!.!.!.!.!.!.!.!.!.!.!.!.!.!.",
"!.!.!.!.!.!.!.!.!.!.!.!.!.!.!.!.!.!.!.!.!.!.!.!.!.!.!.!.!.!.!.!.!.!.!.!.!.!.!.!.!.!.!.!.!.!.!.!.!.!.!.!.!.!.!.!.!.!.!.!.!.!.!.!.!.!.!.!.!.!.!.!.!.!.!.!.!.!.!.!.!.!.!.!.!.!.!.!.!.!.!.!.!.!.!.!.!.!.!.!.!.!.!.!.!.!.!.!.!.!.!.!.!.!.!.!.!.!.!.!.!.!.!.!.!.!.!.!.!.!.!.!.!.!.!.!.!.!.!.!.!.!.!.!.!.!.!.!.!.!.!.!.!.!.!.!.!.!.!.!.!.!.!.!.!.!.!.!.!.!.!.!.!.!.!.!.!.!.!.!.!.!.!.!.!.!.!.!.!.!.!.!.!.!.      X X @ X @ X X X X X X X                 X X X @ @ @ @ @ & & & & & & - - - - - - , , , , 2 6 8 q e e e e e e e q 0 0 6 6 2 , , - & & & - - - & & & @ X X   X X X X X       !.!.!.!.!.!.!.!.!.!.!.!.!.!.!.!.!.  X X X X X   !.!.!.!.!.!.!.!.!.!.!.!.!.!.!.!.!.!.!.!.!.!.!.!.!.!.!.!.!.!.!.!.!.!.!.!.!.!.!.!.!.!.!.!.!.!.!.!.!.!.!.!.!.!.!.!.!.!.!.!.!.!.!.!.!.!.!.!.!.!.!.!.!.!.!.!.!.!.!.!.!.!.!.!.!.!.!.!.!.!.!.!.!.!.!.!.!.!.!.!.!.!.!.!.!.!.!.!.!.!.!.!.!.!.!.!.!.!.!.!.!.!.!.!.!.!.!.!.!.!.!.!.!.!.!.!.!.!.!.!.!.!.!.!.!.!.!.!.!.!.!.!.!.!.!.!.!.!.!.!.!.!.!.!.!.!.!.!.!.!.!.!.!.!.!.!.!.!.!.!.!.!.!.!.!.!.!.!.!.!.!.!.!.!.!.!.!.!.!.!.!.!.!.!.!.!.!.!.!.!.!.!.!.!.!.!.!.!.!.!.!.!.!.!.!.!.!.!.!.!.!.!.!.!.!.!.!.!.!.!.!.!.!.!.!.!.!.!.!.!.!.!.!.!.!.!.!.!.!.!.!.!.!.!.!.!.!.!.!.!.!.!.!.!.!.!.!.",
"!.!.!.!.!.!.!.!.!.!.!.!.!.!.!.!.!.!.!.!.!.!.!.!.!.!.!.!.!.!.!.!.!.!.!.!.!.!.!.!.!.!.!.!.!.!.!.!.!.!.!.!.!.!.!.!.!.!.!.!.!.!.!.!.!.!.!.!.!.!.!.!.!.!.!.!.!.!.!.!.!.!.!.!.!.!.!.!.!.!.!.!.!.!.!.!.!.!.!.!.!.!.!.!.!.!.!.!.!.!.!.!.!.!.!.!.!.!.!.!.!.!.!.!.!.!.!.!.!.!.!.!.!.!.!.!.!.!.!.!.!.!.!.!.!.!.!.!.!.!.!.!.!.!.!.!.!.!.!.!.!.!.!.!.!.!.!.!.!.!.!.!.!.!.!.!.!.!.!.!.!.!.!.!.!.!.!.!.!.!.!.        X X @ + + + @ @ @ @ @ @ X X X X X X X X     X X X @ @ + + @ $ & & & - - - , , , , , , , , 2 6 9 q y y y y y y y y e q q 9 6 6 2 2 , - - - - - - - - & & @ X X X @ @ @ @ X X   !.!.!.!.!.!.!.!.!.!.!.!.!.!.!.!.X @ @ @ $ @ @ X     !.!.!.!.!.!.!.!.!.!.!.!.!.!.!.!.!.!.!.!.!.!.!.!.!.!.!.!.!.!.!.!.!.!.!.!.!.!.!.!.!.!.!.!.!.!.!.!.!.!.!.!.!.!.!.!.!.!.!.!.!.!.!.!.!.!.!.!.!.!.!.!.!.!.!.!.!.!.!.!.!.!.!.!.!.!.!.!.!.!.!.!.!.!.!.!.!.!.!.!.!.!.!.!.!.!.!.!.!.!.!.!.!.!.!.!.!.!.!.!.!.!.!.!.!.!.!.!.!.!.!.!.!.!.!.!.!.!.!.!.!.!.!.!.!.!.!.!.!.!.!.!.!.!.!.!.!.!.!.!.!.!.!.!.!.!.!.!.!.!.!.!.!.!.!.!.!.!.!.!.!.!.!.!.!.!.!.!.!.!.!.!.!.!.!.!.!.!.!.!.!.!.!.!.!.!.!.!.!.!.!.!.!.!.!.!.!.!.!.!.!.!.!.!.!.!.!.!.!.!.!.!.!.!.!.!.!.!.!.!.!.!.!.!.!.!.!.!.!.!.!.!.!.!.!.!.!.!.!.!.!.!.!.!.!.!.!.!.!.!.!.!.!.!.!.",
"!.!.!.!.!.!.!.!.!.!.!.!.!.!.!.!.!.!.!.!.!.!.!.!.!.!.!.!.!.!.!.!.!.!.!.!.!.!.!.!.!.!.!.!.!.!.!.!.!.!.!.!.!.!.!.!.!.!.!.!.!.!.!.!.!.!.!.!.!.!.!.!.!.!.!.!.!.!.!.!.!.!.!.!.!.!.!.!.!.!.!.!.!.!.!.!.!.!.!.!.!.!.!.!.!.!.!.!.!.!.!.!.!.!.!.!.!.!.!.!.!.!.!.!.!.!.!.!.!.!.!.!.!.!.!.!.!.!.!.!.!.!.!.!.!.!.!.!.!.!.!.!.!.!.!.!.!.!.!.!.!.!.!.!.!.!.!.!.!.!.!.!.!.!.!.!.!.!.!.!.!.!.!.!.!.!.!.!.!.!.        X X @ @ @ @ @ @ @ @ + @ @ + @ @ @ @ @ X X X X X X + @ + + @ $ & & & - - - , , 2 2 2 , , 2 , 6 6 9 e y y i i i y y i y e q 0 9 6 2 2 , , , - - - - - - & & $ @ @ + $ & @ @ X X X   !.!.!.!.!.!.!.!.!.!.!.!.!.!.X + & & & & & @ + @ X !.!.!.!.!.!.!.!.!.!.!.!.!.!.!.!.!.!.!.!.!.!.!.!.!.!.!.!.!.!.!.!.!.!.!.!.!.!.!.!.!.!.!.!.!.!.!.!.!.!.!.!.!.!.!.!.!.!.!.!.!.!.!.!.!.!.!.!.!.!.!.!.!.!.!.!.!.!.!.!.!.!.!.!.!.!.!.!.!.!.!.!.!.!.!.!.!.!.!.!.!.!.!.!.!.!.!.!.!.!.!.!.!.!.!.!.!.!.!.!.!.!.!.!.!.!.!.!.!.!.!.!.!.!.!.!.!.!.!.!.!.!.!.!.!.!.!.!.!.!.!.!.!.!.!.!.!.!.!.!.!.!.!.!.!.!.!.!.!.!.!.!.!.!.!.!.!.!.!.!.!.!.!.!.!.!.!.!.!.!.!.!.!.!.!.!.!.!.!.!.!.!.!.!.!.!.!.!.!.!.!.!.!.!.!.!.!.!.!.!.!.!.!.!.!.!.!.!.!.!.!.!.!.!.!.!.!.!.!.!.!.!.!.!.!.!.!.!.!.!.!.!.!.!.!.!.!.!.!.!.!.!.!.!.!.!.!.!.!.!.!.!.!.!.!.",
"!.!.!.!.!.!.!.!.!.!.!.!.!.!.!.!.!.!.!.!.!.!.!.!.!.!.!.!.!.!.!.!.!.!.!.!.!.!.!.!.!.!.!.!.!.!.!.!.!.!.!.!.!.!.!.!.!.!.!.!.!.!.!.!.!.!.!.!.!.!.!.!.!.!.!.!.!.!.!.!.!.!.!.!.!.!.!.!.!.!.!.!.!.!.!.!.!.!.!.!.!.!.!.!.!.!.!.!.!.!.!.!.!.!.!.!.!.!.!.!.!.!.!.!.!.!.!.!.!.!.!.!.!.!.!.!.!.!.!.!.!.!.!.!.!.!.!.!.!.!.!.!.!.!.!.!.!.!.!.!.!.!.!.!.!.!.!.!.!.!.!.!.!.!.!.!.!.!.!.!.!.!.!.!.!.!.!.!.!.!.  X X X X @ & & & $ @ $ & & $ @ $ $ @ @ + @ @ X X X X X @ + + + @ @ $ & & & - - , 2 2 2 2 2 2 2 2 2 6 9 q e y i s s s i i y y e y q 0 9 6 2 2 2 , , , , , - - & & & & & & & & & + @ @ X X X             !.        X X + & - - - - & & $ $ + X     !.!.!.!.!.!.!.!.!.!.!.!.!.!.!.!.!.!.!.!.!.!.!.!.!.!.!.!.!.!.!.!.!.!.!.!.!.!.!.!.!.!.!.!.!.!.!.!.!.!.!.!.!.!.!.!.!.!.!.!.!.!.!.!.!.!.!.!.!.!.!.!.!.!.!.!.!.!.!.!.!.!.!.!.!.!.!.!.!.!.!.!.!.!.!.!.!.!.!.!.!.!.!.!.!.!.!.!.!.!.!.!.!.!.!.!.!.!.!.!.!.!.!.!.!.!.!.!.!.!.!.!.!.!.!.!.!.!.!.!.!.!.!.!.!.!.!.!.!.!.!.!.!.!.!.!.!.!.!.!.!.!.!.!.!.!.!.!.!.!.!.!.!.!.!.!.!.!.!.!.!.!.!.!.!.!.!.!.!.!.!.!.!.!.!.!.!.!.!.!.!.!.!.!.!.!.!.!.!.!.!.!.!.!.!.!.!.!.!.!.!.!.!.!.!.!.!.!.!.!.!.!.!.!.!.!.!.!.!.!.!.!.!.!.!.!.!.!.!.!.!.!.!.!.!.!.!.!.!.!.!.!.!.!.!.!.!.!.!.!.!.!.",
"!.!.!.!.!.!.!.!.!.!.!.!.!.!.!.!.!.!.!.!.!.!.!.!.!.!.!.!.!.!.!.!.!.!.!.!.!.!.!.!.!.!.!.!.!.!.!.!.!.!.!.!.!.!.!.!.!.!.!.!.!.!.!.!.!.!.!.!.!.!.!.!.!.!.!.!.!.!.!.!.!.!.!.!.!.!.!.!.!.!.!.!.!.!.!.!.!.!.!.!.!.!.!.!.!.!.!.!.!.!.!.!.!.!.!.!.!.!.!.!.!.!.!.!.!.!.!.!.!.!.!.!.!.!.!.!.!.!.!.!.!.!.!.!.!.!.!.!.!.!.!.!.!.!.!.!.!.!.!.!.!.!.!.!.!.!.!.!.!.!.!.!.!.!.!.!.!.!.!.!.!.!.!.!.!.!.!.!.!.  X X X X @ @ & & & & $ & & & & & & & & $ @ @ + @ X X @ + + @ @ + + @ & & & & - - , 2 2 2 2 6 6 6 6 6 9 q e y i s s s s s i i y y y e q q 0 8 6 2 2 2 , , , - - - - - & & & & & & + X @ @ X X X X X @ X X X X X X @ + & & - - , , , & & & & @ @ @ X X X       !.!.!.!.!.!.!.!.!.!.!.!.!.!.!.!.!.!.!.!.!.!.!.!.!.!.!.!.!.!.!.!.!.!.!.!.!.!.!.!.!.!.!.!.!.!.!.!.!.!.!.!.!.!.!.!.!.!.!.!.!.!.!.!.!.!.!.!.!.!.!.!.!.!.!.!.!.!.!.!.!.!.!.!.!.!.!.!.!.!.!.!.!.!.!.!.!.!.!.!.!.!.!.!.!.!.!.!.!.!.!.!.!.!.!.!.!.!.!.!.!.!.!.!.!.!.!.!.!.!.!.!.!.!.!.!.!.!.!.!.!.!.!.!.!.!.!.!.!.!.!.!.!.!.!.!.!.!.!.!.!.!.!.!.!.!.!.!.!.!.!.!.!.!.!.!.!.!.!.!.!.!.!.!.!.!.!.!.!.!.!.!.!.!.!.!.!.!.!.!.!.!.!.!.!.!.!.!.!.!.!.!.!.!.!.!.!.!.!.!.!.!.!.!.!.!.!.!.!.!.!.!.!.!.!.!.!.!.!.!.!.!.!.!.!.!.!.!.!.!.!.!.!.!.!.!.!.!.!.!.!.!.!.!.!.!.!.",
"!.!.!.!.!.!.!.!.!.!.!.!.!.!.!.!.!.!.!.!.!.!.!.!.!.!.!.!.!.!.!.!.!.!.!.!.!.!.!.!.!.!.!.!.!.!.!.!.!.!.!.!.!.!.!.!.!.!.!.!.!.!.!.!.!.!.!.!.!.!.!.!.!.!.!.!.!.!.!.!.!.!.!.!.!.!.!.!.!.!.!.!.!.!.!.!.!.!.!.!.!.!.!.!.!.!.!.!.!.!.!.!.!.!.!.!.!.!.!.!.!.!.!.!.!.!.!.!.!.!.!.!.!.!.!.!.!.!.!.!.!.!.!.!.!.!.!.!.!.!.!.!.!.!.!.!.!.!.!.!.!.!.!.!.!.!.!.!.!.!.!.!.!.!.!.!.!.!.!.!.!.!.!.!.!.!.!.!.!.X X @ X X @ $ & & & & & & & & - & & & & & & & $ @ @ @ + @ @ + @ @ @ & & & & & - - , 2 2 6 6 8 6 6 6 9 q y i s d d d d s s s s i i y y y y e q 8 6 2 2 2 , , , , , - - - - - & & & $ + @ + @ @ + + @ @ @ @ $ $ @ @ @ & & - - , , , , - - & & & & & + + @ @ @ X   !.!.!.!.!.!.!.!.!.!.!.!.!.!.!.!.!.!.!.!.!.!.!.!.!.!.!.!.!.!.!.!.!.!.!.!.!.!.!.!.!.!.!.!.!.!.!.!.!.!.!.!.!.!.!.!.!.!.!.!.!.!.!.!.!.!.!.!.!.!.!.!.!.!.!.!.!.!.!.!.!.!.!.!.!.!.!.!.!.!.!.!.!.!.!.!.!.!.!.!.!.!.!.!.!.!.!.!.!.!.!.!.!.!.!.!.!.!.!.!.!.!.!.!.!.!.!.!.!.!.!.!.!.!.!.!.!.!.!.!.!.!.!.!.!.!.!.!.!.!.!.!.!.!.!.!.!.!.!.!.!.!.!.!.!.!.!.!.!.!.!.!.!.!.!.!.!.!.!.!.!.!.!.!.!.!.!.!.!.!.!.!.!.!.!.!.!.!.!.!.!.!.!.!.!.!.!.!.!.!.!.!.!.!.!.!.!.!.!.!.!.!.!.!.!.!.!.!.!.!.!.!.!.!.!.!.!.!.!.!.!.!.!.!.!.!.!.!.!.!.!.!.!.!.!.!.!.!.!.!.!.!.!.!.!.!.",
"!.!.!.!.!.!.!.!.!.!.!.!.!.!.!.!.!.!.!.!.!.!.!.!.!.!.!.!.!.!.!.!.!.!.!.!.!.!.!.!.!.!.!.!.!.!.!.!.!.!.!.!.!.!.!.!.!.!.!.!.!.!.!.!.!.!.!.!.!.!.!.!.!.!.!.!.!.!.!.!.!.!.!.!.!.!.!.!.!.!.!.!.!.!.!.!.!.!.!.!.!.!.!.!.!.!.!.!.!.!.!.!.!.!.!.!.!.!.!.!.!.!.!.!.!.!.!.!.!.!.!.!.!.!.!.!.!.!.!.!.!.!.!.!.!.!.!.!.!.!.!.!.!.!.!.!.!.!.!.!.!.!.!.!.!.!.!.!.!.!.!.!.!.!.!.!.!.!.!.!.!.!.!.!.!.!.!.!.  X + @ @ X @ @ & - - - - - - - - - & - & & & & @ @ X @ + + @ @ @ + $ & & & & - - , , , 2 6 8 9 0 q q q y s s d d k k d d d s s s s s i s s y e q 8 6 2 2 , 2 2 , , , - - - & & & & & & & @ $ @ @ $ $ $ & & & & & & & & - - , , , , , , - - - - & & & & & & $ @ X X   !.!.!.!.!.!.!.!.!.!.!.!.!.!.!.!.!.!.!.!.!.!.!.!.!.!.!.!.!.!.!.!.!.!.!.!.!.!.!.!.!.!.!.!.!.!.!.!.!.!.!.!.!.!.!.!.!.!.!.!.!.!.!.!.!.!.!.!.!.!.!.!.!.!.!.!.!.!.!.!.!.!.!.!.!.!.!.!.!.!.!.!.!.!.!.!.!.!.!.!.!.!.!.!.!.!.!.!.!.!.!.!.!.!.!.!.!.!.!.!.!.!.!.!.!.!.!.!.!.!.!.!.!.!.!.!.!.!.!.!.!.!.!.!.!.!.!.!.!.!.!.!.!.!.!.!.!.!.!.!.!.!.!.!.!.!.!.!.!.!.!.!.!.!.!.!.!.!.!.!.!.!.!.!.!.!.!.!.!.!.!.!.!.!.!.!.!.!.!.!.!.!.!.!.!.!.!.!.!.!.!.!.!.!.!.!.!.!.!.!.!.!.!.!.!.!.!.!.!.!.!.!.!.!.!.!.!.!.!.!.!.!.!.!.!.!.!.!.!.!.!.!.!.!.!.!.!.!.!.!.!.!.!.!.",
"!.!.!.!.!.!.!.!.!.!.!.!.!.!.!.!.!.!.!.!.!.!.!.!.!.!.!.!.!.!.!.!.!.!.!.!.!.!.!.!.!.!.!.!.!.!.!.!.!.!.!.!.!.!.!.!.!.!.!.!.!.!.!.!.!.!.!.!.!.!.!.!.!.!.!.!.!.!.!.!.!.!.!.!.!.!.!.!.!.!.!.!.!.!.!.!.!.!.!.!.!.!.!.!.!.!.!.!.!.!.!.!.!.!.!.!.!.!.!.!.!.!.!.!.!.!.!.!.!.!.!.!.!.!.!.!.!.!.!.!.!.!.!.!.!.!.!.!.!.!.!.!.!.!.!.!.!.!.!.!.!.!.!.!.!.!.!.!.!.!.!.!.!.!.!.!.!.    !.!.    !.    X X @ @ @ & @ + & & - - - , - - - - - - - - - & & & @ + @ @ @ @ @ + @ + & & & & - - - , , 2 2 6 8 q q e y y i s d d k k k k d d d d s s s s s s s y q 0 8 2 2 2 2 2 2 , , , - - - & & & & & & & & & & & & & - - - - - - - , , , , , , 2 , , , , , - - - - & & & - - & + @ X X     !.!.!.!.!.!.!.!.!.!.!.!.!.!.!.!.!.!.!.!.!.!.!.!.!.!.!.!.!.!.!.!.!.!.!.!.!.!.!.!.!.!.!.!.!.!.!.!.!.!.!.!.!.!.!.!.!.!.!.!.!.!.!.!.!.!.!.!.!.!.!.!.!.!.!.!.!.!.!.!.!.!.!.!.!.!.!.!.!.!.!.!.!.!.!.!.!.!.!.!.!.!.!.!.!.!.!.!.!.!.!.!.!.!.!.!.!.!.!.!.!.!.!.!.!.!.!.!.!.!.!.!.!.!.!.!.!.!.!.!.!.!.!.!.!.!.!.!.!.!.!.!.!.!.!.!.!.!.!.!.!.!.!.!.!.!.!.!.!.!.!.!.!.!.!.!.!.!.!.!.!.!.!.!.!.!.!.!.!.!.!.!.!.!.!.!.!.!.!.!.!.!.!.!.!.!.!.!.!.!.!.!.!.!.!.!.!.!.!.!.!.!.!.!.!.!.!.!.!.!.!.!.!.!.!.!.!.!.!.!.!.!.!.!.!.!.!.!.!.!.!.!.!.!.!.!.!.!.!.!.",
"!.!.!.!.!.!.!.!.!.!.!.!.!.!.!.!.!.!.!.!.!.!.!.!.!.!.!.!.!.!.!.!.!.!.!.!.!.!.!.!.!.!.!.!.!.!.!.!.!.!.!.!.!.!.!.!.!.!.!.!.!.!.!.!.!.!.!.!.!.!.!.!.!.!.!.!.!.!.!.!.!.!.!.!.!.!.!.!.!.!.!.!.!.!.!.!.!.!.!.!.!.!.!.!.!.!.!.!.!.!.!.!.!.!.!.!.!.!.!.!.!.!.!.!.!.!.!.!.!.!.!.!.!.!.!.!.!.!.!.!.!.!.!.!.!.!.!.!.!.!.!.!.!.!.!.!.!.!.!.!.!.!.!.!.!.!.!.!.!.!.!.!.!.!.!.    X X X X X   X   X X @ @ $ & $ @ & & & - - - , , , , - - - - - - & & & $ @ @ X X X @ @ @ & & & & & - - , , 2 2 2 6 9 q y y s s s d d k k k k k d d s s s s d s s s s y y q 0 6 6 6 6 6 6 2 , , , , - - - - - - - - - & & & & - - - , , , , , , , , , 2 2 2 , , , , 2 2 2 , , - - - - , - & & + X X   !.!.!.!.!.!.!.!.!.!.!.!.!.!.!.!.!.!.!.!.!.!.!.!.!.!.!.!.!.!.!.!.!.!.!.!.!.!.!.!.!.!.!.!.!.!.!.!.!.!.!.!.!.!.!.!.!.!.!.!.!.!.!.!.!.!.!.!.!.!.!.!.!.!.!.!.!.!.!.!.!.!.!.!.!.!.!.!.!.!.!.!.!.!.!.!.!.!.!.!.!.!.!.!.!.!.!.!.!.!.!.!.!.!.!.!.!.!.!.!.!.!.!.!.!.!.!.!.!.!.!.!.!.!.!.!.!.!.!.!.!.!.!.!.!.!.!.!.!.!.!.!.!.!.!.!.!.!.!.!.!.!.!.!.!.!.!.!.!.!.!.!.!.!.!.!.!.!.!.!.!.!.!.!.!.!.!.!.!.!.!.!.!.!.!.!.!.!.!.!.!.!.!.!.!.!.!.!.!.!.!.!.!.!.!.!.!.!.!.!.!.!.!.!.!.!.!.!.!.!.!.!.!.!.!.!.!.!.!.!.!.!.!.!.!.!.!.!.!.!.!.!.!.!.!.!.!.!.!.!.",
"!.!.!.!.!.!.!.!.!.!.!.!.!.!.!.!.!.!.!.!.!.!.!.!.!.!.!.!.!.!.!.!.!.!.!.!.!.!.!.!.!.!.!.!.!.!.!.!.!.!.!.!.!.!.!.!.!.!.!.!.!.!.!.!.!.!.!.!.!.!.!.!.!.!.!.!.!.!.!.!.!.!.!.!.!.!.!.!.!.!.!.!.!.!.!.!.!.!.!.!.!.!.!.!.!.!.!.!.!.!.!.!.!.!.!.!.!.!.!.!.!.!.!.!.!.!.!.!.!.!.!.!.!.!.!.!.!.!.!.!.!.!.!.!.!.!.!.!.!.!.!.!.!.!.!.!.!.!.!.!.!.!.!.!.!.!.!.!.!.!.!.!.!.!.  X X X X X @ @ X X X X @ & & & & & & & & - , , , , , , , , - - - - - & & & & @ + @ @ X @ @ @ & & & & & - - - , , 2 6 6 q e y i s s d d d k k k k k d d d d s s d s d s s i y e q 9 8 8 6 6 6 2 2 , , , , - - - , , - - - - - - - - - , , , , 2 2 , 2 2 2 2 2 2 2 2 2 , , , 2 2 , , , , , , , , - & @ @ X   !.!.!.!.!.!.!.!.!.!.!.!.!.!.!.!.!.!.!.!.!.!.!.!.!.!.!.!.!.!.!.!.!.!.!.!.!.!.!.!.!.!.!.!.!.!.!.!.!.!.!.!.!.!.!.!.!.!.!.!.!.!.!.!.!.!.!.!.!.!.!.!.!.!.!.!.!.!.!.!.!.!.!.!.!.!.!.!.!.!.!.!.!.!.!.!.!.!.!.!.!.!.!.!.!.!.!.!.!.!.!.!.!.!.!.!.!.!.!.!.!.!.!.!.!.!.!.!.!.!.!.!.!.!.!.!.!.!.!.!.!.!.!.!.!.!.!.!.!.!.!.!.!.!.!.!.!.!.!.!.!.!.!.!.!.!.!.!.!.!.!.!.!.!.!.!.!.!.!.!.!.!.!.!.!.!.!.!.!.!.!.!.!.!.!.!.!.!.!.!.!.!.!.!.!.!.!.!.!.!.!.!.!.!.!.!.!.!.!.!.!.!.!.!.!.!.!.!.!.!.!.!.!.!.!.!.!.!.!.!.!.!.!.!.!.!.!.!.!.!.!.!.!.!.!.!.!.!.!.",
"!.!.!.!.!.!.!.!.!.!.!.!.!.!.!.!.!.!.!.!.!.!.!.!.!.!.!.!.!.!.!.!.!.!.!.!.!.!.!.!.!.!.!.!.!.!.!.!.!.!.!.!.!.!.!.!.!.!.!.!.!.!.!.!.!.!.!.!.!.!.!.!.!.!.!.!.!.!.!.!.!.!.!.!.!.!.!.!.!.!.!.!.!.!.!.!.!.!.!.!.!.!.!.!.!.!.!.!.!.!.!.!.!.!.!.!.!.!.!.!.!.!.!.!.!.!.!.!.!.!.!.!.!.!.!.!.!.!.!.!.!.!.!.!.!.!.!.!.!.!.!.!.!.!.!.!.!.!.!.!.!.!.!.!.!.!.!.!.!.!.!.!.  X X X X @ @ @ + @ @ X X @ $ & & & & & & - - - , , 2 2 2 , , , , , - - - - - & & & @ + @ @ + + & & & - - - - - - , 2 2 6 9 q y i s s s d d d k k z z k k d d d d d d d d d d s i y e 0 9 0 9 6 6 6 2 2 2 2 , , , , , , , , 2 , , - - - , 2 , , 2 2 2 2 6 6 6 6 2 2 2 2 2 2 6 2 2 6 2 2 2 2 2 2 2 2 , - & $ + @ X X X X     !.!.!.!.!.!.!.!.!.!.!.!.!.!.!.!.!.!.!.!.!.!.!.!.!.!.!.!.!.!.!.!.!.!.!.!.!.!.!.!.!.!.!.!.!.!.!.!.!.!.!.!.!.!.!.!.!.!.!.!.!.!.!.!.!.!.!.!.!.!.!.!.!.!.!.!.!.!.!.!.!.!.!.!.!.!.!.!.!.!.!.!.!.!.!.!.!.!.!.!.!.!.!.!.!.!.!.!.!.!.!.!.!.!.!.!.!.!.!.!.!.!.!.!.!.!.!.!.!.!.!.!.!.!.!.!.!.!.!.!.!.!.!.!.!.!.!.!.!.!.!.!.!.!.!.!.!.!.!.!.!.!.!.!.!.!.!.!.!.!.!.!.!.!.!.!.!.!.!.!.!.!.!.!.!.!.!.!.!.!.!.!.!.!.!.!.!.!.!.!.!.!.!.!.!.!.!.!.!.!.!.!.!.!.!.!.!.!.!.!.!.!.!.!.!.!.!.!.!.!.!.!.!.!.!.!.!.!.!.!.!.!.!.!.!.!.!.!.!.!.!.!.!.",
"!.!.!.!.!.!.!.!.!.!.!.!.!.!.!.!.!.!.!.!.!.!.!.!.!.!.!.!.!.!.!.!.!.!.!.!.!.!.!.!.!.!.!.!.!.!.!.!.!.!.!.!.!.!.!.!.!.!.!.!.!.!.!.!.!.!.!.!.!.!.!.!.!.!.!.!.!.!.!.!.!.!.!.!.!.!.!.!.!.!.!.!.!.!.!.!.!.!.!.!.!.!.!.!.!.!.!.!.!.!.!.!.!.!.!.!.!.!.!.!.!.!.!.!.!.!.!.!.!.!.!.!.!.!.!.!.!.!.!.!.!.!.!.!.!.!.!.!.!.!.!.!.!.!.!.!.!.!.!.!.!.!.!.!.!.!.!.!.!.!.!.!.  X X X @ + + @ @ @ + @ @ @ & & - - & & & - , , 2 , , 2 2 2 , , , , , , , - - & & & @ @ @ @ + @ & & - - - - - - - , , 2 6 q e y i s d d d d k k k k k k k k k k d d d k k k d d s y y e q q q 0 9 8 6 6 6 2 2 2 2 6 2 2 2 2 2 2 , , - , , , 2 2 2 2 6 6 6 6 6 6 6 6 6 8 6 6 6 6 6 6 6 6 6 6 6 6 6 2 2 , - & $ @ @ @ + @ X X X X X     !.!.!.!.!.!.!.!.!.!.!.!.!.!.!.!.!.!.!.!.!.!.!.!.!.!.!.!.!.!.!.!.!.!.!.!.!.!.!.!.!.!.!.!.!.!.!.!.!.!.!.!.!.!.!.!.!.!.!.!.!.!.!.!.!.!.!.!.!.!.!.!.!.!.!.!.!.!.!.!.!.!.!.!.!.!.!.!.!.!.!.!.!.!.!.!.!.!.!.!.!.!.!.!.!.!.!.!.!.!.!.!.!.!.!.!.!.!.!.!.!.!.!.!.!.!.!.!.!.!.!.!.!.!.!.!.!.!.!.!.!.!.!.!.!.!.!.!.!.!.!.!.!.!.!.!.!.!.!.!.!.!.!.!.!.!.!.!.!.!.!.!.!.!.!.!.!.!.!.!.!.!.!.!.!.!.!.!.!.!.!.!.!.!.!.!.!.!.!.!.!.!.!.!.!.!.!.!.!.!.!.!.!.!.!.!.!.!.!.!.!.!.!.!.!.!.!.!.!.!.!.!.!.!.!.!.!.!.!.!.!.!.!.!.!.!.!.!.",
"!.!.!.!.!.!.!.!.!.!.!.!.!.!.!.!.!.!.!.!.!.!.!.!.!.!.!.!.!.!.!.!.!.!.!.!.!.!.!.!.!.!.!.!.!.!.!.!.!.!.!.!.!.!.!.!.!.!.!.!.!.!.!.!.!.!.!.!.!.!.!.!.!.!.!.!.!.!.!.!.!.!.!.!.!.!.!.!.!.!.!.!.!.!.!.!.!.!.!.!.!.!.!.!.!.!.!.!.!.!.!.!.!.!.!.!.!.!.!.!.!.!.!.!.!.!.!.!.!.!.!.!.!.!.!.!.!.!.!.!.!.!.!.!.!.!.!.!.!.!.!.!.!.!.!.!.!.!.!.!.!.!.!.!.!.!.!.!.!.!.!.!.X X @ @ @ @ @ @ @ @ $ & @ & & - - - - - - - , 2 2 6 2 2 2 2 2 2 , , , , , , - - & & & & $ & $ @ & & - - - - - - - , 2 2 8 q e y s s d d d d d k k k k k k k k k k d k k k k k d s s i y e e y e e q q 0 6 6 6 6 6 6 6 6 6 6 6 6 2 , , , 2 2 2 6 6 6 6 8 9 0 0 9 8 0 0 9 0 9 8 6 8 9 9 0 9 9 9 8 9 8 6 2 2 - - & & & & & & & $ & @ @ + X X   !.!.!.!.!.!.!.!.!.!.!.!.!.!.!.!.!.!.!.!.!.!.!.!.!.!.!.!.!.!.!.!.!.!.!.!.!.!.!.!.!.!.!.!.!.!.!.!.!.!.!.!.!.!.!.!.!.!.!.!.!.!.!.!.!.!.!.!.!.!.!.!.!.!.!.!.!.!.!.!.!.!.!.!.!.!.!.!.!.!.!.!.!.!.!.!.!.!.!.!.!.!.!.!.!.!.!.!.!.!.!.!.!.!.!.!.!.!.!.!.!.!.!.!.!.!.!.!.!.!.!.!.!.!.!.!.!.!.!.!.!.!.!.!.!.!.!.!.!.!.!.!.!.!.!.!.!.!.!.!.!.!.!.!.!.!.!.!.!.!.!.!.!.!.!.!.!.!.!.!.!.!.!.!.!.!.!.!.!.!.!.!.!.!.!.!.!.!.!.!.!.!.!.!.!.!.!.!.!.!.!.!.!.!.!.!.!.!.!.!.!.!.!.!.!.!.!.!.!.!.!.!.!.!.!.!.!.!.!.!.!.!.!.!.!.",
"!.!.!.!.!.!.!.!.!.!.!.!.!.!.!.!.!.!.!.!.!.!.!.!.!.!.!.!.!.!.!.!.!.!.!.!.!.!.!.!.!.!.!.!.!.!.!.!.!.!.!.!.!.!.!.!.!.!.!.!.!.!.!.!.!.!.!.!.!.!.!.!.!.!.!.!.!.!.!.!.!.!.!.!.!.!.!.!.!.!.!.!.!.!.!.!.!.!.!.!.!.!.!.!.!.!.!.!.!.!.!.!.!.!.!.!.!.!.!.!.!.!.!.!.!.!.!.!.!.!.!.!.!.!.!.!.!.!.!.!.!.!.!.!.!.!.!.!.!.!.!.!.!.!.!.!.!.!.!.!.!.!.!.!.!.!.!.!.!.!.!.  X X + + + @ @ @ @ + @ @ & & - - - - - - , , , 2 2 6 6 6 6 6 2 2 , , , 2 , , , - & & & & & & & & & & - - - - - - , , 2 6 8 q e y s d d k k d d k d k k d k k d k d d k k k k k d d s s y y y y y y y y q 9 9 8 9 0 q 9 q q 0 0 0 6 6 6 6 2 2 6 6 0 q q q e e e q q e e q q q q e q q e e e e q q e q 8 6 2 2 , , - , , , - - & & & & & @ @ @ X   !.!.!.!.!.!.!.!.!.!.!.!.!.!.!.!.!.!.!.!.!.!.!.!.!.!.!.!.!.!.!.!.!.!.!.!.!.!.!.!.!.!.!.!.!.!.!.!.!.!.!.!.!.!.!.!.!.!.!.!.!.!.!.!.!.!.!.!.!.!.!.!.!.!.!.!.!.!.!.!.!.!.!.!.!.!.!.!.!.!.!.!.!.!.!.!.!.!.!.!.!.!.!.!.!.!.!.!.!.!.!.!.!.!.!.!.!.!.!.!.!.!.!.!.!.!.!.!.!.!.!.!.!.!.!.!.!.!.!.!.!.!.!.!.!.!.!.!.!.!.!.!.!.!.!.!.!.!.!.!.!.!.!.!.!.!.!.!.!.!.!.!.!.!.!.!.!.!.!.!.!.!.!.!.!.!.!.!.!.!.!.!.!.!.!.!.!.!.!.!.!.!.!.!.!.!.!.!.!.!.!.!.!.!.!.!.!.!.!.!.!.!.!.!.!.!.!.!.!.!.!.!.!.!.!.!.!.!.!.!.!.!.!.",
"!.!.!.!.!.!.!.!.!.!.!.!.!.!.!.!.!.!.!.!.!.!.!.!.!.!.!.!.!.!.!.!.!.!.!.!.!.!.!.!.!.!.!.!.!.!.!.!.!.!.!.!.!.!.!.!.!.!.!.!.!.!.!.!.!.!.!.!.!.!.!.!.!.!.!.!.!.!.!.!.!.!.!.!.!.!.!.!.!.!.!.!.!.!.!.!.!.!.!.!.!.!.!.!.!.!.!.!.!.!.!.!.!.!.!.!.!.!.!.!.!.!.!.!.!.!.!.!.!.!.!.!.!.!.!.!.!.!.!.!.!.!.!.!.!.!.!.!.!.!.!.!.!.!.!.!.!.!.!.!.!.!.!.!.!.!.!.!.!.!.  X X @ @ @ + @ $ $ & $ + @ $ & - , , , , , 2 2 2 6 6 6 6 6 6 6 6 6 2 2 2 , 2 2 2 - - & & - - - - & & & & - - - - - , , 2 6 8 0 e y s d d k k d d d d d d d d d d d d k k k k k k d d d s i y y y y y y y e e q q e e e q e e e e e q q 0 0 9 9 9 0 q y y y y y y y y y i y y e e e e y y y i i i y y e q 8 6 2 2 2 2 2 2 2 , , - - - - - & & + @ X   !.!.!.!.!.!.!.!.!.!.!.!.!.!.!.!.!.!.!.!.!.!.!.!.!.!.!.!.!.!.!.!.!.!.!.!.!.!.!.!.!.!.!.!.!.!.!.!.!.!.!.!.!.!.!.!.!.!.!.!.!.!.!.!.!.!.!.!.!.!.!.!.!.!.!.!.!.!.!.!.!.!.!.!.!.!.!.!.!.!.!.!.!.!.!.!.!.!.!.!.!.!.!.!.!.!.!.!.!.!.!.!.!.!.!.!.!.!.!.!.!.!.!.!.!.!.!.!.!.!.!.!.!.!.!.!.!.!.!.!.!.!.!.!.!.!.!.!.!.!.!.!.!.!.!.!.!.!.!.!.!.!.!.!.!.!.!.!.!.!.!.!.!.!.!.!.!.!.!.!.!.!.!.!.!.!.!.!.!.!.!.!.!.!.!.!.!.!.!.!.!.!.!.!.!.!.!.!.!.!.!.!.!.!.!.!.!.!.!.!.!.!.!.!.!.!.!.!.!.!.!.!.!.!.!.!.!.!.!.!.!.!.",
"!.!.!.!.!.!.!.!.!.!.!.!.!.!.!.!.!.!.!.!.!.!.!.!.!.!.!.!.!.!.!.!.!.!.!.!.!.!.!.!.!.!.!.!.!.!.!.!.!.!.!.!.!.!.!.!.!.!.!.!.!.!.!.!.!.!.!.!.!.!.!.!.!.!.!.!.!.!.!.!.!.!.!.!.!.!.!.!.!.!.!.!.!.!.!.!.!.!.!.!.!.!.!.!.!.!.!.!.!.!.!.!.!.!.!.!.!.!.!.!.!.!.!.!.!.!.!.!.!.!.!.!.!.!.!.!.!.!.!.!.!.!.!.!.!.!.!.!.!.!.!.!.!.!.!.!.!.!.!.!.!.!.!.!.!.!.!.!.!.!.    X @ @ $ & & & & & $ + @ & & - , , , , , , 2 6 6 8 6 6 6 6 6 6 6 6 6 2 2 6 2 2 2 , - - , , , - - & & & - - - , , 2 2 6 6 9 q e y s d k k k d d d d d s d s d d d d k k d d d d d d s s s i i i y y y y y y y y y y y y y i s s s y y y e e e y y y y s s y i s s s s d s i y y y y y s s s d s s s y y q 8 8 6 6 6 8 8 8 6 2 , 2 , , - - & & $ @ X X X X     !.!.!.!.!.!.!.!.!.!.!.!.!.!.!.!.!.!.!.!.!.!.!.!.!.!.!.!.!.!.!.!.!.!.!.!.!.!.!.!.!.!.!.!.!.!.!.!.!.!.!.!.!.!.!.!.!.!.!.!.!.!.!.!.!.!.!.!.!.!.!.!.!.!.!.!.!.!.!.!.!.!.!.!.!.!.!.!.!.!.!.!.!.!.!.!.!.!.!.!.!.!.!.!.!.!.!.!.!.!.!.!.!.!.!.!.!.!.!.!.!.!.!.!.!.!.!.!.!.!.!.!.!.!.!.!.!.!.!.!.!.!.!.!.!.!.!.!.!.!.!.!.!.!.!.!.!.!.!.!.!.!.!.!.!.!.!.!.!.!.!.!.!.!.!.!.!.!.!.!.!.!.!.!.!.!.!.!.!.!.!.!.!.!.!.!.!.!.!.!.!.!.!.!.!.!.!.!.!.!.!.!.!.!.!.!.!.!.!.!.!.!.!.!.!.!.!.!.!.!.!.!.!.!.!.!.!.",
"!.!.!.!.!.!.!.!.!.!.!.!.!.!.!.!.!.!.!.!.!.!.!.!.!.!.!.!.!.!.!.!.!.!.!.!.!.!.!.!.!.!.!.!.!.!.!.!.!.!.!.!.!.!.!.!.!.!.!.!.!.!.!.!.!.!.!.!.!.!.!.!.!.!.!.!.!.!.!.!.!.!.!.!.!.!.!.!.!.!.!.!.!.!.!.!.!.!.!.!.!.!.!.!.!.!.!.!.!.!.!.!.!.!.!.!.!.!.!.!.!.!.!.!.!.!.!.!.!.!.!.!.!.!.!.!.!.!.!.!.!.!.!.!.!.!.!.!.!.!.!.!.!.!.!.!.!.!.!.!.!.!.!.!.!.!.!.!.!.!.    X + @ & & & & & & $ @ $ & - - - - , , , 2 2 2 6 6 8 6 6 6 6 6 8 6 6 6 6 6 6 6 2 2 2 , , 2 , , - & & - - - - , , 2 6 6 8 0 q e y s d k k h k k d d d d d d s d d d k k d k d d d d d s s s s s s s s s s s s s s s s s s d d d d d s s i y y y y s s d d d d d d d d k d d s s i y y s s s d d d d s s y e q 0 q 0 q q q 0 6 6 2 2 2 , , - - & & & $ @ @ @ X X !.!.!.!.!.!.!.!.!.!.!.!.!.!.!.!.!.!.!.!.!.!.!.!.!.!.!.!.!.!.!.!.!.!.!.!.!.!.!.!.!.!.!.!.!.!.!.!.!.!.!.!.!.!.!.!.!.!.!.!.!.!.!.!.!.!.!.!.!.!.!.!.!.!.!.!.!.!.!.!.!.!.!.!.!.!.!.!.!.!.!.!.!.!.!.!.!.!.!.!.!.!.!.!.!.!.!.!.!.!.!.!.!.!.!.!.!.!.!.!.!.!.!.!.!.!.!.!.!.!.!.!.!.!.!.!.!.!.!.!.!.!.!.!.!.!.!.!.!.!.!.!.!.!.!.!.!.!.!.!.!.!.!.!.!.!.!.!.!.!.!.!.!.!.!.!.!.!.!.!.!.!.!.!.!.!.!.!.!.!.!.!.!.!.!.!.!.!.!.!.!.!.!.!.!.!.!.!.!.!.!.!.!.!.!.!.!.!.!.!.!.!.!.!.!.!.!.!.!.!.!.!.!.!.!.!.",
"!.!.!.!.!.!.!.!.!.!.!.!.!.!.!.!.!.!.!.!.!.!.!.!.!.!.!.!.!.!.!.!.!.!.!.!.!.!.!.!.!.!.!.!.!.!.!.!.!.!.!.!.!.!.!.!.!.!.!.!.!.!.!.!.!.!.!.!.!.!.!.!.!.!.!.!.!.!.!.!.!.!.!.!.!.!.!.!.!.!.!.!.!.!.!.!.!.!.!.!.!.!.!.!.!.!.!.!.!.!.!.!.!.!.!.!.!.!.!.!.!.!.!.!.!.!.!.!.!.!.!.!.!.!.!.!.!.!.!.!.!.!.!.!.!.!.!.!.!.!.!.!.!.!.!.!.!.!.!.!.!.!.!.!.!.!.!.!.!.!.  X @ & & & & & & & & & & & & & - - - - , , 2 , 2 2 6 6 9 8 8 9 8 8 9 9 8 9 8 9 8 6 6 6 6 2 2 2 , , - - - - , , , 2 2 6 8 9 q e y i s k k k k h k d d d d d d d d k d d d k k k d d d s s s s s s d d d d d d d d d d d d d k k k k k d d d s s s s k d d k k k k k k z z k k d s s s s d d k k k z k k d s y y y e e y y y y q 0 8 8 6 6 2 , , - - - & & & & @ + X !.!.!.!.!.!.!.!.!.!.!.!.!.!.!.!.!.!.!.!.!.!.!.!.!.!.!.!.!.!.!.!.!.!.!.!.!.!.!.!.!.!.!.!.!.!.!.!.!.!.!.!.!.!.!.!.!.!.!.!.!.!.!.!.!.!.!.!.!.!.!.!.!.!.!.!.!.!.!.!.!.!.!.!.!.!.!.!.!.!.!.!.!.!.!.!.!.!.!.!.!.!.!.!.!.!.!.!.!.!.!.!.!.!.!.!.!.!.!.!.!.!.!.!.!.!.!.!.!.!.!.!.!.!.!.!.!.!.!.!.!.!.!.!.!.!.!.!.!.!.!.!.!.!.!.!.!.!.!.!.!.!.!.!.!.!.!.!.!.!.!.!.!.!.!.!.!.!.!.!.!.!.!.!.!.!.!.!.!.!.!.!.!.!.!.!.!.!.!.!.!.!.!.!.!.!.!.!.!.!.!.!.!.!.!.!.!.!.!.!.!.!.!.!.!.!.!.!.!.!.!.!.!.!.!.",
"!.!.!.!.!.!.!.!.!.!.!.!.!.!.!.!.!.!.!.!.!.!.!.!.!.!.!.!.!.!.!.!.!.!.!.!.!.!.!.!.!.!.!.!.!.!.!.!.!.!.!.!.!.!.!.!.!.!.!.!.!.!.!.!.!.!.!.!.!.!.!.!.!.!.!.!.!.!.!.!.!.!.!.!.!.!.!.!.!.!.!.!.!.!.!.!.!.!.!.!.!.!.!.!.!.!.!.!.!.!.!.!.!.!.!.!.!.!.!.!.!.!.!.!.!.!.!.!.!.!.!.!.!.!.!.!.!.!.!.!.!.!.!.!.!.!.!.!.!.!.!.!.!.!.!.!.!.!.!.!.!.!.!.!.!.!.        X @ @ & & & - - - - - - & & & - - - - - , , , , , 2 6 6 8 8 0 9 9 0 9 0 0 e q 0 q 9 9 8 6 6 6 2 2 2 , - - , , 2 2 2 6 6 9 q q y y s d k k k k k k d d d d d d d d k k d d k k k k d d s s s s d d k k k k z k k k k k k k k z x x b x x k k d s d d k z k z x x x z x x x x x k d d d d k z x x x b x k k d s i i i s s s s s y y e q q 0 6 2 2 2 , , , - - - & $ + X X X     !.!.!.!.!.!.!.!.!.!.!.!.!.!.!.!.!.!.!.!.!.!.!.!.!.!.!.!.!.!.!.!.!.!.!.!.!.!.!.!.!.!.!.!.!.!.!.!.!.!.!.!.!.!.!.!.!.!.!.!.!.!.!.!.!.!.!.!.!.!.!.!.!.!.!.!.!.!.!.!.!.!.!.!.!.!.!.!.!.!.!.!.!.!.!.!.!.!.!.!.!.!.!.!.!.!.!.!.!.!.!.!.!.!.!.!.!.!.!.!.!.!.!.!.!.!.!.!.!.!.!.!.!.!.!.!.!.!.!.!.!.!.!.!.!.!.!.!.!.!.!.!.!.!.!.!.!.!.!.!.!.!.!.!.!.!.!.!.!.!.!.!.!.!.!.!.!.!.!.!.!.!.!.!.!.!.!.!.!.!.!.!.!.!.!.!.!.!.!.!.!.!.!.!.!.!.!.!.!.!.!.!.!.!.!.!.!.!.!.!.!.!.!.!.!.!.!.!.!.!.",
"!.!.!.!.!.!.!.!.!.!.!.!.!.!.!.!.!.!.!.!.!.!.!.!.!.!.!.!.!.!.!.!.!.!.!.!.!.!.!.!.!.!.!.!.!.!.!.!.!.!.!.!.!.!.!.!.!.!.!.!.!.!.!.!.!.!.!.!.!.!.!.!.!.!.!.!.!.!.!.!.!.!.!.!.!.!.!.!.!.!.!.!.!.!.!.!.!.!.!.!.!.!.!.!.!.!.!.!.!.!.!.!.!.!.!.!.!.!.!.!.!.!.!.!.!.!.!.!.!.!.!.!.!.!.!.!.!.!.!.!.!.!.!.!.!.!.!.!.!.!.!.!.!.!.!.!.!.!.!.!.!.!.!.!.!.    X X X @ @ @ & - - - , , - - - - & & - - - - - , , , , 2 2 6 6 6 8 9 8 9 0 9 0 q q q q q q q q e 9 8 6 2 2 , , , , , 2 6 6 6 0 q q e y y s d k z k k k k d d d d d d d d d k d d d d k d d d d d d d d k z x x x x x x x z z k z x n N N N N N x x k k k x x n n x x n x n N M M B N x z k k z x N M M M M n x k k k d d d k k d d d s i y y y y q 8 6 2 2 2 , , , - - - & $ @ @ X X X   !.!.!.!.!.!.!.!.!.!.!.!.!.!.!.!.!.!.!.!.!.!.!.!.!.!.!.!.!.!.!.!.!.!.!.!.!.!.!.!.!.!.!.!.!.!.!.!.!.!.!.!.!.!.!.!.!.!.!.!.!.!.!.!.!.!.!.!.!.!.!.!.!.!.!.!.!.!.!.!.!.!.!.!.!.!.!.!.!.!.!.!.!.!.!.!.!.!.!.!.!.!.!.!.!.!.!.!.!.!.!.!.!.!.!.!.!.!.!.!.!.!.!.!.!.!.!.!.!.!.!.!.!.!.!.!.!.!.!.!.!.!.!.!.!.!.!.!.!.!.!.!.!.!.!.!.!.!.!.!.!.!.!.!.!.!.!.!.!.!.!.!.!.!.!.!.!.!.!.!.!.!.!.!.!.!.!.!.!.!.!.!.!.!.!.!.!.!.!.!.!.!.!.!.!.!.!.!.!.!.!.!.!.!.!.!.!.!.!.!.!.!.!.!.!.!.!.!.",
"!.!.!.!.!.!.!.!.!.!.!.!.!.!.!.!.!.!.!.!.!.!.!.!.!.!.!.!.!.!.!.!.!.!.!.!.!.!.!.!.!.!.!.!.!.!.!.!.!.!.!.!.!.!.!.!.!.!.!.!.!.!.!.!.!.!.!.!.!.!.!.!.!.!.!.!.!.!.!.!.!.!.!.!.!.!.!.!.!.!.!.!.!.!.!.!.!.!.!.!.!.!.!.!.!.!.!.!.!.!.!.!.!.!.!.!.!.!.!.!.!.!.!.!.!.!.!.!.!.!.!.!.!.!.!.!.!.!.!.!.!.!.!.!.!.!.!.!.!.!.!.!.!.!.!.!.!.!.!.!.!.!.!.!.!.  X X X @ @ & & ; - , , , , , , , , - - - , , , , , , , 2 2 2 6 8 8 7 8 6 8 9 9 9 0 q q e e q q q q q 9 6 6 2 2 2 , , 2 2 6 8 9 q q e e y i s d z x z k k k k d d d d d k k k d d k d d d d d d d d k k k z b n N n n n N N n n x n N M B Z Z Z B M n x x n M B Z Z Z B M M Z Z Z Z Z Z M n n x N B Z D D D Z Z N x x x k k k x b z k k d d s s s s s y q 0 9 6 2 , , , , , - - & & & @ @ X   !.!.!.!.!.!.!.!.!.!.!.!.!.!.!.!.!.!.!.!.!.!.!.!.!.!.!.!.!.!.!.!.!.!.!.!.!.!.!.!.!.!.!.!.!.!.!.!.!.!.!.!.!.!.!.!.!.!.!.!.!.!.!.!.!.!.!.!.!.!.!.!.!.!.!.!.!.!.!.!.!.!.!.!.!.!.!.!.!.!.!.!.!.!.!.!.!.!.!.!.!.!.!.!.!.!.!.!.!.!.!.!.!.!.!.!.!.!.!.!.!.!.!.!.!.!.!.!.!.!.!.!.!.!.!.!.!.!.!.!.!.!.!.!.!.!.!.!.!.!.!.!.!.!.!.!.!.!.!.!.!.!.!.!.!.!.!.!.!.!.!.!.!.!.!.!.!.!.!.!.!.!.!.!.!.!.!.!.!.!.!.!.!.!.!.!.!.!.!.!.!.!.!.!.!.!.!.!.!.!.!.!.!.!.!.!.!.!.!.!.!.!.!.!.!.!.!.",
"!.!.!.!.!.!.!.!.!.!.!.!.!.!.!.!.!.!.!.!.!.!.!.!.!.!.!.!.!.!.!.!.!.!.!.!.!.!.!.!.!.!.!.!.!.!.!.!.!.!.!.!.!.!.!.!.!.!.!.!.!.!.!.!.!.!.!.!.!.!.!.!.!.!.!.!.!.!.!.!.!.!.!.!.!.!.!.!.!.!.!.!.!.!.!.!.!.!.!.!.!.!.!.!.!.!.!.!.!.!.!.!.!.!.!.!.!.!.!.!.!.!.!.!.!.!.!.!.!.!.!.!.!.!.!.!.!.!.!.!.!.!.!.!.!.!.!.!.!.!.    !.    !.!.!.!.!.!.!.!.!.!.!.X X @ @ & & ; ; , , , 2 , 2 2 , , , , - , , , , , , , 2 2 6 6 8 7 7 6 6 6 6 8 9 q q q e e e e e e q q 8 6 2 2 , 2 2 2 6 6 9 q q e e y i s d k z b x x k k k k k d d d d d k k d k d d k k k d k k k z z b n N M M M M B B B M Z Z Z Z Z Z D D D Z B Z Z Z D D D D D D D D Z Z D D D Z Z Z B B Z D D D D D D D Z B B M n n M N N x z x z k d k d k d s i y e 0 8 6 2 2 2 2 , , , - - & & $ + X   !.!.!.!.!.!.!.!.!.!.!.!.!.!.!.!.!.!.!.!.!.!.!.!.!.!.!.!.!.!.!.!.!.!.!.!.!.!.!.!.!.!.!.!.!.!.!.!.!.!.!.!.!.!.!.!.!.!.!.!.!.!.!.!.!.!.!.!.!.!.!.!.!.!.!.!.!.!.!.!.!.!.!.!.!.!.!.!.!.!.!.!.!.!.!.!.!.!.!.!.!.!.!.!.!.!.!.!.!.!.!.!.!.!.!.!.!.!.!.!.!.!.!.!.!.!.!.!.!.!.!.!.!.!.!.!.!.!.!.!.!.!.!.!.!.!.!.!.!.!.!.!.!.!.!.!.!.!.!.!.!.!.!.!.!.!.!.!.!.!.!.!.!.!.!.!.!.!.!.!.!.!.!.!.!.!.!.!.!.!.!.!.!.!.!.!.!.!.!.!.!.!.!.!.!.!.!.!.!.!.!.!.!.!.!.!.!.!.!.!.!.!.!.!.!.",
"!.!.!.!.!.!.!.!.!.!.!.!.!.!.!.!.!.!.!.!.!.!.!.!.!.!.!.!.!.!.!.!.!.!.!.!.!.!.!.!.!.!.!.!.!.!.!.!.!.!.!.!.!.!.!.!.!.!.!.!.!.!.!.!.!.!.!.!.!.!.!.!.!.!.!.!.!.!.!.!.!.!.!.!.!.!.!.!.!.!.!.!.!.!.!.!.!.!.!.!.!.!.!.!.!.!.!.!.!.!.!.!.!.!.!.!.!.!.!.!.!.!.!.!.!.!.!.!.!.!.!.!.!.!.!.!.!.!.!.!.!.!.!.!.!.!.!.    X X X X X X   !.        !.!.!.!.  X @ @ & & - , , 2 2 2 2 2 , 2 , 2 2 , , , , , - - , 2 2 2 2 6 8 7 7 8 6 6 6 6 8 0 q q q e e e e e q e 8 6 6 6 2 2 6 6 6 8 0 e e y i s s d k z x n n x k k k k k d d d d k k k d d d d k k k k k k z x x x n M M M B Z Z Z D D D D D D D D D G D D D D D D G D D D G D G D D D D D D D D D Z Z Z D D G H L H G D D D D Z Z Z Z B B N n n x x x k k k d d s y e q 9 8 6 6 2 , 2 , , , - - & & @ X         !.!.!.!.!.!.!.!.!.!.!.!.!.!.!.!.!.!.!.!.!.!.!.!.!.!.!.!.!.!.!.!.!.!.!.!.!.!.!.!.!.!.!.!.!.!.!.!.!.!.!.!.!.!.!.!.!.!.!.!.!.!.!.!.!.!.!.!.!.!.!.!.!.!.!.!.!.!.!.!.!.!.!.!.!.!.!.!.!.!.!.!.!.!.!.!.!.!.!.!.!.!.!.!.!.!.!.!.!.!.!.!.!.!.!.!.!.!.!.!.!.!.!.!.!.!.!.!.!.!.!.!.!.!.!.!.!.!.!.!.!.!.!.!.!.!.!.!.!.!.!.!.!.!.!.!.!.!.!.!.!.!.!.!.!.!.!.!.!.!.!.!.!.!.!.!.!.!.!.!.!.!.!.!.!.!.!.!.!.!.!.!.!.!.!.!.!.!.!.!.!.!.!.!.!.!.!.!.!.!.!.!.!.!.!.!.!.!.!.!.!.",
"!.!.!.!.!.!.!.!.!.!.!.!.!.!.!.!.!.!.!.!.!.!.!.!.!.!.!.!.!.!.!.!.!.!.!.!.!.!.!.!.!.!.!.!.!.!.!.!.!.!.!.!.!.!.!.!.!.!.!.!.!.!.!.!.!.!.!.!.!.!.!.!.!.!.!.!.!.!.!.!.!.!.!.!.!.!.!.!.!.!.!.!.!.!.!.!.!.!.!.!.!.!.!.!.!.!.!.!.!.!.!.!.!.!.!.!.!.!.!.!.!.!.!.!.!.!.!.!.!.!.!.!.!.!.!.!.!.!.!.!.!.!.!.!.      X @ @ @ + X X X X   X X X           X @ $ & - - , 2 2 2 2 2 2 2 , 2 2 2 , , , , , , - - - , 2 2 2 2 6 9 e 9 8 8 8 6 8 0 q e e e y e e e q q 8 6 6 6 6 2 6 6 6 0 e y i s s s s d k z x x n x z k k k k k d d k k k k d d d k k k k k k z x x n x n M B Z Z D D D D G G G G D G G L L L L H L L L L H G G L G G G G G H H G G D D D D D D L L L I I L L L L G G G G D D Z Z Z M M N N n b z k k d s i y y q q 8 6 6 6 6 2 2 2 , - & & @ + + @ @ X X   !.!.!.!.!.!.!.!.!.!.!.!.!.!.!.!.!.!.!.!.!.!.!.!.!.!.!.!.!.!.!.!.!.!.!.!.!.!.!.!.!.!.!.!.!.!.!.!.!.!.!.!.!.!.!.!.!.!.!.!.!.!.!.!.!.!.!.!.!.!.!.!.!.!.!.!.!.!.!.!.!.!.!.!.!.!.!.!.!.!.!.!.!.!.!.!.!.!.!.!.!.!.!.!.!.!.!.!.!.!.!.!.!.!.!.!.!.!.!.!.!.!.!.!.!.!.!.!.!.!.!.!.!.!.!.!.!.!.!.!.!.!.!.!.!.!.!.!.!.!.!.!.!.!.!.!.!.!.!.!.!.!.!.!.!.!.!.!.!.!.!.!.!.!.!.!.!.!.!.!.!.!.!.!.!.!.!.!.!.!.!.!.!.!.!.!.!.!.!.!.!.!.!.!.!.!.!.!.!.!.!.!.!.!.!.!.!.!.",
"!.!.!.!.!.!.!.!.!.!.!.!.!.!.!.!.!.!.!.!.!.!.!.!.!.!.!.!.!.!.!.!.!.!.!.!.!.!.!.!.!.!.!.!.!.!.!.!.!.!.!.!.!.!.!.!.!.!.!.!.!.!.!.!.!.!.!.!.!.!.!.!.!.!.!.!.!.!.!.!.!.!.!.!.!.!.!.!.!.!.!.!.!.!.!.!.!.!.!.!.!.!.!.!.!.!.!.!.!.!.!.!.!.!.!.!.!.!.!.!.!.!.!.!.!.!.!.!.!.!.!.!.!.!.!.!.!.!.!.!.!.!.    X X X + $ & $ @ @ + + @ @ @ @ + @ X X X X + & & - - , , 2 2 2 2 6 2 2 2 2 6 2 2 2 , , , , , , , , , , 2 2 6 9 q q 0 9 8 8 9 0 e e y y y e y e e q 0 8 8 8 6 6 6 6 6 0 e y s s s d d k k x x x n b x x z k k k d d d k k k d d d k k k k k k x x b x x n N B Z D D D G H L L L L L I I I U U U I I I I L L L L L L H H G H L L L L H G G G L L L I I U I I L L I I I I I L G G D D Z Z Z Z M N x x x x k d d s s y q 8 8 9 9 8 6 2 2 2 , - - - - & & $ @ X X       !.!.!.!.!.!.!.!.!.!.!.!.!.!.!.!.!.!.!.!.!.!.!.!.!.!.!.!.!.!.!.!.!.!.!.!.!.!.!.!.!.!.!.!.!.!.!.!.!.!.!.!.!.!.!.!.!.!.!.!.!.!.!.!.!.!.!.!.!.!.!.!.!.!.!.!.!.!.!.!.!.!.!.!.!.!.!.!.!.!.!.!.!.!.!.!.!.!.!.!.!.!.!.!.!.!.!.!.!.!.!.!.!.!.!.!.!.!.!.!.!.!.!.!.!.!.!.!.!.!.!.!.!.!.!.!.!.!.!.!.!.!.!.!.!.!.!.!.!.!.!.!.!.!.!.!.!.!.!.!.!.!.!.!.!.!.!.!.!.!.!.!.!.!.!.!.!.!.!.!.!.!.!.!.!.!.!.!.!.!.!.!.!.!.!.!.!.!.!.!.!.!.!.!.!.!.!.!.!.!.!.!.!.!.",
"!.!.!.!.!.!.!.!.!.!.!.!.!.!.!.!.!.!.!.!.!.!.!.!.!.!.!.!.!.!.!.!.!.!.!.!.!.!.!.!.!.!.!.!.!.!.!.!.!.!.!.!.!.!.!.!.!.!.!.!.!.!.!.!.!.!.!.!.!.!.!.!.!.!.!.!.!.!.!.!.!.!.!.!.!.!.!.!.!.!.!.!.!.!.!.!.!.!.!.!.!.!.!.!.!.!.!.!.!.!.!.!.!.!.!.!.!.!.!.!.!.!.!.!.!.!.!.!.!.!.!.!.!.!.!.!.!.!.!.!.!.  X X X + @ $ & & & & $ $ & & $ $ @ $ $ @ @ @ $ & - - , , , , 2 2 6 6 6 2 2 2 6 6 6 2 , 2 , , , , , , , , , 2 2 6 6 9 0 9 0 9 0 0 0 q y y y y y e y e e q 9 9 0 8 6 6 6 8 q y i s d d d d k z z x n n x x x z k k d d d k d d k d d d k k k k k k k x b b x n M B Z D G L L L I I Y Y Y T T R R R R Y Y U I I I I I I L L L L L I I I I L L L I I Y Y Y U U U I I I U Y R R R U I L L G D D D D Z Z B M M N x x k d d s y e q q q q 0 9 6 6 2 , 2 2 , - - - & & + X X X   !.!.!.!.!.!.!.!.!.!.!.!.!.!.!.!.!.!.!.!.!.!.!.!.!.!.!.!.!.!.!.!.!.!.!.!.!.!.!.!.!.!.!.!.!.!.!.!.!.!.!.!.!.!.!.!.!.!.!.!.!.!.!.!.!.!.!.!.!.!.!.!.!.!.!.!.!.!.!.!.!.!.!.!.!.!.!.!.!.!.!.!.!.!.!.!.!.!.!.!.!.!.!.!.!.!.!.!.!.!.!.!.!.!.!.!.!.!.!.!.!.!.!.!.!.!.!.!.!.!.!.!.!.!.!.!.!.!.!.!.!.!.!.!.!.!.!.!.!.!.!.!.!.!.!.!.!.!.!.!.!.!.!.!.!.!.!.!.!.!.!.!.!.!.!.!.!.!.!.!.!.!.!.!.!.!.!.!.!.!.!.!.!.!.!.!.!.!.!.!.!.!.!.!.!.!.!.!.!.!.!.!.!.",
"!.!.!.!.!.!.!.!.!.!.!.!.!.!.!.!.!.!.!.!.!.!.!.!.!.!.!.!.!.!.!.!.!.!.!.!.!.!.!.!.!.!.!.!.!.!.!.!.!.!.!.!.!.!.!.!.!.!.!.!.!.!.!.!.!.!.!.!.!.!.!.!.!.!.!.!.!.!.!.!.!.!.!.!.!.!.!.!.!.!.!.!.!.!.!.!.!.!.!.!.!.!.!.!.!.!.!.!.!.!.!.!.!.!.!.!.!.!.!.!.!.!.!.!.!.!.!.!.!.!.!.!.!.!.!.!.!.!.!.!.  X X @ + $ & & & - - & & & & & & & & & & & & & & - , , , 2 2 2 6 6 6 8 7 6 6 6 6 6 6 6 2 , 2 , , , , - , , , , 2 6 6 8 8 0 0 9 0 q q e y y y y y y y y y e q q q 9 8 8 9 q e y s s d d d d k z x x n n x x x x k k d d d k k d d d d d k k k z k k k x x x x n M Z Z D G L U U T R W W W W W W W W W R R R T T T T Y U U I U I U Y R T T U U Y T R R W W W R R R R R R W W W W W R T Y U L H G G D D D Z D Z B N x z k d s s y y y y e e q 9 6 6 6 6 6 2 , , , - & @ @ @ X       !.!.!.!.!.!.!.!.!.!.!.!.!.!.!.!.!.!.!.!.!.!.!.!.!.!.!.!.!.!.!.!.!.!.!.!.!.!.!.!.!.!.!.!.!.!.!.!.!.!.!.!.!.!.!.!.!.!.!.!.!.!.!.!.!.!.!.!.!.!.!.!.!.!.!.!.!.!.!.!.!.!.!.!.!.!.!.!.!.!.!.!.!.!.!.!.!.!.!.!.!.!.!.!.!.!.!.!.!.!.!.!.!.!.!.!.!.!.!.!.!.!.!.!.!.!.!.!.!.!.!.!.!.!.!.!.!.!.!.!.!.!.!.!.!.!.!.!.!.!.!.!.!.!.!.!.!.!.!.!.!.!.!.!.!.!.!.!.!.!.!.!.!.!.!.!.!.!.!.!.!.!.!.!.!.!.!.!.!.!.!.!.!.!.!.!.!.!.!.!.!.!.!.!.!.!.!.!.!.!.",
"!.!.!.!.!.!.!.!.!.!.!.!.!.!.!.!.!.!.!.!.!.!.!.!.!.!.!.!.!.!.!.!.!.!.!.!.!.!.!.!.!.!.!.!.!.!.!.!.!.!.!.!.!.!.!.!.!.!.!.!.!.!.!.!.!.!.!.!.!.!.!.!.!.!.!.!.!.!.!.!.!.!.!.!.!.!.!.!.!.!.!.!.!.!.!.!.!.!.!.!.!.!.!.!.!.!.!.!.!.!.!.!.!.!.!.!.!.!.!.!.!.!.!.!.!.!.!.!.!.!.!.!.!.!.!.!.!.!.    X X @ @ $ & & - - - - - - - - - - - - - - - - - - , , 2 , 2 6 6 6 8 8 8 0 7 7 6 6 8 6 6 2 2 , , , , , - - , , 2 6 2 6 6 8 9 0 0 q q q e y y y y e y y y y y e q 0 0 q q q e y i s d d d d k k z x x n n x x n b k k k d k k k k k d d d k k z z z k z x x x n N M Z D D L I Y R W W W W W W W W W W W W W W W W W W W R T T R R R W W W W W R W W W W W W W W W W W W W W W W W W W W W W U I L L L G G D G D D Z B n x k k d d d d s s s y e q q 0 q 9 8 6 2 2 , - & @ @ @ @ @ @ X   !.!.!.!.!.!.!.!.!.!.!.!.!.!.!.!.!.!.!.!.!.!.!.!.!.!.!.!.!.!.!.!.!.!.!.!.!.!.!.!.!.!.!.!.!.!.!.!.!.!.!.!.!.!.!.!.!.!.!.!.!.!.!.!.!.!.!.!.!.!.!.!.!.!.!.!.!.!.!.!.!.!.!.!.!.!.!.!.!.!.!.!.!.!.!.!.!.!.!.!.!.!.!.!.!.!.!.!.!.!.!.!.!.!.!.!.!.!.!.!.!.!.!.!.!.!.!.!.!.!.!.!.!.!.!.!.!.!.!.!.!.!.!.!.!.!.!.!.!.!.!.!.!.!.!.!.!.!.!.!.!.!.!.!.!.!.!.!.!.!.!.!.!.!.!.!.!.!.!.!.!.!.!.!.!.!.!.!.!.!.!.!.!.!.!.!.!.!.!.!.!.!.!.!.!.!.!.!.",
"!.!.!.!.!.!.!.!.!.!.!.!.!.!.!.!.!.!.!.!.!.!.!.!.!.!.!.!.!.!.!.!.!.!.!.!.!.!.!.!.!.!.!.!.!.!.!.!.!.!.!.!.!.!.!.!.!.!.!.!.!.!.!.!.!.!.!.!.!.!.!.!.!.!.!.!.!.!.!.!.!.!.!.!.!.!.!.!.!.!.!.!.!.!.!.!.!.!.!.!.!.!.!.!.!.!.!.!.!.!.!.!.!.!.!.!.!.!.!.!.!.!.!.!.!.!.!.!.!.!.!.!.!.!.!.!.!.  X X @ @ @ & & & - - - , , , , , - , - - , - , - - , , , 2 2 2 2 6 6 6 6 6 9 0 7 8 6 6 6 6 6 2 2 2 2 , , , , - , , 2 2 2 6 6 6 0 0 9 0 q q q q e y y e e e y y y y e e e e q e y i s d k k k k k z x x x x n x n n b k k k k k k k k k k d d k z x x z x b x n N M M Z D D L I T R W W W ! ! W W W W ! W W W W W W W W W W W W W W W W W W W W W W W W W W W W W W W W W W W ! ^ / W W W W W W W T U I I L L L L L L G D Z M n x z z x k k d d s s i y y y e q 0 8 6 2 , - & & & $ @ @ + @ X   !.!.!.!.!.!.!.!.!.!.!.!.!.!.!.!.!.!.!.!.!.!.!.!.!.!.!.!.!.!.!.!.!.!.!.!.!.!.!.!.!.!.!.!.!.!.!.!.!.!.!.!.!.!.!.!.!.!.!.!.!.!.!.!.!.!.!.!.!.!.!.!.!.!.!.!.!.!.!.!.!.!.!.!.!.!.!.!.!.!.!.!.!.!.!.!.!.!.!.!.!.!.!.!.!.!.!.!.!.!.!.!.!.!.!.!.!.!.!.!.!.!.!.!.!.!.!.!.!.!.!.!.!.!.!.!.!.!.!.!.!.!.!.!.!.!.!.!.!.!.!.!.!.!.!.!.!.!.!.!.!.!.!.!.!.!.!.!.!.!.!.!.!.!.!.!.!.!.!.!.!.!.!.!.!.!.!.!.!.!.!.!.!.!.!.!.!.!.!.!.!.!.!.!.!.!.",
"!.!.!.!.!.!.!.!.!.!.!.!.!.!.!.!.!.!.!.!.!.!.!.!.!.!.!.!.!.!.!.!.!.!.!.!.!.!.!.!.!.!.!.!.!.!.!.!.!.!.!.!.!.!.!.!.!.!.!.!.!.!.!.!.!.!.!.!.!.!.!.!.!.!.!.!.!.!.!.!.!.!.!.!.!.!.!.!.!.!.!.!.!.!.!.!.!.!.!.!.!.!.!.!.!.!.!.!.!.!.!.!.!.!.!.!.!.!.!.!.!.!.!.!.!.!.!.!.!.!.!.!.!.!.!.!.!.X X X @ @ $ & & - - , , 2 2 2 , , , , , , , , , , , 2 , 2 2 2 2 6 6 6 6 6 8 9 0 q 9 8 6 6 6 6 6 2 2 , , , , , , , , , , 2 2 6 7 7 9 9 0 q q q q q q e e e e y y y i y y y y y y s s d k k z z z z x x b x b n n n n b z k k k k k k k k k k k k x b b x x n N M M B Z Z D H I Y W W W W W / / / / / / / / / W ! W W W W W W W W W W W W W W W W W ^ / ! ! / / _ / _ / / / / / / / / / / / W W W W W W R R R T Y Y U U L G D D Z Z M N N x x x z k d d s s s s y y q 8 2 , , - & - - & & & @ +   !.!.!.!.!.!.!.!.!.!.!.!.!.!.!.!.!.!.!.!.!.!.!.!.!.!.!.!.!.!.!.!.!.!.!.!.!.!.!.!.!.!.!.!.!.!.!.!.!.!.!.!.!.!.!.!.!.!.!.!.!.!.!.!.!.!.!.!.!.!.!.!.!.!.!.!.!.!.!.!.!.!.!.!.!.!.!.!.!.!.!.!.!.!.!.!.!.!.!.!.!.!.!.!.!.!.!.!.!.!.!.!.!.!.!.!.!.!.!.!.!.!.!.!.!.!.!.!.!.!.!.!.!.!.!.!.!.!.!.!.!.!.!.!.!.!.!.!.!.!.!.!.!.!.!.!.!.!.!.!.!.!.!.!.!.!.!.!.!.!.!.!.!.!.!.!.!.!.!.!.!.!.!.!.!.!.!.!.!.!.!.!.!.!.!.!.!.!.!.!.!.!.!.!.!.!.",
"!.!.!.!.!.!.!.!.!.!.!.!.!.!.!.!.!.!.!.!.!.!.!.!.!.!.!.!.!.!.!.!.!.!.!.!.!.!.!.!.!.!.!.!.!.!.!.!.!.!.!.!.!.!.!.!.!.!.!.!.!.!.!.!.!.!.!.!.!.!.!.!.!.!.!.!.!.!.!.!.!.!.!.!.!.!.!.!.!.!.!.!.!.!.!.!.!.!.!.!.!.!.!.!.!.!.!.!.!.!.!.!.!.!.!.!.!.!.!.!.!.!.!.!.!.!.!.!.!.!.!.!.!.!.!.!.  X X @ + $ & & - - , , , 2 2 2 2 2 , , 2 , , 2 , 2 , 2 2 2 2 2 6 2 6 6 6 8 9 0 q q q 9 8 6 6 6 6 2 2 , 2 , , , , , , , 2 , 2 6 6 6 8 8 0 q q 0 0 q e e e e y y y i s s s s s s s d d k k x x b x x b b x x x n n n n n z k z k k z z z k k k k z x x x x n n M Z Z Z D D G L U W W W W / / / / _ / _ / / / / / / _ / / / W W W W W W W W W W ^ / / / / _ / / / _ _ _ / / / / _ _ _ _ / / / / / W W W W W W W W W W W W Y I L L D D D Z Z M N N n x x k d d d d s i y q 8 6 2 , - - - - - - & & + X   !.!.!.!.!.!.!.!.!.!.!.!.!.!.!.!.!.!.!.!.!.!.!.!.!.!.!.!.!.!.!.!.!.!.!.!.!.!.!.!.!.!.!.!.!.!.!.!.!.!.!.!.!.!.!.!.!.!.!.!.!.!.!.!.!.!.!.!.!.!.!.!.!.!.!.!.!.!.!.!.!.!.!.!.!.!.!.!.!.!.!.!.!.!.!.!.!.!.!.!.!.!.!.!.!.!.!.!.!.!.!.!.!.!.!.!.!.!.!.!.!.!.!.!.!.!.!.!.!.!.!.!.!.!.!.!.!.!.!.!.!.!.!.!.!.!.!.!.!.!.!.!.!.!.!.!.!.!.!.!.!.!.!.!.!.!.!.!.!.!.!.!.!.!.!.!.!.!.!.!.!.!.!.!.!.!.!.!.!.!.!.!.!.!.!.!.!.!.!.!.!.!.!.!.",
"!.!.!.!.!.!.!.!.!.!.!.!.!.!.!.!.!.!.!.!.!.!.!.!.!.!.!.!.!.!.!.!.!.!.!.!.!.!.!.!.!.!.!.!.!.!.!.!.!.!.!.!.!.!.!.!.!.!.!.!.!.!.!.!.!.!.!.!.!.!.!.!.!.!.!.!.!.!.!.!.!.!.!.!.!.!.!.!.!.!.!.!.!.!.!.!.!.!.!.!.!.!.!.!.!.!.!.!.!.!.!.!.!.!.!.!.!.!.!.!.!.!.!.!.!.!.!.!.!.!.!.!.!.!.!.    X @ + @ $ & & & - , , 2 2 6 6 6 2 2 2 2 2 2 2 2 2 2 2 2 2 2 6 6 6 6 6 9 9 9 q q q q 0 8 6 6 6 6 2 2 , , , , , , 2 , 2 2 2 2 6 6 8 8 0 q e q q q e e e e y y y y s s s d d d d d d k k z x n n N N n n N n N N N B B n x z z z z z z z z k k k x x x x n N N M Z Z D D G L U R W W W / / _ _ _ _ _ _ _ _ _ / / _ _ / / / / / / ^ W W / W / / / / / / _ _ _ _ ' _ _ ' _ ' ' ' ' [ ' ' _ _ _ / / / / W W ^ ^ W W W W W W W R Y U L H D D Z Z B M M M N x z k k d d s i y q 8 6 2 2 , , , , , , - & @ X   !.!.!.!.!.!.!.!.!.!.!.!.!.!.!.!.!.!.!.!.!.!.!.!.!.!.!.!.!.!.!.!.!.!.!.!.!.!.!.!.!.!.!.!.!.!.!.!.!.!.!.!.!.!.!.!.!.!.!.!.!.!.!.!.!.!.!.!.!.!.!.!.!.!.!.!.!.!.!.!.!.!.!.!.!.!.!.!.!.!.!.!.!.!.!.!.!.!.!.!.!.!.!.!.!.!.!.!.!.!.!.!.!.!.!.!.!.!.!.!.!.!.!.!.!.!.!.!.!.!.!.!.!.!.!.!.!.!.!.!.!.!.!.!.!.!.!.!.!.!.!.!.!.!.!.!.!.!.!.!.!.!.!.!.!.!.!.!.!.!.!.!.!.!.!.!.!.!.!.!.!.!.!.!.!.!.!.!.!.!.!.!.!.!.!.!.!.!.!.!.!.!.!.",
"!.!.!.!.!.!.!.!.!.!.!.!.!.!.!.!.!.!.!.!.!.!.!.!.!.!.!.!.!.!.!.!.!.!.!.!.!.!.!.!.!.!.!.!.!.!.!.!.!.!.!.!.!.!.!.!.!.!.!.!.!.!.!.!.!.!.!.!.!.!.!.!.!.!.!.!.!.!.!.!.!.!.!.!.!.!.!.!.!.!.!.!.!.!.!.!.!.!.!.!.!.!.!.!.!.!.!.!.!.!.!.!.!.!.!.!.!.!.!.!.!.!.!.!.!.!.!.!.!.!.!.!.!.!.      X @ @ @ & & & & - , , 2 6 6 6 6 6 6 2 6 2 2 2 2 6 2 2 6 6 6 6 6 6 6 6 0 q q q q q q q 9 6 6 2 2 2 , , , , , , , , , 2 6 6 6 6 8 9 8 0 q e q e q e y y y y i i s s d d d d d d d k z x x n N M M M N M N N N N n M M M x x z z k k z x x z k z x x x x n N B Z Z D D G L U R W W W W / / _ ' ' ' ' _ ' _ _ _ _ _ _ _ _ _ _ / / / / / / / / / / / _ ' ' ' ' ' ' [ [ ' [ [ [ [ [ [ [ ' [ ' _ _ _ / / / / / / / / / / W W W W R T U I L D D Z Z Z Z B Z M n x z k d d s i e e 0 6 2 2 2 2 2 , 2 , - & @ X X     !.!.!.!.!.!.!.!.!.!.!.!.!.!.!.!.!.!.!.!.!.!.!.!.!.!.!.!.!.!.!.!.!.!.!.!.!.!.!.!.!.!.!.!.!.!.!.!.!.!.!.!.!.!.!.!.!.!.!.!.!.!.!.!.!.!.!.!.!.!.!.!.!.!.!.!.!.!.!.!.!.!.!.!.!.!.!.!.!.!.!.!.!.!.!.!.!.!.!.!.!.!.!.!.!.!.!.!.!.!.!.!.!.!.!.!.!.!.!.!.!.!.!.!.!.!.!.!.!.!.!.!.!.!.!.!.!.!.!.!.!.!.!.!.!.!.!.!.!.!.!.!.!.!.!.!.!.!.!.!.!.!.!.!.!.!.!.!.!.!.!.!.!.!.!.!.!.!.!.!.!.!.!.!.!.!.!.!.!.!.!.!.!.!.!.!.!.!.!.!.",
"!.!.!.!.!.!.!.!.!.!.!.!.!.!.!.!.!.!.!.!.!.!.!.!.!.!.!.!.!.!.!.!.!.!.!.!.!.!.!.!.!.!.!.!.!.!.!.!.!.!.!.!.!.!.!.!.!.!.!.!.!.!.!.!.!.!.!.!.!.!.!.!.!.!.!.!.!.!.!.!.!.!.!.!.!.!.!.!.!.!.!.!.!.!.!.!.!.!.!.!.!.!.!.!.!.!.!.!.!.!.!.!.!.!.!.!.!.!.!.!.!.!.!.!.!.!.!.!.!.!.!.!.!.!.    X X @ + @ $ & & & - , , 2 2 6 9 8 6 6 6 6 6 6 2 6 6 2 2 6 6 7 6 6 6 6 9 0 e e q q q q q 9 6 6 2 2 , , , , , , , 2 , 2 , 2 2 6 8 8 9 0 q q e e e e y y s s s s s s d d d d d k k k k z b n N M M Z B M M M N M N N M M N x x z k k k x x z k z z x x x x n N B Z D D D G L U W W W W / / _ ' ' ' ' ' ' ' ' ' ' ' ' ' ' ' _ _ _ _ / / / / / / _ _ _ _ ' [ [ [ [ [ [ [ [ { { { { { { { { [ [ ' ' ' _ _ _ _ _ _ _ / / / / / W W W R T U L G D D D Z Z Z Z Z B n b x k k d s i y e 0 6 6 6 2 2 2 2 2 2 , & $ + @ X   !.!.!.!.!.!.!.!.!.!.!.!.!.!.!.!.!.!.!.!.!.!.!.!.!.!.!.!.!.!.!.!.!.!.!.!.!.!.!.!.!.!.!.!.!.!.!.!.!.!.!.!.!.!.!.!.!.!.!.!.!.!.!.!.!.!.!.!.!.!.!.!.!.!.!.!.!.!.!.!.!.!.!.!.!.!.!.!.!.!.!.!.!.!.!.!.!.!.!.!.!.!.!.!.!.!.!.!.!.!.!.!.!.!.!.!.!.!.!.!.!.!.!.!.!.!.!.!.!.!.!.!.!.!.!.!.!.!.!.!.!.!.!.!.!.!.!.!.!.!.!.!.!.!.!.!.!.!.!.!.!.!.!.!.!.!.!.!.!.!.!.!.!.!.!.!.!.!.!.!.!.!.!.!.!.!.!.!.!.!.!.!.!.!.!.!.!.!.!.",
"!.!.!.!.!.!.!.!.!.!.!.!.!.!.!.!.!.!.!.!.!.!.!.!.!.!.!.!.!.!.!.!.!.!.!.!.!.!.!.!.!.!.!.!.!.!.!.!.!.!.!.!.!.!.!.!.!.!.!.!.!.!.!.!.!.!.!.!.!.!.!.!.!.!.!.!.!.!.!.!.!.!.!.!.!.!.!.!.!.!.!.!.!.!.!.!.!.!.!.!.!.!.!.!.!.!.!.!.!.!.!.!.!.!.!.!.!.!.!.!.!.!.!.!.!.!.!.!.!.!.!.!.!.      X X @ @ $ & & & & - - , 2 6 6 8 8 6 8 6 6 6 6 6 6 6 2 2 2 6 7 6 8 6 8 9 0 0 q q q q q 9 8 6 6 2 , 2 , , , , , , 2 , , 2 2 6 6 8 9 0 q e e y e e y y i s s s d d k k k k k k k k k k z x N M Z Z Z Z Z Z B B B M M M M n x x x x z k x x x z x x x x x x n n M Z D D H L I R W W W ^ / _ ' ' ' [ ' [ [ [ [ [ [ [ [ [ [ ' ' [ ' _ _ _ _ _ _ _ _ _ ' _ [ [ [ [ [ [ { { { { { { { {  .{ { { [ [ [ ' [ _ _ ' ' ' ' ' _ _ / / ^ W W W R U L H D D D D D Z Z Z Z M n x x k d d s s y e q 9 9 6 6 6 6 6 6 2 , - & @ X X   !.!.!.!.!.!.!.!.!.!.!.!.!.!.!.!.!.!.!.!.!.!.!.!.!.!.!.!.!.!.!.!.!.!.!.!.!.!.!.!.!.!.!.!.!.!.!.!.!.!.!.!.!.!.!.!.!.!.!.!.!.!.!.!.!.!.!.!.!.!.!.!.!.!.!.!.!.!.!.!.!.!.!.!.!.!.!.!.!.!.!.!.!.!.!.!.!.!.!.!.!.!.!.!.!.!.!.!.!.!.!.!.!.!.!.!.!.!.!.!.!.!.!.!.!.!.!.!.!.!.!.!.!.!.!.!.!.!.!.!.!.!.!.!.!.!.!.!.!.!.!.!.!.!.!.!.!.!.!.!.!.!.!.!.!.!.!.!.!.!.!.!.!.!.!.!.!.!.!.!.!.!.!.!.!.!.!.!.!.!.!.!.!.!.!.!.!.!.",
"!.!.!.!.!.!.!.!.!.!.!.!.!.!.!.!.!.!.!.!.!.!.!.!.!.!.!.!.!.!.!.!.!.!.!.!.!.!.!.!.!.!.!.!.!.!.!.!.!.!.!.!.!.!.!.!.!.!.!.!.!.!.!.!.!.!.!.!.!.!.!.!.!.!.!.!.!.!.!.!.!.!.!.!.!.!.!.!.!.!.!.!.!.!.!.!.!.!.!.!.!.!.!.!.!.!.!.!.!.!.!.!.!.!.!.!.!.!.!.!.!.!.!.!.!.!.!.!.!.!.!.!.!.  X X X X + @ $ $ & & & - - , 2 2 6 6 6 6 8 8 6 8 6 6 2 6 2 2 2 6 6 8 8 6 8 8 0 0 q e e q 0 8 6 6 2 2 , , , , - , , 2 2 , 2 , 2 6 6 8 9 0 e e y y i y y y s s d d d d k k k z k z z z z x b N M Z Z Z D Z Z Z Z V V V B B M N n x x x z x x b b x x x b n n x n N Z D D D G L U R W W W / _ _ ' ' [ [ [ { { [ { { { { { { [ [ [ [ [ ' ' ' _ _ _ _ _ _ ' [ [ [ [ { { { { { { {  . . . . . . .{ { { { [ [ [ [ [ [ [ [ [ ' ' _ / / W W W R U I L G D D D D D Z D Z Z M N x x k d d d s y e q 0 9 8 8 8 9 6 6 2 , , & @ X X   !.!.!.!.!.!.!.!.!.!.!.!.!.!.!.!.!.!.!.!.!.!.!.!.!.!.!.!.!.!.!.!.!.!.!.!.!.!.!.!.!.!.!.!.!.!.!.!.!.!.!.!.!.!.!.!.!.!.!.!.!.!.!.!.!.!.!.!.!.!.!.!.!.!.!.!.!.!.!.!.!.!.!.!.!.!.!.!.!.!.!.!.!.!.!.!.!.!.!.!.!.!.!.!.!.!.!.!.!.!.!.!.!.!.!.!.!.!.!.!.!.!.!.!.!.!.!.!.!.!.!.!.!.!.!.!.!.!.!.!.!.!.!.!.!.!.!.!.!.!.!.!.!.!.!.!.!.!.!.!.!.!.!.!.!.!.!.!.!.!.!.!.!.!.!.!.!.!.!.!.!.!.!.!.!.!.!.!.!.!.!.!.!.!.!.!.!.",
"!.!.!.!.!.!.!.!.!.!.!.!.!.!.!.!.!.!.!.!.!.!.!.!.!.!.!.!.!.!.!.!.!.!.!.!.!.!.!.!.!.!.!.!.!.!.!.!.!.!.!.!.!.!.!.!.!.!.!.!.!.!.!.!.!.!.!.!.!.!.!.!.!.!.!.!.!.!.!.!.!.!.!.!.!.!.!.!.!.!.!.!.!.!.!.!.!.!.!.!.!.!.!.!.!.!.!.!.!.!.!.!.!.!.!.!.!.!.!.!.!.!.!.!.!.!.!.!.!.!.!.!.!.  X X X @ @ $ & & & & & - , , 2 2 2 6 6 6 9 9 9 8 6 6 6 2 2 2 6 6 8 8 8 9 8 9 0 q q q e q 9 6 6 6 6 2 , , , , - , , 2 2 2 2 2 2 6 6 9 0 q e y y i s s s s s d d k k k z x x x x x x b h x n M Z Z D D D D Z Z Z Z Z Z B Z Z M N N N n n b n n x b x x n n x n M Z Z D D D L L U W W W / / _ ' [ [ [ { { { { { { { { { { { { { { { { [ [ ' ' ' ' ' ' ' [ [ [ { { { { {  .{  . . . .X. . . . .{ { { { { { { { { { { { [ [ [ _ / / / / W W R Y I L G G G D D D D D Z Z M N b z k d d d s y y q q q q q 0 9 8 6 2 2 - & @ @ X   !.!.!.!.!.!.!.!.!.!.!.!.!.!.!.!.!.!.!.!.!.!.!.!.!.!.!.!.!.!.!.!.!.!.!.!.!.!.!.!.!.!.!.!.!.!.!.!.!.!.!.!.!.!.!.!.!.!.!.!.!.!.!.!.!.!.!.!.!.!.!.!.!.!.!.!.!.!.!.!.!.!.!.!.!.!.!.!.!.!.!.!.!.!.!.!.!.!.!.!.!.!.!.!.!.!.!.!.!.!.!.!.!.!.!.!.!.!.!.!.!.!.!.!.!.!.!.!.!.!.!.!.!.!.!.!.!.!.!.!.!.!.!.!.!.!.!.!.!.!.!.!.!.!.!.!.!.!.!.!.!.!.!.!.!.!.!.!.!.!.!.!.!.!.!.!.!.!.!.!.!.!.!.!.!.!.!.!.!.!.!.!.!.!.!.!.",
"!.!.!.!.!.!.!.!.!.!.!.!.!.!.!.!.!.!.!.!.!.!.!.!.!.!.!.!.!.!.!.!.!.!.!.!.!.!.!.!.!.!.!.!.!.!.!.!.!.!.!.!.!.!.!.!.!.!.!.!.!.!.!.!.!.!.!.!.!.!.!.!.!.!.!.!.!.!.!.!.!.!.!.!.!.!.!.!.!.!.!.!.!.!.!.!.!.!.!.!.!.!.!.!.!.!.!.!.!.!.!.!.!.!.!.!.!.!.!.!.!.!.!.!.!.!.!.!.!.!.!.!.!.  X X @ @ $ & & & & - - - , , , 2 2 6 6 8 q 0 9 9 9 8 7 6 6 6 6 6 6 8 8 8 8 9 q q q e q q 0 6 6 6 6 6 2 , , - - , , 2 2 2 6 2 6 6 9 0 q e e y y i i s s s d d k k z x b n N n n n x n n n N M B Z D D D D D Z D Z Z Z Z Z Z B B B M M M N N n n x x x n n N M Z Z D D D H L I T W W / / _ _ [ [ { { { {  .{ { { { { {  .{ {  .{ { { { { [ [ [ [ [ ' [ [ [ { { { {  . . . . . . . .X.X.X. . . . .{ { {  . .{ { { { { { { [ ' _ / / / W ! W R U L L H L H G D D D Z Z M N x z k d d d s s y y y y y y e q 0 8 6 2 , - & + @ X   !.!.!.!.!.!.!.!.!.!.!.!.!.!.!.!.!.!.!.!.!.!.!.!.!.!.!.!.!.!.!.!.!.!.!.!.!.!.!.!.!.!.!.!.!.!.!.!.!.!.!.!.!.!.!.!.!.!.!.!.!.!.!.!.!.!.!.!.!.!.!.!.!.!.!.!.!.!.!.!.!.!.!.!.!.!.!.!.!.!.!.!.!.!.!.!.!.!.!.!.!.!.!.!.!.!.!.!.!.!.!.!.!.!.!.!.!.!.!.!.!.!.!.!.!.!.!.!.!.!.!.!.!.!.!.!.!.!.!.!.!.!.!.!.!.!.!.!.!.!.!.!.!.!.!.!.!.!.!.!.!.!.!.!.!.!.!.!.!.!.!.!.!.!.!.!.!.!.!.!.!.!.!.!.!.!.!.!.!.!.!.!.!.!.!.",
"!.!.!.!.!.!.!.!.!.!.!.!.!.!.!.!.!.!.!.!.!.!.!.!.!.!.!.!.!.!.!.!.!.!.!.!.!.!.!.!.!.!.!.!.!.!.!.!.!.!.!.!.!.!.!.!.!.!.!.!.!.!.!.!.!.!.!.!.!.!.!.!.!.!.!.!.!.!.!.!.!.!.!.!.!.!.!.!.!.!.!.!.!.!.!.!.!.!.!.!.!.!.!.!.!.!.!.!.!.!.!.!.!.!.!.!.!.!.!.!.!.!.!.!.!.!.!.!.!.!.!.!.!.  X X @ @ $ & & & - - - - , , , 2 2 2 6 9 0 q 0 9 0 9 9 8 6 6 6 6 6 6 6 8 8 9 0 q e y e q 0 9 8 6 6 6 2 2 , - - , 2 2 2 6 6 6 6 0 q q q e y y y i i s s d d k k z x x x n N N M M N N M M B Z Z Z D D Z Z D D D Z Z Z Z Z Z Z V Z B B M M M B n n x x n N B Z Z D D D G L I U W W W / / _ ' [ { { { { { {  .{  . . . . . . . . .{ { { { { { { { [ [ { { { { { {  . . . . . . . . .X.X. . . . . . . .X. . . . . . .{ { { [ [ ' _ _ / / ! W ! R U I L L L L G D D D Z Z B n x z k k d d s s s s s s i y e q 0 6 2 , , & & + + X X X     !.!.!.!.!.!.!.!.!.!.!.!.!.!.!.!.!.!.!.!.!.!.!.!.!.!.!.!.!.!.!.!.!.!.!.!.!.!.!.!.!.!.!.!.!.!.!.!.!.!.!.!.!.!.!.!.!.!.!.!.!.!.!.!.!.!.!.!.!.!.!.!.!.!.!.!.!.!.!.!.!.!.!.!.!.!.!.!.!.!.!.!.!.!.!.!.!.!.!.!.!.!.!.!.!.!.!.!.!.!.!.!.!.!.!.!.!.!.!.!.!.!.!.!.!.!.!.!.!.!.!.!.!.!.!.!.!.!.!.!.!.!.!.!.!.!.!.!.!.!.!.!.!.!.!.!.!.!.!.!.!.!.!.!.!.!.!.!.!.!.!.!.!.!.!.!.!.!.!.!.!.!.!.!.!.!.!.!.!.!.!.",
"!.!.!.!.!.!.!.!.!.!.!.!.!.!.!.!.!.!.!.!.!.!.!.!.!.!.!.!.!.!.!.!.!.!.!.!.!.!.!.!.!.!.!.!.!.!.!.!.!.!.!.!.!.!.!.!.!.!.!.!.!.!.!.!.!.!.!.!.!.!.!.!.!.!.!.!.!.!.!.!.!.!.!.!.!.!.!.!.!.!.!.!.!.!.!.!.!.!.!.!.!.!.!.!.!.!.!.!.!.!.!.!.!.!.!.!.!.!.!.!.!.!.!.!.!.!.!.!.!.!.!.!.!.  X X + @ & & & & - - - - , , 2 2 2 6 6 9 0 9 0 9 9 0 9 8 6 6 6 6 6 6 6 6 8 9 0 q q e e q 0 0 8 8 6 6 2 2 2 , 2 , 2 2 6 6 6 8 9 q q e e y y y i i s s d d d k z x x n n N M M M B B Z Z B Z Z Z D D D D D D D D D D Z Z Z Z Z Z V Z Z B M M M M N n x B B Z D D D D G L L I R W W W / / _ ' [ { {  . . . . . . . . .X. . . . . . . .{  . .{ { { { { { { { { { {  . . . . .X.X.X.X.X.X.X.X. .X. .X. . .o.o.o. . . . .{ { { [ [ ' _ / / / ! W W R Y U I I L L L G D D Z Z M n b z k k k d d d d s s s y y e q 8 6 2 , - - & & @ @ @ @ X X   !.!.!.!.!.!.!.!.!.!.!.!.!.!.!.!.!.!.!.!.!.!.!.!.!.!.!.!.!.!.!.!.!.!.!.!.!.!.!.!.!.!.!.!.!.!.!.!.!.!.!.!.!.!.!.!.!.!.!.!.!.!.!.!.!.!.!.!.!.!.!.!.!.!.!.!.!.!.!.!.!.!.!.!.!.!.!.!.!.!.!.!.!.!.!.!.!.!.!.!.!.!.!.!.!.!.!.!.!.!.!.!.!.!.!.!.!.!.!.!.!.!.!.!.!.!.!.!.!.!.!.!.!.!.!.!.!.!.!.!.!.!.!.!.!.!.!.!.!.!.!.!.!.!.!.!.!.!.!.!.!.!.!.!.!.!.!.!.!.!.!.!.!.!.!.!.!.!.!.!.!.!.!.!.!.!.!.!.!.",
"!.!.!.!.!.!.!.!.!.!.!.!.!.!.!.!.!.!.!.!.!.!.!.!.!.!.!.!.!.!.!.!.!.!.!.!.!.!.!.!.!.!.!.!.!.!.!.!.!.!.!.!.!.!.!.!.!.!.!.!.!.!.!.!.!.!.!.!.!.!.!.!.!.!.!.!.!.!.!.!.!.!.!.!.!.!.!.!.!.!.!.!.!.!.!.!.!.!.!.!.!.!.!.!.!.!.!.!.!.!.!.!.!.!.!.!.!.!.!.!.!.!.!.!.!.!.!.!.!.!.!.!.!.  X @ + & & & & & - - - - , , , 2 2 6 6 8 9 9 9 8 0 q 0 8 6 6 6 6 6 6 6 8 e q q q q e e q q q 0 9 8 6 6 2 6 2 2 2 2 6 8 7 7 q q e y y y y i i s s s s d d k k z b n N M M M B B B Z Z Z Z Z D D D D D D D D D D D D Z Z Z Z Z Z Z Z Z M M M N N M N N M Z D D D G G L L I U W ! W W / / _ ' [ { {  . .X. .X.X.o.o.o.o.o.o.X.o.X. . . . . . . . . .{ { { { { {  . . . .X.X.X.X.X.X.X.X.X.o.o.o.o.o.o.X.o.o.o.X.X. . . . .{ { { [ ' / / / / W W W W R T Y U U I L G D D Z B N n b z k k k k d d d d d s y y e 0 6 6 2 , , - - & & & & @ + X   !.!.!.!.!.!.!.!.!.!.!.!.!.!.!.!.!.!.!.!.!.!.!.!.!.!.!.!.!.!.!.!.!.!.!.!.!.!.!.!.!.!.!.!.!.!.!.!.!.!.!.!.!.!.!.!.!.!.!.!.!.!.!.!.!.!.!.!.!.!.!.!.!.!.!.!.!.!.!.!.!.!.!.!.!.!.!.!.!.!.!.!.!.!.!.!.!.!.!.!.!.!.!.!.!.!.!.!.!.!.!.!.!.!.!.!.!.!.!.!.!.!.!.!.!.!.!.!.!.!.!.!.!.!.!.!.!.!.!.!.!.!.!.!.!.!.!.!.!.!.!.!.!.!.!.!.!.!.!.!.!.!.!.!.!.!.!.!.!.!.!.!.!.!.!.!.!.!.!.!.!.!.!.!.!.!.!.!.",
"!.!.!.!.!.!.!.!.!.!.!.!.!.!.!.!.!.!.!.!.!.!.!.!.!.!.!.!.!.!.!.!.!.!.!.!.!.!.!.!.!.!.!.!.!.!.!.!.!.!.!.!.!.!.!.!.!.!.!.!.!.!.!.!.!.!.!.!.!.!.!.!.!.!.!.!.!.!.!.!.!.!.!.!.!.!.!.!.!.!.!.!.!.!.!.!.!.!.!.!.!.!.!.!.!.!.!.!.!.!.!.!.!.!.!.!.!.!.!.!.!.!.!.!.!.!.!.!.!.!.!.!.  X X @ + $ & & & & - - - - - , , , 2 2 6 6 6 8 0 9 0 0 0 8 8 6 8 8 8 8 6 8 9 0 q q e e e q q q 0 0 9 9 6 6 2 , 2 6 6 6 9 9 0 q y y s s s s s s s d d d k k z x x n N N M M M B Z Z Z Z Z Z D D D D D D D D D D D D D D Z D Z Z Z D Z Z B Z B M B M M M Z Z D D G H L I I U T W W W / / / _ [ { { {  .X.X.X.X.o.o.o.o.o.@.o.o.o.X.X.o. . .X. . . . . .{ { { {  . . . .X.X.X.o.X.X.X.X.o.o.o.o.o.o.o.o.o.o.o.o.o.o.o.o.o. . . .{ [ ' _ / / / / W W W W W W R Y U L L G D D Z B M n x z z k k k k k k d d s s y q 9 6 6 2 , , , - - - - & & @ X   !.!.!.!.!.!.!.!.!.!.!.!.!.!.!.!.!.!.!.!.!.!.!.!.!.!.!.!.!.!.!.!.!.!.!.!.!.!.!.!.!.!.!.!.!.!.!.!.!.!.!.!.!.!.!.!.!.!.!.!.!.!.!.!.!.!.!.!.!.!.!.!.!.!.!.!.!.!.!.!.!.!.!.!.!.!.!.!.!.!.!.!.!.!.!.!.!.!.!.!.!.!.!.!.!.!.!.!.!.!.!.!.!.!.!.!.!.!.!.!.!.!.!.!.!.!.!.!.!.!.!.!.!.!.!.!.!.!.!.!.!.!.!.!.!.!.!.!.!.!.!.!.!.!.!.!.!.!.!.!.!.!.!.!.!.!.!.!.!.!.!.!.!.!.!.!.!.!.!.!.!.!.!.!.!.!.!.",
"!.!.!.!.!.!.!.!.!.!.!.!.!.!.!.!.!.!.!.!.!.!.!.!.!.!.!.!.!.!.!.!.!.!.!.!.!.!.!.!.!.!.!.!.!.!.!.!.!.!.!.!.!.!.!.!.!.!.!.!.!.!.!.!.!.!.!.!.!.!.!.!.!.!.!.!.!.!.!.!.!.!.!.!.!.!.!.!.!.!.!.!.!.!.!.!.!.!.!.!.!.!.!.!.!.!.!.!.!.!.!.!.!.!.!.!.!.!.!.!.!.!.!.!.!.!.!.!.!.!.!.      X X @ @ & & & & & - - - - , , , , 2 6 6 6 6 8 9 9 0 9 9 8 9 9 9 9 0 8 9 9 q q q e e e e q 0 9 0 0 q 9 6 6 2 2 6 6 0 q q e y i s s s d d s s d d d k k x b n N M M M M B B Z Z Z D D Z D D D D D G D G G G D D D D D D D D D D D D Z Z Z B Z Z Z Z Z Z D D H L L I U T R W W W / / / _ ' [ { { {  .X.o.o.o.o.o.@.@.@.@.@.@.o.o.o.o.X.X.X. . . . . .{  . . . .o. .X.X.X.X.o.X.X.o.o.o.o.@.@.@.o.o.o.o.o.@.@.@.o.o.o.o.X.X. .{ [ [ ' _ _ / / / W W W W W W R Y I L G D D Z Z B M n x x b x x z k k k d d s i e q 9 6 6 2 , 2 , , - - - & & @ X !.!.!.!.!.!.!.!.!.!.!.!.!.!.!.!.!.!.!.!.!.!.!.!.!.!.!.!.!.!.!.!.!.!.!.!.!.!.!.!.!.!.!.!.!.!.!.!.!.!.!.!.!.!.!.!.!.!.!.!.!.!.!.!.!.!.!.!.!.!.!.!.!.!.!.!.!.!.!.!.!.!.!.!.!.!.!.!.!.!.!.!.!.!.!.!.!.!.!.!.!.!.!.!.!.!.!.!.!.!.!.!.!.!.!.!.!.!.!.!.!.!.!.!.!.!.!.!.!.!.!.!.!.!.!.!.!.!.!.!.!.!.!.!.!.!.!.!.!.!.!.!.!.!.!.!.!.!.!.!.!.!.!.!.!.!.!.!.!.!.!.!.!.!.!.!.!.!.!.!.!.!.!.!.!.!.!.",
"!.!.!.!.!.!.!.!.!.!.!.!.!.!.!.!.!.!.!.!.!.!.!.!.!.!.!.!.!.!.!.!.!.!.!.!.!.!.!.!.!.!.!.!.!.!.!.!.!.!.!.!.!.!.!.!.!.!.!.!.!.!.!.!.!.!.!.!.!.!.!.!.!.!.!.!.!.!.!.!.!.!.!.!.!.!.!.!.!.!.!.!.!.!.!.!.!.!.!.!.!.!.!.!.!.!.!.!.!.!.!.!.!.!.!.!.!.!.!.!.!.!.!.!.!.!.!.!.!.!.!.      X X X @ @ $ $ & & & - - - , , , , 2 2 6 6 6 6 8 9 8 9 9 9 0 0 q q q 0 0 q e e e e y y e e q 0 0 0 q q 0 6 2 6 8 e q e y y i s s s d d d d d d d k k k x N M M M Z Z Z Z Z Z Z D D D D D D D G G H G G H H G G D D D D D D D D D D D Z Z Z Z Z Z Z Z D D G L I U U R W W W W / / / _ ' [ { { {  . .X.o.o.o.@.@.$.@.$.@.@.@.@.@.o.o.X.X.o.o.X.X.o. . . .X.X.o.X.X.X.o.o.o.o.o.@.o.@.@.@.@.@.@.@.@.@.@.@.@.@.@.@.@.@.o.o.X.X. .{ [ [ ' _ _ _ / / / W W W W W R U L G D D D Z Z Z M N n x x x x z k k k d d s i e q 0 6 6 2 2 2 2 , , , - & & @   !.!.!.!.!.!.!.!.!.!.!.!.!.!.!.!.!.!.!.!.!.!.!.!.!.!.!.!.!.!.!.!.!.!.!.!.!.!.!.!.!.!.!.!.!.!.!.!.!.!.!.!.!.!.!.!.!.!.!.!.!.!.!.!.!.!.!.!.!.!.!.!.!.!.!.!.!.!.!.!.!.!.!.!.!.!.!.!.!.!.!.!.!.!.!.!.!.!.!.!.!.!.!.!.!.!.!.!.!.!.!.!.!.!.!.!.!.!.!.!.!.!.!.!.!.!.!.!.!.!.!.!.!.!.!.!.!.!.!.!.!.!.!.!.!.!.!.!.!.!.!.!.!.!.!.!.!.!.!.!.!.!.!.!.!.!.!.!.!.!.!.!.!.!.!.!.!.!.!.!.!.!.!.!.!.!.",
"!.!.!.!.!.!.!.!.!.!.!.!.!.!.!.!.!.!.!.!.!.!.!.!.!.!.!.!.!.!.!.!.!.!.!.!.!.!.!.!.!.!.!.!.!.!.!.!.!.!.!.!.!.!.!.!.!.!.!.!.!.!.!.!.!.!.!.!.!.!.!.!.!.!.!.!.!.!.!.!.!.!.!.!.!.!.!.!.!.!.!.!.!.!.!.!.!.!.!.!.!.!.!.!.!.!.!.!.!.!.!.!.!.!.!.!.!.!.!.!.!.!.!.!.!.!.!.!.!.!.!.        X X X @ + @ $ & & - - , , , , , 2 6 6 6 6 6 8 8 0 9 0 9 q 0 q q q q q q y y y y y y y y y e e e q q 0 8 6 6 8 e y i s s s d d d k k k k k d k k z x x N M Z Z D D D D Z D D D D D D D D H L L L L L L L L H L H D G G G G G D D D D Z Z Z D D Z Z D G L I U Y W W W W W / / / _ _ ' [ { { {  .X.o.o.o.@.@.@.@.@.@.@.$.$.@.@.@.o.o.o.o.X.o.o.X.X.X.X.o.o.o.o.o.o.o.o.o.o.@.@.@.@.@.@.@.@.@.@.@.@.@.@.$.@.$.@.@.@.@.o.o.X. . .{ [ [ ' ' _ _ / / / ^ W W W W Y L L G G D D D Z M N N n x n n x k k k k k d s y e e q 6 6 6 6 2 2 , , , - - & @   !.!.!.!.!.!.!.!.!.!.!.!.!.!.!.!.!.!.!.!.!.!.!.!.!.!.!.!.!.!.!.!.!.!.!.!.!.!.!.!.!.!.!.!.!.!.!.!.!.!.!.!.!.!.!.!.!.!.!.!.!.!.!.!.!.!.!.!.!.!.!.!.!.!.!.!.!.!.!.!.!.!.!.!.!.!.!.!.!.!.!.!.!.!.!.!.!.!.!.!.!.!.!.!.!.!.!.!.!.!.!.!.!.!.!.!.!.!.!.!.!.!.!.!.!.!.!.!.!.!.!.!.!.!.!.!.!.!.!.!.!.!.!.!.!.!.!.!.!.!.!.!.!.!.!.!.!.!.!.!.!.!.!.!.!.!.!.!.!.!.!.!.!.!.!.!.!.!.!.!.!.!.!.!.!.",
"!.!.!.!.!.!.!.!.!.!.!.!.!.!.!.!.!.!.!.!.!.!.!.!.!.!.!.!.!.!.!.!.!.!.!.!.!.!.!.!.!.!.!.!.!.!.!.!.!.!.!.!.!.!.!.!.!.!.!.!.!.!.!.!.!.!.!.!.!.!.!.!.!.!.!.!.!.!.!.!.!.!.!.!.!.!.!.!.!.!.!.!.!.!.!.!.!.!.!.!.!.!.!.!.!.!.!.!.!.!.!.!.!.!.!.!.!.!.!.!.!.!.!.!.!.!.!.!.!.!.              X X X + $ & & & - , , , , 2 6 6 6 6 6 6 8 8 8 9 0 q 0 q 0 0 q 0 q e e y y y y y y y y y y e q 0 0 9 9 0 q y s d d d d k k k k k k k k k k x b n N M Z D D D D G D D D G H L G G G L L L L L L L I I L L I L L L L L L G D D D D D D Z D D D D D L L U Y R W W W / / / / _ _ ' [ ' { { {  .o.o.o.o.@.@.@.$.&.@.@.@.$.&.&.@.@.@.@.o.o.o.o.@.o.o.o.o.@.@.@.@.@.@.@.@.@.$.@.&.&.&.&.&.$.@.@.@.@.@.@.$.$.$.@.@.@.@.@.o.o.X. . .{ { [ ' ' ' _ _ / / / W W W R U L L H D D D Z Z Z M M M M n x z k k k k d d s y y y 0 6 6 6 6 6 2 2 2 , - & @ X !.!.!.!.!.!.!.!.!.!.!.!.!.!.!.!.!.!.!.!.!.!.!.!.!.!.!.!.!.!.!.!.!.!.!.!.!.!.!.!.!.!.!.!.!.!.!.!.!.!.!.!.!.!.!.!.!.!.!.!.!.!.!.!.!.!.!.!.!.!.!.!.!.!.!.!.!.!.!.!.!.!.!.!.!.!.!.!.!.!.!.!.!.!.!.!.!.!.!.!.!.!.!.!.!.!.!.!.!.!.!.!.!.!.!.!.!.!.!.!.!.!.!.!.!.!.!.!.!.!.!.!.!.!.!.!.!.!.!.!.!.!.!.!.!.!.!.!.!.!.!.!.!.!.!.!.!.!.!.!.!.!.!.!.!.!.!.!.!.!.!.!.!.!.!.!.!.!.!.!.!.!.!.!.!.",
"!.!.!.!.!.!.!.!.!.!.!.!.!.!.!.!.!.!.!.!.!.!.!.!.!.!.!.!.!.!.!.!.!.!.!.!.!.!.!.!.!.!.!.!.!.!.!.!.!.!.!.!.!.!.!.!.!.!.!.!.!.!.!.!.!.!.!.!.!.!.!.!.!.!.!.!.!.!.!.!.!.!.!.!.!.!.!.!.!.!.!.!.!.!.!.!.!.!.!.!.!.!.!.!.!.!.!.!.!.!.!.!.!.!.!.!.!.!.!.!.!.!.!.!.!.!.!.!.!.!.                X X @ + $ & & - , , , 2 2 6 6 6 6 6 6 6 6 6 8 0 0 0 9 9 0 0 0 q e e y y y y y y i i y y y q q 0 0 q e y i d d d d k k k z z x x z z k x x N B Z Z D D H L L L H G G L L L L L L I I I I I I I U U U U I U U U I L I L G D D D D D D D D D D G L I T R W W W W / / _ _ _ ' [ [ [ { {  .o.X.o.o.@.@.@.@.&.&.@.&.$.&.&.&.&.@.$.@.@.@.@.@.@.@.@.@.@.@.@.@.@.@.@.$.$.@.&.&.&.&.&.&.=.&.&.&.&.&.&.&.$.&.$.@.@.&.&.@.@.o.o.X. . .{ { [ [ ' ' _ _ / / / W W W T I L L G D D D Z D Z Z Z Z M n x x z k k k d s s s y e q 9 9 9 6 6 6 2 , , - & @   !.!.!.!.!.!.!.!.!.!.!.!.!.!.!.!.!.!.!.!.!.!.!.!.!.!.!.!.!.!.!.!.!.!.!.!.!.!.!.!.!.!.!.!.!.!.!.!.!.!.!.!.!.!.!.!.!.!.!.!.!.!.!.!.!.!.!.!.!.!.!.!.!.!.!.!.!.!.!.!.!.!.!.!.!.!.!.!.!.!.!.!.!.!.!.!.!.!.!.!.!.!.!.!.!.!.!.!.!.!.!.!.!.!.!.!.!.!.!.!.!.!.!.!.!.!.!.!.!.!.!.!.!.!.!.!.!.!.!.!.!.!.!.!.!.!.!.!.!.!.!.!.!.!.!.!.!.!.!.!.!.!.!.!.!.!.!.!.!.!.!.!.!.!.!.!.!.!.!.!.!.!.!.!.",
"!.!.!.!.!.!.!.!.!.!.!.!.!.!.!.!.!.!.!.!.!.!.!.!.!.!.!.!.!.!.!.!.!.!.!.!.!.!.!.!.!.!.!.!.!.!.!.!.!.!.!.!.!.!.!.!.!.!.!.!.!.!.!.!.!.!.!.!.!.!.!.!.!.!.!.!.!.!.!.!.!.!.!.!.!.!.!.!.!.!.!.!.!.!.!.!.!.!.!.!.!.!.!.!.!.!.!.!.!.!.!.!.!.!.!.!.!.!.!.!.!.!.!.!.!.!.!.!.!.!.!.!.!.!.          X @ @ $ & & - , , 2 2 2 6 6 6 6 2 6 6 6 6 8 9 9 8 0 9 9 9 9 9 q q e e e e e e y y y y y y y e e y i s s k d d k k k z z x n n n x x x M Z D D D G L L L I L L L L L I L L L U U Y Y Y U I U U Y Y T U Y Y Y Y U I I L G D G G D D D D G L L I U R W W W W / / / _ _ ' ' [ [ { { {  .X.o.o.o.@.@.@.@.&.@.&.&.$.&.&.&.&.&.&.$.$.@.@.@.$.$.$.$.@.@.@.$.$.&.@.&.&.&.=.&.&.&.=.=.=.=.=.=.&.&.&.&.&.&.&.&.&.&.@.@.@.@.o.o.o. . .{ { { [ [ ' _ / / / W W W W Y I L H G D D D D D D Z Z Z B M n x x z k k d d d s s y e q q 9 6 6 6 2 , - & @ X X X   !.!.!.!.!.!.!.!.!.!.!.!.!.!.!.!.!.!.!.!.!.!.!.!.!.!.!.!.!.!.!.!.!.!.!.!.!.!.!.!.!.!.!.!.!.!.!.!.!.!.!.!.!.!.!.!.!.!.!.!.!.!.!.!.!.!.!.!.!.!.!.!.!.!.!.!.!.!.!.!.!.!.!.!.!.!.!.!.!.!.!.!.!.!.!.!.!.!.!.!.!.!.!.!.!.!.!.!.!.!.!.!.!.!.!.!.!.!.!.!.!.!.!.!.!.!.!.!.!.!.!.!.!.!.!.!.!.!.!.!.!.!.!.!.!.!.!.!.!.!.!.!.!.!.!.!.!.!.!.!.!.!.!.!.!.!.!.!.!.!.!.!.!.!.!.!.!.!.!.!.!.",
"!.!.!.!.!.!.!.!.!.!.!.!.!.!.!.!.!.!.!.!.!.!.!.!.!.!.!.!.!.!.!.!.!.!.!.!.!.!.!.!.!.!.!.!.!.!.!.!.!.!.!.!.!.!.!.!.!.!.!.!.!.!.!.!.!.!.!.!.!.!.!.!.!.!.!.!.!.!.!.!.!.!.!.!.!.!.!.!.!.!.!.!.!.!.!.!.!.!.!.!.!.!.!.!.!.!.!.!.!.!.!.!.!.!.!.!.!.!.!.!.!.!.!.!.!.!.!.!.!.!.!.!.!.!.!.!.      X @ @ $ & & - - , , 2 2 6 6 6 6 6 2 6 6 6 6 8 9 9 0 8 9 6 8 9 0 q q q q e q y y y y y i i i i y s s d k k k k z x b x x n M M M M M B Z D G D G L I I I I I I I I I I I I I U T R R T Y U U U U Y T T R T Y Y Y Y U L L L H L G G G H L L L I Y W W W W W / / / _ ' ' [ [ { { {  . .X.o.o.@.$.$.$.$.&.&.&.&.&.&.&.&.&.&.&.&.&.&.&.@.&.&.&.&.&.@.&.&.&.&.&.=.=.=.=.=.=.=.=.=.=.=.=.=.=.=.=.&.&.&.&.=.&.&.&.&.&.@.@.o.o.X. . .{ { [ [ [ ' ' / / / W W W W Y I L L G G D G D D D Z Z Z Z N n x b x k d d d d d s i y y y q 9 6 2 2 - - & @ @ + X X   !.!.!.!.!.!.!.!.!.!.!.!.!.!.!.!.!.!.!.!.!.!.!.!.!.!.!.!.!.!.!.!.!.!.!.!.!.!.!.!.!.!.!.!.!.!.!.!.!.!.!.!.!.!.!.!.!.!.!.!.!.!.!.!.!.!.!.!.!.!.!.!.!.!.!.!.!.!.!.!.!.!.!.!.!.!.!.!.!.!.!.!.!.!.!.!.!.!.!.!.!.!.!.!.!.!.!.!.!.!.!.!.!.!.!.!.!.!.!.!.!.!.!.!.!.!.!.!.!.!.!.!.!.!.!.!.!.!.!.!.!.!.!.!.!.!.!.!.!.!.!.!.!.!.!.!.!.!.!.!.!.!.!.!.!.!.!.!.!.!.!.!.!.!.!.!.!.!.!.",
"!.!.!.!.!.!.!.!.!.!.!.!.!.!.!.!.!.!.!.!.!.!.!.!.!.!.!.!.!.!.!.!.!.!.!.!.!.!.!.!.!.!.!.!.!.!.!.!.!.!.!.!.!.!.!.!.!.!.!.!.!.!.!.!.!.!.!.!.!.!.!.!.!.!.!.!.!.!.!.!.!.!.!.!.!.!.!.!.!.!.!.!.!.!.!.!.!.!.!.!.!.!.!.!.!.!.!.!.!.!.!.!.!.!.!.!.!.!.!.!.!.!.!.!.!.!.!.!.!.!.!.!.!.!.!.!.        X @ @ $ & & - , , 2 2 2 6 6 6 2 2 6 6 6 6 8 9 0 9 9 9 6 6 9 q 0 q q 0 q q e e y y s s s s s s d d k z x x z b n N N M M Z Z Z Z Z D D G L L I U Y T T T Y Y T T U U U U T T R W W W W T T T Y T R W W R T T T T Y U L L L L L L G L L I I U R W W W W W / / _ _ _ ' [ [ { { {  . .o.o.@.@.@.&.$.&.&.&.&.&.&.=.=.&.&.&.&.=.=.&.&.&.&.&.&.&.=.&.&.=.&.=.=.=.=.=.=.=.=.:.:.:.:.:.=.=.=.:.=.=.=.=.=.=.&.&.&.&.&.&.@.@.o.o.o.X. .{ { { [ [ ' _ _ / / W W W R U I L L L L H G G G D D Z Z B M N n n b k k k k k d d s s i e q 9 6 2 2 - - - & & $ @ @ X   !.!.!.!.!.!.!.!.!.!.!.!.!.!.!.!.!.!.!.!.!.!.!.!.!.!.!.!.!.!.!.!.!.!.!.!.!.!.!.!.!.!.!.!.!.!.!.!.!.!.!.!.!.!.!.!.!.!.!.!.!.!.!.!.!.!.!.!.!.!.!.!.!.!.!.!.!.!.!.!.!.!.!.!.!.!.!.!.!.!.!.!.!.!.!.!.!.!.!.!.!.!.!.!.!.!.!.!.!.!.!.!.!.!.!.!.!.!.!.!.!.!.!.!.!.!.!.!.!.!.!.!.!.!.!.!.!.!.!.!.!.!.!.!.!.!.!.!.!.!.!.!.!.!.!.!.!.!.!.!.!.!.!.!.!.!.!.!.!.!.!.!.!.!.!.!.!.",
"!.!.!.!.!.!.!.!.!.!.!.!.!.!.!.!.!.!.!.!.!.!.!.!.!.!.!.!.!.!.!.!.!.!.!.!.!.!.!.!.!.!.!.!.!.!.!.!.!.!.!.!.!.!.!.!.!.!.!.!.!.!.!.!.!.!.!.!.!.!.!.!.!.!.!.!.!.!.!.!.!.!.!.!.!.!.!.!.!.!.!.!.!.!.!.!.!.!.!.!.!.!.!.!.!.!.!.!.!.!.!.!.!.!.!.!.!.!.!.!.!.!.!.!.!.!.!.!.!.!.!.!.!.!.!.!.!.!.!.  X X @ @ & & - , , , 2 2 2 2 2 2 2 2 6 6 8 8 9 9 8 8 6 6 6 8 8 9 9 9 9 0 0 q e y y s d d s s d k k x x x n n M M B B Z Z Z D D D D D H L I I Y R R W W R W W R R R T R T R R W W W W W W W W T R R W W R T R R R T Y I I I I L L L L L I T R W W W W W ^ / _ _ ' _ [ { { { { {  .o.o.o.@.@.&.&.&.&.&.&.&.&.=.=.=.=.&.&.=.=.=.=.=.=.=.=.=.=.=.=.=.=.=.=.=.=.=.=.:.:.:.:.:.:.:.:.:.:.:.:.:.=.=.=.=.=.=.=.=.&.&.&.&.@.@.@.o.X.X. .{ { { { [ ' _ _ / / W W ! R Y I I I L L L L L G D D Z Z Z B M M N x x z x k k k d d s y e q 9 6 2 , , , , - - & & @ X X     !.!.!.!.!.!.!.!.!.!.!.!.!.!.!.!.!.!.!.!.!.!.!.!.!.!.!.!.!.!.!.!.!.!.!.!.!.!.!.!.!.!.!.!.!.!.!.!.!.!.!.!.!.!.!.!.!.!.!.!.!.!.!.!.!.!.!.!.!.!.!.!.!.!.!.!.!.!.!.!.!.!.!.!.!.!.!.!.!.!.!.!.!.!.!.!.!.!.!.!.!.!.!.!.!.!.!.!.!.!.!.!.!.!.!.!.!.!.!.!.!.!.!.!.!.!.!.!.!.!.!.!.!.!.!.!.!.!.!.!.!.!.!.!.!.!.!.!.!.!.!.!.!.!.!.!.!.!.!.!.!.!.!.!.!.!.!.!.!.!.!.!.!.!.",
"!.!.!.!.!.!.!.!.!.!.!.!.!.!.!.!.!.!.!.!.!.!.!.!.!.!.!.!.!.!.!.!.!.!.!.!.!.!.!.!.!.!.!.!.!.!.!.!.!.!.!.!.!.!.!.!.!.!.!.!.!.!.!.!.!.!.!.!.!.!.!.!.!.!.!.!.!.!.!.!.!.!.!.!.!.!.!.!.!.!.!.!.!.!.!.!.!.!.!.!.!.!.!.!.!.!.!.!.!.!.!.!.!.!.!.!.!.!.!.!.!.!.!.!.!.!.!.!.!.!.!.!.!.!.!.!.!.!.!.    X @ + $ & & - , , 2 2 2 2 2 2 2 2 6 6 8 9 9 9 8 8 6 6 6 6 8 8 9 0 q q q q e y i s s d d d d z b n N N N M Z Z Z Z Z D D G G H L L L I U T W W W W W W W W W W W R W R R W W W W W W W W W W W W W W W R W W W W R Y U Y U I L I I I U R W W W W W W / _ _ _ _ ' [ { { {  . .X.o.o.@.@.@.&.&.&.&.&.&.&.=.&.=.=.=.=.=.=.=.=.=.=.=.=.=.=.=.=.=.=.=.=.=.=.=.:.:.:.:.:.:.:.,.:.,.,.,.,.,.<.:.=.=.=.=.=.=.=.=.=.&.&.&.@.@.@.o.o. . . .{ { [ [ ' _ / / / W W W T Y Y U U I I I L H D D D D Z Z Z Z M n x x x x x z k k d s y e q 8 6 6 2 2 , , , - & & $ + + X X     !.!.!.!.!.!.!.!.!.!.!.!.!.!.!.!.!.!.!.!.!.!.!.!.!.!.!.!.!.!.!.!.!.!.!.!.!.!.!.!.!.!.!.!.!.!.!.!.!.!.!.!.!.!.!.!.!.!.!.!.!.!.!.!.!.!.!.!.!.!.!.!.!.!.!.!.!.!.!.!.!.!.!.!.!.!.!.!.!.!.!.!.!.!.!.!.!.!.!.!.!.!.!.!.!.!.!.!.!.!.!.!.!.!.!.!.!.!.!.!.!.!.!.!.!.!.!.!.!.!.!.!.!.!.!.!.!.!.!.!.!.!.!.!.!.!.!.!.!.!.!.!.!.!.!.!.!.!.!.!.!.!.!.!.!.!.!.!.!.!.!.",
"!.!.!.!.!.!.!.!.!.!.!.!.!.!.!.!.!.!.!.!.!.!.!.!.!.!.!.!.!.!.!.!.!.!.!.!.!.!.!.!.!.!.!.!.!.!.!.!.!.!.!.!.!.!.!.!.!.!.!.!.!.!.!.!.!.!.!.!.!.!.!.!.!.!.!.!.!.!.!.!.!.!.!.!.!.!.!.!.!.!.!.!.!.!.!.!.!.!.!.!.!.!.!.!.!.!.!.!.!.!.!.!.!.!.!.!.!.!.!.!.!.!.!.!.!.!.!.!.!.!.!.!.!.!.!.!.!.!.!.    X X + $ & & - - , 2 2 2 , 2 2 2 2 6 6 6 8 8 9 8 6 7 6 6 6 8 9 9 9 0 q q e e y s s s d d d k x b n N N M B Z Z D D D D G L L L I I U T R W W W W W W W W W W W W R W W W W W W W W W W W W W W W W W W W W W W W W W W R T Y Y Y Y T W W W W W W W / / _ _ _ ' [ [ { {  . .o.o.o.@.@.@.&.&.&.&.=.=.=.=.=.=.=.=.=.=.=.=.=.=.=.=.=.:.:.:.:.:.=.=.:.=.:.:.:.:.:.,.,.,.<.,.,.,.,.<.<.<.<.,.,.:.:.:.=.=.=.=.=.=.=.&.&.&.@.@.@.o.X. . . .{ { [ [ ' _ / / W W W W R R T T T Y U I L G G D D D Z Z Z M M N N n x b x x z k d i y e q 0 8 6 6 6 2 2 2 , - - & & @ @ X X   !.!.!.!.!.!.!.!.!.!.!.!.!.!.!.!.!.!.!.!.!.!.!.!.!.!.!.!.!.!.!.!.!.!.!.!.!.!.!.!.!.!.!.!.!.!.!.!.!.!.!.!.!.!.!.!.!.!.!.!.!.!.!.!.!.!.!.!.!.!.!.!.!.!.!.!.!.!.!.!.!.!.!.!.!.!.!.!.!.!.!.!.!.!.!.!.!.!.!.!.!.!.!.!.!.!.!.!.!.!.!.!.!.!.!.!.!.!.!.!.!.!.!.!.!.!.!.!.!.!.!.!.!.!.!.!.!.!.!.!.!.!.!.!.!.!.!.!.!.!.!.!.!.!.!.!.!.!.!.!.!.!.!.!.!.!.!.!.!.!.",
"!.!.!.!.!.!.!.!.!.!.!.!.!.!.!.!.!.!.!.!.!.!.!.!.!.!.!.!.!.!.!.!.!.!.!.!.!.!.!.!.!.!.!.!.!.!.!.!.!.!.!.!.!.!.!.!.!.!.!.!.!.!.!.!.!.!.!.!.!.!.!.!.!.!.!.!.!.!.!.!.!.!.!.!.!.!.!.!.!.!.!.!.!.!.!.!.!.!.!.!.!.!.!.!.!.!.!.!.!.!.!.!.!.!.!.!.!.!.!.!.!.!.!.!.!.!.!.!.!.!.!.!.!.!.!.!.!.!.!.!.  X X @ + @ & & - , 2 , , , , 2 2 2 2 6 6 6 6 8 6 6 6 6 6 8 8 9 0 q q q e e e y y s s d d k k x b n N M B Z D D D D G H L L I U T T W W W W W W W W W W W W W W W W W W W W W W W W W W W W W W W W W W W W W W W W W W W W R W W R W W W W W W W / / / _ _ [ [ [ { {  . .o.o.o.@.@.@.&.&.&.&.=.=.=.=.=.=.=.=.=.=.=.:.=.=.:.=.:.:.:.:.<.,.,.,.,.:.,.:.:.,.,.,.,.,.<.<.<.<.<.<.<.<.<.<.<.,.<.:.:.:.=.:.:.=.=.=.=.=.&.&.&.@.@.o.o.X. . .{ { [ [ _ / / / W W W W W W W W R R Y I L H G D D Z Z Z B B M M N n x x b x k k s s s y y e q q q 8 6 6 6 2 , , - & & @ @ X   !.!.!.!.!.!.!.!.!.!.!.!.!.!.!.!.!.!.!.!.!.!.!.!.!.!.!.!.!.!.!.!.!.!.!.!.!.!.!.!.!.!.!.!.!.!.!.!.!.!.!.!.!.!.!.!.!.!.!.!.!.!.!.!.!.!.!.!.!.!.!.!.!.!.!.!.!.!.!.!.!.!.!.!.!.!.!.!.!.!.!.!.!.!.!.!.!.!.!.!.!.!.!.!.!.!.!.!.!.!.!.!.!.!.!.!.!.!.!.!.!.!.!.!.!.!.!.!.!.!.!.!.!.!.!.!.!.!.!.!.!.!.!.!.!.!.!.!.!.!.!.!.!.!.!.!.!.!.!.!.!.!.!.!.!.!.!.!.!.",
"!.!.!.!.!.!.!.!.!.!.!.!.!.!.!.!.!.!.!.!.!.!.!.!.!.!.!.!.!.!.!.!.!.!.!.!.!.!.!.!.!.!.!.!.!.!.!.!.!.!.!.!.!.!.!.!.!.!.!.!.!.!.!.!.!.!.!.!.!.!.!.!.!.!.!.!.!.!.!.!.!.!.!.!.!.!.!.!.!.!.!.!.!.!.!.!.!.!.!.!.!.!.!.!.!.!.!.!.!.!.!.!.!.!.!.!.!.!.!.!.!.!.!.!.!.!.!.!.!.!.!.!.!.!.!.!.!.!.!.!.    X @ @ @ & & & - , , , , , 2 , 2 2 2 2 6 6 6 6 6 6 6 6 8 9 0 q q q e y y y y y i s d d k k z b N M B Z Z D G H L L I U Y R W W W W W W W W W / ! W W W W W W W W W W W W W W W W W W W W W W W W W W W W W W W W W W W W W W W W W W W W W W ^ / / _ _ ' [ [ { {  . .o.o.o.o.@.@.&.&.&.=.=.=.=.=.=.=.=.=.=.=.:.:.:.:.:.:.:.,.,.,.,.<.<.<.,.<.<.<.<.<.<.<.<.<.<.<.<.3.<.<.3.3.3.3.3.<.<.,.<.:.:.:.:.:.:.=.=.=.=.&.&.&.@.@.@.o.o.X. . .{ { [ ' _ / / / W W W W W W W W W T U L L L D D D D Z Z Z Z B M M N N n x x k d d s s s s i y e q q 0 6 6 2 2 , - & & $ @ X       !.!.  !.!.!.!.!.!.!.!.!.!.!.!.!.!.!.!.!.!.!.!.!.!.!.!.!.!.!.!.!.!.!.!.!.!.!.!.!.!.!.!.!.!.!.!.!.!.!.!.!.!.!.!.!.!.!.!.!.!.!.!.!.!.!.!.!.!.!.!.!.!.!.!.!.!.!.!.!.!.!.!.!.!.!.!.!.!.!.!.!.!.!.!.!.!.!.!.!.!.!.!.!.!.!.!.!.!.!.!.!.!.!.!.!.!.!.!.!.!.!.!.!.!.!.!.!.!.!.!.!.!.!.!.!.!.!.!.!.!.!.!.!.!.!.!.!.!.!.!.!.!.!.!.!.!.!.!.!.!.!.!.!.!.!.",
"!.!.!.!.!.!.!.!.!.!.!.!.!.!.!.!.!.!.!.!.!.!.!.!.!.!.!.!.!.!.!.!.!.!.!.!.!.!.!.!.!.!.!.!.!.!.!.!.!.!.!.!.!.!.!.!.!.!.!.!.!.!.!.!.!.!.!.!.!.!.!.!.!.!.!.!.!.!.!.!.!.!.!.!.!.!.!.!.!.!.!.!.!.!.!.!.!.!.!.!.!.!.!.!.!.!.!.!.!.!.!.!.!.!.!.!.!.!.!.!.!.!.!.!.!.!.!.    !.!.!.!.!.!.!.!.!.!.!.      X @ + @ & & - - - - , , , , , , 2 2 2 6 6 6 6 6 6 6 8 9 q q e e e y i i i i s s d k k z x x M Z Z D D G L L I U U T R W W ! W W ! ^ / / / / / / W ! W W W W W W W W W W W W W W W W W W W W W W W W W W W W W W W W W W W W W W W W ! ! W / / / _ ' [ [ { { {  . .X.o.o.@.@.@.&.&.=.=.=.=.=.=.=.=.=.=.:.:.:.:.:.:.:.:.:.:.,.,.<.<.3.<.<.<.<.3.<.<.<.<.3.3.<.3.3.3.3.3.3.3.3.3.3.3.<.<.<.<.<.,.:.:.:.=.=.=.=.=.=.&.&.@.@.@.o.X.o. .{ { [ [ ' _ / / / ^ W W W W ! W R R U I I L H G D D D D Z Z Z B B M B M n x x k k k k d d d s s y y e 0 8 6 6 2 , , - & & @ X X X X   X     !.!.!.!.!.!.!.!.!.!.!.!.!.!.!.!.!.!.!.!.!.!.!.!.!.!.!.!.!.!.!.!.!.!.!.!.!.!.!.!.!.!.!.!.!.!.!.!.!.!.!.!.!.!.!.!.!.!.!.!.!.!.!.!.!.!.!.!.!.!.!.!.!.!.!.!.!.!.!.!.!.!.!.!.!.!.!.!.!.!.!.!.!.!.!.!.!.!.!.!.!.!.!.!.!.!.!.!.!.!.!.!.!.!.!.!.!.!.!.!.!.!.!.!.!.!.!.!.!.!.!.!.!.!.!.!.!.!.!.!.!.!.!.!.!.!.!.!.!.!.!.!.!.!.!.!.!.!.!.!.!.",
"!.!.!.!.!.!.!.!.!.!.!.!.!.!.!.!.!.!.!.!.!.!.!.!.!.!.!.!.!.!.!.!.!.!.!.!.!.!.!.!.!.!.!.!.!.!.!.!.!.!.!.!.!.!.!.!.!.!.!.!.!.!.!.!.!.!.!.!.!.!.!.!.!.!.!.!.!.!.!.!.!.!.!.!.!.!.!.!.!.!.!.!.!.!.!.!.!.!.!.!.!.!.!.!.!.!.!.!.!.!.!.!.!.!.!.!.!.!.!.!.!.!.!.!.!.!.!.      !.!.!.!.!.              X X X @ @ & & & & & & & - - - - , , , , 2 2 6 2 2 6 6 9 0 q e y y y y i i s i s d k k x x b M Z D D G H L L I Y R W W W W W W W ! / / / / / / / / / W W W ! W W W W W W W ! W W W W W W W W W W W W W W W W W W W W W W W W W W / / ^ / W / / / _ ' ' [ [ { {  . .X.X.o.o.@.@.&.&.&.&.=.=.=.=.=.=.=.=.=.=.:.:.:.,.,.:.<.<.<.<.<.<.3.3.3.3.3.3.3.3.3.3.3.3.3.3.3.6.3.3.5.5.5.3.3.3.3.3.3.<.<.<.,.:.:.:.:.:.:.=.=.&.&.&.@.@.@.o.o.o.o. .{ { [ [ ' _ / / / W W W W W W W W T Y I I L H G D D D D Z Z Z Z Z Z Z M N x b z x z z k k k d s s y y q 9 6 2 , 2 , , - - & @ + @ @ @ X X     !.!.!.!.!.!.!.!.!.!.!.!.!.!.!.!.!.!.!.!.!.!.!.!.!.!.!.!.!.!.!.!.!.!.!.!.!.!.!.!.!.!.!.!.!.!.!.!.!.!.!.!.!.!.!.!.!.!.!.!.!.!.!.!.!.!.!.!.!.!.!.!.!.!.!.!.!.!.!.!.!.!.!.!.!.!.!.!.!.!.!.!.!.!.!.!.!.!.!.!.!.!.!.!.!.!.!.!.!.!.!.!.!.!.!.!.!.!.!.!.!.!.!.!.!.!.!.!.!.!.!.!.!.!.!.!.!.!.!.!.!.!.!.!.!.!.!.!.!.!.!.!.!.!.!.!.!.!.!.",
"!.!.!.!.!.!.!.!.!.!.!.!.!.!.!.!.!.!.!.!.!.!.!.!.!.!.!.!.!.!.!.!.!.!.!.!.!.!.!.!.!.!.!.!.!.!.!.!.!.!.!.!.!.!.!.!.!.!.!.!.!.!.!.!.!.!.!.!.!.!.!.!.!.!.!.!.!.!.!.!.!.!.!.!.!.!.!.!.!.!.!.!.!.!.!.!.!.!.!.!.!.!.!.!.!.!.!.!.!.!.!.!.!.!.!.!.!.!.!.!.!.!.!.!.!.!.        !.!.!.                !.    X X X @ + @ @ @ $ & & & & - - - , , 2 2 2 2 2 2 6 8 q q e e y y y i s i s s d k k x x N Z D D G H L U Y T W W W W W W W ^ / / / _ / / / / _ _ / / W W ^ / / ! W W / ^ W W W ^ ! W W W W W W W W W W W W W W W W / / ^ / / / / / / / / / / _ ' _ ' [ [ { {  . .o.o.o.@.@.@.&.&.&.=.=.=.=.=.=.=.=.=.=.:.:.:.:.,.,.,.,.<.<.<.<.3.3.3.5.3.3.3.3.3.3.3.5.3.5.5.6.6.6.5.6.6.6.6.6.6.6.3.3.3.<.<.<.,.,.:.:.:.:.=.=.=.&.&.&.$.@.@.@.o.o.X. .{ { { [ _ _ / / / W W W W W W W W T U I L L L G G D D D D D D D Z Z B M N N n n n n x x z k k d s s y q 8 6 6 2 2 , , - & & & @ $ @ @ @ X     !.  !.!.!.!.!.!.!.!.!.!.!.!.!.!.!.!.!.!.!.!.!.!.!.!.!.!.!.!.!.!.!.!.!.!.!.!.!.!.!.!.!.!.!.!.!.!.!.!.!.!.!.!.!.!.!.!.!.!.!.!.!.!.!.!.!.!.!.!.!.!.!.!.!.!.!.!.!.!.!.!.!.!.!.!.!.!.!.!.!.!.!.!.!.!.!.!.!.!.!.!.!.!.!.!.!.!.!.!.!.!.!.!.!.!.!.!.!.!.!.!.!.!.!.!.!.!.!.!.!.!.!.!.!.!.!.!.!.!.!.!.!.!.!.!.!.!.!.!.!.!.!.!.!.!.!.!.",
"!.!.!.!.!.!.!.!.!.!.!.!.!.!.!.!.!.!.!.!.!.!.!.!.!.!.!.!.!.!.!.!.!.!.!.!.!.!.!.!.!.!.!.!.!.!.!.!.!.!.!.!.!.!.!.!.!.!.!.!.!.!.!.!.!.!.!.!.!.!.!.!.!.!.!.!.!.!.!.!.!.!.!.!.!.!.!.!.!.!.!.!.!.!.!.!.!.!.!.!.!.!.!.!.!.!.!.!.!.!.!.!.!.!.!.!.!.!.!.!.!.!.!.!.!.            !.!.                  !.  X X X X @ @ @ @ @ + $ & & & & - - , , , , , , 2 6 8 0 q e e e y y y i s s d d d k z N B D D H L L I Y W W W W W W W W / / / / / / / _ _ _ _ _ / / / / / / / / ^ W / / / W / / / / ^ W W / / / ^ W W W W W / ^ / / / / / / / / / / / / / _ _ ' ' [ [ { {  . .o.X.o.o.@.@.&.&.&.&.=.=.=.:.:.:.:.=.:.=.=.:.:.:.,.,.<.<.,.<.<.3.3.3.5.5.6.5.5.6.6.6.6.6.6.6.6.6.6.6.6.6.6.6.6.6.6.6.6.3.3.<.<.<.<.,.:.:.:.:.=.=.=.=.&.&.&.$.@.@.@.o.o.X. .{ { [ ' _ _ / / W W W W W W W W R Y U I L L L H G G D G D D D D D Z Z B B M M B M M N b z k k d d s y q 0 9 6 6 2 2 , , - - & & & & & @ @ X   X         !.!.!.!.!.!.!.!.!.!.!.!.!.!.!.!.!.!.!.!.!.!.!.!.!.!.!.!.!.!.!.!.!.!.!.!.!.!.!.!.!.!.!.!.!.!.!.!.!.!.!.!.!.!.!.!.!.!.!.!.!.!.!.!.!.!.!.!.!.!.!.!.!.!.!.!.!.!.!.!.!.!.!.!.!.!.!.!.!.!.!.!.!.!.!.!.!.!.!.!.!.!.!.!.!.!.!.!.!.!.!.!.!.!.!.!.!.!.!.!.!.!.!.!.!.!.!.!.!.!.!.!.!.!.!.!.!.!.!.!.!.!.!.!.!.!.!.!.!.!.!.!.",
"!.!.!.!.!.!.!.!.!.!.!.!.!.!.!.!.!.!.!.!.!.!.!.!.!.!.!.!.!.!.!.!.!.!.!.!.!.!.!.!.!.!.!.!.!.!.!.!.!.!.!.!.!.!.!.!.!.!.!.!.!.!.!.!.!.!.!.!.!.!.!.!.!.!.!.!.!.!.!.!.!.!.!.!.!.!.!.!.!.!.!.!.!.!.!.!.!.!.!.!.!.!.!.!.!.!.!.!.!.!.!.!.!.!.!.!.!.!.!.!.!.!.!.        X X X               !.!.!.!.!.    X X X X X X X X X @ @ @ & & & - - , , 2 , , , 2 6 6 9 q q e e y i y s s d d k k x x B D D L L I I Y R W W W ! W W / / / / / / _ _ _ _ _ _ _ / _ / / / / / _ / / / / / / / / _ / _ / / / / / / / / / / / / / / / / / / / / _ / / / / _ _ _ ' ' [ [ [ {  . . .o.X.o.@.@.@.$.&.&.=.=.=.:.:.:.:.:.:.:.:.=.:.:.,.,.<.<.<.<.<.3.3.6.6.6.6.6.6.6.6.6.6.6.6.6.6.6.6.9.6.6.9.9.9.9.6.6.6.6.6.3.<.<.<.<.,.,.:.:.:.=.=.=.=.=.=.&.&.@.@.@.o.o.o. . .{ { [ ' _ _ _ / W W W W W W W W R T U I L L L L L G H G D D D D D Z Z Z Z Z Z Z Z M N n x z k d d s i y e q 8 6 6 2 2 , , , , - - - & & + @ X X X             !.!.!.!.!.!.!.!.!.!.!.!.!.!.!.!.!.!.!.!.!.!.!.!.!.!.!.!.!.!.!.!.!.!.!.!.!.!.!.!.!.!.!.!.!.!.!.!.!.!.!.!.!.!.!.!.!.!.!.!.!.!.!.!.!.!.!.!.!.!.!.!.!.!.!.!.!.!.!.!.!.!.!.!.!.!.!.!.!.!.!.!.!.!.!.!.!.!.!.!.!.!.!.!.!.!.!.!.!.!.!.!.!.!.!.!.!.!.!.!.!.!.!.!.!.!.!.!.!.!.!.!.!.!.!.!.!.!.!.!.!.!.!.!.!.!.!.!.",
"!.!.!.!.!.!.!.!.!.!.!.!.!.!.!.!.!.!.!.!.!.!.!.!.!.!.!.!.!.!.!.!.!.!.!.!.!.!.!.!.!.!.!.!.!.!.!.!.!.!.!.!.!.!.!.!.!.!.!.!.!.!.!.!.!.!.!.!.!.!.!.!.!.!.!.!.!.!.!.!.!.!.!.!.!.!.!.!.!.!.!.!.!.!.!.!.!.!.!.!.!.!.!.!.!.!.!.!.!.!.!.!.!.!.!.!.!.!.!.!.!.!.      X X X X X X       !.  !.!.!.!.!.!.    X X X X @ @ X X @ @ @ & $ & & & - , , 2 , , 2 2 6 6 8 0 e e y y i i s s d d k z x M Z D H L I Y R W W W W W W / / / / / _ / _ _ _ _ _ _ _ _ _ / / / / / / / / / / / _ _ / / / / / _ / / / / / / / / / / / / / / / / / / _ _ _ _ _ / _ _ ' [ [ [ { {  . .X.X.o.o.o.@.@.$.&.$.&.=.=.=.:.:.:.:.:.:.:.:.=.=.:.:.:.,.<.<.3.<.3.3.5.6.6.6.6.6.9.9.9.9.6.6.6.9.9.9.9.9.9.9.9.9.9.9.6.6.9.6.6.3.3.<.<.<.,.,.:.:.:.=.=.=.=.=.&.=.&.$.@.@.o.o.X. .{ { [ ' _ _ / / / / ! ! W W W W W W R U I I I I L L L L L G G D D D Z Z Z Z Z Z Z Z Z M n b x k k d s i i y q 8 8 6 6 6 2 2 2 , , , - - & $ @ + X X     X X     !.!.!.!.!.!.!.!.!.!.!.!.!.!.!.!.!.!.!.!.!.!.!.!.!.!.!.!.!.!.!.!.!.!.!.!.!.!.!.!.!.!.!.!.!.!.!.!.!.!.!.!.!.!.!.!.!.!.!.!.!.!.!.!.!.!.!.!.!.!.!.!.!.!.!.!.!.!.!.!.!.!.!.!.!.!.!.!.!.!.!.!.!.!.!.!.!.!.!.!.!.!.!.!.!.!.!.!.!.!.!.!.!.!.!.!.!.!.!.!.!.!.!.!.!.!.!.!.!.!.!.!.!.!.!.!.!.!.!.!.!.!.!.!.!.!.!.",
"!.!.!.!.!.!.!.!.!.!.!.!.!.!.!.!.!.!.!.!.!.!.!.!.!.!.!.!.!.!.!.!.!.!.!.!.!.!.!.!.!.!.!.!.!.!.!.!.!.!.!.!.!.!.!.!.!.!.!.!.!.!.!.!.!.!.!.!.!.!.!.!.!.!.!.!.!.!.!.!.!.!.!.!.!.!.!.!.!.!.!.!.!.!.!.!.!.!.!.!.!.!.!.!.!.!.!.!.!.!.!.!.!.!.!.!.!.!.    !.    X X X X X X X X       !.  !.!.  !.!.!.!.    X X @ @ + + @ @ X + $ & & & & - , , 2 2 2 2 6 6 8 9 q e y y s s s d d k k z x M Z D G L I Y R W W W W W W / / / / / _ _ _ _ _ _ ' ' _ _ _ ' _ / _ _ / / / / / / _ _ _ _ / / _ _ _ / / / / / / / / _ / / / / / / / _ / / _ _ _ _ _ _ _ _ [ { { {  . .o.X.o.o.@.@.@.@.@.&.&.&.=.=.=.:.:.:.:.:.:.:.:.:.:.:.:.:.,.<.<.<.3.3.3.6.6.6.6.6.9.9.9.9.9.9.9.9.9.9.9.w.9.w.w.r.w.w.9.9.9.6.6.5.3.3.3.<.<.,.,.:.:.:.:.:.=.=.=.=.&.&.&.@.@.@.o.X.X. .{ { [ ' ' _ / / / / / / W W W W W W R T Y U U I I U I L L H G D D D D Z D D D D D Z Z M n x z k k d d s i e q q 0 9 8 6 6 2 2 2 , , - & & & @ @ X X X X X X X     !.!.!.!.!.!.!.!.!.!.!.!.!.!.!.!.!.!.!.!.!.!.!.!.!.!.!.!.!.!.!.!.!.!.!.!.!.!.!.!.!.!.!.!.!.!.!.!.!.!.!.!.!.!.!.!.!.!.!.!.!.!.!.!.!.!.!.!.!.!.!.!.!.!.!.!.!.!.!.!.!.!.!.!.!.!.!.!.!.!.!.!.!.!.!.!.!.!.!.!.!.!.!.!.!.!.!.!.!.!.!.!.!.!.!.!.!.!.!.!.!.!.!.!.!.!.!.!.!.!.!.!.!.!.!.!.!.!.!.!.!.!.!.!.!.",
"!.!.!.!.!.!.!.!.!.!.!.!.!.!.!.!.!.!.!.!.!.!.!.!.!.!.!.!.!.!.!.!.!.!.!.!.!.!.!.!.!.!.!.!.!.!.!.!.!.!.!.!.!.!.!.!.!.!.!.!.!.!.!.!.!.!.!.!.!.!.!.!.!.!.!.!.!.!.!.!.!.!.!.!.!.!.!.!.!.!.!.!.!.!.!.!.!.!.!.!.!.!.!.!.!.!.!.!.!.!.!.!.!.!.!.!.!.!.      X X X X X X X X X X       !.  !.    !.!.!.    X X @ @ + @ + + + @ @ @ & & - - - , 2 2 2 6 6 6 6 8 9 q y y s s d d k k k x x N Z D G H L I T W W W W W W / / / / _ _ _ _ _ _ ' _ ' ' ' _ ' ' _ _ _ _ _ _ / / _ / / _ _ _ / _ _ _ _ _ _ _ / _ _ / / / / / / / / / / / _ _ _ _ ' _ _ _ ' ' { { { {  .X.o.o.@.@.@.@.@.@.@.&.&.=.=.=.=.:.:.:.:.:.:.:.:.:.:.:.:.:.:.<.<.<.<.3.3.6.6.6.6.6.6.6.9.9.9.9.w.9.w.w.9.9.w.r.r.r.w.w.9.9.9.6.9.6.5.3.<.<.<.,.:.,.,.:.:.:.:.:.=.=.=.=.&.&.@.@.o.o.X. . .{ { [ [ ' _ _ / / _ / / / W W W W W W R R T Y Y Y U I L L L G G D D D D D D D D D Z Z M N n x x k k d s i y y q q q 9 6 6 2 2 2 , , - & & & $ + @ + @ X @ @ X X   !.!.!.!.!.!.!.!.!.!.!.!.!.!.!.!.!.!.!.!.!.!.!.!.!.!.!.!.!.!.!.!.!.!.!.!.!.!.!.!.!.!.!.!.!.!.!.!.!.!.!.!.!.!.!.!.!.!.!.!.!.!.!.!.!.!.!.!.!.!.!.!.!.!.!.!.!.!.!.!.!.!.!.!.!.!.!.!.!.!.!.!.!.!.!.!.!.!.!.!.!.!.!.!.!.!.!.!.!.!.!.!.!.!.!.!.!.!.!.!.!.!.!.!.!.!.!.!.!.!.!.!.!.!.!.!.!.!.!.!.!.!.!.!.",
"!.!.!.!.!.!.!.!.!.!.!.!.!.!.!.!.!.!.!.!.!.!.!.!.!.!.!.!.!.!.!.!.!.!.!.!.!.!.!.!.!.!.!.!.!.!.!.!.!.!.!.!.!.!.!.!.!.!.!.!.!.!.!.!.!.!.!.!.!.!.!.!.!.!.!.!.!.!.!.!.!.!.!.!.!.!.!.!.!.!.!.!.!.!.!.!.!.!.!.!.!.!.!.!.!.!.!.!.!.!.!.!.!.          X X X X X X X X X X X X X     !.!.              !.  X X X @ + + + @ + @ $ & & & - - , , , 2 6 6 8 8 6 9 q y i s s d d k k x b n n Z D D G L I U W W W W W ^ / / / / / _ _ _ _ _ ' ' ' ' ' ' ' ' ' ' ' _ _ _ _ _ _ _ _ _ _ _ _ _ _ _ _ _ _ _ _ _ _ _ _ _ / / _ _ / / _ _ / _ _ _ ' ' ' ' ' [ [ { { {  .X.X.o.o.@.@.@.@.&.&.&.&.&.=.=.:.:.:.:.:.:.:.<.,.,.:.,.:.,.:.:.,.<.<.3.3.5.6.6.6.6.6.6.9.9.9.9.w.9.w.w.w.w.w.r.r.r.r.r.r.w.w.9.9.6.6.6.3.3.3.<.<.,.,.,.,.,.:.:.:.:.=.=.=.&.&.@.@.o.o.o.X. .{ { { [ ' ' ' _ _ _ / / / ^ W W W W W W W W R W W R Y U I L L G G D D D D D D D D D Z B M N n x b x k d s s y y e q q 0 8 6 6 2 2 , - - - - & & & & $ @ @ @ + @ X     !.!.!.!.!.!.!.!.!.!.!.!.!.!.!.!.!.!.!.!.!.!.!.!.!.!.!.!.!.!.!.!.!.!.!.!.!.!.!.!.!.!.!.!.!.!.!.!.!.!.!.!.!.!.!.!.!.!.!.!.!.!.!.!.!.!.!.!.!.!.!.!.!.!.!.!.!.!.!.!.!.!.!.!.!.!.!.!.!.!.!.!.!.!.!.!.!.!.!.!.!.!.!.!.!.!.!.!.!.!.!.!.!.!.!.!.!.!.!.!.!.!.!.!.!.!.!.!.!.!.!.!.!.!.!.!.!.!.!.!.!.!.",
"!.!.!.!.!.!.!.!.!.!.!.!.!.!.!.!.!.!.!.!.!.!.!.!.!.!.!.!.!.!.!.!.!.!.!.!.!.!.!.!.!.!.!.!.!.!.!.!.!.!.!.!.!.!.!.!.!.!.!.!.!.!.!.!.!.!.!.!.!.!.!.!.!.!.!.!.!.!.!.!.!.!.!.!.!.!.!.!.!.!.!.!.!.!.!.!.!.!.!.!.!.!.!.!.!.!.!.!.!.!.!.!.  X X X     X X + + @ @ @ X X X X X X X X           X         X X X @ @ + @ & & & & & & & - - , , 2 2 6 8 9 9 0 9 q e y s s s d k k x x N M Z Z D D L I U T W W W W ! / / / / _ _ _ _ _ ' ' _ ' ' ' ' [ [ [ [ [ ' [ ' _ ' _ _ _ _ _ _ _ ' _ ' _ _ _ _ ' _ _ _ _ _ _ _ _ _ / / / _ _ _ _ _ _ ' ' ' ' [ [ [ { {  . .o.o.o.@.@.@.@.&.&.&.=.&.=.=.=.=.:.:.:.,.,.:.:.,.:.,.:.,.,.,.:.,.<.<.3.3.6.6.6.6.6.6.9.9.9.9.9.w.w.r.r.w.r.r.u.r.u.u.u.r.w.w.9.9.9.6.6.6.3.3.<.<.<.<.,.,.<.:.:.:.:.:.=.=.=.&.@.$.@.@.o.X.X. .{ { { [ [ ' ' ' _ _ / / / W W W W W W W W W W W W W T U I L L H L L L L H G G D D D Z M M M N n x k d d d s y y y e 0 8 6 6 2 , , , , - - & & & - & & & & & @ @ X X   !.!.!.!.!.!.!.!.!.!.!.!.!.!.!.!.!.!.!.!.!.!.!.!.!.!.!.!.!.!.!.!.!.!.!.!.!.!.!.!.!.!.!.!.!.!.!.!.!.!.!.!.!.!.!.!.!.!.!.!.!.!.!.!.!.!.!.!.!.!.!.!.!.!.!.!.!.!.!.!.!.!.!.!.!.!.!.!.!.!.!.!.!.!.!.!.!.!.!.!.!.!.!.!.!.!.!.!.!.!.!.!.!.!.!.!.!.!.!.!.!.!.!.!.!.!.!.!.!.!.!.!.!.!.!.!.!.!.!.!.!.",
"!.!.!.!.!.!.!.!.!.!.!.!.!.!.!.!.!.!.!.!.!.!.!.!.!.!.!.!.!.!.!.!.!.!.!.!.!.!.!.!.!.!.!.!.!.!.!.!.!.!.!.!.!.!.!.!.!.!.!.!.!.!.!.!.!.!.!.!.!.!.!.!.!.!.!.!.!.!.!.!.!.!.!.!.!.!.!.!.!.!.!.!.!.!.!.!.!.!.!.!.!.!.!.!.!.!.!.!.!.!.!.!.  X X @ X X X + @ @ + $ @ @ + @ X X X X           X X X       X X @ + @ $ & & & & & & - - - , , , 2 6 6 0 q q q q q y i s d d d k k x n M Z Z D D L L Y R W W W ! / / / / / / / _ _ _ _ _ ' [ ' [ ' [ [ [ { { { { [ [ ' _ ' ' ' ' ' _ ' _ ' _ ' _ _ _ _ _ _ _ _ _ _ _ _ / _ / _ _ _ _ _ _ ' ' ' ' [ [ [ { {  . .o.o.o.o.@.@.@.&.&.&.&.=.&.=.=.=.=.:.:.:.:.,.,.:.,.,.,.:.,.,.,.,.<.<.3.3.3.6.6.6.6.6.9.9.9.9.9.w.w.r.r.r.r.r.u.u.u.u.u.u.r.r.r.w.w.9.9.6.6.6.3.3.<.<.<.<.,.,.:.:.:.:.:.:.=.=.=.&.&.@.@.@.o.o.X. .{ { { [ [ [ ' ' _ / / / / / W W W W W W W W W W W W T U I L L L L L L L L G D D D Z Z Z B M N x x k d d d s i y e q 8 6 6 6 2 , , , , - - ; - - - - - & & & $ @ X     !.!.!.!.!.!.!.!.!.!.!.!.!.!.!.!.!.!.!.!.!.!.!.!.!.!.!.!.!.!.!.!.!.!.!.!.!.!.!.!.!.!.!.!.!.!.!.!.!.!.!.!.!.!.!.!.!.!.!.!.!.!.!.!.!.!.!.!.!.!.!.!.!.!.!.!.!.!.!.!.!.!.!.!.!.!.!.!.!.!.!.!.!.!.!.!.!.!.!.!.!.!.!.!.!.!.!.!.!.!.!.!.!.!.!.!.!.!.!.!.!.!.!.!.!.!.!.!.!.!.!.!.!.!.!.!.!.!.!.!.",
"!.!.!.!.!.!.!.!.!.!.!.!.!.!.!.!.!.!.!.!.!.!.!.!.!.!.!.!.!.!.!.!.!.!.!.!.!.!.!.!.!.!.!.!.!.!.!.!.!.!.!.!.!.!.!.!.!.!.!.!.!.!.!.!.!.!.!.!.!.!.!.!.!.!.!.!.!.!.!.!.!.!.!.!.!.!.!.!.!.!.!.!.!.!.!.!.!.!.!.!.!.!.!.!.!.!.!.!.!.!.!.!.  X X X X X @ @ @ @ @ $ @ @ + @ X X X X X         X X X       X @ + $ & & & & & & - - - , , , 2 2 6 6 6 q e e y y e y s s d d k z z x n B Z D D D L U R W W W W ! / / / / / / _ _ ' ' ' ' [ ' [ [ [ { [ { { { { { { [ [ [ ' ' [ [ ' [ ' ' ' ' _ ' _ _ _ _ _ _ _ _ _ _ _ _ _ _ _ _ _ _ _ ' [ [ [ [ { { { {  . . .o.o.o.o.@.@.&.&.&.&.&.=.=.=.=.=.=.:.:.:.:.,.:.,.:.,.,.,.,.,.<.<.<.<.3.3.3.6.5.6.6.6.9.9.9.w.9.w.w.r.r.u.u.u.u.u.u.u.u.u.u.r.r.r.w.9.9.6.6.5.3.3.3.3.<.<.<.<.,.:.:.:.:.=.:.=.=.=.&.&.@.@.@.o.o.X. .{ { { { [ [ ' _ _ / / _ / / W W W W W W W W W W W R T Y U I U I I I L L L G D D D Z Z B M M N x k k d d s s y e q 9 9 8 6 2 2 , , , , , , , , , , , - - & & @ X X   !.!.!.!.!.!.!.!.!.!.!.!.!.!.!.!.!.!.!.!.!.!.!.!.!.!.!.!.!.!.!.!.!.!.!.!.!.!.!.!.!.!.!.!.!.!.!.!.!.!.!.!.!.!.!.!.!.!.!.!.!.!.!.!.!.!.!.!.!.!.!.!.!.!.!.!.!.!.!.!.!.!.!.!.!.!.!.!.!.!.!.!.!.!.!.!.!.!.!.!.!.!.!.!.!.!.!.!.!.!.!.!.!.!.!.!.!.!.!.!.!.!.!.!.!.!.!.!.!.!.!.!.!.!.!.!.!.!.!.!.",
"!.!.!.!.!.!.!.!.!.!.!.!.!.!.!.!.!.!.!.!.!.!.!.!.!.!.!.!.!.!.!.!.!.!.!.!.!.!.!.!.!.!.!.!.!.!.!.!.!.!.!.!.!.!.!.!.!.!.!.!.!.!.!.!.!.!.!.!.!.!.!.!.!.!.!.!.!.!.!.!.!.!.!.!.!.!.!.!.!.!.!.!.!.!.!.!.!.!.!.!.!.!.!.!.!.!.!.!.!.!.!.!.!.X X X X X @ @ @ $ @ $ @ @ @ X X X X X           X   X   X   X + $ & & & - - - , , , , 2 2 6 6 8 8 8 0 q y y y y i s s d d d k k x x N Z Z D D D L I R W W W / / _ _ _ _ / _ _ _ ' ' [ [ [ [ [ { { { { { { { { { { { { [ [ [ [ { [ [ [ ' ' ' _ _ ' _ _ / _ _ _ _ _ _ _ _ _ _ _ _ ' ' [ ' [ [ { { { { { {  .X.X.o.o.o.o.@.@.&.&.&.&.&.=.&.=.=.=.=.:.:.:.:.:.:.:.,.,.,.,.,.,.<.<.3.3.3.3.5.5.6.6.6.9.9.9.w.9.r.r.r.u.u.u.u.u.u.p.p.p.u.u.u.u.r.r.w.w.9.9.6.6.5.3.3.3.3.<.<.<.,.,.:.:.:.:.=.=.=.=.=.&.&.@.@.@.o.o.X. . .{ { { [ [ ' _ _ _ _ / / / / / / ^ ^ W W W W W W W R T Y U U U I L L L G D D D D Z Z B M N x x k k d s s i y e q q 9 8 6 6 2 , , 2 2 , , 2 2 , , , - - & $ X X         !.!.!.!.!.!.!.!.!.!.!.!.!.!.!.!.!.!.!.!.!.!.!.!.!.!.!.!.!.!.!.!.!.!.!.!.!.!.!.!.!.!.!.!.!.!.!.!.!.!.!.!.!.!.!.!.!.!.!.!.!.!.!.!.!.!.!.!.!.!.!.!.!.!.!.!.!.!.!.!.!.!.!.!.!.!.!.!.!.!.!.!.!.!.!.!.!.!.!.!.!.!.!.!.!.!.!.!.!.!.!.!.!.!.!.!.!.!.!.!.!.!.!.!.!.!.!.!.!.!.!.!.!.!.!.!.!.",
"!.!.!.!.!.!.!.!.!.!.!.!.!.!.!.!.!.!.!.!.!.!.!.!.!.!.!.!.!.!.!.!.!.!.!.!.!.!.!.!.!.!.!.!.!.!.!.!.!.!.!.!.!.!.!.!.!.!.!.!.!.!.!.!.!.!.!.!.!.!.!.!.!.!.!.!.!.!.!.!.!.!.!.!.!.!.!.!.!.!.!.!.!.!.!.!.!.!.!.!.!.!.!.!.!.!.!.!.!.!.!.!.!.      X X X X @ @ & @ @ + X X X             X X X X X X X X X @ & & - - , , , 2 , 2 2 6 6 8 0 0 0 0 q e y y i s s d d d d d k z x x N B Z Z D D L I R W W W / / / _ _ / / _ _ _ ' [ ' [ [ [ { { { { { { { { { { { { { { [ [ [ [ { [ [ [ ' ' ' ' ' _ _ _ _ _ _ ' ' _ _ _ _ ' _ ' _ ' [ [ { { { { { { {  . .o.X.o.o.o.o.@.$.&.&.=.=.=.=.=.=.=.=.=.=.:.:.:.:.:.:.,.,.<.<.<.<.3.3.3.3.3.5.6.6.9.9.9.9.9.9.w.w.r.r.u.u.u.u.u.u.p.p.p.p.p.p.u.u.u.u.r.w.w.9.6.6.6.6.3.3.3.3.3.<.<.<.<.<.:.:.=.=.=.=.=.=.&.&.@.@.@.o.o.X.X. .{ { { [ [ ' ' _ _ / / / / / / / W W W W W W W W W R T T Y U I I I L H G D D D Z Z Z B N n b k k d s s s y e e q q 9 9 6 6 6 6 6 2 2 2 2 , 2 2 , - - & & @ X X         !.!.!.!.!.!.!.!.!.!.!.!.!.!.!.!.!.!.!.!.!.!.!.!.!.!.!.!.!.!.!.!.!.!.!.!.!.!.!.!.!.!.!.!.!.!.!.!.!.!.!.!.!.!.!.!.!.!.!.!.!.!.!.!.!.!.!.!.!.!.!.!.!.!.!.!.!.!.!.!.!.!.!.!.!.!.!.!.!.!.!.!.!.!.!.!.!.!.!.!.!.!.!.!.!.!.!.!.!.!.!.!.!.!.!.!.!.!.!.!.!.!.!.!.!.!.!.!.!.!.!.!.!.!.!.!.",
"!.!.!.!.!.!.!.!.!.!.!.!.!.!.!.!.!.!.!.!.!.!.!.!.!.!.!.!.!.!.!.!.!.!.!.!.!.!.!.!.!.!.!.!.!.!.!.!.!.!.!.!.!.!.!.!.!.!.!.!.!.!.!.!.!.!.!.!.!.!.!.!.!.!.!.!.!.!.!.!.!.!.!.!.!.!.!.!.!.!.!.!.!.!.!.!.!.!.!.!.!.!.!.!.!.    !.!.!.!.!.!.!.      X X X @ @ $ + @ @ X X X X       X   X X X X X X X @ @ & & - - , , 2 2 2 6 6 6 9 q q q q e e e e y y i s d d d d d d k z x x N M Z D D D L I R W W W / / / _ _ _ _ _ _ ' [ ' [ [ [ { { { { { { {  .{ { { { { { [ { { { { [ { [ [ [ [ [ ' [ _ ' _ _ _ _ _ ' ' _ _ ' ' ' ' [ [ { { { { { { {  . . .X.o.o.o.o.@.@.$.&.&.&.=.=.=.=.=.=.=.=.=.:.=.:.:.:.:.:.,.,.<.<.<.3.3.3.5.6.6.6.6.6.9.9.9.w.w.r.w.r.r.u.u.u.u.p.p.p.p.p.s.s.p.p.p.u.u.u.r.w.w.9.9.6.6.6.6.5.6.3.3.3.<.<.<.,.:.:.:.:.:.=.=.=.=.&.&.@.@.@.@.o.o. . . .{ { { [ [ ' _ _ / / / / / / / ^ W W W W W W W W W R Y U I I I I L L D D D Z Z Z M M N x x k d d d s s y y e q q q 0 9 9 9 9 6 2 2 2 2 , , , , - & $ @ X X X X X       !.!.!.!.!.!.!.!.!.!.!.!.!.!.!.!.!.!.!.!.!.!.!.!.!.!.!.!.!.!.!.!.!.!.!.!.!.!.!.!.!.!.!.!.!.!.!.!.!.!.!.!.!.!.!.!.!.!.!.!.!.!.!.!.!.!.!.!.!.!.!.!.!.!.!.!.!.!.!.!.!.!.!.!.!.!.!.!.!.!.!.!.!.!.!.!.!.!.!.!.!.!.!.!.!.!.!.!.!.!.!.!.!.!.!.!.!.!.!.!.!.!.!.!.!.!.!.!.!.!.!.!.!.!.",
"!.!.!.!.!.!.!.!.!.!.!.!.!.!.!.!.!.!.!.!.!.!.!.!.!.!.!.!.!.!.!.!.!.!.!.!.!.!.!.!.!.!.!.!.!.!.!.!.!.!.!.!.!.!.!.!.!.!.!.!.!.!.!.!.!.!.!.!.!.!.!.!.!.!.!.!.!.!.!.!.!.!.!.!.!.!.!.!.!.!.!.!.!.!.!.!.!.!.!.!.!.!.!.!.!.!.!.!.!.!.!.!.!.!.          X X @ + @ @ @ X X X X           X X X @ + @ @ $ & - - - , , 2 2 6 6 6 9 q q e q e e y y y y y y i s s d d d k k z b n N M Z D D D G L I W W W W / / _ _ _ _ _ _ ' _ ' ' [ [ { { { { {  .{ { { { { { { { { { { { { { { [ [ [ [ [ [ [ [ ' _ _ _ _ ' ' _ ' _ ' ' ' ' [ [ [ { {  . . . . . . .X.o.o.o.o.@.@.@.&.&.=.=.=.=.=.=.=.=.=.=.:.:.:.:.:.:.:.:.:.,.<.<.3.3.3.5.6.6.6.6.9.9.w.w.r.w.r.w.r.r.u.u.u.p.p.s.s.f.f.s.f.p.p.p.p.p.u.u.r.w.w.9.9.9.6.6.6.6.6.3.3.3.<.<.<.<.<.,.:.:.:.:.=.=.=.&.&.&.$.$.@.o.o.X. . . .{ { { [ [ ' ' _ _ _ _ / / / / / ! W W W W W W W R T U I I I I L L G D D Z Z Z B N N x x k k d d d s i y y e e q e q q 0 9 8 6 2 , 2 2 , , , - - & & + X X X X X X     !.!.!.!.!.!.!.!.!.!.!.!.!.!.!.!.!.!.!.!.!.!.!.!.!.!.!.!.!.!.!.!.!.!.!.!.!.!.!.!.!.!.!.!.!.!.!.!.!.!.!.!.!.!.!.!.!.!.!.!.!.!.!.!.!.!.!.!.!.!.!.!.!.!.!.!.!.!.!.!.!.!.!.!.!.!.!.!.!.!.!.!.!.!.!.!.!.!.!.!.!.!.!.!.!.!.!.!.!.!.!.!.!.!.!.!.!.!.!.!.!.!.!.!.!.!.!.!.!.!.!.!.!.",
"!.!.!.!.!.!.!.!.!.!.!.!.!.!.!.!.!.!.!.!.!.!.!.!.!.!.!.!.!.!.!.!.!.!.!.!.!.!.!.!.!.!.!.!.!.!.!.!.!.!.!.!.!.!.!.!.!.!.!.!.!.!.!.!.!.!.!.!.!.!.!.!.!.!.!.!.!.!.!.!.!.!.!.!.!.!.!.!.!.!.!.!.!.!.!.!.!.!.!.!.!.!.!.    !.!.!.!.!.!.!.!.!.            X @ @ + @ + X X X     !.      X X @ + @ $ & & - , 2 2 , 2 2 6 6 8 9 q e y y y e y y y i y y y s s d d k k k x x n M B Z Z D D G L L I R W W W / / _ _ _ _ ' ' ' ' [ [ [ { { { {  .{ { { { { { { { { { { { { { { { { [ [ [ { [ [ [ ' ' ' ' ' ' _ ' ' _ ' ' ' [ ' [ { { {  . . . . . . .X.o.o.o.o.o.@.@.@.&.&.=.=.=.=.=.=.=.=.=.=.:.:.:.:.:.,.,.,.,.<.<.<.3.5.6.6.9.9.9.9.9.9.w.r.r.u.u.u.u.u.u.u.p.p.p.p.f.f.f.f.f.s.p.p.p.p.u.u.u.r.w.w.9.9.6.9.6.6.6.6.3.3.3.<.<.<.<.,.,.:.:.:.:.=.=.=.=.&.&.&.@.@.o.o.o.X. . .{ { { [ [ ' ' _ _ _ _ _ _ / / / W W W W W W W W T U U I I L L L G D D Z Z B N N n x x k k d d d s s s y y e e e e q q 0 8 6 2 2 , , , , , , , - & & @ @ X X X X X       !.!.!.!.!.!.!.!.!.!.!.!.!.!.!.!.!.!.!.!.!.!.!.!.!.!.!.!.!.!.!.!.!.!.!.!.!.!.!.!.!.!.!.!.!.!.!.!.!.!.!.!.!.!.!.!.!.!.!.!.!.!.!.!.!.!.!.!.!.!.!.!.!.!.!.!.!.!.!.!.!.!.!.!.!.!.!.!.!.!.!.!.!.!.!.!.!.!.!.!.!.!.!.!.!.!.!.!.!.!.!.!.!.!.!.!.!.!.!.!.!.!.!.!.!.!.!.!.!.!.!.",
"!.!.!.!.!.!.!.!.!.!.!.!.!.!.!.!.!.!.!.!.!.!.!.!.!.!.!.!.!.!.!.!.!.!.!.!.!.!.!.!.!.!.!.!.!.!.!.!.!.!.!.!.!.!.!.!.!.!.!.!.!.!.!.!.!.!.!.!.!.!.!.!.!.!.!.!.!.!.!.!.!.!.!.!.!.!.!.!.!.!.!.!.!.!.!.!.!.!.!.!.!.!.          !.!.!.!.!.!.        !.!.!.  X X X @ @ X X                 X + $ & & & - , 2 2 2 2 2 6 6 8 9 q e y y y y i i s s s i y i s d d k k z x n N M Z Z D D D G L L I U W W W W / / / _ ' ' ' ' ' ' [ [ [ { { { { { { {  .{ { { { { { { { { { { { { { { [ [ [ { [ ' [ [ [ [ [ ' ' ' ' ' _ ' [ [ [ [ { { {  . . .o.o.o. .X.o.o.o.o.@.@.@.$.&.&.=.=.=.=.=.=.:.=.:.:.:.:.,.,.<.<.,.,.<.<.3.3.3.6.6.6.9.9.9.w.w.w.r.u.u.u.u.u.u.u.p.p.s.s.f.f.f.f.f.f.f.f.s.p.p.p.p.u.u.r.r.9.w.9.9.9.9.9.6.6.5.3.3.3.<.<.<.<.<.<.,.:.:.:.=.=.=.=.=.&.&.@.@.@.o.o.X. . .{ { { [ [ [ ' _ _ / / / / / / W W W W W W W W R Y U I L L L H G D D Z Z B N N x b x k k d d s s s s i y y y y e e q q 8 6 2 2 , , , , 2 , , - - & & @ + X X X X X X X !.!.!.!.!.!.!.!.!.!.!.!.!.!.!.!.!.!.!.!.!.!.!.!.!.!.!.!.!.!.!.!.!.!.!.!.!.!.!.!.!.!.!.!.!.!.!.!.!.!.!.!.!.!.!.!.!.!.!.!.!.!.!.!.!.!.!.!.!.!.!.!.!.!.!.!.!.!.!.!.!.!.!.!.!.!.!.!.!.!.!.!.!.!.!.!.!.!.!.!.!.!.!.!.!.!.!.!.!.!.!.!.!.!.!.!.!.!.!.!.!.!.!.!.!.!.!.!.!.!.!.",
"!.!.!.!.!.!.!.!.!.!.!.!.!.!.!.!.!.!.!.!.!.!.!.!.!.!.!.!.!.!.!.!.!.!.!.!.!.!.!.!.!.!.!.!.!.!.!.!.!.!.!.!.!.!.!.!.!.!.!.!.!.!.!.!.!.!.!.!.!.!.!.!.!.!.!.!.!.!.!.!.!.!.!.!.!.!.!.!.!.!.!.!.!.!.!.!.!.!.!.!.!.  X X X X                         !.!.  X X X X @ X X X         X X X X @ & & - - , , 2 2 2 6 6 6 6 8 q e y y i i s s s s d s i y y s d d k k x x N B Z Z D D G H L L I U R W W W W W / / _ _ ' ' ' [ [ ' [ { { { { {  . . .{  .{ { { {  .{ { { { {  .{ { { { { [ [ [ [ [ [ [ [ [ [ ' ' [ ' ' ' ' [ [ { { {  . . .X.o.o.o.X.o.o.o.o.o.@.@.@.$.&.&.=.=.=.=.=.:.:.:.:.:.,.,.<.<.<.<.<.<.<.3.3.3.3.6.6.6.9.9.9.w.r.r.u.u.u.u.p.p.p.p.p.p.f.f.f.f.f.h.f.f.f.f.s.f.p.p.p.p.u.u.r.w.w.9.w.9.9.9.6.6.6.6.3.3.3.<.<.<.,.<.,.,.:.:.=.=.=.=.=.=.&.&.@.@.@.o.o.o. . .{ { { [ [ ' ' ' _ / / / / / W W W W W W W W R T U I L L H G D D D Z Z M N x x z z k k k d s s s s i y y y y y y e q 9 8 6 2 2 , , , , 2 , , - - & @ + @ @ + @ X X     !.!.!.!.!.!.!.!.!.!.!.!.!.!.!.!.!.!.!.!.!.!.!.!.!.!.!.!.!.!.!.!.!.!.!.!.!.!.!.!.!.!.!.!.!.!.!.!.!.!.!.!.!.!.!.!.!.!.!.!.!.!.!.!.!.!.!.!.!.!.!.!.!.!.!.!.!.!.!.!.!.!.!.!.!.!.!.!.!.!.!.!.!.!.!.!.!.!.!.!.!.!.!.!.!.!.!.!.!.!.!.!.!.!.!.!.!.!.!.!.!.!.!.!.!.!.!.!.!.!.",
"!.!.!.!.!.!.!.!.!.!.!.!.!.!.!.!.!.!.!.!.!.!.!.!.!.!.!.!.!.!.!.!.!.!.!.!.!.!.!.!.!.!.!.!.!.!.!.!.!.!.!.!.!.!.!.!.!.!.!.!.!.!.!.!.!.!.!.!.!.!.!.!.!.!.!.!.!.!.!.!.!.!.!.!.!.!.!.!.!.!.!.!.!.!.!.!.!.!.!.!.!.  X X X X X X X X X   X   X       !.  X X   X X @ @ X X         X X X @ @ & & - - , , 2 2 6 6 6 8 8 9 q e y y i i s s d d s s i y y s d d k k z x M Z Z Z D G H L I I U T W W W W W W / / _ _ ' ' ' ' [ [ { { {  . . . . . . . . . . .{  . .{ {  .{  . .{ { { { [ [ [ [ [ [ [ [ [ ' [ [ ' ' ' ' [ [ { { { {  . . .X.o.X.o.o.o.o.o.o.@.@.@.$.&.&.=.=.=.=.=.:.:.:.:.<.<.<.<.<.<.<.<.<.<.<.3.3.6.5.6.6.9.9.9.w.r.u.u.u.u.u.u.p.p.p.s.p.s.f.f.f.f.f.h.f.f.f.f.f.s.p.p.p.p.u.u.r.r.w.w.9.w.9.9.6.6.6.6.6.3.3.<.<.<.<.<.,.,.,.:.:.:.=.=.=.=.&.&.&.@.@.@.o.o.X. . .{ { { [ [ ' ' _ / / / / ! W W W W W W W W R Y I I I L G D D D D Z Z M n b x z k k k d d d s s s i y y i y y y y e q 0 6 6 6 2 2 2 , , , , - - & & + + + + @ X X   !.!.!.!.!.!.!.!.!.!.!.!.!.!.!.!.!.!.!.!.!.!.!.!.!.!.!.!.!.!.!.!.!.!.!.!.!.!.!.!.!.!.!.!.!.!.!.!.!.!.!.!.!.!.!.!.!.!.!.!.!.!.!.!.!.!.!.!.!.!.!.!.!.!.!.!.!.!.!.!.!.!.!.!.!.!.!.!.!.!.!.!.!.!.!.!.!.!.!.!.!.!.!.!.!.!.!.!.!.!.!.!.!.!.!.!.!.!.!.!.!.!.!.!.!.!.!.!.!.!.!.",
"!.!.!.!.!.!.!.!.!.!.!.!.!.!.!.!.!.!.!.!.!.!.!.!.!.!.!.!.!.!.!.!.!.!.!.!.!.!.!.!.!.!.!.!.!.!.!.!.!.!.!.!.!.!.!.!.!.!.!.!.!.!.!.!.!.!.!.!.!.!.!.!.!.!.!.!.!.!.!.!.!.!.!.!.!.!.!.!.!.!.!.!.!.!.!.!.!.!.!.!.    X X @ @ X X X X X X X   X           X X X X X + @ @ @ X X X X X X @ @ $ & & - , 2 2 6 6 6 8 8 0 0 q e e y y i s s s d d s i y y y s d d k k k b N Z Z D D G L L U T T R W W W W / / / _ _ _ ' ' ' [ [ { { { {  . . . . . . . . . . . . . . . . . . . .{ { { { { [ [ [ [ [ [ [ [ [ [ ' [ ' ' [ [ [ { { { {  . .X.X.o.o.o.o.o.o.@.@.@.@.@.&.&.&.=.=.=.:.:.:.:.:.,.<.<.<.<.<.<.3.3.3.3.3.3.6.6.6.6.6.9.9.9.w.r.u.u.u.p.p.p.p.p.s.f.f.f.f.f.f.f.f.f.f.f.f.f.f.f.s.p.p.p.u.u.u.r.r.r.r.w.w.9.9.6.6.6.6.3.3.<.<.<.<.<.<.,.,.:.:.:.=.=.=.=.=.&.&.&.$.@.@.o.o. .X. .{ { [ [ ' ' _ _ / / / ! W W W W W W W R T U I I L L G G D D Z Z M N x x x z k k d d d s s s i i y i i y i y y e q q 9 6 6 6 2 2 2 2 , , - - & & @ @ @ + @ X X   !.!.!.!.!.!.!.!.!.!.!.!.!.!.!.!.!.!.!.!.!.!.!.!.!.!.!.!.!.!.!.!.!.!.!.!.!.!.!.!.!.!.!.!.!.!.!.!.!.!.!.!.!.!.!.!.!.!.!.!.!.!.!.!.!.!.!.!.!.!.!.!.!.!.!.!.!.!.!.!.!.!.!.!.!.!.!.!.!.!.!.!.!.!.!.!.!.!.!.!.!.!.!.!.!.!.!.!.!.!.!.!.!.!.!.!.!.!.!.!.!.!.!.!.!.!.!.!.!.!.!.",
"!.!.!.!.!.!.!.!.!.!.!.!.!.!.!.!.!.!.!.!.!.!.!.!.!.!.!.!.!.!.!.!.!.!.!.!.!.!.!.!.!.!.!.!.!.!.!.!.!.!.!.!.!.!.!.!.!.!.!.!.!.!.!.!.!.!.!.!.!.!.!.!.!.!.!.!.!.!.!.!.!.!.!.!.!.!.!.!.!.!.!.!.!.!.!.!.!.!.!.!.!.  X X X X @ @ X X X             !.      X X X X + @ @ + + @ X X @ @ + $ & & & - , 2 2 6 6 7 7 9 q q e e y y i i s s d d d s s s y p s s d k k k x M Z D D D D L L Y T W W W W W W / / _ ' ' ' [ ' [ { { { { {  . . . . . . . . . . . .o. . . . . . . . . .{ { { { { [ [ [ [ [ [ ' ' ' ' ' [ [ [ [ { { {  . . . .o.o.o.o.o.o.o.o.o.@.@.@.&.&.&.=.=.=.:.:.,.,.<.<.<.<.<.<.3.<.<.3.3.3.3.3.6.6.6.6.6.6.9.9.9.r.u.u.p.p.p.p.s.f.f.f.f.f.f.f.f.f.h.h.h.h.f.f.f.f.f.f.s.p.p.p.u.u.u.r.r.r.r.w.9.9.9.6.6.6.6.3.3.3.<.<.<.,.,.,.,.:.:.:.:.=.=.=.=.&.&.@.$.@.@.o.X.X. . .{ { [ [ [ ' _ _ / / W W W W W W W W W T Y I I L L G D D D Z Z N x x x z k k d d d d s s i y y i i s s s s y e e q 9 9 6 6 2 2 2 , , , - - & & & @ @ @ @ X       !.!.!.!.!.!.!.!.!.!.!.!.!.!.!.!.!.!.!.!.!.!.!.!.!.!.!.!.!.!.!.!.!.!.!.!.!.!.!.!.!.!.!.!.!.!.!.!.!.!.!.!.!.!.!.!.!.!.!.!.!.!.!.!.!.!.!.!.!.!.!.!.!.!.!.!.!.!.!.!.!.!.!.!.!.!.!.!.!.!.!.!.!.!.!.!.!.!.!.!.!.!.!.!.!.!.!.!.!.!.!.!.!.!.!.!.!.!.!.!.!.!.!.!.!.!.!.!.!.!.",
"!.!.!.!.!.!.!.!.!.!.!.!.!.!.!.!.!.!.!.!.!.!.!.!.!.!.!.!.!.!.!.!.!.!.!.!.!.!.!.!.!.!.!.!.!.!.!.!.!.!.!.!.!.!.!.!.!.!.!.!.!.!.!.!.!.!.!.!.!.!.!.!.!.!.!.!.!.!.!.!.!.!.!.!.!.!.!.!.!.!.!.!.!.!.!.!.!.!.!.!.!.!.    X X X X X X X     !.  !.!.!.    X   X X @ @ @ @ + @ @ @ @ + @ $ & & & - , , , 2 6 6 7 0 q 0 q e y y y y s d d d d d d s s s s d d k k z b x M B Z Z D D L I Y R W W W W W / / / _ ' ' ' [ [ { { { {  .{  . . . .o.o.X.X.X.X. .X.o.o. . . .X.X.X.X. . .{ { { { { [ { [ [ [ [ ' ' ' ' [ [ { { { { {  . . .X.o.o.o.o.@.o.@.@.@.@.@.&.&.&.=.=.=.:.:.:.<.,.<.<.<.<.<.<.3.3.3.3.6.6.6.6.6.6.6.6.6.9.9.w.r.r.u.u.p.p.s.f.f.f.f.f.f.f.f.h.h.h.h.h.h.h.h.f.f.f.f.f.f.s.p.p.u.u.u.u.r.r.r.r.9.9.9.6.6.6.6.5.3.3.3.3.<.,.,.,.,.:.:.:.:.:.=.=.=.&.&.&.$.@.@.o.o.o. . . .{ { [ [ ' _ _ / / / W W ^ W W W W W R Y U L L G D D Z Z B M n x x z k k k d d d s s y y y y i s s s s i y e q q q 9 6 6 2 2 , , , , , - & & & @ @ @ @ X X X             !.!.!.!.!.!.!.!.!.!.!.!.!.!.!.!.!.!.!.!.!.!.!.!.!.!.!.!.!.!.!.!.!.!.!.!.!.!.!.!.!.!.!.!.!.!.!.!.!.!.!.!.!.!.!.!.!.!.!.!.!.!.!.!.!.!.!.!.!.!.!.!.!.!.!.!.!.!.!.!.!.!.!.!.!.!.!.!.!.!.!.!.!.!.!.!.!.!.!.!.!.!.!.!.!.!.!.!.!.!.!.!.!.!.!.!.!.!.!.!.!.!.!.!.!.",
"!.!.!.!.!.!.!.!.!.!.!.!.!.!.!.!.!.!.!.!.!.!.!.!.!.!.!.!.!.!.!.!.!.!.!.!.!.!.!.!.!.!.!.!.!.!.!.!.!.!.!.!.!.!.!.!.!.!.!.!.!.!.!.!.!.!.!.!.!.!.!.!.!.!.!.!.!.!.!.!.!.!.!.!.!.!.!.!.!.!.!.!.!.!.!.!.!.!.!.!.!.!.!.    X X X X X X     !.!.!.!.!.!.    X X X @ @ $ @ @ @ $ & @ @ & & & & - - , , 2 6 6 8 9 0 q 0 q e y y y y s s d d d d d d s s s d d k z x x n N Z Z D D G L I U R R W W W / / / _ ' ' [ [ [ { { { {  . . . . .o.o.o.X.X.X.o.X.X.X.X.o.X.X.X.X.X.o.X.X. . .{ { { { { { [ [ [ [ ' ' ' ' [ [ { { { {  . .X.X.o.o.@.@.@.@.@.@.$.@.$.@.&.&.=.=.:.:.:.<.,.<.<.<.<.<.<.<.3.3.3.3.3.6.6.6.6.6.6.6.6.6.9.w.r.u.u.p.p.s.f.f.f.f.f.h.h.h.h.h.h.h.h.l.h.h.h.h.h.h.f.f.f.f.f.p.p.p.u.u.u.r.r.r.w.w.w.9.9.6.6.6.6.5.3.3.3.<.<.,.,.,.,.,.,.:.:.:.=.=.=.&.&.&.@.@.@.o.o.o.X. .{ { { [ [ ' _ / / / W W W W W W W W R T I L G D D Z B M M N x b x z k d d d s s s s y y y y y i s s s i y e q q 0 8 6 6 2 2 2 2 , , , - - & & $ @ @ + @ X X X X X X X X X   X     !.!.!.!.!.!.!.!.!.!.!.!.!.!.!.!.!.!.!.!.!.!.!.!.!.!.!.!.!.!.!.!.!.!.!.!.!.!.!.!.!.!.!.!.!.!.!.!.!.!.!.!.!.!.!.!.!.!.!.!.!.!.!.!.!.!.!.!.!.!.!.!.!.!.!.!.!.!.!.!.!.!.!.!.!.!.!.!.!.!.!.!.!.!.!.!.!.!.!.!.!.!.!.!.!.!.!.!.!.!.!.!.!.!.!.!.!.!.!.!.",
"!.!.!.!.!.!.!.!.!.!.!.!.!.!.!.!.!.!.!.!.!.!.!.!.!.!.!.!.!.!.!.!.!.!.!.!.!.!.!.!.!.!.!.!.!.!.!.!.!.!.!.!.!.!.!.!.!.!.!.!.!.!.!.!.!.!.!.!.!.!.!.!.!.!.!.!.!.!.!.!.!.!.!.!.!.!.!.!.!.!.!.!.!.!.!.!.!.!.!.!.!.!.        X X X X X   X         !.!.  X X X X @ & $ & & & & & $ & & - - - - , , 2 6 6 6 8 0 q q q e e y y y y y s s s s s s d d d d d k k x x n n M Z D D D G L I U R W W W / / / _ _ [ [ [ { { { {  . . . . .X.X.o.o.o.o.o.o.o.o.o.o.o.o.o.o.X.o.o.o.o.X.X. .{ { { { { { { [ [ [ [ ' ' [ { { { { {  . . .X.X.o.o.@.@.@.@.&.&.@.&.&.&.=.=.=.:.:.:.<.<.<.<.<.3.3.3.3.3.3.6.5.6.6.6.6.6.6.6.6.6.9.9.9.r.u.u.p.p.s.f.f.h.h.h.h.h.h.l.h.h.h.h.l.l.l.l.h.h.h.h.h.h.f.f.f.s.p.p.u.u.u.r.r.r.r.r.9.9.9.6.6.6.6.5.3.3.3.<.<.<.<.,.,.,.,.:.:.:.=.=.=.&.&.&.&.@.@.@.o.o.X. . .{ { [ [ ' _ / / / W W W W W W W W W Y I L G D Z Z M N n x x x z k k d d s s s i i y y y y y i i s s i y q q 0 8 6 6 6 2 2 2 2 , , , - - & & & & & & $ @ @ + @ @ @ @ @ @ @ X X X   !.!.!.!.!.!.!.!.!.!.!.!.!.!.!.!.!.!.!.!.!.!.!.!.!.!.!.!.!.!.!.!.!.!.!.!.!.!.!.!.!.!.!.!.!.!.!.!.!.!.!.!.!.!.!.!.!.!.!.!.!.!.!.!.!.!.!.!.!.!.!.!.!.!.!.!.!.!.!.!.!.!.!.!.!.!.!.!.!.!.!.!.!.!.!.!.!.!.!.!.!.!.!.!.!.!.!.!.!.!.!.!.!.!.!.!.!.!.!.",
"!.!.!.!.!.!.!.!.!.!.!.!.!.!.!.!.!.!.!.!.!.!.!.!.!.!.!.!.!.!.!.!.!.!.!.!.!.!.!.!.!.!.!.!.!.!.!.!.!.!.!.!.!.!.!.!.!.!.!.!.!.!.!.!.!.!.!.!.!.!.!.!.!.!.!.!.!.!.!.!.!.!.!.!.!.!.!.!.!.!.!.!.!.!.!.!.!.!.!.    !.!.        X X X X X   X             X X X + @ & & & & & & & & & & - - - , , , 2 6 8 6 8 9 q q q y y y y e e e y s s s s s d d d d d d k z x n N M Z Z D D G L I U R W W / / _ _ ' ' [ { { { { { {  . . . . .o.o.o.o.o.o.@.o.o.o.o.o.o.o.o.o.o.o.o.o.o.o.X. . .{  .{ { { { { { { [ [ [ [ { { { {  . . .X.o.o.o.@.@.@.@.&.&.&.&.&.&.=.=.=.:.:.,.,.<.<.<.3.3.3.3.6.6.6.6.6.6.6.6.6.6.6.9.9.9.9.w.w.r.r.u.p.p.f.f.f.h.h.h.h.h.l.l.l.l.l.h.h.l.l.l.l.l.l.l.l.h.h.h.h.f.f.s.p.p.u.u.u.r.r.r.w.w.9.9.9.6.6.6.6.5.3.3.3.<.<.<.<.<.<.<.,.:.:.=.=.=.=.&.&.&.@.@.@.o.o.X. . .{ { { [ ' _ _ _ / / W W W W W W W R Y I L D D Z B N x b x z k k k d d s s i i y y y y y y y y i s i y e q 0 7 7 6 6 6 2 2 2 2 , , , - - - & ; & & & & & @ @ $ @ @ @ $ & @ @ @ X X   !.!.!.!.!.!.!.!.!.!.!.!.!.!.!.!.!.!.!.!.!.!.!.!.!.!.!.!.!.!.!.!.!.!.!.!.!.!.!.!.!.!.!.!.!.!.!.!.!.!.!.!.!.!.!.!.!.!.!.!.!.!.!.!.!.!.!.!.!.!.!.!.!.!.!.!.!.!.!.!.!.!.!.!.!.!.!.!.!.!.!.!.!.!.!.!.!.!.!.!.!.!.!.!.!.!.!.!.!.!.!.!.!.!.!.!.!.!.",
"!.!.!.!.!.!.!.!.!.!.!.!.!.!.!.!.!.!.!.!.!.!.!.!.!.!.!.!.!.!.!.!.!.!.!.!.!.!.!.!.!.!.!.!.!.!.!.!.!.!.!.!.!.!.!.!.!.!.!.!.!.!.!.!.!.!.!.!.!.!.!.!.!.!.!.!.!.!.!.!.!.!.!.!.!.!.!.!.!.!.!.!.!.!.!.!.!.!.!.!.!.!.!.!.!.    X X X X X   X X X X   X X X X @ $ & & & - & - & & & & & - - - , 2 2 6 6 8 8 9 9 0 q y y y y y e q e y y y i s d s d d d d d k k x x N M Z Z Z D G L I U W W W / / _ ' ' [ [ { { { { {  .X. . .X.o.o.o.o.o.o.@.@.@.@.o.o.o.@.o.o.@.@.@.@.@.o.o.o.X. . . .{ { { { { { { { [ { { { { { {  . .X.X.o.o.@.@.$.&.&.=.=.=.=.=.=.=.:.:.:.<.<.<.<.<.<.3.3.5.6.6.6.6.6.6.6.6.6.6.6.9.9.w.9.w.w.r.u.u.p.p.f.f.f.h.h.l.h.l.l.l.l.l.l.l.l.l.l.l.l.l.l.l.l.l.l.l.l.h.h.f.f.s.p.p.u.u.u.r.r.w.w.9.9.9.9.6.6.6.5.3.3.3.<.<.<.<.<.,.<.:.<.:.:.=.=.=.&.&.&.&.@.@.o.o.X.X. . .{ { [ ' _ _ / _ / / / W W W W W R Y I H D Z Z M n b x x k k k d d s s s i y y y y y y y y y y y y e q 0 9 8 6 6 6 2 2 2 , , , , , , , - ; ; ; ; & & & & & & & & & & & & & @ @ X X X !.!.!.!.!.!.!.!.!.!.!.!.!.!.!.!.!.!.!.!.!.!.!.!.!.!.!.!.!.!.!.!.!.!.!.!.!.!.!.!.!.!.!.!.!.!.!.!.!.!.!.!.!.!.!.!.!.!.!.!.!.!.!.!.!.!.!.!.!.!.!.!.!.!.!.!.!.!.!.!.!.!.!.!.!.!.!.!.!.!.!.!.!.!.!.!.!.!.!.!.!.!.!.!.!.!.!.!.!.!.!.!.!.!.!.!.!.",
"!.!.!.!.!.!.!.!.!.!.!.!.!.!.!.!.!.!.!.!.!.!.!.!.!.!.!.!.!.!.!.!.!.!.!.!.!.!.!.!.!.!.!.!.!.!.!.!.!.!.!.!.!.!.!.!.!.!.!.!.!.!.!.!.!.!.!.!.!.!.!.!.!.!.!.!.!.!.!.!.!.!.!.!.!.!.!.!.!.!.!.!.!.!.!.!.!.!.!.!.!.!.!.!.!.            X X X X X X X X X @ + $ & & - - - - - & - & & - - - , , , 2 6 9 0 0 q q q e y y y y e q q e e y y y i s d d d d d k k k x x N M Z Z D D G L I U W W W / _ _ ' [ { { { { {  . . .X.X.X.o.X.o.o.o.o.@.@.@.@.@.@.@.@.@.@.@.@.@.@.@.@.o.o.o.X.o. . . . .{ {  .{ { { { { { { { {  . .X.X.o.o.@.@.$.&.&.=.=.=.=.=.=.=.:.<.<.<.<.<.<.<.3.3.3.5.6.6.6.6.6.6.6.6.6.6.9.9.w.w.w.w.r.r.u.u.p.s.f.f.h.h.h.l.l.l.l.l.v.l.v.l.l.l.l.l.l.l.l.l.l.v.l.l.v.l.l.h.h.f.f.p.p.u.u.u.r.r.w.w.w.9.9.9.6.6.6.6.5.3.3.<.<.<.<.<.,.<.<.,.:.:.=.=.=.=.&.&.&.@.@.@.o.X. . . .{ { [ ' ' _ / / / / / W W W W R Y I L G D Z M n x x k k k k d d s s s i y y y e e e e y e y e y e q 0 9 7 6 6 2 2 2 2 , , 2 2 2 , , , , , , , ; - - - - & & & & & & & & & & @ @ @ X X   !.!.!.!.!.!.!.!.!.!.!.!.!.!.!.!.!.!.!.!.!.!.!.!.!.!.!.!.!.!.!.!.!.!.!.!.!.!.!.!.!.!.!.!.!.!.!.!.!.!.!.!.!.!.!.!.!.!.!.!.!.!.!.!.!.!.!.!.!.!.!.!.!.!.!.!.!.!.!.!.!.!.!.!.!.!.!.!.!.!.!.!.!.!.!.!.!.!.!.!.!.!.!.!.!.!.!.!.!.!.!.!.!.!.!.",
"!.!.!.!.!.!.!.!.!.!.!.!.!.!.!.!.!.!.!.!.!.!.!.!.!.!.!.!.!.!.!.!.!.!.!.!.!.!.!.!.!.!.!.!.!.!.!.!.!.!.!.!.!.!.!.!.!.!.!.!.!.!.!.!.!.!.!.!.!.!.!.!.!.!.!.!.!.!.!.!.!.!.!.!.!.!.!.!.!.!.!.!.!.!.!.!.!.!.!.!.!.!.!.!.!.!.!.    !.  X X @ X X X X @ + @ & & - - , , - - - - - - - - - - , , 2 2 6 9 q q q e e y y y y y y e e e y y y y s d d k d d d d k k x x N M Z Z D G L L I Y W W / / / ' ' [ { { {  .{  . .X.X.o.o.X.o.o.o.o.@.@.@.$.@.@.$.@.@.$.@.@.@.@.@.@.@.@.o.o.o.o.o. . . . . . . .{ { { { { { {  . . .o.o.o.@.@.$.&.&.=.=.=.:.:.:.:.:.:.<.<.<.3.3.3.3.5.5.6.6.6.6.9.9.9.9.9.9.9.w.w.w.r.r.r.r.u.u.u.p.p.f.f.h.h.h.l.l.l.v.v.v.v.l.v.l.v.l.v.l.v.v.v.v.v.v.v.l.v.l.l.l.h.f.f.s.p.u.u.u.r.u.r.w.w.9.9.9.9.6.6.6.6.5.3.3.<.<.<.<.<.<.,.:.<.:.=.=.=.=.&.&.&.@.@.@.o.o. . . .{ { [ ' ' _ _ / / / / W W W W R U I L G D Z M x z k k k k k d d s s s i y y y y e e e q e q q q q q 9 8 6 6 6 6 2 2 2 , 2 2 , 2 2 2 2 2 2 2 , , , , - - - - - - - - & & & & $ @ @ @ X   !.!.!.!.!.!.!.!.!.!.!.!.!.!.!.!.!.!.!.!.!.!.!.!.!.!.!.!.!.!.!.!.!.!.!.!.!.!.!.!.!.!.!.!.!.!.!.!.!.!.!.!.!.!.!.!.!.!.!.!.!.!.!.!.!.!.!.!.!.!.!.!.!.!.!.!.!.!.!.!.!.!.!.!.!.!.!.!.!.!.!.!.!.!.!.!.!.!.!.!.!.!.!.!.!.!.!.!.!.!.!.!.!.!.!.",
"!.!.!.!.!.!.!.!.!.!.!.!.!.!.!.!.!.!.!.!.!.!.!.!.!.!.!.!.!.!.!.!.!.!.!.!.!.!.!.!.!.!.!.!.!.!.!.!.!.!.!.!.!.!.!.!.!.!.!.!.!.!.!.!.!.!.!.!.!.!.!.!.!.!.!.!.!.!.!.!.!.!.!.!.!.!.!.!.!.!.!.!.!.!.!.!.!.!.        !.!.!.!.!.!.        X X X X X @ + + & & - - , , , , , , - - - - - , , 2 2 2 6 8 q e q q e y y y i i y y y y e y y y y s d d k d d d d d k z x x M Z Z D G I I U R W W / / _ ' [ { { {  . . . .X.X.o.o.o.o.o.o.@.@.@.@.$.@.$.$.$.$.$.@.@.@.&.@.@.@.$.@.@.@.o.o.X.X.X. . .X. . . . . .{ { {  . .X.X.o.o.o.@.@.$.&.&.=.=.:.:.:.:.,.<.<.3.3.3.3.5.6.6.6.6.6.9.6.6.9.9.9.9.9.9.9.w.r.r.u.u.u.u.p.p.p.f.f.h.h.h.l.h.l.l.v.v.v.v.v.v.v.v.v.l.v.v.v.v.v.v.v.v.v.v.v.l.l.l.h.h.f.f.p.p.u.u.u.r.r.r.w.w.9.9.9.9.6.6.6.6.3.3.3.<.<.<.<.<.<.,.,.:.:.:.=.=.=.&.&.@.@.@.o.o.o. . .{ { [ [ ' _ _ / / / W W W W W R I L L G D Z M n z k k d d d d s s s y y y e e e e q q q q q 0 9 9 9 6 6 6 6 6 2 6 6 2 , , , 2 2 2 2 , , 2 , , , , , , , - , , - - - - - & & & $ @ @ @ X   !.!.!.!.!.!.!.!.!.!.!.!.!.!.!.!.!.!.!.!.!.!.!.!.!.!.!.!.!.!.!.!.!.!.!.!.!.!.!.!.!.!.!.!.!.!.!.!.!.!.!.!.!.!.!.!.!.!.!.!.!.!.!.!.!.!.!.!.!.!.!.!.!.!.!.!.!.!.!.!.!.!.!.!.!.!.!.!.!.!.!.!.!.!.!.!.!.!.!.!.!.!.!.!.!.!.!.!.!.!.!.!.!.!.",
"!.!.!.!.!.!.!.!.!.!.!.!.!.!.!.!.!.!.!.!.!.!.!.!.!.!.!.!.!.!.!.!.!.!.!.!.!.!.!.!.!.!.!.!.!.!.!.!.!.!.!.!.!.!.!.!.!.!.!.!.!.!.!.!.!.!.!.!.!.!.!.!.!.!.!.!.!.!.!.!.!.!.!.!.!.!.!.!.!.!.!.!.!.!.!.!.!.!.      !.!.!.!.!.!.!.!.      X X X X @ @ $ & & & - , , , , , , , - - - - , , 2 2 2 6 6 8 q e e q q e y i i s i y y y y y y y i s d d d d d d d d d k x n N Z D D L I U T W W / / _ _ ' [ { { {  . .X.X.X.X.o.o.o.o.@.@.@.@.$.$.$.@.&.@.$.@.$.&.&.@.&.@.@.$.$.$.@.@.o.o.o.o.X.o.X.o.X.o. . . . . .X. .o.o.o.o.@.@.@.&.&.&.=.=.:.:.,.,.<.<.<.3.3.3.5.6.6.6.6.6.9.9.9.9.9.9.w.w.9.w.9.w.r.r.r.u.u.p.p.s.f.f.h.h.h.l.l.l.l.l.v.v.v.v.v.n.v.v.v.v.v.v.v.v.v.v.v.v.v.v.v.v.v.v.l.h.h.h.f.f.p.p.u.u.u.r.r.r.w.w.9.9.9.6.6.6.6.3.3.3.<.<.3.<.<.<.,.,.:.:.=.=.=.&.&.&.@.@.@.o.o.o. .{ { { [ ' ' _ _ / / / W W W W W T I L H D D Z N x x k k d d d s s s i y y e e q q 0 q 9 9 7 7 8 8 8 6 6 6 6 6 6 6 6 6 2 , , 2 2 2 2 2 2 2 2 2 2 , , 2 , , , , , , - - - - - - & & & & + X   !.!.!.!.!.!.!.!.!.!.!.!.!.!.!.!.!.!.!.!.!.!.!.!.!.!.!.!.!.!.!.!.!.!.!.!.!.!.!.!.!.!.!.!.!.!.!.!.!.!.!.!.!.!.!.!.!.!.!.!.!.!.!.!.!.!.!.!.!.!.!.!.!.!.!.!.!.!.!.!.!.!.!.!.!.!.!.!.!.!.!.!.!.!.!.!.!.!.!.!.!.!.!.!.!.!.!.!.!.!.!.!.!.!.",
"!.!.!.!.!.!.!.!.!.!.!.!.!.!.!.!.!.!.!.!.!.!.!.!.!.!.!.!.!.!.!.!.!.!.!.!.!.!.!.!.!.!.!.!.!.!.!.!.!.!.!.!.!.!.!.!.!.!.!.!.!.!.!.!.!.!.!.!.!.!.!.!.!.!.!.!.!.!.!.!.!.!.!.!.!.!.!.!.!.!.!.!.!.!.!.!.!.!.      !.!.  !.!.!.!.!.!.!.  X X @ + @ $ & & & - - - , , 2 , , , , , , , , , 2 2 6 6 8 9 q e e e e e y y s s s y y y y y y i s d d d d d s s s d d k z x N Z D D L I U R W W / / _ _ ' [ { {  . . .X.X.X.X.o.o.o.@.@.@.@.@.@.@.@.&.&.&.$.&.&.&.&.&.&.&.&.&.&.&.&.&.@.@.@.o.o.o.o.o.o.o.o.X.X.o.o.o.o.o.@.@.@.@.@.&.&.=.=.=.:.:.,.<.<.<.<.3.3.6.6.6.6.6.9.9.9.9.9.9.9.w.w.r.w.r.w.r.w.r.u.u.p.p.f.f.f.h.h.l.l.l.l.v.v.v.v.v.n.N.n.n.N.n.N.n.n.v.v.v.n.v.v.n.v.n.v.n.v.v.l.l.l.h.h.h.f.s.p.p.u.u.u.u.r.r.r.9.9.9.9.6.6.5.3.3.3.3.3.<.<.<.<.<.,.:.:.:.=.=.=.&.&.&.@.@.@.o.X. .{ { { [ ' ' _ _ / / / W W W W W R I L G D D Z M n x k k d d s s s s y y e q q 0 9 8 9 8 6 7 7 7 7 6 6 6 6 6 6 2 6 6 6 2 2 , , 2 , 2 2 2 2 2 2 2 2 2 2 2 , 2 , , , , , , , , , - - & & + X   !.!.!.!.!.!.!.!.!.!.!.!.!.!.!.!.!.!.!.!.!.!.!.!.!.!.!.!.!.!.!.!.!.!.!.!.!.!.!.!.!.!.!.!.!.!.!.!.!.!.!.!.!.!.!.!.!.!.!.!.!.!.!.!.!.!.!.!.!.!.!.!.!.!.!.!.!.!.!.!.!.!.!.!.!.!.!.!.!.!.!.!.!.!.!.!.!.!.!.!.!.!.!.!.!.!.!.!.!.!.!.!.!.!.",
"!.!.!.!.!.!.!.!.!.!.!.!.!.!.!.!.!.!.!.!.!.!.!.!.!.!.!.!.!.!.!.!.!.!.!.!.!.!.!.!.!.!.!.!.!.!.!.!.!.!.!.!.!.!.!.!.!.!.!.!.!.!.!.!.!.!.!.!.!.!.!.!.!.!.!.!.!.!.!.!.!.!.!.!.!.!.!.!.!.!.!.!.!.!.!.!.!.!.        !.!.!.!.!.!.!.!.!.X X X X + @ & & - - - - - - , 2 , 2 , , , , , 2 2 2 2 6 6 8 9 q e e e q q y y i i i i y y y i s s d d d d d d s s s d d d k x x Z D D L I Y W W W / / _ _ _ [ { {  . . .X.X.o.o.o.@.@.@.@.@.@.@.@.@.@.&.&.&.&.&.&.&.=.&.=.&.&.&.&.&.&.&.&.&.@.@.@.@.@.o.@.o.o.o.o.o.o.@.@.@.@.$.&.&.&.&.=.=.:.:.,.<.<.<.<.<.<.3.3.6.6.6.9.9.w.9.w.w.w.w.w.w.r.r.r.w.r.r.u.u.u.p.p.f.h.h.h.h.l.l.l.v.v.v.v.n.n.N.N.N.N.N.N.N.N.N.N.N.N.N.n.N.N.n.N.n.N.n.n.v.v.l.l.l.h.h.h.f.s.p.p.u.u.u.r.r.r.w.9.9.9.6.6.6.5.5.3.3.3.3.<.<.<.<.<.,.,.:.=.=.=.=.&.@.@.@.o.o.o. .{ { { [ [ ' _ / / / / / W W W W R U L G D D Z M x z k k d d s s i y y e q q 9 8 6 6 6 6 6 7 7 6 6 6 6 6 6 6 2 2 2 6 6 2 2 , , 2 2 , 2 2 2 2 2 2 2 , , 2 2 2 , , 2 , , 2 , , 2 , - - & @ X X   !.!.!.!.!.!.!.!.!.!.!.!.!.!.!.!.!.!.!.!.!.!.!.!.!.!.!.!.!.!.!.!.!.!.!.!.!.!.!.!.!.!.!.!.!.!.!.!.!.!.!.!.!.!.!.!.!.!.!.!.!.!.!.!.!.!.!.!.!.!.!.!.!.!.!.!.!.!.!.!.!.!.!.!.!.!.!.!.!.!.!.!.!.!.!.!.!.!.!.!.!.!.!.!.!.!.!.!.!.!.!.!.!.",
"!.!.!.!.!.!.!.!.!.!.!.!.!.!.!.!.!.!.!.!.!.!.!.!.!.!.!.!.!.!.!.!.!.!.!.!.!.!.!.!.!.!.!.!.!.!.!.!.!.!.!.!.!.!.!.!.!.!.!.!.!.!.!.!.!.!.!.!.!.!.!.!.!.!.!.!.!.!.!.!.!.!.!.!.!.!.!.!.!.!.!.!.!.!.!.!.!.!.              !.!.!.!.!.  X X X X @ @ & & & - - - - - - , , , , , , , 2 2 2 2 6 6 8 8 8 q q e e e q y y i i s s y i s s s s d d d d d d s s s d d k k k x M Z G L U R W W W / / _ ' [ [ { {  . . .X.o.o.o.@.@.@.@.@.@.@.@.&.&.&.=.&.&.=.=.=.=.=.=.=.=.=.=.=.&.=.=.&.&.@.@.@.@.@.@.@.@.@.o.o.o.@.@.$.$.&.&.&.=.&.=.=.=.:.,.<.<.<.3.3.3.3.5.6.6.6.9.9.9.w.w.r.w.r.w.r.r.r.u.r.r.r.u.u.u.p.s.f.f.h.h.h.l.l.v.v.v.v.v.n.N.N.N.N.N.N.N.B.B.B.N.N.N.N.B.B.N.N.N.N.N.N.n.N.n.n.v.v.l.l.h.h.f.f.s.p.p.p.u.u.u.r.r.9.9.9.9.6.6.6.5.3.3.3.3.3.3.<.<.<.,.,.:.:.=.=.=.&.&.@.@.o.o.X. . .{ { [ [ ' _ _ / / / / W W W W R U L G D D Z N x x k k d s s s y y e q q 9 8 6 6 6 6 6 6 6 6 6 6 6 6 6 6 2 2 2 2 2 2 2 2 2 2 2 2 2 2 2 2 2 2 6 2 2 2 2 2 , , , 2 2 2 2 2 2 2 2 , , - & @ X     !.!.!.!.!.!.!.!.!.!.!.!.!.!.!.!.!.!.!.!.!.!.!.!.!.!.!.!.!.!.!.!.!.!.!.!.!.!.!.!.!.!.!.!.!.!.!.!.!.!.!.!.!.!.!.!.!.!.!.!.!.!.!.!.!.!.!.!.!.!.!.!.!.!.!.!.!.!.!.!.!.!.!.!.!.!.!.!.!.!.!.!.!.!.!.!.!.!.!.!.!.!.!.!.!.!.!.!.!.!.!.!.",
"!.!.!.!.!.!.!.!.!.!.!.!.!.!.!.!.!.!.!.!.!.!.!.!.!.!.!.!.!.!.!.!.!.!.!.!.!.!.!.!.!.!.!.!.!.!.!.!.!.!.!.!.!.!.!.!.!.!.!.!.!.!.!.!.!.!.!.!.!.!.!.!.!.!.!.!.!.!.!.!.!.!.!.!.!.!.!.!.!.!.!.!.!.!.!.!.!.    X X X X X X     !.!.  X X X @ @ + @ $ & & - & & & - - - - , , , , 2 , 2 2 2 6 6 8 0 q q e e e y y y y i s s s s s s s s s d d d d d d s s s d d k k z x B D G I Y W W W ^ / / _ ' [ [ { {  .X. .o.o.o.o.@.@.@.@.$.$.$.@.&.&.&.=.=.=.=.=.=.=.=.=.=.=.=.=.=.=.=.&.&.&.&.&.&.$.@.@.@.@.@.@.@.@.$.$.$.&.&.=.=.=.=.=.:.:.,.<.<.3.3.3.5.6.6.6.9.6.9.9.9.w.r.r.r.r.r.r.u.u.u.u.u.u.u.p.p.p.f.f.f.h.l.l.l.l.v.n.n.N.n.N.N.N.N.B.N.B.B.B.B.B.B.B.B.B.B.B.B.B.B.N.N.N.N.N.N.n.v.n.v.l.l.l.h.h.f.f.f.s.p.u.u.u.r.w.w.w.9.9.9.6.6.6.5.5.3.3.3.3.<.<.<.<.,.,.:.=.=.=.=.&.@.@.o.o.X. . .{ { [ [ ' ' _ _ _ / / W W W W R U L G D D Z M x z k k d d s s y e e q 9 8 6 6 2 2 2 2 2 6 6 2 6 6 6 6 6 2 2 2 2 2 2 2 2 2 6 2 2 2 6 2 2 2 2 2 2 2 2 2 2 2 2 2 6 6 6 6 6 6 2 2 , , - & $ @ X     !.!.!.!.!.!.!.!.!.!.!.!.!.!.!.!.!.!.!.!.!.!.!.!.!.!.!.!.!.!.!.!.!.!.!.!.!.!.!.!.!.!.!.!.!.!.!.!.!.!.!.!.!.!.!.!.!.!.!.!.!.!.!.!.!.!.!.!.!.!.!.!.!.!.!.!.!.!.!.!.!.!.!.!.!.!.!.!.!.!.!.!.!.!.!.!.!.!.!.!.!.!.!.!.!.!.!.!.!.!.!.",
"!.!.!.!.!.!.!.!.!.!.!.!.!.!.!.!.!.!.!.!.!.!.!.!.!.!.!.!.!.!.!.!.!.!.!.!.!.!.!.!.!.!.!.!.!.!.!.!.!.!.!.!.!.!.!.!.!.!.!.!.!.!.!.!.!.!.!.!.!.!.!.!.!.!.!.!.!.!.!.!.!.!.!.!.!.!.!.!.!.!.!.!.!.!.!.!.!.    X X X X @ @ X X X X X @ @ @ @ + @ & & & & & & & & & - - - , , , , 2 2 2 2 6 6 8 9 q e e y y y y y y y s i s s s s s s s s s d d d d s s s d d d k k x x B D L U R W W W / / _ _ _ [ { { {  . .o.o.o.o.o.@.@.@.@.@.$.&.&.&.&.=.=.=.=.=.=.=.=.=.=.=.=.=.=.=.=.=.=.=.=.=.&.&.@.&.@.&.$.&.&.$.$.&.&.&.&.=.=.=.=.=.:.:.,.<.<.3.3.3.5.6.6.6.6.9.9.9.w.9.r.r.u.r.u.r.u.u.u.u.u.p.p.p.f.f.f.f.h.h.l.l.l.l.v.N.N.B.B.N.N.B.N.B.B.B.B.B.B.B.B.B.B.B.B.B.B.B.B.N.B.B.N.B.N.N.N.N.n.v.v.l.l.h.h.h.f.f.f.p.p.u.u.r.r.w.9.9.9.6.9.6.6.6.6.6.3.3.3.3.3.<.<.<.,.:.:.=.=.&.&.@.@.o.o.X. .{ { { [ [ ' ' _ _ _ / / W W W W T U L L D D Z N x z k k d s s s y e q 0 8 6 6 2 2 2 2 2 2 2 2 2 2 6 6 6 6 2 2 2 2 2 2 2 2 6 6 2 2 6 2 2 2 2 2 2 2 6 6 2 6 6 6 6 6 6 6 6 6 6 6 6 2 , , & & @ @ X   !.!.!.!.!.!.!.!.!.!.!.!.!.!.!.!.!.!.!.!.!.!.!.!.!.!.!.!.!.!.!.!.!.!.!.!.!.!.!.!.!.!.!.!.!.!.!.!.!.!.!.!.!.!.!.!.!.!.!.!.!.!.!.!.!.!.!.!.!.!.!.!.!.!.!.!.!.!.!.!.!.!.!.!.!.!.!.!.!.!.!.!.!.!.!.!.!.!.!.!.!.!.!.!.!.!.!.!.!.!.!.",
"!.!.!.!.!.!.!.!.!.!.!.!.!.!.!.!.!.!.!.!.!.!.!.!.!.!.!.!.!.!.!.!.!.!.!.!.!.!.!.!.!.!.!.!.!.!.!.!.!.!.!.!.!.!.!.!.!.!.!.!.!.!.!.!.!.!.!.!.!.!.!.!.!.!.!.!.!.!.!.!.!.!.!.!.!.!.!.!.!.!.!.!.!.!.!.!.    X X X @ @ @ @ @ + X X @ + @ + @ @ & & & & & & & & & & - - - - , , , , , 2 2 6 7 e e y y y y i s i s i i s s s s s d s s s s d d d d d d d d d d d d k z x Z D L U W W W W / / _ _ ' [ [ {  . .X.X.o.o.o.o.@.o.@.@.@.$.$.&.&.&.&.=.=.=.=.=.=.=.=.=.=.=.=.=.=.=.=.=.=.=.=.=.=.&.&.&.&.&.&.&.&.&.=.&.=.=.=.=.=.:.:.,.<.<.3.3.3.6.6.6.6.6.9.9.9.w.w.w.w.r.u.u.u.u.u.u.u.p.p.p.p.p.f.f.h.h.h.h.l.l.l.v.v.n.N.N.B.B.B.B.B.B.B.A.A.A.A.A.A.A.A.A.A.A.A.B.B.B.B.B.B.B.B.B.B.N.N.N.v.v.l.l.l.h.h.h.h.f.s.p.p.u.u.r.w.w.9.9.9.9.6.6.6.6.6.6.5.3.3.3.3.3.<.<.,.:.=.=.&.&.$.@.o.o.X. . .{ { [ [ [ ' _ _ _ / / W W W W U I L H D D V M x z k k d s s i y e 0 8 6 6 2 2 2 2 , 2 2 2 2 2 2 2 2 6 6 2 2 2 2 2 2 2 2 2 6 2 2 2 2 2 2 2 2 6 6 6 2 6 6 6 6 6 6 6 6 8 8 8 6 6 2 2 , - & & @ @ X X   !.!.!.!.!.!.!.!.!.!.!.!.!.!.!.!.!.!.!.!.!.!.!.!.!.!.!.!.!.!.!.!.!.!.!.!.!.!.!.!.!.!.!.!.!.!.!.!.!.!.!.!.!.!.!.!.!.!.!.!.!.!.!.!.!.!.!.!.!.!.!.!.!.!.!.!.!.!.!.!.!.!.!.!.!.!.!.!.!.!.!.!.!.!.!.!.!.!.!.!.!.!.!.!.!.!.!.!.!.",
"!.!.!.!.!.!.!.!.!.!.!.!.!.!.!.!.!.!.!.!.!.!.!.!.!.!.!.!.!.!.!.!.!.!.!.!.!.!.!.!.!.!.!.!.!.!.!.!.!.!.!.!.!.!.!.!.!.!.!.!.!.!.!.!.!.!.!.!.!.!.!.!.!.!.!.!.!.!.!.!.!.!.!.!.!.!.!.!.!.!.!.!.!.!.!.!.    X X X @ + $ & $ @ @ @ @ $ $ & & & & & & & - & & & & & & & - - - , , 2 2 2 6 6 8 0 e y i i i s d s s s s s s s s d d d s s s s d d d d d d k k k k k k z n Z D L U W W W W / / _ _ ' [ { {  . .X.X.o.@.@.@.@.@.@.@.@.&.&.&.&.&.&.=.=.=.=.=.=.=.:.=.:.:.=.=.=.=.:.:.:.=.=.=.=.=.&.&.&.=.=.=.=.&.&.=.=.=.=.=.=.:.,.<.<.3.3.5.6.6.6.6.9.9.9.w.9.w.r.r.r.u.u.u.p.p.p.p.p.p.f.f.f.f.h.h.h.l.l.l.v.v.v.n.N.N.N.B.B.B.B.B.B.B.B.A.S.S.D.S.A.S.D.S.S.A.B.B.B.B.B.B.B.B.B.B.B.B.N.N.v.v.v.v.l.l.h.h.h.f.f.p.p.u.u.r.r.w.w.9.9.9.9.9.6.6.6.5.3.3.6.3.3.<.<.,.,.:.:.=.&.&.$.@.o.o.X. . .{ { [ [ [ ' _ _ / / W W W W R U L L G D D Z M n x k d d s s y e q 0 7 6 2 2 2 2 2 , 2 2 2 , , , 2 2 2 2 2 2 2 2 6 2 2 6 2 6 2 2 2 2 2 2 2 2 2 2 6 6 6 6 6 6 6 6 6 6 8 8 8 9 6 6 2 , , - & & & @ X X   !.!.!.!.!.!.!.!.!.!.!.!.!.!.!.!.!.!.!.!.!.!.!.!.!.!.!.!.!.!.!.!.!.!.!.!.!.!.!.!.!.!.!.!.!.!.!.!.!.!.!.!.!.!.!.!.!.!.!.!.!.!.!.!.!.!.!.!.!.!.!.!.!.!.!.!.!.!.!.!.!.!.!.!.!.!.!.!.!.!.!.!.!.!.!.!.!.!.!.!.!.!.!.!.!.!.!.!.",
"!.!.!.!.!.!.!.!.!.!.!.!.!.!.!.!.!.!.!.!.!.!.!.!.!.!.!.!.!.!.!.!.!.!.!.!.!.!.!.!.!.!.!.!.!.!.!.!.!.!.!.!.!.!.!.!.!.!.!.!.!.!.!.!.!.!.!.!.!.!.!.!.!.!.!.!.!.!.!.!.!.!.!.!.!.!.!.!.!.!.!.!.!.!.!.!.  X X X @ @ + & & $ & $ $ & & & & & & & & & & - & & & & & & & & - - , , 2 2 2 2 6 9 q y i i s s s d d d s s d s d d d d d d s d s d d d d d d k k k z z z x N D G L U W W W / / / _ ' ' [ [ {  . .X.o.o.@.@.@.@.@.@.@.&.&.&.&.&.=.=.=.=.=.=.:.=.=.:.:.:.=.=.=.:.=.:.,.:.:.:.:.:.=.=.=.=.=.=.=.=.=.=.=.=.:.:.=.:.,.,.<.3.3.6.6.9.9.9.w.w.w.w.r.r.r.u.u.u.u.p.p.p.p.p.p.s.f.f.f.h.h.l.l.l.l.l.l.v.n.N.N.B.B.N.B.B.B.B.B.B.B.B.A.S.A.A.D.S.D.D.D.D.A.A.A.A.A.B.A.B.B.B.B.B.N.N.N.N.v.v.l.l.l.h.h.h.f.f.p.p.u.u.u.r.r.w.w.9.9.9.9.9.6.6.6.6.6.3.3.3.3.<.<.,.:.:.=.&.&.$.@.@.o.X. . .{ { [ [ [ ' _ / / / W W W W T I L L G D Z B M x x k d s s y y q e 7 6 6 2 2 2 2 , 2 2 2 , , , 2 2 2 2 , , 2 2 6 2 2 2 6 6 6 2 2 2 2 2 6 2 2 2 2 2 6 6 6 6 6 6 6 6 8 9 9 9 8 8 6 2 , , , - - & & + @ X     !.!.!.!.!.!.!.!.!.!.!.!.!.!.!.!.!.!.!.!.!.!.!.!.!.!.!.!.!.!.!.!.!.!.!.!.!.!.!.!.!.!.!.!.!.!.!.!.!.!.!.!.!.!.!.!.!.!.!.!.!.!.!.!.!.!.!.!.!.!.!.!.!.!.!.!.!.!.!.!.!.!.!.!.!.!.!.!.!.!.!.!.!.!.!.!.!.!.!.!.!.!.!.!.!.!.",
"!.!.!.!.!.!.!.!.!.!.!.!.!.!.!.!.!.!.!.!.!.!.!.!.!.!.!.!.!.!.!.!.!.!.!.!.!.!.!.!.!.!.!.!.!.!.!.!.!.!.!.!.!.!.!.!.!.!.!.!.!.!.!.!.!.!.!.!.!.!.!.!.!.!.!.!.!.!.!.!.!.!.!.!.!.!.!.!.!.!.!.!.!.!.!.!.  X X X @ + @ & & & & & & & & - - - - - - & & - - - & & & & & - - , , , , 2 2 2 6 8 q y i s s s s d d d d d d k d k k d d d d d d d d k k k k k k z x b x N Z D L I T W W W W / / _ ' [ [ { {  . .X.X.o.o.@.@.@.@.@.@.&.&.&.&.=.=.=.=.=.=.=.:.:.:.:.:.:.:.:.:.:.:.<.<.:.,.:.:.:.:.:.:.:.=.=.:.:.=.:.:.:.:.:.:.:.<.<.3.3.6.6.6.9.9.w.r.r.r.u.u.u.u.u.u.p.p.p.p.f.f.f.f.f.h.h.h.h.l.l.l.v.v.v.v.n.N.B.B.B.B.B.B.B.B.B.B.B.B.B.A.A.S.S.D.D.D.D.D.D.D.S.A.A.A.A.B.A.B.B.B.B.N.N.N.n.v.v.v.v.v.l.h.h.f.f.s.p.p.u.u.u.r.r.w.9.9.9.9.9.9.6.6.6.6.6.6.5.3.3.<.<.<.:.=.&.&.&.@.@.o.X. . .{ { { [ [ ' _ / / / W W W W R U L H D D Z M N x k k d s i y e q q 8 6 6 2 2 , 2 2 2 2 2 , 2 , 2 , , , 2 2 2 2 2 2 2 6 2 6 2 6 2 2 2 6 6 6 6 2 2 6 6 6 6 6 6 8 6 8 9 0 0 9 8 6 6 2 2 2 2 , , - & & + @ X X     !.!.!.!.!.!.!.!.!.!.!.!.!.!.!.!.!.!.!.!.!.!.!.!.!.!.!.!.!.!.!.!.!.!.!.!.!.!.!.!.!.!.!.!.!.!.!.!.!.!.!.!.!.!.!.!.!.!.!.!.!.!.!.!.!.!.!.!.!.!.!.!.!.!.!.!.!.!.!.!.!.!.!.!.!.!.!.!.!.!.!.!.!.!.!.!.!.!.!.!.!.!.!.!.",
"!.!.!.!.!.!.!.!.!.!.!.!.!.!.!.!.!.!.!.!.!.!.!.!.!.!.!.!.!.!.!.!.!.!.!.!.!.!.!.!.!.!.!.!.!.!.!.!.!.!.!.!.!.!.!.!.!.!.!.!.!.!.!.!.!.!.!.!.!.!.!.!.!.!.!.!.!.!.!.!.!.!.!.!.!.!.!.!.!.!.!.!.!.!.!.!.!.  X X @ @ & & & & & & & - - - - - - - - - - , - - & & & & - - , , , , , 2 2 6 6 9 q e y i s s d d d d d d d d k d k k d d d d d d k k k k k k z x n N N B Z D L I R W W W ^ / _ ' [ [ [ { {  . .X.o.o.o.@.@.@.@.$.@.@.&.&.=.=.=.=.=.=.=.:.=.:.:.:.<.:.:.:.:.:.<.<.<.<.<.,.,.,.,.<.:.:.:.:.:.:.:.:.:.,.<.<.<.<.<.<.3.5.6.6.9.9.w.r.r.r.u.u.p.p.p.p.p.p.f.f.f.h.f.f.h.h.h.h.l.l.l.l.v.v.v.n.v.N.N.B.B.B.B.B.B.B.B.B.B.B.B.B.A.A.A.S.A.D.D.D.D.D.D.A.S.A.A.A.A.B.B.B.B.B.B.B.N.N.v.v.v.l.l.l.l.h.f.f.s.p.p.u.u.u.r.r.r.w.w.9.9.9.6.6.6.6.6.6.6.5.3.3.<.<.,.:.=.=.&.@.@.@.o.X.X. .{ { { [ [ _ _ / / / W W W W R U L L D D Z M x z k d s s y y e q 0 8 6 6 2 2 , , , 2 , , , , 2 , , , , 2 , 2 2 2 2 2 2 2 6 6 2 6 2 2 6 6 6 6 2 2 6 6 6 6 6 8 8 8 9 0 0 q 0 8 6 6 2 2 2 2 2 , , - & $ @ + @ X X   !.!.!.!.!.!.!.!.!.!.!.!.!.!.!.!.!.!.!.!.!.!.!.!.!.!.!.!.!.!.!.!.!.!.!.!.!.!.!.!.!.!.!.!.!.!.!.!.!.!.!.!.!.!.!.!.!.!.!.!.!.!.!.!.!.!.!.!.!.!.!.!.!.!.!.!.!.!.!.!.!.!.!.!.!.!.!.!.!.!.!.!.!.!.!.!.!.!.!.!.!.!.!.",
"!.!.!.!.!.!.!.!.!.!.!.!.!.!.!.!.!.!.!.!.!.!.!.!.!.!.!.!.!.!.!.!.!.!.!.!.!.!.!.!.!.!.!.!.!.!.!.!.!.!.!.!.!.!.!.!.!.!.!.!.!.!.!.!.!.!.!.!.!.!.!.!.!.!.!.!.!.!.!.!.!.!.!.!.!.!.!.!.!.!.!.!.!.!.!.!.!.!.  X + & & & & & & & & - - - , , , , , , , , , - & & & - - - , , , , , 6 6 6 6 9 q y y y s d d d d d d d k d k k k k k k k k h k k z z x z z x x N M M Z D D L U R W W ! / / / ' [ { { { {  .o.X.o.o.o.@.@.@.$.&.&.&.&.&.=.=.=.=.=.=.:.=.=.:.:.:.:.,.:.:.:.,.<.<.<.<.<.<.<.<.<.<.<.<.,.,.,.:.,.:.,.,.<.<.<.3.3.3.5.6.6.9.w.w.r.u.u.u.u.p.p.p.p.p.f.f.f.f.h.h.h.h.h.h.h.l.l.l.l.v.v.v.n.N.N.N.B.B.B.B.B.B.B.B.B.B.B.B.B.B.A.A.A.A.S.D.D.D.D.D.D.D.D.D.D.A.A.B.B.B.B.B.B.N.N.N.v.v.v.l.l.l.h.h.f.f.s.p.p.u.u.u.u.r.r.w.w.9.9.9.9.9.9.6.6.6.6.6.5.3.<.<.,.:.=.=.&.&.@.@.o.X.o. .{ { { [ [ ' _ / / / W W W W R U L H D Z B N b k k d s s y y e q 0 8 6 2 2 2 2 , , , , , , , 2 , , , , 2 2 2 , 2 2 2 6 6 2 6 6 6 6 6 6 6 6 6 2 2 2 6 6 6 6 6 6 9 9 9 0 q q 9 8 6 8 6 6 6 2 2 2 , - & & & @ + X   !.!.!.!.!.!.!.!.!.!.!.!.!.!.!.!.!.!.!.!.!.!.!.!.!.!.!.!.!.!.!.!.!.!.!.!.!.!.!.!.!.!.!.!.!.!.!.!.!.!.!.!.!.!.!.!.!.!.!.!.!.!.!.!.!.!.!.!.!.!.!.!.!.!.!.!.!.!.!.!.!.!.!.!.!.!.!.!.!.!.!.!.!.!.!.!.!.!.!.!.!.!.!.",
"!.!.!.!.!.!.!.!.!.!.!.!.!.!.!.!.!.!.!.!.!.!.!.!.!.!.!.!.!.!.!.!.!.!.!.!.!.!.!.!.!.!.!.!.!.!.!.!.!.!.!.!.!.!.!.!.!.!.!.!.!.!.!.!.!.!.!.!.!.!.!.!.!.!.!.!.!.!.!.!.!.!.!.!.!.!.!.!.!.!.!.!.!.!.!.!.!.!.  X @ & & & & & & & - - , , , , , , , , , , , , - - - - - - , , , 2 , 2 6 6 8 9 q e y y i d d d d d d d k k k k k k k k k k z z x x x x x n n N M B B Z D D L U R W W W / / / ' [ { { {  . .X.X.o.o.@.@.@.@.$.&.&.=.=.=.=.=.=.=.=.=.=.=.=.:.:.:.,.:.,.,.,.,.<.<.<.<.<.<.<.<.<.<.<.<.<.<.<.<.<.<.<.<.<.3.<.3.3.6.6.6.6.9.w.r.r.u.u.u.p.s.f.f.f.f.f.h.h.h.l.l.l.l.l.l.l.l.l.l.l.v.v.n.N.n.N.B.B.B.B.B.B.B.B.B.B.B.B.B.B.A.A.A.A.A.D.D.D.D.J.J.J.D.D.D.D.D.S.A.A.B.B.B.B.B.B.N.n.v.v.v.l.l.l.h.h.f.f.s.p.p.u.u.u.r.r.w.w.w.9.9.9.9.9.9.6.6.6.6.5.3.3.<.,.:.=.=.&.&.@.@.o.o.o. .{ { { [ [ ' / / _ / W W W W Y U L G D Z M n x k d d s s y e e q 9 6 6 2 2 2 , , , , , , , , , , , , , 2 2 , 2 2 6 6 6 6 6 6 6 6 6 6 6 6 6 6 6 6 6 6 2 6 6 6 6 8 0 0 q 0 q q 0 9 9 8 8 6 6 6 2 2 , - & & & @ @ X X   !.!.!.!.!.!.!.!.!.!.!.!.!.!.!.!.!.!.!.!.!.!.!.!.!.!.!.!.!.!.!.!.!.!.!.!.!.!.!.!.!.!.!.!.!.!.!.!.!.!.!.!.!.!.!.!.!.!.!.!.!.!.!.!.!.!.!.!.!.!.!.!.!.!.!.!.!.!.!.!.!.!.!.!.!.!.!.!.!.!.!.!.!.!.!.!.!.!.!.!.!.",
"!.!.!.!.!.!.!.!.!.!.!.!.!.!.!.!.!.!.!.!.!.!.!.!.!.!.!.!.!.!.!.!.!.!.!.!.!.!.!.!.!.!.!.!.!.!.!.!.!.!.!.!.!.!.!.!.!.!.!.!.!.!.!.!.!.!.!.!.!.!.!.!.!.!.!.!.!.!.!.!.!.!.!.!.!.!.!.!.!.!.!.!.!.!.!.      X @ & & & & & & & - - , , , , , , 2 2 2 2 , , , , - - - - - , , , , 2 2 6 6 6 8 0 e y i s d d d k d k d d d k k k k k k k k z x n n x n N N M M M Z Z D D D H I R W W W W / / ' [ [ { { {  .o.o.o.o.@.@.@.@.@.&.&.&.=.=.=.=.=.=.=.=.:.=.:.:.:.,.,.<.,.<.,.,.<.<.<.<.<.<.<.<.<.3.<.<.<.<.<.<.<.<.<.<.<.<.3.3.6.6.6.6.9.w.r.u.u.u.p.p.s.f.f.f.f.f.h.h.h.l.l.l.l.l.l.l.v.l.v.l.v.v.N.N.N.N.N.B.B.B.B.B.B.B.B.B.B.B.A.A.B.A.A.A.A.S.D.D.D.J.D.J.D.D.D.D.D.D.D.A.A.A.B.A.B.B.B.N.N.v.v.v.l.l.l.h.h.f.f.s.p.p.u.u.u.u.r.r.w.w.9.9.9.9.9.9.9.6.9.6.6.3.3.<.<.<.:.=.=.&.&.@.@.o.X. . .{ { [ [ ' _ / / / W W W W Y U L G D Z N x z k d d s s y e q 0 6 6 2 2 2 2 2 , , 2 2 , , , , , , , , 2 , 2 2 2 6 6 6 6 6 6 6 6 6 6 6 6 6 6 6 6 6 2 6 6 6 6 8 9 0 q q q e q q q 0 0 9 8 6 6 6 2 , - - - & & @ @ @ X   !.!.!.!.!.!.!.!.!.!.!.!.!.!.!.!.!.!.!.!.!.!.!.!.!.!.!.!.!.!.!.!.!.!.!.!.!.!.!.!.!.!.!.!.!.!.!.!.!.!.!.!.!.!.!.!.!.!.!.!.!.!.!.!.!.!.!.!.!.!.!.!.!.!.!.!.!.!.!.!.!.!.!.!.!.!.!.!.!.!.!.!.!.!.!.!.!.!.!.!.",
"!.!.!.!.!.!.!.!.!.!.!.!.!.!.!.!.!.!.!.!.!.!.!.!.!.!.!.!.!.!.!.!.!.!.!.!.!.!.!.!.!.!.!.!.!.!.!.!.!.!.!.!.!.!.!.!.!.!.!.!.!.!.!.!.!.!.!.!.!.!.!.!.!.!.!.!.!.!.!.!.!.!.!.!.!.!.!.!.!.!.!.!.!.!.!.      X @ & & & & & & - - - , , , , , 2 2 2 2 2 2 , , , , - - , , , 2 , , 2 2 6 6 6 8 0 e y s s d s d d d k k d k k k k k k k k x n x n n n B M M Z Z Z Z Z D D G L I R W W / / / _ _ ' [ { { {  . .o.o.o.@.$.&.&.&.&.=.=.=.:.:.=.=.:.:.:.:.:.:.:.,.,.<.,.,.<.<.<.<.<.<.<.<.<.3.<.<.<.<.<.<.<.3.3.<.3.<.3.3.3.3.5.6.6.9.9.9.r.r.u.u.p.p.p.f.f.h.h.f.h.h.h.l.l.v.v.l.v.v.v.v.v.v.v.v.v.N.n.N.N.N.B.B.B.B.B.B.B.A.A.A.A.A.A.A.A.S.S.D.D.D.D.D.J.J.J.J.J.D.D.D.D.D.S.A.A.B.B.B.B.B.N.N.n.v.v.l.l.l.h.h.f.f.s.p.p.p.u.u.u.r.r.r.w.9.9.9.9.9.9.9.6.6.6.6.5.3.3.<.<.:.=.=.&.&.@.@.o.o. . .{ { [ [ ' _ / / / W W W R T I L D D B n b k d d d s i y e 0 9 6 6 2 2 2 , , 2 2 2 , , , , , , , , , 2 2 2 2 2 6 6 6 6 6 6 6 6 6 6 6 6 6 6 6 6 6 2 2 6 6 8 8 0 q q q e q q q q q 0 0 9 8 6 6 2 2 , - - - & & $ @ + X   !.!.!.!.!.!.!.!.!.!.!.!.!.!.!.!.!.!.!.!.!.!.!.!.!.!.!.!.!.!.!.!.!.!.!.!.!.!.!.!.!.!.!.!.!.!.!.!.!.!.!.!.!.!.!.!.!.!.!.!.!.!.!.!.!.!.!.!.!.!.!.!.!.!.!.!.!.!.!.!.!.!.!.!.!.!.!.!.!.!.!.!.!.!.!.!.!.!.!.",
"!.!.!.!.!.!.!.!.!.!.!.!.!.!.!.!.!.!.!.!.!.!.!.!.!.!.!.!.!.!.!.!.!.!.!.!.!.!.!.!.!.!.!.!.!.!.!.!.!.!.!.!.!.!.!.!.!.!.!.!.!.!.!.!.!.!.!.!.!.!.!.!.!.!.!.!.!.!.!.!.!.!.!.!.!.!.!.!.!.!.!.!.!.!.!.!.    X @ @ & & & & & & - - , , 2 2 2 2 2 2 2 2 2 , , , , , , , , , 2 2 , 2 2 2 6 6 9 q e y i s s s d d d d d k d d d k k z k k z x n N N M M Z Z Z Z Z Z D D D G L U W W W / / _ / _ ' [ [ { {  .o.X.o.o.@.@.&.&.=.&.=.=.=.:.:.:.:.:.:.:.:.:.:.,.,.<.<.,.<.<.<.<.<.<.<.3.<.3.3.3.3.3.3.<.3.<.<.3.3.3.3.3.3.5.5.6.6.9.9.9.w.r.u.u.u.p.p.f.f.h.h.h.h.l.l.l.l.l.v.v.v.v.v.v.v.v.v.v.v.v.N.N.N.N.N.N.B.B.B.B.B.A.B.B.B.A.A.A.A.S.A.D.D.D.D.D.J.J.J.J.J.J.D.D.D.D.D.D.A.A.A.B.B.B.B.B.N.n.v.v.v.l.l.l.h.h.f.s.s.p.p.u.u.u.u.r.r.w.r.w.9.9.9.9.9.9.6.6.6.6.6.3.<.<.,.:.=.=.&.@.@.o.o.X. .{ { [ [ ' _ / / / W W W W T I L D D B N b k k d s s y e q 0 8 6 6 6 2 , 2 2 , , , , , , , , , 2 , 2 , 2 2 2 6 6 6 6 6 6 6 6 6 6 6 6 6 6 6 6 6 6 2 6 6 9 9 0 q 0 q q q q q q q q 0 0 9 8 6 6 6 2 , , , - - & & & $ @ X !.!.!.!.!.!.!.!.!.!.!.!.!.!.!.!.!.!.!.!.!.!.!.!.!.!.!.!.!.!.!.!.!.!.!.!.!.!.!.!.!.!.!.!.!.!.!.!.!.!.!.!.!.!.!.!.!.!.!.!.!.!.!.!.!.!.!.!.!.!.!.!.!.!.!.!.!.!.!.!.!.!.!.!.!.!.!.!.!.!.!.!.!.!.!.!.!.!.!.",
"!.!.!.!.!.!.!.!.!.!.!.!.!.!.!.!.!.!.!.!.!.!.!.!.!.!.!.!.!.!.!.!.!.!.!.!.!.!.!.!.!.!.!.!.!.!.!.!.!.!.!.!.!.!.!.!.!.!.!.!.!.!.!.!.!.!.!.!.!.!.!.!.!.!.!.!.!.!.!.!.!.!.!.!.!.!.!.!.!.!.!.!.!.!.!.!.    X @ @ $ & & & & & - , , , 2 2 6 2 2 2 2 2 2 , 2 2 , , , , 2 2 2 2 2 2 2 6 6 7 7 0 e y y i s s s s s d d k d d d k x x z k z x n M B M B Z D D D D D D G H L I T W W W / / _ / _ ' ' [ { {  . .X.o.o.@.@.&.&.=.=.=.=.=.=.:.:.:.,.:.:.:.,.<.,.,.,.,.<.<.<.<.<.<.<.<.3.<.3.3.3.3.3.3.3.3.3.3.3.3.3.5.5.5.6.6.6.6.9.9.w.r.r.u.u.p.p.f.f.f.h.h.h.l.l.l.l.v.l.v.v.v.v.n.v.n.n.v.v.n.v.N.N.N.N.N.B.B.B.B.B.B.A.A.A.B.A.A.A.A.S.D.D.D.D.D.D.D.J.J.J.J.J.J.D.D.D.D.D.S.A.A.A.B.B.B.N.N.N.n.v.v.v.l.l.h.h.f.f.s.p.p.u.u.u.u.r.r.r.r.w.w.9.w.9.9.9.9.6.6.6.6.3.3.<.,.:.:.=.&.@.@.o.o. . .{ { [ [ ' _ _ / / W W W W T U L G D Z N b k k d s s y e q 9 6 6 2 2 2 2 2 2 , 2 , , , , , , , , , 2 2 , 2 2 6 6 6 8 6 6 6 6 6 6 6 6 6 6 6 6 6 6 6 6 8 9 0 q q q q q q q q q q q q 0 9 8 6 6 6 2 2 2 , - - & & & $ + X     !.!.!.!.!.!.!.!.!.!.!.!.!.!.!.!.!.!.!.!.!.!.!.!.!.!.!.!.!.!.!.!.!.!.!.!.!.!.!.!.!.!.!.!.!.!.!.!.!.!.!.!.!.!.!.!.!.!.!.!.!.!.!.!.!.!.!.!.!.!.!.!.!.!.!.!.!.!.!.!.!.!.!.!.!.!.!.!.!.!.!.!.!.!.!.!.!.",
"!.!.!.!.!.!.!.!.!.!.!.!.!.!.!.!.!.!.!.!.!.!.!.!.!.!.!.!.!.!.!.!.!.!.!.!.!.!.!.!.!.!.!.!.!.!.!.!.!.!.!.!.!.!.!.!.!.!.!.!.!.!.!.!.!.!.!.!.!.!.!.!.!.!.!.!.!.!.!.!.!.!.!.!.!.!.!.!.!.!.!.!.!.!.!.      X X @ $ $ & & & - - , , 2 2 6 6 2 2 2 2 2 2 2 2 2 2 2 2 2 , 2 2 2 2 2 2 6 6 7 7 e q e y y s s s s s s d d d d d k k z z k z x x N M B Z Z Z D D D G G L L I U R W W W ^ / / / _ _ ' [ { {  . .X.o.o.@.@.&.&.&.=.=.=.:.:.:.<.,.,.:.,.,.,.,.<.,.<.<.<.<.<.<.<.<.3.<.<.3.3.3.3.3.3.3.3.3.3.3.5.3.6.6.6.6.6.6.9.9.w.w.r.u.u.u.p.p.f.f.h.h.l.l.l.l.l.v.l.v.v.v.v.n.n.N.n.N.v.v.v.v.n.N.N.N.B.N.B.B.B.B.B.A.B.B.A.B.A.B.A.A.A.S.D.S.D.D.D.J.J.J.J.J.J.J.J.J.J.D.D.S.S.A.B.A.B.B.B.N.n.N.v.v.l.l.l.h.h.f.f.f.p.p.p.u.u.u.u.r.r.r.r.r.r.w.w.9.9.9.9.9.6.6.6.3.<.<.,.:.=.&.&.@.o.o.X. .{ { [ [ ' _ _ / / ! W W W T I L G D Z M x z k d s i y e q 9 8 6 2 2 , 2 2 2 2 , , , , , , , , , , , , 2 2 2 6 6 6 8 8 6 6 6 6 6 6 6 6 6 6 6 6 6 6 9 9 0 q q q q q q q q q q q q 0 0 9 9 8 6 6 6 2 , , , - - - & & + @     !.!.!.!.!.!.!.!.!.!.!.!.!.!.!.!.!.!.!.!.!.!.!.!.!.!.!.!.!.!.!.!.!.!.!.!.!.!.!.!.!.!.!.!.!.!.!.!.!.!.!.!.!.!.!.!.!.!.!.!.!.!.!.!.!.!.!.!.!.!.!.!.!.!.!.!.!.!.!.!.!.!.!.!.!.!.!.!.!.!.!.!.!.!.!.!.!.",
"!.!.!.!.!.!.!.!.!.!.!.!.!.!.!.!.!.!.!.!.!.!.!.!.!.!.!.!.!.!.!.!.!.!.!.!.!.!.!.!.!.!.!.!.!.!.!.!.!.!.!.!.!.!.!.!.!.!.!.!.!.!.!.!.!.!.!.!.!.!.!.!.!.!.!.!.!.!.!.!.!.!.!.!.!.!.!.!.!.!.!.!.!.!.!.    X X X @ & & & & - - , , , 2 2 6 2 2 2 2 2 2 2 2 , 2 2 , , 2 2 2 2 2 2 2 2 6 6 7 7 e e e e y y s s s s s s d d d d k k z z k k k x x n M Z Z Z D D D L L L L I Y W W W W / / / / _ [ [ { { {  . . .o.o.@.@.@.&.&.=.=.=.=.=.:.<.,.,.<.,.,.<.<.<.<.,.<.<.<.<.<.<.3.3.3.3.3.3.3.5.6.3.3.3.3.3.5.6.6.6.6.9.9.9.9.9.w.w.r.u.u.u.p.p.s.f.f.h.h.l.l.l.v.l.v.v.v.v.v.v.N.N.n.N.v.v.n.v.v.N.N.N.N.N.N.N.B.B.B.B.B.B.B.A.B.A.A.A.A.A.A.S.D.D.D.D.J.J.J.J.L.J.J.J.J.J.J.D.D.S.A.B.B.A.B.B.N.N.N.v.v.l.l.l.l.h.f.f.f.s.p.p.u.u.u.u.r.r.r.r.r.w.w.w.9.w.9.9.6.9.6.3.3.<.<.,.:.=.=.&.@.@.o.X. .{ { [ ' ' _ / / / W W W W T U L D D Z M x z k d s s y e q 9 8 6 2 2 , , 2 , 2 2 , , , , , , , , , , , 2 2 2 6 6 6 6 6 6 6 6 6 6 6 6 6 6 6 6 8 8 8 0 q q q q q q q 0 q q q q q 0 q q 0 9 9 8 8 6 6 2 , , - - - - & $ @ X   !.!.!.!.!.!.!.!.!.!.!.!.!.!.!.!.!.!.!.!.!.!.!.!.!.!.!.!.!.!.!.!.!.!.!.!.!.!.!.!.!.!.!.!.!.!.!.!.!.!.!.!.!.!.!.!.!.!.!.!.!.!.!.!.!.!.!.!.!.!.!.!.!.!.!.!.!.!.!.!.!.!.!.!.!.!.!.!.!.!.!.!.!.!.!.!.!.",
"!.!.!.!.!.!.!.!.!.!.!.!.!.!.!.!.!.!.!.!.!.!.!.!.!.!.!.!.!.!.!.!.!.!.!.!.!.!.!.!.!.!.!.!.!.!.!.!.!.!.!.!.!.!.!.!.!.!.!.!.!.!.!.!.!.!.!.!.!.!.!.!.!.!.!.!.!.!.!.!.!.!.!.!.!.!.!.!.!.!.!.!.!.!.!.!.!.    X @ & & & & - - , , 2 2 2 2 6 2 2 2 2 6 6 2 2 2 2 2 2 , 2 2 2 6 6 6 6 6 6 8 9 q e y y y y y i i i s s s d d d d k k k k k z x x x n M Z Z D D D H L I I U Y W W W W / / / _ ' ' [ [ { { {  . .o.o.o.@.@.&.&.=.=.=.=.=.:.:.,.,.,.<.<.<.<.3.<.<.<.<.<.<.3.3.3.3.3.3.3.3.5.6.6.6.6.6.5.6.6.6.6.6.6.9.9.9.w.w.r.r.u.u.p.p.p.f.f.f.f.h.l.l.l.v.v.v.v.v.v.n.n.N.N.N.N.v.N.v.n.n.N.N.N.N.N.N.N.B.B.B.B.B.B.B.B.A.B.A.B.A.A.S.A.S.D.D.D.D.D.J.J.J.L.L.J.J.J.J.D.D.D.D.S.A.A.B.B.B.N.N.n.v.v.l.l.l.h.h.h.f.f.s.p.p.p.u.u.u.u.r.r.r.r.r.w.w.w.w.9.9.9.6.6.6.3.3.<.,.:.=.=.&.@.@.o.X. .{ { [ [ ' _ / / / W W W W T U L G D Z M n z k d s i y y e 0 6 6 2 2 2 , 2 2 2 2 2 , 2 , , , , , , , , 2 2 2 6 6 6 8 8 6 6 6 6 6 6 6 6 6 8 6 8 8 9 0 q q q q q 0 0 q q q q q q q 0 0 9 0 9 9 6 6 6 2 , , , - - - & & @ X X   !.!.!.!.!.!.!.!.!.!.!.!.!.!.!.!.!.!.!.!.!.!.!.!.!.!.!.!.!.!.!.!.!.!.!.!.!.!.!.!.!.!.!.!.!.!.!.!.!.!.!.!.!.!.!.!.!.!.!.!.!.!.!.!.!.!.!.!.!.!.!.!.!.!.!.!.!.!.!.!.!.!.!.!.!.!.!.!.!.!.!.!.!.!.!.!.",
"!.!.!.!.!.!.!.!.!.!.!.!.!.!.!.!.!.!.!.!.!.!.!.!.!.!.!.!.!.!.!.!.!.!.!.!.!.!.!.!.!.!.!.!.!.!.!.!.!.!.!.!.!.!.!.!.!.!.!.!.!.!.!.!.!.!.!.!.!.!.!.!.!.!.!.!.!.!.!.!.!.!.!.!.!.!.!.!.!.!.!.!.!.!.!.!.!.!.  X @ & & & - - , , , 2 2 2 2 2 2 2 2 2 6 6 2 2 2 6 2 2 2 2 6 6 6 6 6 6 6 9 9 9 q q e y y y y y y y i s s s d d d k k k k k x x x n n N Z Z Z D D L I I U U T W W W W / / _ _ ' [ [ [ { { {  .o.X.o.o.@.@.@.&.&.=.=.=.=.:.:.,.,.<.<.<.3.3.3.3.<.<.3.3.3.3.3.3.3.3.3.5.5.5.6.6.6.6.6.6.6.6.6.9.6.9.9.9.w.w.r.r.u.u.p.p.p.f.f.f.h.h.h.l.l.v.v.v.v.v.n.N.N.N.N.N.N.n.n.n.n.n.N.N.N.N.N.N.N.N.B.B.B.B.A.B.B.A.B.A.A.A.A.S.S.D.D.D.D.D.J.J.J.J.J.L.L.J.J.J.J.D.D.D.D.S.A.B.B.B.B.N.N.N.v.v.l.l.l.h.h.f.f.f.f.p.p.p.u.u.u.r.r.r.r.r.r.r.r.w.w.w.9.9.9.6.5.3.3.<.,.:.=.=.&.&.@.o.o.X. .{ [ [ ' _ / / / W W W W R U L G D Z B n x k d d s y y e q 8 6 6 2 2 2 , 2 2 2 2 2 , , , , , , , , 2 , 2 2 6 6 8 8 8 8 6 6 6 6 6 6 6 6 6 8 8 9 9 q q e q q q 0 0 0 q q q q 0 9 9 9 9 7 0 8 6 6 2 2 2 , , , - - & & @ X X     !.!.!.!.!.!.!.!.!.!.!.!.!.!.!.!.!.!.!.!.!.!.!.!.!.!.!.!.!.!.!.!.!.!.!.!.!.!.!.!.!.!.!.!.!.!.!.!.!.!.!.!.!.!.!.!.!.!.!.!.!.!.!.!.!.!.!.!.!.!.!.!.!.!.!.!.!.!.!.!.!.!.!.!.!.!.!.!.!.!.!.!.!.!.!.",
"!.!.!.!.!.!.!.!.!.!.!.!.!.!.!.!.!.!.!.!.!.!.!.!.!.!.!.!.!.!.!.!.!.!.!.!.!.!.!.!.!.!.!.!.!.!.!.!.!.!.!.!.!.!.!.!.!.!.!.!.!.!.!.!.!.!.!.!.!.!.!.!.!.!.!.!.!.!.!.!.!.!.!.!.!.!.!.!.!.!.!.!.!.!.!.!.!.!.  X + & & - - - , , , 2 , 2 , 2 2 2 2 2 2 2 2 2 2 6 6 2 2 6 6 6 6 6 6 6 9 0 0 0 q q e y y y y y y y y y i s s d d d k k k z x b b x x N B Z D D D H L I U Y R W W W / / _ _ _ ' [ [ [ { { { {  .X.o.o.@.@.$.&.&.=.=.=.=.:.:.,.<.<.<.3.3.3.3.3.3.<.3.3.3.3.3.3.6.6.5.5.5.5.6.6.6.6.6.6.6.6.6.6.9.9.9.9.9.w.r.u.u.p.p.s.f.f.f.h.h.l.l.l.v.v.v.N.N.N.N.N.N.N.N.N.N.n.N.n.N.N.N.N.N.N.N.N.N.N.N.B.B.B.B.B.B.A.B.A.A.A.S.A.D.D.D.D.D.D.J.J.J.J.J.J.J.L.J.J.J.J.D.D.D.D.A.B.B.B.B.B.N.N.n.v.v.l.l.h.h.f.f.f.s.p.p.p.u.u.u.u.r.r.r.r.w.r.r.r.w.w.9.9.9.6.6.3.3.<.,.:.:.=.&.&.@.o.o.X. .{ { [ ' _ / / W W W W W R Y I G D Z Z N x z k d s s y y q 9 8 6 6 6 2 2 2 2 2 , 2 2 , , , , , , 2 2 2 2 6 6 6 6 8 6 6 8 8 8 8 8 6 8 6 8 8 0 9 0 0 q q q q 9 9 8 8 9 q q q 0 9 9 9 8 8 8 6 6 2 2 2 , 2 , , - - & & @ @ @ X     !.!.!.!.!.!.!.!.!.!.!.!.!.!.!.!.!.!.!.!.!.!.!.!.!.!.!.!.!.!.!.!.!.!.!.!.!.!.!.!.!.!.!.!.!.!.!.!.!.!.!.!.!.!.!.!.!.!.!.!.!.!.!.!.!.!.!.!.!.!.!.!.!.!.!.!.!.!.!.!.!.!.!.!.!.!.!.!.!.!.!.!.!.!.",
"!.!.!.!.!.!.!.!.!.!.!.!.!.!.!.!.!.!.!.!.!.!.!.!.!.!.!.!.!.!.!.!.!.!.!.!.!.!.!.!.!.!.!.!.!.!.!.!.!.!.!.!.!.!.!.!.!.!.!.!.!.!.!.!.!.!.!.!.!.!.!.!.!.!.!.!.!.!.!.!.!.!.!.!.!.!.!.!.!.!.!.!.!.!.!.!.!.!.  X + $ & - - , , , , , , 2 2 2 2 , , 2 2 2 2 2 6 6 6 6 2 6 6 6 6 7 6 6 8 0 0 0 q e y y y y y y y y y y i s s d d d d d k z x x x n b n M Z D D D G L I U T W W W W / / _ _ _ ' ' [ [ { { {  .o.o.o.o.@.@.&.&.&.=.=.=.=.=.:.,.<.<.3.3.3.5.3.3.3.3.5.6.3.3.3.5.6.6.6.6.6.6.6.6.6.6.6.6.6.6.9.9.9.9.w.w.w.r.u.u.p.p.s.f.f.f.h.h.l.l.l.v.v.N.N.N.N.B.N.N.B.N.N.N.N.N.N.n.N.N.N.N.N.n.N.n.N.N.N.B.B.B.B.A.B.A.A.A.S.A.S.D.D.D.D.D.D.J.J.L.L.L.P.P.P.L.L.J.J.J.D.D.D.S.A.A.A.B.B.B.N.N.v.v.l.l.l.h.h.h.f.f.s.p.p.p.u.u.u.u.u.r.r.r.r.w.r.w.w.w.9.9.6.6.6.3.3.<.,.,.:.=.=.&.@.@.o.X. .{ [ [ ' _ / / W W W W W R U L H D Z Z M n x k k d s i y y q 0 9 6 6 6 6 2 2 2 , , 2 2 , , , , 2 2 2 2 2 6 6 6 6 8 8 9 8 8 9 9 8 6 8 8 8 8 8 8 9 9 0 0 0 0 8 8 8 6 8 q q 0 0 9 8 9 8 8 6 6 6 2 2 , 2 2 , , , - - & @ + + @ X   !.!.!.!.!.!.!.!.!.!.!.!.!.!.!.!.!.!.!.!.!.!.!.!.!.!.!.!.!.!.!.!.!.!.!.!.!.!.!.!.!.!.!.!.!.!.!.!.!.!.!.!.!.!.!.!.!.!.!.!.!.!.!.!.!.!.!.!.!.!.!.!.!.!.!.!.!.!.!.!.!.!.!.!.!.!.!.!.!.!.!.!.!.!.",
"!.!.!.!.!.!.!.!.!.!.!.!.!.!.!.!.!.!.!.!.!.!.!.!.!.!.!.!.!.!.!.!.!.!.!.!.!.!.!.!.!.!.!.!.!.!.!.!.!.!.!.!.!.!.!.!.!.!.!.!.!.!.!.!.!.!.!.!.!.!.!.!.!.!.!.!.!.!.!.!.!.!.!.!.!.!.!.!.!.!.!.!.!.!.!.!.!.!.!.X + @ & - - , , , , , , , , , 2 2 2 , , 2 2 2 6 6 6 6 6 6 6 6 6 6 8 8 9 0 q 0 q e e y y y y y y i y y i s s s d d d d k k x x x x x x N Z D D D G L I Y R W W W / / / / _ _ ' _ [ [ { { {  .X.o.o.o.@.$.@.&.=.=.=.=.=.:.:.,.,.<.3.3.3.6.5.6.6.6.6.6.6.6.5.6.6.6.6.6.6.6.6.6.6.9.9.9.6.9.9.9.w.w.w.r.r.r.u.u.p.f.f.f.f.h.h.l.l.l.v.v.N.N.N.N.B.B.B.B.B.B.N.N.N.N.N.N.n.N.N.n.N.v.N.n.n.n.N.B.B.B.A.A.A.A.A.A.S.D.D.D.D.D.D.J.J.J.J.J.J.P.P.P.P.P.J.J.J.J.J.D.D.D.D.A.A.B.B.B.N.N.v.v.l.l.l.l.h.f.f.f.f.p.p.p.u.u.u.u.u.r.r.r.r.r.r.w.9.9.9.6.6.6.6.5.3.<.<.:.:.=.&.&.@.@.o.X. .{ { [ ' _ / / ^ W W W W R U L G D Z Z M n x x k d d s s i e q 0 9 8 6 6 6 2 2 2 , , , 2 2 2 , 2 2 2 2 6 6 6 6 6 8 8 9 9 9 9 8 9 6 6 6 6 8 8 8 9 9 0 9 9 8 6 6 6 6 8 0 q q 0 e 9 0 9 6 6 6 2 2 , , , 2 2 , , - - & & $ @ @ X X   !.!.!.!.!.!.!.!.!.!.!.!.!.!.!.!.!.!.!.!.!.!.!.!.!.!.!.!.!.!.!.!.!.!.!.!.!.!.!.!.!.!.!.!.!.!.!.!.!.!.!.!.!.!.!.!.!.!.!.!.!.!.!.!.!.!.!.!.!.!.!.!.!.!.!.!.!.!.!.!.!.!.!.!.!.!.!.!.!.!.!.!.!.",
"!.!.!.!.!.!.!.!.!.!.!.!.!.!.!.!.!.!.!.!.!.!.!.!.!.!.!.!.!.!.!.!.!.!.!.!.!.!.!.!.!.!.!.!.!.!.!.!.!.!.!.!.!.!.!.!.!.!.!.!.!.!.!.!.!.!.!.!.!.!.!.!.!.!.!.!.!.!.!.!.!.!.!.!.!.!.!.!.!.!.!.!.!.!.!.!.!.!.!.  @ @ & & & - - , , , , , , 2 2 2 2 , 2 , 2 2 6 2 6 6 6 6 6 6 6 6 8 9 9 8 9 q q e e e y y y y y y y y y i s s s s d d k k z z z x x x n M Z D D G L I T W W W W ! / / / _ _ _ _ ' [ [ { { {  .X.o.o.o.@.@.&.&.=.=.=.=.:.:.,.<.<.<.3.5.6.6.6.6.6.6.6.6.6.6.6.6.6.9.6.9.6.6.6.6.9.9.9.9.9.w.w.w.w.r.r.r.u.u.p.s.f.f.f.h.h.l.v.v.v.v.N.N.N.B.B.B.B.B.B.B.B.B.N.N.N.N.N.N.N.n.n.N.v.N.v.v.N.N.B.B.B.A.A.A.A.S.D.D.D.D.D.D.D.D.J.J.L.L.P.J.P.P.P.P.P.J.J.J.J.J.D.D.D.S.A.B.B.B.B.N.N.v.v.l.l.l.h.h.f.f.f.s.p.p.p.u.u.u.u.u.r.r.r.w.r.w.w.w.9.9.6.6.6.5.3.3.3.<.,.:.=.=.&.@.@.o.X. .{ { [ ' _ / / W W W W W R U L H D D Z M n b x z k d d s s y e e q 9 6 6 6 6 2 2 2 2 2 2 , 2 2 2 2 2 2 6 6 6 6 6 8 6 8 9 9 9 0 6 6 6 6 6 6 6 8 8 8 9 9 8 6 6 6 6 6 6 9 0 q q e 9 9 8 6 6 2 2 2 2 , , 2 2 2 2 , - - & & $ @ X X   !.!.!.!.!.!.!.!.!.!.!.!.!.!.!.!.!.!.!.!.!.!.!.!.!.!.!.!.!.!.!.!.!.!.!.!.!.!.!.!.!.!.!.!.!.!.!.!.!.!.!.!.!.!.!.!.!.!.!.!.!.!.!.!.!.!.!.!.!.!.!.!.!.!.!.!.!.!.!.!.!.!.!.!.!.!.!.!.!.!.!.!.!.",
"!.!.!.!.!.!.!.!.!.!.!.!.!.!.!.!.!.!.!.!.!.!.!.!.!.!.!.!.!.!.!.!.!.!.!.!.!.!.!.!.!.!.!.!.!.!.!.!.!.!.!.!.!.!.!.!.!.!.!.!.!.!.!.!.!.!.!.!.!.!.!.!.!.!.!.!.!.!.!.!.!.!.!.!.!.!.!.!.!.!.!.!.!.!.!.!.!.!.!.  X @ @ & & - - - - , , , 2 2 2 , , , , 2 2 2 6 6 6 6 6 6 6 6 6 9 0 0 9 9 9 0 0 q q e e y e e q e e e y y s s s s s d d k k k z x x n n M B D D G L U T W W W ! W / _ / _ _ _ _ _ ' [ [ { {  . .o.o.o.@.@.&.&.&.=.=.=.:.:.,.<.<.<.3.5.6.6.6.6.6.6.6.6.6.6.6.6.9.9.9.9.9.9.9.9.9.9.w.9.w.w.r.r.r.r.u.u.u.p.s.f.f.h.h.l.l.l.v.v.v.N.N.B.B.B.B.B.B.B.B.B.B.B.B.N.N.N.N.n.N.N.n.N.v.N.n.n.N.N.B.B.A.B.B.B.A.A.A.S.D.D.D.D.D.J.J.J.L.L.P.P.P.P.P.P.P.P.L.J.J.J.D.D.D.S.A.A.B.B.B.N.N.v.v.l.l.l.h.h.f.f.f.f.p.p.u.u.u.u.u.u.r.r.r.r.w.9.9.9.9.6.6.6.6.5.3.3.<.<.,.:.=.&.&.$.@.o.X. .{ { [ ' _ / / ! W W W W T U L H D D Z M N n x x z k d d s i y e e q 9 8 8 6 6 6 2 2 6 6 2 2 2 2 2 2 2 6 6 6 6 6 6 6 7 8 9 9 8 6 6 2 6 6 6 6 6 6 8 8 8 6 6 6 6 6 6 6 8 9 0 q e 8 8 6 6 6 2 2 2 2 , 2 2 2 2 2 , , - & & & @ X X   !.!.!.!.!.!.!.!.!.!.!.!.!.!.!.!.!.!.!.!.!.!.!.!.!.!.!.!.!.!.!.!.!.!.!.!.!.!.!.!.!.!.!.!.!.!.!.!.!.!.!.!.!.!.!.!.!.!.!.!.!.!.!.!.!.!.!.!.!.!.!.!.!.!.!.!.!.!.!.!.!.!.!.!.!.!.!.!.!.!.!.!.!.",
"!.!.!.!.!.!.!.!.!.!.!.!.!.!.!.!.!.!.!.!.!.!.!.!.!.!.!.!.!.!.!.!.!.!.!.!.!.!.!.!.!.!.!.!.!.!.!.!.!.!.!.!.!.!.!.!.!.!.!.!.!.!.!.!.!.!.!.!.!.!.!.!.!.!.!.!.!.!.!.!.!.!.!.!.!.!.!.!.!.!.!.!.!.!.!.!.!.!.!.  X X + $ & & - - - - , , 2 2 2 2 , , , 2 2 2 6 6 6 6 6 8 6 8 6 9 0 0 9 9 9 q 0 q q e e q q q q q q q e e y i i i s s d d k k k x x n n B B D D L I I Y R W W W ! / / / / / _ _ _ ' [ [ { {  . .X.o.o.@.@.@.&.&.=.=.=.:.:.,.<.<.3.3.5.6.6.6.6.6.6.6.6.6.6.6.9.9.9.9.9.9.9.w.9.w.w.w.w.r.r.u.u.u.u.u.p.p.p.s.f.h.h.h.l.l.v.v.n.N.N.B.B.B.B.A.B.B.B.B.B.B.B.B.N.N.N.v.N.n.n.n.n.N.N.N.n.N.N.B.B.B.B.B.A.B.A.S.D.D.D.D.J.J.J.J.L.L.P.P.U.P.P.U.P.U.P.L.L.J.J.D.D.D.A.A.A.B.B.B.N.N.v.v.l.l.l.h.h.h.f.f.f.p.p.p.u.u.u.u.u.u.r.w.w.w.9.9.9.6.6.6.6.6.5.3.3.<.,.:.:.=.=.&.$.o.o.X. .{ { [ ' _ / / ! W W W W Y U L H G D Z Z M N n x x k k d s s i y e q q 0 9 6 6 6 6 6 6 6 6 6 2 2 2 2 2 6 6 6 6 6 6 6 7 7 6 8 6 6 2 2 2 2 2 6 6 6 6 6 6 6 6 6 6 6 6 6 8 8 9 9 8 8 6 6 6 6 6 2 2 2 , 2 , 2 , , , , - - & & & @ X X           !.!.!.!.!.!.!.!.!.!.!.!.!.!.!.!.!.!.!.!.!.!.!.!.!.!.!.!.!.!.!.!.!.!.!.!.!.!.!.!.!.!.!.!.!.!.!.!.!.!.!.!.!.!.!.!.!.!.!.!.!.!.!.!.!.!.!.!.!.!.!.!.!.!.!.!.!.!.!.!.!.!.!.!.!.!.!.!.",
"!.!.!.!.!.!.!.!.!.!.!.!.!.!.!.!.!.!.!.!.!.!.!.!.!.!.!.!.!.!.!.!.!.!.!.!.!.!.!.!.!.!.!.!.!.!.!.!.!.!.!.!.!.!.!.!.!.!.!.!.!.!.!.!.!.!.!.!.!.!.!.!.!.!.!.!.!.!.!.!.!.!.!.!.!.!.!.!.!.!.!.!.!.!.!.!.!.!.!.!.  X @ + & & & & & - - , , 2 2 2 2 2 2 2 6 6 6 6 8 9 8 8 6 6 8 9 0 q 0 9 0 q q q q q q q 0 0 0 0 q q 0 q e y y y i s d d k k k k z x n M Z D D L U U T R W W W W / / / / / / / _ _ ' [ { {  . .X.o.o.@.@.@.&.&.=.=.=.=.:.,.<.<.3.3.3.6.6.6.6.6.6.6.6.6.9.9.9.9.9.w.w.r.r.r.r.r.r.u.r.u.u.u.u.u.u.p.p.s.f.f.f.h.h.l.l.v.v.n.N.B.B.B.A.A.A.A.A.A.B.B.B.N.N.N.N.N.N.N.v.n.n.n.n.n.N.N.N.N.N.B.B.B.B.A.A.A.A.S.D.D.D.J.J.J.J.J.J.P.P.P.P.P.P.U.U.P.P.L.L.J.J.D.D.D.D.A.A.B.B.B.n.N.v.v.l.l.l.h.h.h.f.f.s.p.p.u.u.u.u.u.u.r.r.r.w.9.9.9.6.6.6.6.6.6.3.3.<.<.,.:.:.=.&.&.@.@.o.X. .{ { [ ' / / / W W W W R Y I L L G D D Z Z M N n x z k d d s i y y e e q 0 8 7 6 6 6 2 2 6 6 2 2 6 6 6 6 6 6 8 6 6 6 6 6 6 6 6 2 2 2 2 2 6 6 6 6 6 6 6 6 6 6 2 2 6 6 6 6 9 8 6 6 6 6 6 6 6 6 2 2 2 2 , , , , , , - - & & & & + X X X X     X     !.!.!.!.!.!.!.!.!.!.!.!.!.!.!.!.!.!.!.!.!.!.!.!.!.!.!.!.!.!.!.!.!.!.!.!.!.!.!.!.!.!.!.!.!.!.!.!.!.!.!.!.!.!.!.!.!.!.!.!.!.!.!.!.!.!.!.!.!.!.!.!.!.!.!.!.!.!.!.!.!.!.!.!.!.",
"!.!.!.!.!.!.!.!.!.!.!.!.!.!.!.!.!.!.!.!.!.!.!.!.!.!.!.!.!.!.!.!.!.!.!.!.!.!.!.!.!.!.!.!.!.!.!.!.!.!.!.!.!.!.!.!.!.!.!.!.!.!.!.!.!.!.!.!.!.!.!.!.!.!.!.!.!.!.!.!.!.!.!.!.!.!.!.!.!.!.!.!.!.!.!.!.!.!.!.!.    X @ + @ $ & & - - , , 2 2 6 2 2 2 6 6 6 7 9 9 0 9 9 8 8 9 e 0 q q 9 0 0 9 q q q q 0 9 8 8 9 9 9 9 9 q e e y y i s d d d k k z x N Z Z D G L U Y R W W W W W W W / / / / / _ _ ' [ { { {  .X.o.o.o.@.@.&.&.&.=.=.:.:.,.<.<.3.3.5.6.6.6.9.6.6.6.6.9.9.9.9.w.w.w.r.r.r.r.u.u.u.u.u.u.u.p.p.p.p.p.p.f.f.f.h.h.l.l.l.v.v.N.B.B.B.A.S.D.A.A.A.B.B.B.B.B.N.N.N.N.N.v.n.n.v.n.n.N.N.N.B.N.B.B.B.A.A.A.A.A.A.D.D.D.D.J.J.J.J.J.J.P.U.U.P.P.U.U.U.P.P.P.L.J.J.D.D.D.D.A.A.B.B.N.N.n.v.l.l.l.l.h.h.f.f.f.f.p.p.u.u.u.u.u.u.r.r.w.w.9.9.9.6.6.6.6.6.6.3.3.<.<.,.:.:.=.&.&.$.@.o.X. .{ { [ _ _ / / W W W W W Y I L L G D D Z Z M N n x x k k k d s i y y e q q 9 9 7 6 6 2 6 2 2 2 6 6 6 6 6 6 6 6 6 6 6 6 6 6 2 2 2 , 2 2 2 2 2 2 6 6 6 6 6 2 2 2 2 2 6 6 6 6 8 8 6 6 6 6 6 6 6 6 6 2 2 2 , , , , , , - & & & & $ + X @ @ X X X X     !.!.!.!.!.!.!.!.!.!.!.!.!.!.!.!.!.!.!.!.!.!.!.!.!.!.!.!.!.!.!.!.!.!.!.!.!.!.!.!.!.!.!.!.!.!.!.!.!.!.!.!.!.!.!.!.!.!.!.!.!.!.!.!.!.!.!.!.!.!.!.!.!.!.!.!.!.!.!.!.!.!.!.!.",
"!.!.!.!.!.!.!.!.!.!.!.!.!.!.!.!.!.!.!.!.!.!.!.!.!.!.!.!.!.!.!.!.!.!.!.!.!.!.!.!.!.!.!.!.!.!.!.!.!.!.!.!.!.!.!.!.!.!.!.!.!.!.!.!.!.!.!.!.!.!.!.!.!.!.!.!.!.!.!.!.!.!.!.!.!.!.!.!.!.!.!.!.!.!.!.!.!.!.!.!.    X X @ @ + $ & & - - , 2 2 2 2 2 2 6 6 8 0 e 0 q 9 0 0 9 0 0 q q q q 0 0 0 q 0 0 q 9 8 6 6 6 6 6 8 9 0 q q q e y s d d d k k x x N B Z D G L I T R ! W W W W W ! ! / / / / / _ _ ' [ { { {  .o.o.o.@.@.@.&.&.=.=.:.:.,.,.<.3.3.5.6.6.6.9.9.9.9.9.9.9.9.w.w.r.r.u.u.u.u.u.u.u.u.p.p.p.p.s.s.f.f.f.f.h.h.l.l.l.l.v.n.N.B.B.B.A.D.D.D.A.A.A.A.A.B.B.B.B.N.N.N.N.v.n.v.v.n.n.N.N.N.B.B.B.B.B.B.A.A.A.A.A.D.D.D.D.J.J.J.J.J.J.P.P.P.P.U.P.U.U.U.U.P.L.J.J.D.D.D.D.A.B.B.B.N.N.v.v.v.v.l.l.h.h.h.f.f.p.p.p.u.u.u.u.u.r.r.w.w.w.9.9.9.6.6.6.6.6.6.3.3.<.<.,.:.:.=.&.&.@.o.o.X. .{ [ [ _ _ / / W W W W R U I L L G D D Z Z M M N x b z k k d d s i y e e q 0 9 8 6 6 2 2 2 2 2 6 6 6 6 6 6 6 6 6 6 6 6 2 2 , 2 , , , 2 , , 2 2 2 2 2 2 6 2 2 2 2 2 2 6 6 6 6 6 8 6 6 6 6 6 6 6 6 2 2 2 2 2 , , , - - - & & & $ @ @ + @ @ @ @ X X   !.!.!.!.!.!.!.!.!.!.!.!.!.!.!.!.!.!.!.!.!.!.!.!.!.!.!.!.!.!.!.!.!.!.!.!.!.!.!.!.!.!.!.!.!.!.!.!.!.!.!.!.!.!.!.!.!.!.!.!.!.!.!.!.!.!.!.!.!.!.!.!.!.!.!.!.!.!.!.!.!.!.!.!.",
"!.!.!.!.!.!.!.!.!.!.!.!.!.!.!.!.!.!.!.!.!.!.!.!.!.!.!.!.!.!.!.!.!.!.!.!.!.!.!.!.!.!.!.!.!.!.!.!.!.!.!.!.!.!.!.!.!.!.!.!.!.!.!.!.!.!.!.!.!.!.!.!.!.!.!.!.!.!.!.!.!.!.!.!.!.!.!.!.!.!.!.!.!.!.!.!.!.!.!.!.!.  X X X X @ @ $ & & - ; , , 2 2 2 6 6 6 0 e q 0 q 0 q q q q q q e q q q q q 0 0 9 9 8 8 6 6 6 6 6 6 8 9 q q q e y s d k k k x b x N Z D D G L I Y R W W W W W W W W ! / / / / / _ _ ' [ { {  . . .o.o.@.@.&.&.=.=.=.:.,.<.<.3.3.3.6.6.9.9.9.9.9.w.r.w.r.r.r.r.u.u.u.u.u.u.p.p.s.s.f.s.f.f.f.f.h.h.h.h.l.l.l.v.v.v.N.N.B.B.S.D.D.D.D.D.A.A.A.B.B.B.B.B.B.N.N.N.N.N.n.n.n.n.N.N.B.B.B.B.B.A.A.A.S.A.A.S.D.D.D.D.J.J.J.J.J.J.J.P.P.U.U.U.U.U.P.P.P.J.J.J.J.D.D.S.S.A.B.B.N.N.n.v.v.v.l.l.h.h.h.f.f.s.p.p.u.u.u.u.r.r.r.w.9.9.9.9.6.6.6.6.5.3.3.3.3.<.<.:.:.=.=.&.@.@.o.X. . .{ [ ' _ _ / / W W W W R U I L H G D D Z Z B M N n x x k k k d s s i y e q 0 0 8 6 6 2 2 2 2 2 6 6 6 6 2 2 2 2 6 2 6 2 2 2 , , , , , , , , 2 2 2 2 , , 2 2 2 2 2 , 2 2 6 6 6 6 6 6 6 2 2 2 6 6 6 2 2 2 2 2 , 2 , , - - & & & @ @ + + + + + + @ X   !.!.!.!.!.!.!.!.!.!.!.!.!.!.!.!.!.!.!.!.!.!.!.!.!.!.!.!.!.!.!.!.!.!.!.!.!.!.!.!.!.!.!.!.!.!.!.!.!.!.!.!.!.!.!.!.!.!.!.!.!.!.!.!.!.!.!.!.!.!.!.!.!.!.!.!.!.!.!.!.!.!.!.!.",
"!.!.!.!.!.!.!.!.!.!.!.!.!.!.!.!.!.!.!.!.!.!.!.!.!.!.!.!.!.!.!.!.!.!.!.!.!.!.!.!.!.!.!.!.!.!.!.!.!.!.!.!.!.!.!.!.!.!.!.!.!.!.!.!.!.!.!.!.!.!.!.!.!.!.!.!.!.!.!.!.!.!.!.!.!.!.!.!.!.!.!.!.!.!.!.!.!.!.!.!.!.!.    X X X @ @ @ & & - , , , 2 2 6 6 6 8 9 0 q q q 0 q e e e e e e y q q q 0 q 9 8 8 6 6 6 6 6 6 6 8 0 q q q q y s d k k z b x N B Z D D G L I T W W W W W W W W W W / / / _ / / _ ' [ { { { {  .X.o.o.@.@.&.&.=.=.:.,.,.<.3.3.6.6.6.9.9.9.9.9.w.r.r.r.r.u.u.u.u.p.p.p.p.p.f.f.f.f.f.f.f.h.h.h.h.l.l.l.l.l.v.v.n.N.B.B.A.D.D.J.D.D.D.A.A.A.A.A.B.B.B.B.N.N.N.N.N.N.n.N.N.N.B.B.B.B.A.A.A.A.A.S.A.S.D.D.D.D.J.J.J.J.J.L.L.P.P.P.P.U.U.U.U.U.U.P.L.J.J.J.J.D.S.A.A.B.B.N.N.v.v.v.l.l.l.l.h.f.f.f.p.p.p.u.u.u.u.r.r.w.9.9.9.9.6.6.6.6.5.5.3.3.3.<.<.,.:.:.=.=.&.@.@.o.X. .{ { [ ' _ / / / W W W W R U L L H D D D Z Z B M N n b x k k k d d s s y y e q q 8 7 6 6 6 2 2 2 2 6 6 2 2 2 2 2 2 2 2 2 2 , , , , , , , , , , , , , , , 2 2 , 2 2 2 , 2 6 6 6 8 6 6 6 2 2 2 6 6 6 6 6 2 2 2 , 2 , - - & & & & $ $ $ @ + @ + @ + X X   !.!.!.!.!.!.!.!.!.!.!.!.!.!.!.!.!.!.!.!.!.!.!.!.!.!.!.!.!.!.!.!.!.!.!.!.!.!.!.!.!.!.!.!.!.!.!.!.!.!.!.!.!.!.!.!.!.!.!.!.!.!.!.!.!.!.!.!.!.!.!.!.!.!.!.!.!.!.!.!.!.!.!.",
"!.!.!.!.!.!.!.!.!.!.!.!.!.!.!.!.!.!.!.!.!.!.!.!.!.!.!.!.!.!.!.!.!.!.!.!.!.!.!.!.!.!.!.!.!.!.!.!.!.!.!.!.!.!.!.!.!.!.!.!.!.!.!.!.!.!.!.!.!.!.!.!.!.!.!.!.!.!.!.!.!.!.!.!.!.!.!.!.!.!.!.!.!.!.!.!.!.!.!.!.!.!.!.      X X @ + $ & - - , 2 2 2 2 6 6 8 9 0 0 q q q e e e y e e y e e q q q 0 9 8 8 6 6 6 6 6 6 6 8 0 q q q e y s k k x x x n N M Z D D G L I T W W W W W W W W W W ! / / _ / / _ ' [ [ { { {  .X.o.o.@.@.&.=.=.=.:.:.,.<.3.3.6.6.6.6.9.9.9.w.r.r.u.u.u.u.u.p.p.p.p.s.f.f.f.f.h.h.h.h.h.h.h.l.l.l.l.l.v.v.v.N.N.B.B.A.D.D.D.D.D.D.D.D.A.A.A.A.A.B.B.B.B.N.N.N.N.N.N.N.N.N.B.A.B.A.A.A.A.S.S.D.D.D.D.D.D.J.J.J.J.J.L.L.P.U.U.P.U.U.U.U.U.U.P.P.P.J.J.J.J.D.D.D.A.B.B.N.N.n.v.v.v.l.l.h.h.f.f.f.p.p.u.u.u.u.r.r.w.w.w.9.9.6.6.6.6.6.5.3.3.3.<.<.,.:.:.=.=.&.&.@.o.X.X. .{ { [ ' _ _ / / W W W W R U I L G D D Z Z B B M N x b z z k k d d s s s i y e q 0 6 6 6 2 2 2 2 2 2 2 2 2 2 2 2 2 2 , , , , , , , , , , - - - , - - - , 2 2 , , 2 , , 2 2 6 6 6 6 2 2 , 2 , 2 2 6 2 2 2 2 2 2 2 , - & & & & & & & $ $ $ @ @ @ + @ X   !.!.!.!.!.!.!.!.!.!.!.!.!.!.!.!.!.!.!.!.!.!.!.!.!.!.!.!.!.!.!.!.!.!.!.!.!.!.!.!.!.!.!.!.!.!.!.!.!.!.!.!.!.!.!.!.!.!.!.!.!.!.!.!.!.!.!.!.!.!.!.!.!.!.!.!.!.!.!.!.!.!.!.",
"!.!.!.!.!.!.!.!.!.!.!.!.!.!.!.!.!.!.!.!.!.!.!.!.!.!.!.!.!.!.!.!.!.!.!.!.!.!.!.!.!.!.!.!.!.!.!.!.!.!.!.!.!.!.!.!.!.!.!.!.!.!.!.!.!.!.!.!.!.!.!.!.!.!.!.!.!.!.!.!.!.!.!.!.!.!.!.!.!.!.!.!.!.!.!.!.!.!.!.!.!.!.!.!.!.      X @ @ & & - - , 2 2 2 6 6 8 9 q q q q q e y y y y y y y y e q q q q 9 8 6 6 6 6 6 6 8 9 0 q q e y s d k x x n n N M M Z D D G L I Y R W W W W W W W W W / / _ / / / _ ' [ [ { { {  .X.o.o.@.@.&.&.=.:.:.:.<.<.3.3.6.6.6.6.9.9.9.r.r.u.u.u.u.u.p.p.s.f.f.f.f.f.h.h.h.h.l.h.l.l.l.l.l.v.v.v.n.N.N.N.B.B.B.D.D.D.D.D.D.D.D.D.A.A.A.A.A.B.B.B.N.B.B.N.N.N.N.N.B.B.B.B.B.A.S.S.A.D.D.D.D.D.D.D.J.D.J.J.J.J.J.P.P.U.U.P.U.U.R.U.U.U.U.P.P.J.J.J.D.D.D.A.B.B.B.B.N.N.v.v.v.l.l.h.h.f.f.s.p.p.u.u.u.r.r.r.w.w.9.9.9.9.6.6.6.5.3.3.3.<.<.<.,.:.:.=.&.&.@.@.o.X. . .{ [ ' _ _ / / / W W W W R U I L H D D Z Z Z B M N n b x z z k k d s s s i y y e q 7 6 6 6 2 2 2 2 6 2 2 , 2 2 2 2 2 2 , , , - - - - - - - - - - - & - - , , , 2 2 2 2 2 2 2 2 2 2 2 2 , , , , 2 2 2 2 2 2 2 , , , ; & & & & & $ $ @ $ $ $ $ @ @ @ X X !.!.!.!.!.!.!.!.!.!.!.!.!.!.!.!.!.!.!.!.!.!.!.!.!.!.!.!.!.!.!.!.!.!.!.!.!.!.!.!.!.!.!.!.!.!.!.!.!.!.!.!.!.!.!.!.!.!.!.!.!.!.!.!.!.!.!.!.!.!.!.!.!.!.!.!.!.!.!.!.!.!.!.",
"!.!.!.!.!.!.!.!.!.!.!.!.!.!.!.!.!.!.!.!.!.!.!.!.!.!.!.!.!.!.!.!.!.!.!.!.!.!.!.!.!.!.!.!.!.!.!.!.!.!.!.!.!.!.!.!.!.!.!.!.!.!.!.!.!.!.!.!.!.!.!.!.!.!.!.!.!.!.!.!.!.!.!.!.!.!.!.!.!.!.!.!.!.!.!.!.!.!.!.!.!.!.!.!.!.!.!.    X @ @ & - - , 2 2 2 6 6 8 8 0 q q q e y y y y y y y y y e e q q q 0 8 6 6 6 6 6 6 9 q q e e y s d k z b N M B B B Z Z D D G L L U T W W W W W W W W ^ / / / / / / _ ' [ [ { { {  .X.X.o.@.@.&.=.=.=.:.,.<.<.<.3.6.6.6.9.9.9.w.r.r.u.u.u.p.p.p.f.f.f.f.f.h.h.h.l.l.l.l.l.l.l.v.v.v.v.n.N.n.N.N.B.B.A.D.D.D.D.D.D.D.D.D.D.A.A.A.A.A.B.B.B.B.B.B.N.N.N.N.B.B.B.B.A.A.A.D.D.D.D.D.D.D.D.D.D.D.D.J.L.J.J.P.P.P.P.P.U.U.U.U.U.U.U.U.P.J.J.J.J.D.D.D.S.A.B.B.N.N.n.n.v.l.l.l.h.h.f.f.s.p.u.u.u.u.r.r.r.w.w.9.9.9.6.6.6.6.3.3.3.3.<.<.,.:.=.=.=.&.&.$.@.o.X. .{ { [ ' _ / / / W W W W W T U I L H D D D Z Z B M N n x x z k k k d d s s i y y e q 0 6 6 6 2 2 2 2 6 2 2 2 , , , , , , - - - - - - & - - - - - - - - - - , , , , , 2 , , 2 2 2 2 2 2 , , , , 2 2 , 2 2 2 2 2 2 , ; - & & @ & & $ & & $ $ @ + @ + + X X !.!.!.!.!.!.!.!.!.!.!.!.!.!.!.!.!.!.!.!.!.!.!.!.!.!.!.!.!.!.!.!.!.!.!.!.!.!.!.!.!.!.!.!.!.!.!.!.!.!.!.!.!.!.!.!.!.!.!.!.!.!.!.!.!.!.!.!.!.!.!.!.!.!.!.!.!.!.!.!.!.!.!.",
"!.!.!.!.!.!.!.!.!.!.!.!.!.!.!.!.!.!.!.!.!.!.!.!.!.!.!.!.!.!.!.!.!.!.!.!.!.!.!.!.!.!.!.!.!.!.!.!.!.!.!.!.!.!.!.!.!.!.!.!.!.!.!.!.!.!.!.!.!.!.!.!.!.!.!.!.!.!.!.!.!.!.!.!.!.!.!.!.!.!.!.!.!.!.!.!.!.!.!.!.!.!.!.!.!.!.!.!.!.  X @ $ & - - , 2 2 6 8 8 9 q q e e e e y y y i i y y y y y e q q 0 9 8 6 6 6 6 8 0 q e y y i s d k x n M Z Z Z Z Z D D D D G L I Y R W W W W W W ! / / / / / / _ _ ' [ [ { { {  .X.o.o.@.$.&.=.=.=.:.,.,.<.3.3.6.6.9.9.w.w.r.u.u.u.p.p.p.f.f.f.f.h.h.h.h.l.l.l.l.l.l.v.l.v.v.v.n.n.N.B.B.B.B.B.A.D.D.D.D.J.J.D.D.D.D.S.A.A.A.A.A.A.B.B.N.B.B.N.N.N.B.B.B.B.A.A.A.D.D.D.D.D.J.D.J.J.J.J.J.J.J.J.J.P.P.P.P.P.P.U.U.R.R.U.U.U.P.P.L.L.J.J.D.D.D.A.A.B.B.B.N.n.v.v.l.l.l.h.h.f.f.s.p.p.u.u.u.r.r.r.r.w.9.9.9.6.6.6.3.3.3.3.<.<.,.,.:.=.=.&.&.@.@.o.o. . .{ { [ ' _ / / / ^ W W W W T I L L H G D D Z Z B B M N n x z k k k d d d s i y y e q 9 6 6 2 2 2 2 2 2 2 , , , , , , , , - - - & & & & & & - - - - - - - - - - - , , 2 , , 2 2 2 2 2 2 , , , , , , , , , , 2 , , - - & & @ + @ @ @ + @ $ @ + @ @ + + X     !.!.!.!.!.!.!.!.!.!.!.!.!.!.!.!.!.!.!.!.!.!.!.!.!.!.!.!.!.!.!.!.!.!.!.!.!.!.!.!.!.!.!.!.!.!.!.!.!.!.!.!.!.!.!.!.!.!.!.!.!.!.!.!.!.!.!.!.!.!.!.!.!.!.!.!.!.!.!.!.!.!.",
"!.!.!.!.!.!.!.!.!.!.!.!.!.!.!.!.!.!.!.!.!.!.!.!.!.!.!.!.!.!.!.!.!.!.!.!.!.!.!.!.!.!.!.!.!.!.!.!.!.!.!.!.!.!.!.!.!.!.!.!.!.!.!.!.!.!.!.!.!.!.!.!.!.!.!.!.!.!.!.!.!.!.!.!.!.!.!.!.!.!.!.!.!.!.!.!.!.!.!.!.!.!.!.!.!.!.!.!.!.!.  X + & & - , 2 2 6 6 9 q 0 q e e e e y y y y y y y y e y e q q q 9 9 6 6 6 8 9 q y y s s s d k x x M B Z D D D D D D D G G L I U R W W W W W W W / / / / _ _ _ ' ' [ { {  . .X.o.o.@.@.&.&.=.=.:.:.,.<.<.3.5.6.9.9.9.w.r.u.u.u.p.p.s.f.f.f.h.h.h.h.l.l.l.l.l.v.v.v.n.v.v.N.N.B.B.N.B.B.B.A.A.A.D.D.J.D.J.J.D.J.D.D.D.S.A.A.A.A.A.A.B.B.B.B.N.B.N.B.B.B.A.A.A.A.D.D.D.D.J.J.J.J.L.J.L.J.L.J.J.J.J.P.P.P.P.P.U.U.R.R.U.U.U.P.P.J.L.J.J.D.D.D.S.A.B.B.B.N.N.v.v.l.l.l.h.h.f.f.s.p.p.u.u.u.r.r.w.w.9.9.9.9.6.6.5.3.3.3.3.<.<.,.:.:.=.=.&.&.@.@.o.o. . .{ { [ ' _ / / / W W W W W T U I L L G D D D Z Z Z M M n x x k k k d d s s i y y q q 9 6 6 6 2 2 2 2 2 2 2 , , , , , , , - - - & & & & & & & - - - - - - - - - - , , , 2 , 2 2 2 , , , , - - - - - , , , , , , , - - & @ + @ + @ @ + @ @ + @ @ @ @ @ X     !.!.!.!.!.!.!.!.!.!.!.!.!.!.!.!.!.!.!.!.!.!.!.!.!.!.!.!.!.!.!.!.!.!.!.!.!.!.!.!.!.!.!.!.!.!.!.!.!.!.!.!.!.!.!.!.!.!.!.!.!.!.!.!.!.!.!.!.!.!.!.!.!.!.!.!.!.!.!.!.!.!.",
"!.!.!.!.!.!.!.!.!.!.!.!.!.!.!.!.!.!.!.!.!.!.!.!.!.!.!.!.!.!.!.!.!.!.!.!.!.!.!.!.!.!.!.!.!.!.!.!.!.!.!.!.!.!.!.!.!.!.!.!.!.!.!.!.!.!.!.!.!.!.!.!.!.!.!.!.!.!.!.!.!.!.!.!.!.!.!.!.!.!.!.!.!.!.!.!.!.!.!.!.!.!.!.!.!.!.!.!.!.!.!.  @ $ & - , , 2 2 6 9 0 q q e e e e e y y i i s y y e e e e q q 0 9 8 6 8 9 0 e y s s s s d k x N B Z Z D D D D D G G H L L I Y R W W W W W / / / / / _ _ _ ' ' [ [ { {  .o.o.o.@.@.@.&.&.=.=.:.:.,.<.3.5.6.6.6.9.w.r.r.u.u.p.p.s.f.f.h.h.h.h.l.l.l.l.v.v.v.n.n.N.N.B.N.B.B.B.B.B.B.A.A.D.D.D.J.J.J.J.J.J.J.D.D.D.D.S.A.S.A.A.A.B.B.B.B.B.B.B.B.B.B.B.A.A.D.D.D.D.J.J.D.J.J.J.L.P.P.L.L.J.J.J.P.P.P.P.P.U.U.R.U.R.U.U.U.P.P.J.L.J.J.J.D.D.D.A.A.B.B.N.N.n.v.v.l.l.h.h.h.f.s.p.p.u.u.r.r.r.w.w.9.9.9.6.6.6.3.3.3.<.<.<.,.,.:.=.=.&.&.&.@.o.o.o. .{ { { [ ' _ / / / / W W W W R U U I L G G D D Z Z Z B M n x x k k k d d s s y y e q 0 8 6 6 6 2 6 6 2 2 2 , , , , , , , , - - & & & & & & & & & & & & - - - - - & - - , , , 2 2 2 2 , , , - - & - - ; , , , , , - - & & @ + @ X @ @ @ + + @ @ + @ X X X     !.!.!.!.!.!.!.!.!.!.!.!.!.!.!.!.!.!.!.!.!.!.!.!.!.!.!.!.!.!.!.!.!.!.!.!.!.!.!.!.!.!.!.!.!.!.!.!.!.!.!.!.!.!.!.!.!.!.!.!.!.!.!.!.!.!.!.!.!.!.!.!.!.!.!.!.!.!.!.!.!.!.",
"!.!.!.!.!.!.!.!.!.!.!.!.!.!.!.!.!.!.!.!.!.!.!.!.!.!.!.!.!.!.!.!.!.!.!.!.!.!.!.!.!.!.!.!.!.!.!.!.!.!.!.!.!.!.!.!.!.!.!.!.!.!.!.!.!.!.!.!.!.!.!.!.!.!.!.!.!.!.!.!.!.!.!.!.!.!.!.!.!.!.!.!.!.!.!.!.!.!.!.!.!.!.!.!.!.!.!.!.!.!.!.  X @ & & - , , 6 6 8 9 q e e y e y e y y s s s i i y e e e e q q q 0 9 0 q e y s s s d d d k x N M B Z D D G G G G L L L I U T W W W W W W W / / / / _ _ _ [ [ [ { {  . .o.@.@.@.$.&.&.&.=.=.:.,.<.<.3.5.6.9.9.9.w.r.u.u.p.s.s.f.f.h.h.l.l.l.l.l.v.v.v.n.n.N.N.B.B.B.B.B.B.B.A.A.A.D.D.D.D.J.D.J.J.J.J.J.D.D.D.D.D.D.S.A.A.A.A.B.B.B.B.B.B.B.B.B.B.B.A.A.D.D.D.D.J.J.J.J.L.L.P.P.U.P.P.L.P.P.P.P.P.P.U.U.R.U.U.U.U.U.P.P.P.J.L.L.J.J.D.D.D.A.B.B.B.B.N.n.v.v.l.l.l.h.f.f.f.p.p.u.u.u.r.w.w.w.9.9.9.6.6.6.3.3.3.<.<.<.,.:.:.=.=.=.&.@.@.o.o.X. .{ { { [ ' _ _ / / / W W W W W T U I L G D D D D Z Z Z M N x x k k d d d s i y y e q 0 8 6 6 6 6 6 6 2 2 2 2 , 2 2 , , , , - - & & & & & & & & & & & & - & & & & & & & ; , , , 2 2 2 , , - - & & & ; ; ; , - - - - & & $ @ @ X X X X X @ + + + @ @ X X     !.!.!.!.!.!.!.!.!.!.!.!.!.!.!.!.!.!.!.!.!.!.!.!.!.!.!.!.!.!.!.!.!.!.!.!.!.!.!.!.!.!.!.!.!.!.!.!.!.!.!.!.!.!.!.!.!.!.!.!.!.!.!.!.!.!.!.!.!.!.!.!.!.!.!.!.!.!.!.!.!.!.!.",
"!.!.!.!.!.!.!.!.!.!.!.!.!.!.!.!.!.!.!.!.!.!.!.!.!.!.!.!.!.!.!.!.!.!.!.!.!.!.!.!.!.!.!.!.!.!.!.!.!.!.!.!.!.!.!.!.!.!.!.!.!.!.!.!.!.!.!.!.!.!.!.!.!.!.!.!.!.!.!.!.!.!.!.!.!.!.!.!.!.!.!.!.!.!.!.!.!.!.!.!.!.!.!.!.!.!.!.!.!.!.!.  X + @ & - - , 2 6 8 q e e y y y y i i i s s s s s y y e e e e e q 0 q q e y i s s d d k k z x M M Z Z D D H L L L L I I I Y R W W W W W W ^ / / _ _ _ _ ' [ [ { { {  .X.o.o.@.@.&.&.=.=.=.:.:.,.<.3.3.6.6.9.9.9.w.r.u.u.p.s.f.f.h.h.l.l.l.v.v.v.v.n.N.n.N.N.B.B.B.B.B.A.A.A.A.D.D.D.J.J.D.J.J.J.J.J.J.J.J.J.J.D.D.D.S.A.A.A.A.A.A.B.B.B.B.B.B.B.A.A.A.D.D.D.D.D.J.J.J.L.J.P.P.P.P.P.P.P.U.P.U.P.P.U.U.U.U.U.U.U.U.P.P.P.P.P.J.J.J.J.J.D.D.A.A.B.B.B.B.N.n.l.l.l.l.h.f.f.f.p.p.u.u.u.r.r.w.9.9.9.6.6.6.6.3.3.3.<.<.<.,.:.:.=.=.&.&.@.@.o.X. . .{ { { [ ' _ _ / / / / W W W W R U I L H G D D D D Z B M n x x k k d d s s i y y e q 0 8 6 6 6 6 6 6 2 2 2 , , 2 , , , , , , - - - & & & & @ $ & & & & & & & & & & & & - - , 2 2 , 2 , , - - - - & - - - - - - - - & & @ @ X X X X @ @ @ + @ X @ @ X X   !.!.!.!.!.!.!.!.!.!.!.!.!.!.!.!.!.!.!.!.!.!.!.!.!.!.!.!.!.!.!.!.!.!.!.!.!.!.!.!.!.!.!.!.!.!.!.!.!.!.!.!.!.!.!.!.!.!.!.!.!.!.!.!.!.!.!.!.!.!.!.!.!.!.!.!.!.!.!.!.!.!.!.!.",
"!.!.!.!.!.!.!.!.!.!.!.!.!.!.!.!.!.!.!.!.!.!.!.!.!.!.!.!.!.!.!.!.!.!.!.!.!.!.!.!.!.!.!.!.!.!.!.!.!.!.!.!.!.!.!.!.!.!.!.!.!.!.!.!.!.!.!.!.!.!.!.!.!.!.!.!.!.!.!.!.!.!.!.!.!.!.!.!.!.!.!.!.!.!.!.!.!.!.!.!.!.!.!.!.!.!.!.!.!.!.!.!.  X @ & & - , 2 2 6 0 q y y i y y i s s s s s d s i y y e e y e e e e y y i s s d d k k k z n M Z Z Z D G L L L L L I U Y R W W W W W W W ^ / / / _ _ _ ' [ { { {  .X.o.o.@.@.@.&.&.=.=.=.:.:.<.3.3.3.6.6.9.9.r.r.u.u.p.s.f.f.f.h.h.l.l.v.v.v.v.N.N.N.N.N.B.B.B.A.B.A.S.D.D.D.D.J.J.J.J.J.J.J.J.J.J.J.J.J.J.J.D.D.D.D.S.D.A.A.A.A.B.B.B.B.B.B.A.A.A.D.D.D.D.D.J.J.J.J.L.J.P.P.P.P.U.P.P.U.P.U.U.U.U.U.U.U.U.U.U.P.P.P.P.P.L.J.J.J.J.D.D.D.A.A.B.B.B.N.N.n.v.l.l.l.h.h.f.f.p.p.u.u.u.r.r.w.w.9.9.6.6.6.6.3.3.3.<.<.,.:.:.:.=.=.&.&.@.@.o.X. .{ { { [ [ ' _ _ _ / / ^ W W W W R U I L L G G D D D Z B N n b x k k d d s i y y e e 0 9 9 6 6 6 6 2 6 2 2 2 2 , 2 2 2 , , , , , - - - - - & & & @ @ @ $ & & & & $ $ & & & - , , , , , , - - - - - & & & & & & - & & & & @ X X X X X @ @ @ + @ @ @ @ X X   !.!.!.!.!.!.!.!.!.!.!.!.!.!.!.!.!.!.!.!.!.!.!.!.!.!.!.!.!.!.!.!.!.!.!.!.!.!.!.!.!.!.!.!.!.!.!.!.!.!.!.!.!.!.!.!.!.!.!.!.!.!.!.!.!.!.!.!.!.!.!.!.!.!.!.!.!.!.!.!.!.!.!.!.",
"!.!.!.!.!.!.!.!.!.!.!.!.!.!.!.!.!.!.!.!.!.!.!.!.!.!.!.!.!.!.!.!.!.!.!.!.!.!.!.!.!.!.!.!.!.!.!.!.!.!.!.!.!.!.!.!.!.!.!.!.!.!.!.!.!.!.!.!.!.!.!.!.!.!.!.!.!.!.!.!.!.!.!.!.!.!.!.!.!.!.!.!.!.!.!.!.!.!.!.!.!.!.!.!.!.!.!.!.!.!.!.!.  X @ $ & & , , 2 6 9 q e y i i i s s s d d d d s y y e y y y y y y y y i s s s d k k k z z x M Z Z Z D G J L I I U U T W W W W W W W W / / / / / _ _ ' [ { { {  . .o.o.@.@.@.&.&.&.=.:.:.:.<.<.<.3.5.6.9.9.w.r.u.u.p.p.s.f.f.h.h.l.l.l.v.v.N.N.B.N.B.B.B.B.B.B.A.A.S.D.D.D.D.J.D.J.J.J.J.J.J.J.J.J.L.L.L.J.J.D.J.D.D.D.D.A.A.A.A.B.B.B.B.A.A.A.A.D.D.D.D.D.J.J.J.J.L.J.P.P.P.U.U.U.U.U.U.U.U.U.U.U.U.U.P.U.U.U.P.P.P.P.J.J.J.J.J.J.D.D.D.A.A.A.B.B.B.N.n.v.l.l.l.h.h.f.f.p.p.u.u.u.r.w.w.9.9.9.6.6.6.5.3.3.3.<.<.,.:.:.=.=.&.&.&.@.o.o.X. .{ { { [ [ ' _ _ / / / W W W W W R Y U L L L G D D D Z M N n x x k k d d s s y y e q q 8 6 6 6 6 6 6 2 2 2 2 2 2 2 , 2 , , , , , , , - - - & & & @ @ + @ $ & & $ @ $ & & & - , , , , - - - - & & & & & & & & & & & & $ @ + X X X X X @ @ + @ @ X @ X X X   !.!.!.!.!.!.!.!.!.!.!.!.!.!.!.!.!.!.!.!.!.!.!.!.!.!.!.!.!.!.!.!.!.!.!.!.!.!.!.!.!.!.!.!.!.!.!.!.!.!.!.!.!.!.!.!.!.!.!.!.!.!.!.!.!.!.!.!.!.!.!.!.!.!.!.!.!.!.!.!.!.!.!.!.",
"!.!.!.!.!.!.!.!.!.!.!.!.!.!.!.!.!.!.!.!.!.!.!.!.!.!.!.!.!.!.!.!.!.!.!.!.!.!.!.!.!.!.!.!.!.!.!.!.!.!.!.!.!.!.!.!.!.!.!.!.!.!.!.!.!.!.!.!.!.!.!.!.!.!.!.!.!.!.!.!.!.!.!.!.!.!.!.!.!.!.!.!.!.!.!.!.!.!.!.!.!.!.!.!.!.!.!.!.!.!.!.!.  X @ @ & & - 2 2 6 6 0 q y y i s s s s s d d s s y y y e y y y y i i s s s d d d k k k z x n M B Z D D G J L I Y T R W W W W W W W / / / / / / _ _ ' [ [ { {  .X.X.o.@.@.&.&.&.&.=.=.:.:.,.,.<.3.6.6.6.9.9.w.r.u.p.p.s.f.f.h.h.l.l.l.v.v.n.N.N.B.B.B.B.B.B.A.A.D.D.D.D.D.D.J.J.J.D.J.J.J.J.J.J.J.J.L.L.J.J.J.J.D.D.D.D.D.S.S.A.A.A.B.A.B.A.A.A.A.D.D.D.D.D.J.J.J.J.J.P.P.P.U.U.U.U.U.U.U.U.U.U.U.U.U.U.P.P.P.P.P.P.L.P.P.J.J.J.J.J.D.D.D.S.A.B.B.B.B.N.n.v.l.l.l.h.h.f.f.s.p.p.u.u.r.r.w.w.9.9.9.6.6.5.3.3.3.<.,.,.:.:.=.=.&.&.$.@.o.o.X. .{ { [ [ ' ' _ _ / / / W W W W W W T U I L L G D D D Z B N x x z k d d s s s y e e 0 9 6 6 6 6 6 6 2 2 2 , 2 2 , , 2 2 , , , 2 2 , , , - - & & @ @ @ X @ @ @ & & & & & & & - , , , - - - - - & & & & & & $ @ @ @ $ @ + @ @ X X X X X @ @ + @ @ @ @ X X X   !.!.!.!.!.!.!.!.!.!.!.!.!.!.!.!.!.!.!.!.!.!.!.!.!.!.!.!.!.!.!.!.!.!.!.!.!.!.!.!.!.!.!.!.!.!.!.!.!.!.!.!.!.!.!.!.!.!.!.!.!.!.!.!.!.!.!.!.!.!.!.!.!.!.!.!.!.!.!.!.!.!.!.!.",
"!.!.!.!.!.!.!.!.!.!.!.!.!.!.!.!.!.!.!.!.!.!.!.!.!.!.!.!.!.!.!.!.!.!.!.!.!.!.!.!.!.!.!.!.!.!.!.!.!.!.!.!.!.!.!.!.!.!.!.!.!.!.!.!.!.!.!.!.!.!.!.!.!.!.!.!.!.!.!.!.!.!.!.!.!.!.!.!.!.!.!.!.!.!.!.!.!.!.!.!.!.!.!.!.!.!.!.!.!.!.!.!.!.  X @ + & - , 2 6 7 9 q y y s s s s s s s s s y y y e e e y y i s s s s s d d d k k k z z x n M Z Z D D L I U T R W W W W W W W / / / / / / _ _ ' [ [ { {  .X.X.o.@.@.&.&.&.=.=.=.:.:.<.,.<.<.3.6.6.9.9.w.r.u.p.p.f.f.h.h.h.l.l.l.v.v.N.N.N.B.B.B.B.B.A.A.S.D.D.D.J.J.J.J.J.D.J.J.J.J.J.J.J.J.J.J.L.L.J.J.J.J.D.D.D.D.A.S.A.S.A.A.A.B.A.A.A.D.A.D.D.D.J.J.J.J.J.J.L.P.P.U.U.U.U.U.U.R.U.R.U.U.U.U.U.P.P.P.P.P.L.P.L.L.J.L.J.J.J.D.D.D.D.A.A.B.B.B.B.N.n.v.l.l.l.h.h.f.f.f.p.p.u.u.r.r.w.9.9.9.9.6.6.6.3.<.<.<.<.,.:.:.=.=.&.&.@.@.o.X. .{ { { [ [ ' ' _ / / / / W W W W W W R Y I L L G D D Z Z B N x x k k d d s s y y e q 0 7 6 6 6 6 6 2 2 2 2 2 2 2 2 2 , 2 2 2 , 2 , , , , , - & & @ @ @ X X @ @ @ & & & & & & - - , , , - - - & & & & & & & $ @ @ @ @ + @ @ @ X X X X @ @ + @ @ @ @ @ X X X   !.!.!.!.!.!.!.!.!.!.!.!.!.!.!.!.!.!.!.!.!.!.!.!.!.!.!.!.!.!.!.!.!.!.!.!.!.!.!.!.!.!.!.!.!.!.!.!.!.!.!.!.!.!.!.!.!.!.!.!.!.!.!.!.!.!.!.!.!.!.!.!.!.!.!.!.!.!.!.!.!.!.!.!.",
"!.!.!.!.!.!.!.!.!.!.!.!.!.!.!.!.!.!.!.!.!.!.!.!.!.!.!.!.!.!.!.!.!.!.!.!.!.!.!.!.!.!.!.!.!.!.!.!.!.!.!.!.!.!.!.!.!.!.!.!.!.!.!.!.!.!.!.!.!.!.!.!.!.!.!.!.!.!.!.!.!.!.!.!.!.!.!.!.!.!.!.!.!.!.!.!.!.!.!.!.!.!.!.!.!.!.!.!.!.!.!.!.!.  X X + & - , 2 6 6 9 q y y s s s i s i i i y y y y e e e y y i s d d d s d d d k k k z z x x n B Z D G L U T W W W W W W W W / / / / / _ _ _ _ [ [ { { {  .X.o.@.@.@.&.=.=.=.=.:.:.,.<.<.3.3.6.6.9.9.9.w.r.u.p.f.f.f.h.l.l.l.l.v.v.N.B.B.B.B.B.B.A.A.A.D.D.D.D.J.D.D.J.J.J.D.J.J.J.J.J.J.J.J.J.J.L.L.L.J.J.J.J.D.D.D.D.S.S.S.A.A.A.A.A.A.A.A.D.D.D.D.J.J.J.J.J.J.P.P.U.U.U.U.U.U.U.U.R.R.U.U.U.U.P.P.U.P.L.P.J.J.L.L.L.L.J.J.J.D.D.D.D.A.A.A.B.B.B.N.n.v.l.v.l.l.h.f.f.f.p.p.u.u.u.r.r.9.9.9.6.6.6.6.3.<.<.<.,.,.:.=.=.=.&.&.@.@.o.X. .{ { [ [ ' ' _ _ / / / / ^ W W W W W R Y U I L H D D D Z Z M x x k k d d s i y e q 0 9 7 6 6 6 2 2 2 2 2 2 2 2 2 2 2 2 6 2 2 2 2 2 , , , , - - & & + @ X X @ @ @ @ & & & & & - - , - - - - & & & & & & & $ @ @ + @ + @ @ X X X X X X X @ X @ @ + @ @ X X X   !.!.!.!.!.!.!.!.!.!.!.!.!.!.!.!.!.!.!.!.!.!.!.!.!.!.!.!.!.!.!.!.!.!.!.!.!.!.!.!.!.!.!.!.!.!.!.!.!.!.!.!.!.!.!.!.!.!.!.!.!.!.!.!.!.!.!.!.!.!.!.!.!.!.!.!.!.!.!.!.!.!.!.!.",
"!.!.!.!.!.!.!.!.!.!.!.!.!.!.!.!.!.!.!.!.!.!.!.!.!.!.!.!.!.!.!.!.!.!.!.!.!.!.!.!.!.!.!.!.!.!.!.!.!.!.!.!.!.!.!.!.!.!.!.!.!.!.!.!.!.!.!.!.!.!.!.!.!.!.!.!.!.!.!.!.!.!.!.!.!.!.!.!.!.!.!.!.!.!.!.!.!.!.!.!.!.!.!.!.!.!.!.!.!.!.!.!.!.  X X @ & - , 2 6 6 0 q y i s s i y y y y y y y y y y e e y y s s d d d d d d d k k k k z z x n B Z D G L U R W W W W W W W / / / / / _ _ _ _ ' [ { {  . .X.X.o.@.@.&.&.=.=.=.:.,.,.3.3.3.6.6.6.9.9.w.w.r.u.u.p.s.f.h.h.l.l.l.v.v.v.N.B.B.A.B.A.A.S.A.D.D.J.J.D.D.D.D.J.J.J.J.J.J.J.J.J.J.J.J.J.J.L.L.L.J.J.J.J.J.D.D.D.D.D.D.S.A.A.A.A.A.S.A.D.D.D.D.J.J.J.J.J.P.P.U.P.U.U.U.U.U.U.U.R.R.R.U.U.U.U.U.P.P.J.L.P.J.J.L.J.L.J.J.D.D.D.D.D.S.A.B.A.B.B.B.N.v.l.l.l.l.h.f.f.f.p.p.u.u.u.u.r.w.w.9.6.6.6.6.3.3.<.<.,.:.:.=.=.=.&.&.@.o.o.X. .{ { [ [ ' _ _ _ _ _ / / W W W W ! W W T U I L L G D D Z Z M x z k d d s s i y e q 9 8 6 6 6 2 2 2 2 2 6 6 6 6 6 6 6 2 6 6 6 6 2 2 2 2 , , - - & & @ + + + @ + + $ @ @ $ & & - - - - - - - & & & & $ & $ @ @ @ @ @ + @ @ @ X X X X X X X X X X X X X X X X   !.!.!.!.!.!.!.!.!.!.!.!.!.!.!.!.!.!.!.!.!.!.!.!.!.!.!.!.!.!.!.!.!.!.!.!.!.!.!.!.!.!.!.!.!.!.!.!.!.!.!.!.!.!.!.!.!.!.!.!.!.!.!.!.!.!.!.!.!.!.!.!.!.!.!.!.!.!.!.!.!.!.!.!.",
"!.!.!.!.!.!.!.!.!.!.!.!.!.!.!.!.!.!.!.!.!.!.!.!.!.!.!.!.!.!.!.!.!.!.!.!.!.!.!.!.!.!.!.!.!.!.!.!.!.!.!.!.!.!.!.!.!.!.!.!.!.!.!.!.!.!.!.!.!.!.!.!.!.!.!.!.!.!.!.!.!.!.!.!.!.!.!.!.!.!.!.!.!.!.!.!.!.!.!.!.!.!.!.!.!.!.!.!.!.!.!.!.!.  X X + $ & , 2 6 6 0 q y i i i y y e e e y y y y y e e y i s s d d k d d d k k k k k z z x x n M Z D G L U R W W W W W W W / / / / _ _ _ ' ' [ { { {  . .X.o.o.@.@.&.&.=.=.:.,.<.<.3.3.6.6.9.9.w.w.r.r.u.u.p.s.f.f.h.l.l.l.v.v.N.N.B.B.B.A.A.D.D.D.D.J.J.J.J.D.D.D.D.J.J.J.J.J.J.J.J.J.J.J.J.J.J.J.L.L.L.J.J.J.J.D.D.D.D.D.D.D.D.S.S.A.S.A.S.D.D.D.D.J.J.J.J.J.P.P.U.P.P.U.U.U.U.U.U.R.R.R.U.U.U.U.P.P.P.P.J.J.J.J.L.J.J.J.J.D.D.D.D.D.S.A.A.A.B.B.B.N.v.v.l.l.l.h.h.f.f.f.p.p.u.u.u.r.r.9.9.6.6.6.6.3.<.<.<.,.:.:.=.=.=.&.$.@.o.X. . .{ { [ ' ' _ _ _ _ _ / / W W W W W W R T U I L L G D D Z Z M x z k k d s s i y q 0 9 6 6 2 6 2 2 2 2 2 6 6 6 6 6 6 6 6 6 6 6 6 6 6 2 , , , - - & & & & $ $ @ $ @ $ @ + + @ & - - - , , - - & & & & & $ @ + X @ X @ @ @ X @ X X X   X X X X X X X X X X X   !.!.!.!.!.!.!.!.!.!.!.!.!.!.!.!.!.!.!.!.!.!.!.!.!.!.!.!.!.!.!.!.!.!.!.!.!.!.!.!.!.!.!.!.!.!.!.!.!.!.!.!.!.!.!.!.!.!.!.!.!.!.!.!.!.!.!.!.!.!.!.!.!.!.!.!.!.!.!.!.!.!.!.!.!.",
"!.!.!.!.!.!.!.!.!.!.!.!.!.!.!.!.!.!.!.!.!.!.!.!.!.!.!.!.!.!.!.!.!.!.!.!.!.!.!.!.!.!.!.!.!.!.!.!.!.!.!.!.!.!.!.!.!.!.!.!.!.!.!.!.!.!.!.!.!.!.!.!.!.!.!.!.!.!.!.!.!.!.!.!.!.!.!.!.!.!.!.!.!.!.!.!.!.!.!.!.!.!.!.!.!.!.!.!.!.!.!.!.!.    X @ @ & - , 2 6 9 q y y y y y e y y e y e y y e q e e y s s d d k k k k k k k k z z x b n M B D D L L U R W W W W W W ! / / / / _ _ ' [ [ { { {  . .X.X.o.@.@.&.&.=.=.=.,.<.3.3.6.5.6.9.9.9.w.r.u.u.u.p.s.f.f.h.h.l.l.v.v.n.N.B.B.B.B.D.D.D.D.J.D.J.J.J.J.D.D.J.J.D.J.J.J.J.J.J.L.J.J.J.J.J.J.J.J.J.J.L.J.J.J.D.D.D.D.D.D.D.D.D.D.D.D.A.D.D.D.D.J.J.J.J.J.P.P.P.P.U.U.U.U.U.R.R.R.U.U.U.U.U.P.P.P.P.L.J.J.J.J.J.J.J.J.D.D.J.D.D.D.D.S.A.A.A.B.B.N.N.v.v.l.l.l.h.h.f.f.f.p.p.p.u.u.r.w.w.9.9.6.6.6.3.<.<.,.,.:.:.=.=.&.&.@.o.o.X. .{ { { [ ' ' _ _ / / / / / ^ W W W W W W R Y U I L L D D Z B M x x k d d s s y y e 0 9 6 6 6 2 2 2 2 6 6 6 6 6 6 6 8 6 6 6 6 6 6 6 6 2 2 , , , - - - & & & & & & & $ $ @ @ @ & - - - , , - - - & & & & $ @ @ @ X X @ @ X X @ X X X         X     X           !.!.!.!.!.!.!.!.!.!.!.!.!.!.!.!.!.!.!.!.!.!.!.!.!.!.!.!.!.!.!.!.!.!.!.!.!.!.!.!.!.!.!.!.!.!.!.!.!.!.!.!.!.!.!.!.!.!.!.!.!.!.!.!.!.!.!.!.!.!.!.!.!.!.!.!.!.!.!.!.!.!.!.!.!.",
"!.!.!.!.!.!.!.!.!.!.!.!.!.!.!.!.!.!.!.!.!.!.!.!.!.!.!.!.!.!.!.!.!.!.!.!.!.!.!.!.!.!.!.!.!.!.!.!.!.!.!.!.!.!.!.!.!.!.!.!.!.!.!.!.!.!.!.!.!.!.!.!.!.!.!.!.!.!.!.!.!.!.!.!.!.!.!.!.!.!.!.!.!.!.!.!.!.!.!.!.!.!.!.!.!.!.!.      !.!.!.    X X + & - , 2 6 8 0 e y y e e e e y e e e e y y e e y i s s d d k k k k k k x x x x x n M Z Z D D L L U R W W W W W W / / / / _ _ ' ' [ [ { { {  .o.o.o.o.@.$.&.=.=.=.:.,.<.3.3.6.6.9.9.w.r.r.u.u.p.p.s.f.f.h.l.l.l.v.v.n.N.N.B.B.B.A.D.D.D.D.J.J.J.D.J.J.D.J.D.J.J.D.J.J.J.J.J.J.L.J.J.J.J.J.J.L.J.J.J.J.J.J.J.J.D.D.D.D.D.D.D.D.D.D.D.D.D.D.J.J.J.J.J.J.P.P.P.P.P.U.U.U.U.R.R.R.R.U.U.U.U.U.P.P.P.P.J.J.J.J.J.J.J.J.J.J.J.J.D.D.D.S.A.A.B.B.B.N.N.n.v.l.l.l.l.h.h.f.f.s.p.p.u.u.r.w.w.9.9.6.6.6.3.<.<.,.,.:.:.=.=.&.&.@.o.o.X. . .{ [ [ ' _ _ _ / / _ / / W W W W W W W R Y U I L H D D Z B N x z k d d s s y y e 0 9 6 6 6 6 2 2 2 6 6 6 6 6 6 6 8 8 8 8 8 6 6 6 6 6 2 2 2 , , , - - & & $ & & & & & & $ $ & - - - - , - - - & & & & $ @ @ @ X X X X X X X X         X                   !.!.!.!.!.!.!.!.!.!.!.!.!.!.!.!.!.!.!.!.!.!.!.!.!.!.!.!.!.!.!.!.!.!.!.!.!.!.!.!.!.!.!.!.!.!.!.!.!.!.!.!.!.!.!.!.!.!.!.!.!.!.!.!.!.!.!.!.!.!.!.!.!.!.!.!.!.!.!.!.!.!.!.!.!.!.",
"!.!.!.!.!.!.!.!.!.!.!.!.!.!.!.!.!.!.!.!.!.!.!.!.!.!.!.!.!.!.!.!.!.!.!.!.!.!.!.!.!.!.!.!.!.!.!.!.!.!.!.!.!.!.!.!.!.!.!.!.!.!.!.!.!.!.!.!.!.!.!.!.!.!.!.!.!.!.!.!.!.!.!.!.!.!.!.!.!.!.!.!.!.!.!.!.!.!.!.!.!.!.!.!.!.            !.!.!.  X X @ $ - , 2 2 6 0 e y y y q e e q e e e e y y y e y y s d d d k z x z z z z x x b x N M Z D D G L I Y W W W W W W / / / / _ _ ' ' [ [ { { {  . .o.o.o.o.@.@.&.&.=.:.:.<.<.3.5.6.6.9.9.r.r.u.u.p.p.f.f.h.h.l.l.l.l.v.n.N.N.B.B.B.A.S.D.D.J.J.J.J.D.D.D.J.D.D.J.J.J.J.J.J.J.J.L.L.L.J.J.J.J.J.J.L.J.L.J.J.J.D.J.D.D.D.D.D.J.D.D.D.D.D.D.D.D.J.D.J.J.J.J.P.P.P.P.P.P.U.U.U.U.U.U.R.R.R.U.U.U.P.P.P.L.L.L.J.J.J.J.J.J.J.J.D.J.J.D.D.D.D.S.A.B.B.B.B.N.n.v.v.l.l.l.h.h.f.f.s.p.p.u.u.u.r.w.9.9.9.6.6.3.<.<.<.,.:.=.=.=.&.@.@.o.o. . .{ { [ [ ' _ _ _ / / / / / W W W W W W W T Y U I L H D D Z M n b z k d d s s y y e q 9 8 6 6 6 6 2 2 2 2 6 7 7 8 8 8 9 9 9 8 8 8 6 6 6 2 2 2 , , , - - & & & & & & & & & & $ & & - - - , - - - & & $ & $ @ X X X X X   X X                   !.    !.!.!.!.!.!.!.!.!.!.!.!.!.!.!.!.!.!.!.!.!.!.!.!.!.!.!.!.!.!.!.!.!.!.!.!.!.!.!.!.!.!.!.!.!.!.!.!.!.!.!.!.!.!.!.!.!.!.!.!.!.!.!.!.!.!.!.!.!.!.!.!.!.!.!.!.!.!.!.!.!.!.!.!.!.!.!.!.!.!.",
"!.!.!.!.!.!.!.!.!.!.!.!.!.!.!.!.!.!.!.!.!.!.!.!.!.!.!.!.!.!.!.!.!.!.!.!.!.!.!.!.!.!.!.!.!.!.!.!.!.!.!.!.!.!.!.!.!.!.!.!.!.!.!.!.!.!.!.!.!.!.!.!.!.!.!.!.!.!.!.!.!.!.!.!.!.!.!.!.!.!.!.!.!.!.!.!.!.!.!.!.!.!.        X X X X X   !.    X X + $ - , 2 2 6 0 q y y y q q q q e e e e e y y e e y s d d d k x x x x x x x b n n N M Z D D G L I T W W W W W / / / / _ _ ' [ [ [ [ { { {  . .o.o.o.@.@.&.&.=.=.:.,.<.3.3.6.6.9.9.r.r.u.u.p.p.s.f.f.h.l.l.l.l.v.v.n.N.N.B.B.A.A.D.D.D.J.J.J.D.D.J.J.D.D.D.J.J.J.J.J.J.J.J.J.L.J.J.J.J.J.J.J.J.J.J.J.J.J.J.J.J.D.D.D.D.D.D.D.D.D.D.D.D.D.J.J.J.J.J.J.P.P.P.P.P.P.P.U.U.U.U.R.R.R.U.U.U.U.U.P.P.P.L.L.L.J.J.J.J.J.D.J.J.J.D.D.D.D.D.A.A.B.B.B.B.N.N.v.v.l.l.l.l.h.f.f.s.p.p.u.u.u.r.w.w.9.9.6.6.3.<.<.<.,.:.=.=.=.&.&.@.o.X. . .{ { { [ ' ' _ _ / / / / / ^ W W W W W W R Y U I L H D D Z B N b z k d d d s i y e q 0 8 6 6 6 6 2 2 2 6 6 7 8 9 9 0 9 9 8 8 8 8 6 6 6 6 2 2 2 2 , , - - - & - - - - - & & & & & & & - - - - - & & & & @ @ X X X X X                         !.    !.!.!.!.!.!.!.!.!.!.!.!.!.!.!.!.!.!.!.!.!.!.!.!.!.!.!.!.!.!.!.!.!.!.!.!.!.!.!.!.!.!.!.!.!.!.!.!.!.!.!.!.!.!.!.!.!.!.!.!.!.!.!.!.!.!.!.!.!.!.!.!.!.!.!.!.!.!.!.!.!.!.!.!.!.!.!.!.!.!.",
"!.!.!.!.!.!.!.!.!.!.!.!.!.!.!.!.!.!.!.!.!.!.!.!.!.!.!.!.!.!.!.!.!.!.!.!.!.!.!.!.!.!.!.!.!.!.!.!.!.!.!.!.!.!.!.!.!.!.!.!.!.!.!.!.!.!.!.!.!.!.!.!.!.!.!.!.!.!.!.!.!.!.!.!.!.!.!.!.!.!.!.!.!.!.!.!.!.!.!.!.!.  X X X X X @ @ X X   !.    X X @ & - , 2 2 6 8 q e e q q q 9 q q e e e e y y y i s s s d k k x x z z x z x n N M M M Z D D G L I R W W W W ^ / / / _ ' ' [ [ [ [ { { {  . . .X.X.o.@.@.&.&.=.:.,.,.<.3.5.6.6.9.9.r.r.u.p.p.s.f.f.h.l.l.l.v.v.v.N.N.B.B.B.B.A.D.D.D.D.J.J.J.D.J.J.J.D.J.D.J.J.J.J.J.J.J.L.L.L.J.J.J.J.J.J.J.J.J.J.J.J.J.D.J.D.J.D.J.D.D.D.J.D.D.D.D.D.J.J.J.J.J.L.L.P.P.P.P.P.P.P.U.U.U.R.R.R.R.U.U.U.P.P.P.P.P.J.L.L.J.J.J.J.J.J.J.J.D.D.D.D.D.D.A.A.B.A.B.B.B.N.n.v.l.v.l.h.h.h.f.f.s.p.u.u.u.r.w.9.9.9.6.6.3.3.<.<.,.:.:.=.=.&.@.@.o.X. .{ { { { [ [ ' _ _ _ / / / / W W W W W W W R Y U I L H G D D Z N x x k k d d s i y e q q 0 8 6 6 6 6 6 6 6 6 9 9 9 0 q q 0 9 9 9 8 6 8 6 6 6 2 2 2 , , - - - - - - - - - - & & & & & & & & - - - & & $ $ @ + @ @ X X X X                 !.!.!.!.!.!.!.!.!.!.!.!.!.!.!.!.!.!.!.!.!.!.!.!.!.!.!.!.!.!.!.!.!.!.!.!.!.!.!.!.!.!.!.!.!.!.!.!.!.!.!.!.!.!.!.!.!.!.!.!.!.!.!.!.!.!.!.!.!.!.!.!.!.!.!.!.!.!.!.!.!.!.!.!.!.!.!.!.!.!.!.!.!.!.!.!.",
"!.!.!.!.!.!.!.!.!.!.!.!.!.!.!.!.!.!.!.!.!.!.!.!.!.!.!.!.!.!.!.!.!.!.!.!.!.!.!.!.!.!.!.!.!.!.!.!.!.!.!.!.!.!.!.!.!.!.!.!.!.!.!.!.!.!.!.!.!.!.!.!.!.!.!.!.!.!.!.!.!.!.!.!.!.!.!.!.!.!.!.!.!.!.!.!.!.!.!.!.!.  X @ + @ + + @ X X X     X X X + & - - , 2 6 6 8 q q q q q 0 q 0 q q e e y y i s s s d d k k k z z z z x x n N M M Z Z D D D L I R W W W W / / / _ _ ' [ [ { { { { {  . .X.X.X.o.o.@.&.&.=.=.:.,.<.<.3.3.6.6.9.9.w.u.u.p.p.f.f.h.h.l.l.l.v.v.n.N.N.B.B.B.A.S.D.D.D.D.D.J.D.D.J.J.D.J.J.J.J.J.J.J.J.J.J.J.J.J.J.J.J.J.J.J.J.J.L.J.J.J.J.J.J.J.J.D.D.D.D.D.D.D.D.D.D.D.J.J.J.J.J.L.P.P.P.P.P.P.P.U.U.U.U.R.R.R.R.R.U.U.P.U.P.P.J.P.J.J.J.J.J.J.J.J.J.D.D.D.D.D.D.D.A.A.B.B.B.B.B.N.n.v.v.v.l.l.h.h.f.f.s.p.p.u.u.r.w.w.9.9.6.6.3.3.<.<.,.:.:.=.=.&.@.@.o.X. . .{ { { [ [ ' _ _ _ / / / W W W W W W W W R Y U I L H G D D Z M n x k k d d s s i y e q 0 8 6 6 6 6 6 6 6 9 0 0 0 q q q q 0 9 9 9 9 9 8 6 6 6 2 2 2 , , - - - - - - - - - & & & & & $ & & & & & & & & $ @ @ @ @ + X X X X         !.!.    !.!.!.!.!.!.!.!.!.!.!.!.!.!.!.!.!.!.!.!.!.!.!.!.!.!.!.!.!.!.!.!.!.!.!.!.!.!.!.!.!.!.!.!.!.!.!.!.!.!.!.!.!.!.!.!.!.!.!.!.!.!.!.!.!.!.!.!.!.!.!.!.!.!.!.!.!.!.!.!.!.!.!.!.!.!.!.!.!.!.!.!.!.!.!.",
"!.!.!.!.!.!.!.!.!.!.!.!.!.!.!.!.!.!.!.!.!.!.!.!.!.!.!.!.!.!.!.!.!.!.!.!.!.!.!.!.!.!.!.!.!.!.!.!.!.!.!.!.!.!.!.!.!.!.!.!.!.!.!.!.!.!.!.!.!.!.!.!.!.!.!.!.!.!.!.!.!.!.!.!.!.!.!.!.!.!.!.!.!.!.!.!.!.!.!.!.  X @ + $ $ $ @ + @ X X   X X X @ @ & & - , , 2 6 8 0 0 q 0 q q 0 9 9 q q e e y s s s d d k k k k z z k x z x n n M Z Z Z D D G L U R W W W W W / / _ _ [ [ { { { { { {  . .X.X.o.o.@.$.&.=.=.:.<.<.<.<.3.6.6.9.9.w.r.u.u.p.p.f.f.h.l.l.l.v.v.N.N.B.B.B.B.A.A.A.D.D.D.D.D.D.D.D.J.J.J.J.J.J.J.J.J.J.J.J.J.J.L.L.J.J.J.J.J.J.J.J.J.J.L.J.J.J.J.J.J.J.D.D.D.D.D.J.D.J.J.J.J.J.J.J.L.J.P.U.P.P.U.U.U.U.U.U.R.R.R.R.R.R.U.U.U.P.P.P.J.J.J.J.J.J.J.J.D.J.J.J.D.D.D.D.D.A.A.A.A.B.B.B.B.N.n.v.v.v.l.l.h.h.h.f.f.p.p.u.u.r.r.w.w.9.6.6.6.3.<.<.,.,.:.=.=.&.&.@.o.o. . .{ { { [ [ [ _ _ _ _ / / W W W W W W W W R T U I L L G D D Z M n x x k k d d s s y y e q 0 8 8 6 6 8 8 8 0 q q e e e e q 0 0 q 0 8 9 9 8 6 6 2 2 2 2 , , - - - - - - - - - & & & & @ @ & & & & & & & & $ & & $ @ + + X X           !.    !.!.  !.!.!.!.!.!.!.!.!.!.!.!.!.!.!.!.!.!.!.!.!.!.!.!.!.!.!.!.!.!.!.!.!.!.!.!.!.!.!.!.!.!.!.!.!.!.!.!.!.!.!.!.!.!.!.!.!.!.!.!.!.!.!.!.!.!.!.!.!.!.!.!.!.!.!.!.!.!.!.!.!.!.!.!.!.!.!.!.!.!.!.!.",
"!.!.!.!.!.!.!.!.!.!.!.!.!.!.!.!.!.!.!.!.!.!.!.!.!.!.!.!.!.!.!.!.!.!.!.!.!.!.!.!.!.!.!.!.!.!.!.!.!.!.!.!.!.!.!.!.!.!.!.!.!.!.!.!.!.!.!.!.!.!.!.!.!.!.!.!.!.!.!.!.!.!.!.!.!.!.!.!.!.!.!.!.!.!.!.!.!.!.!.    X @ & & & $ @ + @ X X   X X @ + @ & & - - , , 2 6 8 9 0 q q 0 9 8 6 9 q e y i s s d d d d d d k x x z k z x n N B Z Z Z D G L L U R W W W W / / / _ _ [ [ { { { { { {  . . .X.o.o.@.@.&.=.=.:.<.<.<.3.3.6.6.9.9.r.r.u.p.p.f.f.f.h.l.l.l.v.n.N.N.B.B.B.A.A.A.A.S.A.D.D.D.D.D.D.D.J.J.J.D.J.J.J.J.J.J.J.L.J.L.L.J.J.J.J.J.J.J.J.L.J.J.J.J.J.J.J.J.J.D.D.D.D.D.D.D.D.J.J.J.J.J.J.J.P.P.P.P.P.U.U.U.U.U.U.R.R.R.R.R.R.U.U.U.P.P.P.J.L.J.J.J.J.J.J.J.J.D.D.D.D.D.D.S.S.A.A.B.B.B.B.B.N.n.v.v.v.l.l.l.h.h.f.f.s.p.u.u.u.r.w.9.9.6.6.3.3.3.<.,.,.:.=.=.&.&.@.o.o. . .{ { { [ [ ' ' _ _ _ / / ^ W W W W W W W R Y U I L L G D D Z M n x x k k d d s s s y y e q q 9 8 9 8 9 0 0 q e e y y e q q q q 0 9 0 9 8 6 6 6 2 2 2 2 , , , , , - - - & & & & & & $ $ $ & & & & & & & & & & & $ + + @ X X X               !.    !.!.!.!.!.!.!.!.!.!.!.!.!.!.!.!.!.!.!.!.!.!.!.!.!.!.!.!.!.!.!.!.!.!.!.!.!.!.!.!.!.!.!.!.!.!.!.!.!.!.!.!.!.!.!.!.!.!.!.!.!.!.!.!.!.!.!.!.!.!.!.!.!.!.!.!.!.!.!.!.!.!.!.!.!.!.!.!.!.!.!.",
"!.!.!.!.!.!.!.!.!.!.!.!.!.!.!.!.!.!.!.!.!.!.!.!.!.!.!.!.!.!.!.!.!.!.!.!.!.!.!.!.!.!.!.!.!.!.!.!.!.!.!.!.!.!.!.!.!.!.!.!.!.!.!.!.!.!.!.!.!.!.!.!.!.!.!.!.!.!.!.!.!.!.!.!.!.!.!.!.!.!.!.!.!.!.!.!.!.!.!.  X @ $ & & @ @ @ @ @ X X X   X X @ @ & & & - - , , 2 6 8 0 q 0 9 6 6 6 8 q y y s s d d d d d d k k x z z x z b n M B Z Z D D G L I Y R W W W W / / / _ _ ' [ { { { {  .{  . .X.o.o.o.@.&.&.=.=.:.,.<.<.3.6.6.9.9.9.r.u.u.p.p.f.f.h.h.l.l.v.v.N.N.B.B.B.B.A.B.B.A.A.A.D.D.D.D.D.D.D.D.D.D.D.D.J.J.J.J.L.J.J.J.P.J.J.J.L.J.L.J.J.J.J.J.J.J.J.J.J.J.J.J.D.D.D.J.J.J.D.J.J.J.J.J.J.J.J.P.P.P.U.U.U.U.U.R.R.R.U.R.R.R.R.U.U.P.P.P.P.P.L.L.J.J.J.J.J.D.J.J.J.D.D.D.D.D.D.A.A.A.A.B.B.B.N.N.n.v.v.l.l.l.l.h.h.f.f.s.p.u.u.u.r.w.9.9.6.6.6.3.3.<.<.:.:.=.=.&.&.@.o.o.X. .{ { { [ [ [ ' _ _ _ / / / W W W W W W W R Y U L L H D D Z Z M n x x x k k k d s s i y y e q q 9 9 0 9 0 q q e y y y e e e q q q 0 9 8 8 6 6 6 6 2 2 2 , 2 , , , - - - & & & & & & @ & $ & & & & & & & & & & & & $ + @ @ @ X X X X X   X     !.!.!.!.!.!.!.!.!.!.!.!.!.!.!.!.!.!.!.!.!.!.!.!.!.!.!.!.!.!.!.!.!.!.!.!.!.!.!.!.!.!.!.!.!.!.!.!.!.!.!.!.!.!.!.!.!.!.!.!.!.!.!.!.!.!.!.!.!.!.!.!.!.!.!.!.!.!.!.!.!.!.!.!.!.!.!.!.!.!.!.!.!.",
"!.!.!.!.!.!.!.!.!.!.!.!.!.!.!.!.!.!.!.!.!.!.!.!.!.!.!.!.!.!.!.!.!.!.!.!.!.!.!.!.!.!.!.!.!.!.!.!.!.!.!.!.!.!.!.!.!.!.!.!.!.!.!.!.!.!.!.!.!.!.!.!.!.!.!.!.!.!.!.!.!.!.!.!.!.!.!.!.!.!.!.!.!.!.!.!.!.!.  X X + @ $ & @ @ + @ @ X       X X @ @ @ $ & & - , , 2 6 6 8 8 9 8 6 6 6 8 0 e y s s d d d d d k k k z z z z x x N M Z Z D D G L L I T W W W W ! / / / _ ' [ [ [ { {  .{  .X. .X.o.o.o.@.&.=.=.=.:.,.<.<.3.3.6.9.9.w.r.u.u.p.s.f.f.h.l.l.v.v.n.N.B.N.B.B.B.B.B.B.B.A.A.A.A.D.D.D.D.D.D.D.D.J.J.J.J.J.J.J.J.J.J.J.J.L.L.L.L.L.J.J.P.J.J.L.J.J.J.J.J.J.J.D.J.D.J.J.J.J.J.J.J.J.J.J.J.J.P.P.P.U.U.U.R.U.U.R.R.R.R.R.U.U.U.U.U.U.P.P.P.L.L.J.J.J.J.J.D.D.J.D.D.D.D.D.D.S.A.A.B.B.B.B.B.N.N.N.v.v.v.l.l.h.h.h.h.f.s.p.u.u.u.r.w.9.9.6.6.6.3.3.3.<.,.:.=.=.&.&.@.o.o.X. . .{ { { [ [ ' _ _ _ / / / W W W W W W W R Y I L L G D D Z Z M N n b x z k k d d s s s y e e q q 0 q 0 q q e e y y y y y e e q q 0 9 9 6 6 6 6 6 6 6 2 2 2 , , , - - & & & & & & & $ & & & & & & & & - & & & & & $ @ + @ X X X X X X X X       !.!.!.!.!.!.!.!.!.!.!.!.!.!.!.!.!.!.!.!.!.!.!.!.!.!.!.!.!.!.!.!.!.!.!.!.!.!.!.!.!.!.!.!.!.!.!.!.!.!.!.!.!.!.!.!.!.!.!.!.!.!.!.!.!.!.!.!.!.!.!.!.!.!.!.!.!.!.!.!.!.!.!.!.!.!.!.!.!.!.!.!.",
"!.!.!.!.!.!.!.!.!.!.!.!.!.!.!.!.!.!.!.!.!.!.!.!.!.!.!.!.!.!.!.!.!.!.!.!.!.!.!.!.!.!.!.!.!.!.!.!.!.!.!.!.!.!.!.!.!.!.!.!.!.!.!.!.!.!.!.!.!.!.!.!.!.!.!.!.!.!.!.!.!.!.!.!.!.!.!.!.!.!.!.!.!.!.!.!.!.!.  X X + $ $ & & $ $ @ @ X X       X @ @ @ @ & & - , , , 2 2 6 6 8 6 6 6 6 8 0 e y s s d d d d k k z x k z z x x n M B Z Z D G L L U U R W W W W W / / / _ _ ' [ { { { {  . . .X.o.o.@.@.@.&.=.=.=.:.,.<.3.3.3.6.6.9.w.r.u.p.p.f.f.h.h.l.l.v.v.n.N.N.B.B.B.B.B.B.B.B.B.A.A.A.A.S.D.D.D.D.D.D.D.D.D.D.D.J.J.J.J.J.P.P.P.L.L.L.L.L.J.J.P.L.J.L.J.J.J.J.D.D.J.D.D.D.J.J.J.J.J.J.J.L.J.J.J.P.P.U.P.U.U.U.U.R.R.R.R.R.U.U.U.U.U.P.P.P.P.P.J.J.J.J.J.J.D.J.D.D.D.D.D.D.D.S.A.A.A.A.B.B.B.B.N.N.n.v.v.l.l.l.l.h.h.h.f.s.p.p.u.u.r.w.9.9.9.6.6.3.3.<.<.,.:.=.=.&.&.@.@.o.X. . .{ { { [ [ ' ' _ / / / / / W W W W W R Y U I L H G D D Z Z M M N x x z k k k k d d s i y y e q q q q q q q y y y y y y y e e q q 9 9 0 9 6 6 6 6 6 6 6 2 2 , , - - & & & & & & & & & & & & - - - - & - & & & & & $ @ + @ X X X X X X X       !.!.!.!.!.!.!.!.!.!.!.!.!.!.!.!.!.!.!.!.!.!.!.!.!.!.!.!.!.!.!.!.!.!.!.!.!.!.!.!.!.!.!.!.!.!.!.!.!.!.!.!.!.!.!.!.!.!.!.!.!.!.!.!.!.!.!.!.!.!.!.!.!.!.!.!.!.!.!.!.!.!.!.!.!.!.!.!.!.!.!.!.",
"!.!.!.!.!.!.!.!.!.!.!.!.!.!.!.!.!.!.!.!.!.!.!.!.!.!.!.!.!.!.!.!.!.!.!.!.!.!.!.!.!.!.!.!.!.!.!.!.!.!.!.!.!.!.!.!.!.!.!.!.!.!.!.!.!.!.!.!.!.!.!.!.!.!.!.!.!.!.!.!.!.!.!.!.!.!.!.!.!.!.!.!.!.!.!.!.!.!.  X X @ @ $ $ @ @ & $ + X         X @ @ @ + @ & - - , , , 2 6 6 6 6 6 6 6 8 0 q y s s d d d k k z x x z z x x x n M Z Z D H L L U U T W W W W ! W / / / _ ' [ [ [ { { {  . . .X.o.@.@.@.&.&.&.=.=.:.,.<.3.3.5.5.6.9.w.r.u.p.s.f.f.h.h.l.l.v.v.N.N.B.B.B.B.B.B.B.B.B.B.A.A.A.A.A.D.D.D.D.D.D.D.D.D.D.J.J.J.L.L.L.L.L.L.P.P.L.P.P.P.J.J.J.J.L.L.J.J.J.D.D.D.D.D.J.J.J.J.J.J.J.L.J.J.J.J.P.P.U.U.U.U.U.R.U.R.E.R.R.U.R.U.U.U.P.U.P.P.L.L.L.J.J.J.D.J.D.J.D.D.D.D.D.A.S.A.A.A.B.B.B.B.N.N.N.n.v.v.v.l.l.l.h.h.h.f.s.p.p.u.u.r.r.w.9.9.6.6.5.3.<.<.,.:.=.=.=.&.@.@.o.o. . . .{ { [ [ ' ' _ / / / / / ^ W W W W R U U I L H G D D Z Z B M n x b x z k k k d d s s i y y e q q q q q q y y i s y i y y e q q q 0 q 9 8 8 8 6 6 6 6 2 2 , , - - - & & & & & & & & & & & - - & - - - - & & & & & $ @ + @ X X @ X X X X     !.!.!.!.!.!.!.!.!.!.!.!.!.!.!.!.!.!.!.!.!.!.!.!.!.!.!.!.!.!.!.!.!.!.!.!.!.!.!.!.!.!.!.!.!.!.!.!.!.!.!.!.!.!.!.!.!.!.!.!.!.!.!.!.!.!.!.!.!.!.!.!.!.!.!.!.!.!.!.!.!.!.!.!.!.!.!.!.!.!.!.!.",
"!.!.!.!.!.!.!.!.!.!.!.!.!.!.!.!.!.!.!.!.!.!.!.!.!.!.!.!.!.!.!.!.!.!.!.!.!.!.!.!.!.!.!.!.!.!.!.!.!.!.!.!.!.!.!.!.!.!.!.!.!.!.!.!.!.!.!.!.!.!.!.!.!.!.!.!.!.!.!.!.!.!.!.!.!.!.!.!.!.!.!.!.!.!.!.!.!.!.    X @ @ @ $ @ @ & @ @ X X       X X @ X @ $ & - - - , 2 2 6 6 6 6 6 6 6 9 0 q y i s d k k k k z x b x z n x x n B Z D G L I U T R R W W W W W / / / _ _ ' ' [ [ { { {  . .o.o.o.@.@.@.&.&.&.=.=.:.,.<.<.3.3.6.6.9.w.r.u.u.p.f.f.h.h.l.l.v.v.N.N.N.N.B.B.N.B.N.B.B.B.B.B.A.A.A.A.S.D.D.D.D.D.J.D.D.J.J.J.J.J.L.L.P.J.P.J.P.P.P.J.P.P.J.L.L.J.J.L.J.J.J.J.J.D.J.J.J.L.J.J.J.L.L.J.J.P.P.U.U.U.U.U.U.U.R.R.R.R.R.R.R.U.U.U.U.P.P.P.P.J.J.J.J.J.J.D.D.D.D.D.D.D.D.S.A.S.A.A.A.B.B.B.B.N.N.n.v.v.v.l.l.l.h.h.f.f.s.p.p.u.u.r.r.w.9.9.6.6.6.3.<.<.,.:.=.=.&.&.@.@.o.X.X. . .{ { { [ [ ' _ _ / / / / W W W W W R Y U I L G G D D Z Z B M N n x x x x x k k d d s s i y e q q q e e e y y i s s i i y y e e e q q q 0 q q 0 9 8 6 6 2 2 , , - - & & & & & & & & - - - & & & & & & & & & & & & @ @ + @ X @ X X X X X   !.!.!.!.!.!.!.!.!.!.!.!.!.!.!.!.!.!.!.!.!.!.!.!.!.!.!.!.!.!.!.!.!.!.!.!.!.!.!.!.!.!.!.!.!.!.!.!.!.!.!.!.!.!.!.!.!.!.!.!.!.!.!.!.!.!.!.!.!.!.!.!.!.!.!.!.!.!.!.!.!.!.!.!.!.!.!.!.!.!.!.!.!.",
"!.!.!.!.!.!.!.!.!.!.!.!.!.!.!.!.!.!.!.!.!.!.!.!.!.!.!.!.!.!.!.!.!.!.!.!.!.!.!.!.!.!.!.!.!.!.!.!.!.!.!.!.!.!.!.!.!.!.!.!.!.!.!.!.!.!.!.!.!.!.!.!.!.!.!.!.!.!.!.!.!.!.!.!.!.!.!.!.!.!.!.!.!.!.!.!.!.!.!.  X X X + $ @ + $ @ @ X X   X   X X @ @ + & & - - - , , 2 6 6 6 6 2 6 6 9 0 q y i s d d k k z z x x x x x n n n B D D L I Y T R W W W W W W / / / / _ _ ' ' [ [ [ { {  . .o.o.o.o.@.@.@.&.&.=.=.=.:.,.<.3.3.6.6.9.w.w.u.u.p.f.h.h.l.l.l.v.n.N.N.N.N.N.N.N.N.N.N.N.B.B.B.B.B.A.S.A.D.D.D.D.D.D.D.D.J.J.J.J.L.J.J.L.J.P.P.P.P.P.P.J.P.J.L.L.J.J.J.J.J.J.D.J.D.J.J.J.L.L.P.J.L.L.J.J.P.P.U.U.U.U.U.R.R.R.E.R.R.R.R.R.U.U.U.U.P.P.U.J.J.J.J.J.J.D.D.D.D.D.D.D.D.A.S.A.A.A.A.B.B.B.B.B.N.N.v.v.v.v.v.l.l.h.h.f.f.s.p.p.u.u.r.r.w.9.9.9.6.5.3.<.<.,.:.=.=.&.&.$.@.o.o. . . .{ { { [ [ ' ' _ / / / / / W W W W R Y U I L L G D D D Z B M M B n n x x x z k d d d s i y e e q e e y y y y i i s s s i y e e e e q q e q e e q 0 8 6 2 2 2 , , , - - & & & & & & & - - - - & & & & & & & & & & & @ + @ @ + @ X X X     !.!.!.!.!.!.!.!.!.!.!.!.!.!.!.!.!.!.!.!.!.!.!.!.!.!.!.!.!.!.!.!.!.!.!.!.!.!.!.!.!.!.!.!.!.!.!.!.!.!.!.!.!.!.!.!.!.!.!.!.!.!.!.!.!.!.!.!.!.!.!.!.!.!.!.!.!.!.!.!.!.!.!.!.!.!.!.!.!.!.!.!.!.",
"!.!.!.!.!.!.!.!.!.!.!.!.!.!.!.!.!.!.!.!.!.!.!.!.!.!.!.!.!.!.!.!.!.!.!.!.!.!.!.!.!.!.!.!.!.!.!.!.!.!.!.!.!.!.!.!.!.!.!.!.!.!.!.!.!.!.!.!.!.!.!.!.!.!.!.!.!.!.!.!.!.!.!.!.!.!.!.!.!.!.!.!.!.!.!.!.!.!.!.!.  X X @ @ @ + @ + + X X X X X X X + @ @ & - - - , , , 2 6 6 2 2 2 2 6 8 9 q y y s s d d k z x x x x x x n N M Z D G L U T R W W W W W W W W / / / / _ ' [ [ [ [ [ { {  .o.o.o.@.@.@.@.&.&.&.=.=.:.:.<.3.5.6.9.9.w.r.u.u.p.f.h.l.l.l.v.v.v.N.N.N.N.N.N.N.n.N.N.B.B.B.B.B.B.A.S.D.D.D.D.D.D.D.D.J.D.D.J.J.L.J.J.J.J.P.P.P.P.L.P.P.P.J.J.L.J.J.J.J.J.L.J.J.J.J.J.J.L.L.P.J.P.L.U.P.P.P.U.U.U.U.U.R.R.R.E.R.R.R.U.R.U.R.U.U.U.P.P.L.L.J.J.J.J.J.J.D.D.D.D.D.S.D.S.A.A.A.B.B.B.B.B.B.N.N.v.v.v.v.l.l.l.h.h.f.f.s.p.p.u.u.r.r.w.9.9.9.6.5.3.3.<.<.,.:.=.&.&.$.@.o.o.X. . .{ { { [ [ ' ' _ _ / / / / W W W W W T U I L L G D D D Z Z B M M N N n n x x z k d d s s y y q e e e y y y i y y i i s i y y e y y e y y y y e q 0 8 6 6 2 2 2 2 , , - & & & & & & & - - - & & & @ @ $ @ & & & $ @ @ + @ @ + @ X X X   !.!.!.!.!.!.!.!.!.!.!.!.!.!.!.!.!.!.!.!.!.!.!.!.!.!.!.!.!.!.!.!.!.!.!.!.!.!.!.!.!.!.!.!.!.!.!.!.!.!.!.!.!.!.!.!.!.!.!.!.!.!.!.!.!.!.!.!.!.!.!.!.!.!.!.!.!.!.!.!.!.!.!.!.!.!.!.!.!.!.!.!.!.!.",
"!.!.!.!.!.!.!.!.!.!.!.!.!.!.!.!.!.!.!.!.!.!.!.!.!.!.!.!.!.!.!.!.!.!.!.!.!.!.!.!.!.!.!.!.!.!.!.!.!.!.!.!.!.!.!.!.!.!.!.!.!.!.!.!.!.!.!.!.!.!.!.!.!.!.!.!.!.!.!.!.!.!.!.!.!.!.!.!.!.!.!.!.!.!.!.!.!.!.!.!.!.X X X @ @ @ @ + @ @ X X X X X + @ $ & & - - - , , , 2 2 2 2 2 , 2 2 6 6 0 q y s s d d k x x x N x x n M B Z D D H L U Y R W W W W W W W W / / / / _ ' [ [ [ [ [ { {  .o.o.o.o.o.@.@.&.&.&.=.=.:.,.<.3.5.6.6.9.w.r.u.u.s.f.h.l.l.l.v.v.n.N.N.N.N.N.N.N.N.n.N.n.N.B.N.B.B.B.A.A.A.D.D.D.D.D.D.D.D.J.J.J.J.J.P.J.P.P.P.U.P.P.U.P.P.P.P.L.J.J.J.L.L.L.L.J.J.J.J.J.P.L.L.P.P.P.U.P.P.U.U.U.R.U.U.R.R.E.R.R.R.R.U.U.U.U.U.P.P.P.P.L.L.J.J.J.J.J.D.D.D.D.D.D.S.A.S.A.A.A.B.A.B.B.B.B.N.n.v.v.v.v.l.l.h.h.h.f.f.f.p.p.u.u.r.r.w.9.9.9.6.6.3.<.<.<.:.:.=.&.&.@.@.o.o.X. . . .{ { { [ [ ' ' _ _ / / / W W W W W Y I L L H G D D D Z Z B M M M M M N n x z k d d s s i i y y y y i s s s i i i y i s i y y e y y y y y y y e q 8 6 6 6 6 6 6 2 , , - & & & & & & - - & & % @ @ @ @ $ & & @ @ @ @ + @ + @ @ X X   !.!.!.!.!.!.!.!.!.!.!.!.!.!.!.!.!.!.!.!.!.!.!.!.!.!.!.!.!.!.!.!.!.!.!.!.!.!.!.!.!.!.!.!.!.!.!.!.!.!.!.!.!.!.!.!.!.!.!.!.!.!.!.!.!.!.!.!.!.!.!.!.!.!.!.!.!.!.!.!.!.!.!.!.!.!.!.!.!.!.!.!.!.!.!.",
"!.!.!.!.!.!.!.!.!.!.!.!.!.!.!.!.!.!.!.!.!.!.!.!.!.!.!.!.!.!.!.!.!.!.!.!.!.!.!.!.!.!.!.!.!.!.!.!.!.!.!.!.!.!.!.!.!.!.!.!.!.!.!.!.!.!.!.!.!.!.!.!.!.!.!.!.!.!.!.!.!.!.!.!.!.!.!.!.!.!.!.!.!.!.!.!.!.!.!.!.!.  X X X X X X X X X X X X X @ + @ & & & - - - - - , , 2 , 2 2 2 2 2 6 6 6 0 e y s s d k z x n M M N M B Z D D D L I U Y R W W W W W W ! / / / / _ _ _ [ ' [ [ [ { {  .X.o.@.@.@.@.@.&.=.=.=.:.:.,.<.3.6.6.9.9.w.r.u.u.s.f.h.l.l.l.v.n.n.N.n.N.n.n.n.N.n.n.n.N.N.N.B.B.B.B.A.A.D.D.D.D.D.D.D.D.J.J.J.J.J.J.P.P.P.P.P.U.P.P.P.P.P.P.P.P.L.L.L.L.J.J.J.J.L.L.J.J.P.P.P.U.U.U.P.P.U.U.R.R.R.R.R.R.E.E.R.R.R.R.U.U.U.U.U.U.P.P.P.J.J.J.J.J.J.D.D.D.D.D.D.S.A.A.A.A.A.B.B.B.B.B.B.B.n.n.v.v.l.l.l.l.l.h.h.h.f.f.p.p.u.u.u.r.r.9.9.6.6.6.3.3.<.<.:.:.=.=.&.$.@.@.o.X. . . .{ { { [ [ ' _ _ _ / _ / ! W W W W Y I L L G D D D D Z Z Z B B B B n M N x x k k d d s s s y y y y i s s s s s s s s i y i y y y y y y i s y y e q 8 8 6 6 6 6 6 2 2 , , - - & & & & & & & & $ $ @ @ @ @ & $ @ @ + @ @ + @ @ @ X   !.!.!.!.!.!.!.!.!.!.!.!.!.!.!.!.!.!.!.!.!.!.!.!.!.!.!.!.!.!.!.!.!.!.!.!.!.!.!.!.!.!.!.!.!.!.!.!.!.!.!.!.!.!.!.!.!.!.!.!.!.!.!.!.!.!.!.!.!.!.!.!.!.!.!.!.!.!.!.!.!.!.!.!.!.!.!.!.!.!.!.!.!.!.!.",
"!.!.!.!.!.!.!.!.!.!.!.!.!.!.!.!.!.!.!.!.!.!.!.!.!.!.!.!.!.!.!.!.!.!.!.!.!.!.!.!.!.!.!.!.!.!.!.!.!.!.!.!.!.!.!.!.!.!.!.!.!.!.!.!.!.!.!.!.!.!.!.!.!.!.!.!.!.!.!.!.!.!.!.!.!.!.!.!.!.!.!.!.!.!.!.!.!.!.!.!.!.        X X X X X X X X X @ + @ @ & & & - - - - - - , , , 2 2 , , 6 6 6 7 9 q e s s s d k k x N M M B Z Z D D H L U T R W W W W W W ! ^ / / / / _ _ _ ' ' [ ' [ [ {  .o.o.@.@.@.@.&.&.=.=.=.:.:.,.<.3.6.6.9.9.w.r.u.p.s.f.h.h.l.v.v.n.n.n.n.n.n.n.v.n.v.n.n.n.N.B.N.B.B.B.A.A.A.A.S.D.D.D.D.J.J.J.J.J.J.J.P.P.P.P.U.P.P.P.P.P.P.P.P.P.P.L.L.L.J.J.P.J.L.L.P.P.P.P.U.P.U.P.P.U.U.R.R.R.R.R.R.E.E.E.R.R.R.U.U.U.U.U.U.U.P.P.J.J.L.J.J.J.D.D.D.D.D.A.D.S.A.A.A.B.A.B.B.B.B.B.B.N.N.n.v.v.l.l.l.l.h.h.h.h.f.f.s.p.p.u.u.r.r.9.9.6.6.5.3.3.<.,.,.:.=.=.&.$.@.@.o.o.X. . . .{ { { [ ' ' _ _ / / / ! W W W W Y U L L G D D D D Z Z Z B B Z B B M N n x z k d d d s s s s i s s s s s s s s s i i y y y y y i i s s s s y y q 0 9 9 9 9 8 6 6 2 2 , , - - & & - & & & & & & & $ @ @ @ $ @ @ @ & & $ @ + @ X   !.!.!.!.!.!.!.!.!.!.!.!.!.!.!.!.!.!.!.!.!.!.!.!.!.!.!.!.!.!.!.!.!.!.!.!.!.!.!.!.!.!.!.!.!.!.!.!.!.!.!.!.!.!.!.!.!.!.!.!.!.!.!.!.!.!.!.!.!.!.!.!.!.!.!.!.!.!.!.!.!.!.!.!.!.!.!.!.!.!.!.!.!.!.!.",
"!.!.!.!.!.!.!.!.!.!.!.!.!.!.!.!.!.!.!.!.!.!.!.!.!.!.!.!.!.!.!.!.!.!.!.!.!.!.!.!.!.!.!.!.!.!.!.!.!.!.!.!.!.!.!.!.!.!.!.!.!.!.!.!.!.!.!.!.!.!.!.!.!.!.!.!.!.!.!.!.!.!.!.!.!.!.!.!.!.!.!.!.!.!.!.!.!.!.!.!.!.        X X X X X X X X X @ + @ & & & & - - - & - - , , , , , 2 2 2 6 6 0 0 q e s s s d k k x n M Z Z D D D G L I Y R W W W W W W W W / W / / / / _ _ _ ' ' [ [ { {  .o.o.@.@.@.@.&.=.=.=.=.:.:.,.<.3.5.6.9.9.w.r.u.p.f.f.h.l.l.l.v.v.v.n.v.n.v.n.v.v.v.v.n.N.n.N.N.B.B.B.B.A.A.S.S.D.D.D.D.D.J.J.J.J.L.L.P.P.P.P.P.P.P.U.U.P.P.P.P.P.P.P.P.P.P.P.P.P.P.P.P.P.P.P.U.U.U.U.U.U.U.U.U.R.R.R.E.E.E.E.R.E.R.U.R.R.U.U.U.U.P.P.J.J.J.J.D.D.D.D.D.D.D.D.A.S.A.A.A.B.B.B.B.B.N.B.N.N.n.v.v.v.v.v.l.l.l.h.h.h.f.f.s.p.p.u.u.r.r.9.9.6.6.5.3.3.<.,.,.:.=.&.&.&.@.@.o.o.X.X. . .{ { { [ ' ' ' _ / / / / W W W W T U L L G D D D D D Z Z Z Z Z Z Z B M N x x k k d d d s s s s d d s d s s i i s s s i y y y s i s s s s s y y e q q q q q 0 9 6 6 2 2 , - - - & - & & & & & & & & & @ @ @ @ @ @ & & & $ + @ X   !.!.!.!.!.!.!.!.!.!.!.!.!.!.!.!.!.!.!.!.!.!.!.!.!.!.!.!.!.!.!.!.!.!.!.!.!.!.!.!.!.!.!.!.!.!.!.!.!.!.!.!.!.!.!.!.!.!.!.!.!.!.!.!.!.!.!.!.!.!.!.!.!.!.!.!.!.!.!.!.!.!.!.!.!.!.!.!.!.!.!.!.!.!.!.",
"!.!.!.!.!.!.!.!.!.!.!.!.!.!.!.!.!.!.!.!.!.!.!.!.!.!.!.!.!.!.!.!.!.!.!.!.!.!.!.!.!.!.!.!.!.!.!.!.!.!.!.!.!.!.!.!.!.!.!.!.!.!.!.!.!.!.!.!.!.!.!.!.!.!.!.!.!.!.!.!.!.!.!.!.!.!.!.!.!.!.!.!.!.!.!.!.!.!.!.!.!.        X X X X X X X X @ @ @ & & & & & & - - - - - - - , , , 2 2 2 6 8 9 q e y s d d d k z b N Z Z D D D G L I T W W W W W W W W W W / / / / / / / _ ' [ [ [ { { {  .o.o.@.@.@.&.&.&.=.=.=.:.:.,.<.3.5.6.9.9.r.u.u.p.f.f.h.l.l.l.v.v.n.v.n.n.n.v.v.v.v.n.v.n.N.N.N.B.B.A.A.A.A.S.D.D.D.D.D.J.J.J.J.J.L.L.P.P.P.P.P.P.P.U.U.U.U.U.P.U.P.P.P.P.P.P.P.P.P.P.P.P.P.P.U.U.U.U.U.U.U.U.U.U.R.E.E.E.E.E.R.R.R.R.R.R.U.U.P.P.P.P.J.J.J.J.J.D.D.D.D.D.D.A.A.A.A.B.A.B.B.B.B.N.B.B.N.N.n.n.v.v.v.l.l.l.l.h.h.h.f.f.s.p.p.u.u.r.w.w.9.9.6.6.3.3.<.,.:.:.=.=.&.&.@.@.@.o.o.X.X. . .{ { [ [ ' _ _ / / / ! W W W W T U I L G D D D D D Z Z Z Z Z Z Z Z M N n x x k k d d s s s d d d d d s s s s s s s s i i s s s s s d d s s s y y e q e e q 0 6 6 6 2 , - - & & & & & & & - - & & & & & $ $ @ @ $ & & $ @ X X   !.!.!.!.!.!.!.!.!.!.!.!.!.!.!.!.!.!.!.!.!.!.!.!.!.!.!.!.!.!.!.!.!.!.!.!.!.!.!.!.!.!.!.!.!.!.!.!.!.!.!.!.!.!.!.!.!.!.!.!.!.!.!.!.!.!.!.!.!.!.!.!.!.!.!.!.!.!.!.!.!.!.!.!.!.!.!.!.!.!.!.!.!.!.!.",
"!.!.!.!.!.!.!.!.!.!.!.!.!.!.!.!.!.!.!.!.!.!.!.!.!.!.!.!.!.!.!.!.!.!.!.!.!.!.!.!.!.!.!.!.!.!.!.!.!.!.!.!.!.!.!.!.!.!.!.!.!.!.!.!.!.!.!.!.!.!.!.!.!.!.!.!.!.!.!.!.!.!.!.!.!.!.!.!.!.!.!.!.!.!.!.!.!.!.!.!.!.!.      X X X X X X X X @ $ $ & & & & & & - - - - - - - - - , 2 2 2 6 0 q e y y s d k k z x n M Z D D G L L U T W W W W W W W W ! W / / / / / _ / _ _ _ ' [ [ { { {  .o.o.@.@.$.&.&.&.&.=.=.:.,.<.3.3.6.6.9.w.r.u.u.p.f.h.h.l.l.l.v.v.v.v.v.v.n.n.v.v.v.v.v.n.n.N.N.B.B.B.A.A.A.D.D.D.D.D.D.J.J.J.J.J.L.L.J.P.P.P.U.U.U.U.U.U.U.U.U.U.P.P.P.P.U.U.U.P.P.P.P.U.P.U.U.U.U.U.U.R.U.U.U.R.R.E.R.E.E.R.E.R.R.U.R.U.U.U.U.P.P.J.J.J.J.J.J.D.D.D.D.D.A.S.A.A.A.A.A.A.B.B.B.B.N.N.N.n.v.n.v.v.v.v.l.l.l.h.h.h.f.f.s.p.p.u.u.r.r.9.9.9.6.5.3.3.<.,.:.:.=.=.&.&.&.@.@.@.o.o.o. . .{ { { [ ' _ _ _ / / / W W W W T U I L H G D D D D Z D D D Z Z Z Z Z M N n x x k k d d s d d d k d d d s s s s s s s s s s s s d d d d d s i y y e y e y e q 9 6 2 2 , , - - & & & & & & - - - & & & & & & & & & & & & + X X   !.!.!.!.!.!.!.!.!.!.!.!.!.!.!.!.!.!.!.!.!.!.!.!.!.!.!.!.!.!.!.!.!.!.!.!.!.!.!.!.!.!.!.!.!.!.!.!.!.!.!.!.!.!.!.!.!.!.!.!.!.!.!.!.!.!.!.!.!.!.!.!.!.!.!.!.!.!.!.!.!.!.!.!.!.!.!.!.!.!.!.!.!.!.!.",
"!.!.!.!.!.!.!.!.!.!.!.!.!.!.!.!.!.!.!.!.!.!.!.!.!.!.!.!.!.!.!.!.!.!.!.!.!.!.!.!.!.!.!.!.!.!.!.!.!.!.!.!.!.!.!.!.!.!.!.!.!.!.!.!.!.!.!.!.!.!.!.!.!.!.!.!.!.!.!.!.!.!.!.!.!.!.!.!.!.!.!.!.!.!.!.!.!.!.!.!.!.!.!.!.!.    X X   X X X @ @ $ & & & & & & - - - - - - - - , , 2 2 6 6 0 e y y i d d k k x x n M Z D G L I Y W W W W W W W W ^ / ! / / / / / / / _ _ _ ' [ [ { { {  .X.o.o.@.$.@.@.&.&.=.=.:.:.,.<.3.3.6.9.9.r.u.u.p.p.f.h.l.l.l.v.v.v.v.v.v.n.v.v.n.v.v.v.v.n.N.N.B.B.B.B.A.A.A.S.D.D.D.D.D.D.J.J.L.J.J.L.P.P.P.P.P.U.U.U.U.U.U.U.U.P.U.U.U.U.U.U.U.U.U.P.P.U.U.U.U.U.U.U.U.U.U.U.R.R.R.E.E.E.R.E.R.U.R.U.R.U.U.U.U.P.U.L.J.J.J.J.J.D.D.D.D.A.S.A.A.A.A.A.B.A.B.B.B.B.N.N.N.v.n.v.v.v.v.v.l.l.l.l.h.h.f.f.s.p.p.u.u.r.r.w.9.9.6.6.3.3.<.,.:.:.=.=.&.&.&.&.@.@.o.o.o.X. .{ { { [ ' ' _ _ / / / W W W W T U I L L G G D D D D D D D D D D Z Z Z M N n b x k k k d d d k k k d d d s s s s s s s s s d d d d d d s s s i y y y y e e q 8 6 2 , , , - - - & & & & & & - - - & & & & & & & & & & & @ X   !.!.!.!.!.!.!.!.!.!.!.!.!.!.!.!.!.!.!.!.!.!.!.!.!.!.!.!.!.!.!.!.!.!.!.!.!.!.!.!.!.!.!.!.!.!.!.!.!.!.!.!.!.!.!.!.!.!.!.!.!.!.!.!.!.!.!.!.!.!.!.!.!.!.!.!.!.!.!.!.!.!.!.!.!.!.!.!.!.!.!.!.!.!.!.!.",
"!.!.!.!.!.!.!.!.!.!.!.!.!.!.!.!.!.!.!.!.!.!.!.!.!.!.!.!.!.!.!.!.!.!.!.!.!.!.!.!.!.!.!.!.!.!.!.!.!.!.!.!.!.!.!.!.!.!.!.!.!.!.!.!.!.!.!.!.!.!.!.!.!.!.!.!.!.!.!.!.!.!.!.!.!.!.!.!.!.!.!.!.!.!.!.!.!.!.!.!.!.!.!.!.!.  !.  X   X X X @ @ @ & & & & - & - - - - - - - - - , 2 2 6 8 9 q y s s s d d k z x n M Z D G L I R W W W W W W W / / W W / / / / / / _ _ _ ' [ [ { { { {  .X.o.o.@.$.@.$.&.&.=.:.:.<.<.<.3.3.6.9.w.r.u.u.p.f.f.h.l.l.l.v.v.v.v.v.v.v.v.v.v.v.v.n.n.n.N.N.B.B.B.A.A.S.S.D.D.D.D.J.J.J.J.J.J.J.P.P.P.P.P.P.P.U.U.U.U.U.U.U.U.U.U.U.U.U.U.U.U.U.U.U.U.U.R.U.R.R.R.R.U.R.U.R.R.R.E.E.E.E.E.R.R.R.R.U.U.U.U.U.U.P.U.L.L.J.J.J.D.D.D.D.D.S.A.S.A.A.A.A.B.B.B.B.B.B.N.N.N.v.n.v.v.v.v.v.l.l.l.h.h.h.f.f.s.p.p.u.u.r.w.w.9.6.6.6.3.3.<.,.:.:.=.=.&.&.&.@.$.@.o.o.X. . .{ { { [ [ ' _ _ / / / ! W W W R Y I I L L G D G D D D D D D D D D D Z Z M N n b z z k k k k k k k d d d s s s s d s s s d k k k k d d d s s s s s s y y e q 9 6 2 2 , , , , - - - & & & & - - - - & & & & & & & & & $ + X     !.!.!.!.!.!.!.!.!.!.!.!.!.!.!.!.!.!.!.!.!.!.!.!.!.!.!.!.!.!.!.!.!.!.!.!.!.!.!.!.!.!.!.!.!.!.!.!.!.!.!.!.!.!.!.!.!.!.!.!.!.!.!.!.!.!.!.!.!.!.!.!.!.!.!.!.!.!.!.!.!.!.!.!.!.!.!.!.!.!.!.!.!.!.!.",
"!.!.!.!.!.!.!.!.!.!.!.!.!.!.!.!.!.!.!.!.!.!.!.!.!.!.!.!.!.!.!.!.!.!.!.!.!.!.!.!.!.!.!.!.!.!.!.!.!.!.!.!.!.!.!.!.!.!.!.!.!.!.!.!.!.!.!.!.!.!.!.!.!.!.!.!.!.!.!.!.!.!.!.!.!.!.!.!.!.!.!.!.!.!.!.!.!.!.!.!.!.!.!.!.!.!.!.        X X @ @ @ + @ & - - - - - - - , , , - , , 2 2 6 6 9 q y s s s d d k k b N B Z D G L I T W W W W W W W ^ / ^ / / / / / _ _ _ ' ' [ { { { { { {  .X.o.@.@.&.&.=.=.=.=.:.:.<.<.3.3.6.9.9.r.u.u.p.s.f.f.h.l.l.l.v.v.v.v.v.v.v.v.v.v.v.v.N.N.n.N.N.B.B.B.A.A.D.S.D.D.D.J.J.J.J.J.L.J.P.P.P.P.P.P.U.P.U.U.U.U.U.U.R.U.U.U.U.U.U.U.U.U.U.U.U.U.U.U.R.R.R.R.R.R.R.R.R.R.E.E.E.E.E.R.R.R.R.R.U.U.U.U.U.P.U.P.L.L.J.J.D.D.D.D.D.S.S.A.A.A.A.A.B.B.B.B.B.B.B.N.N.N.n.v.v.v.v.v.l.l.l.l.h.h.f.f.f.f.p.p.u.u.r.w.9.9.9.6.6.3.3.<.,.:.:.=.=.=.&.&.$.@.@.o.o.X. . .{ { { [ [ ' ' _ / _ / / W W W W T U L L L G G G G D D D D D D D D D D Z Z M B n x b z z k k k k k k d d d d d d d d s d k k k k k d d d s s s s s s s i y q 0 8 6 6 2 , , , - - - & & & & - - - - - & - & - - & & & @ @ X   !.!.!.!.!.!.!.!.!.!.!.!.!.!.!.!.!.!.!.!.!.!.!.!.!.!.!.!.!.!.!.!.!.!.!.!.!.!.!.!.!.!.!.!.!.!.!.!.!.!.!.!.!.!.!.!.!.!.!.!.!.!.!.!.!.!.!.!.!.!.!.!.!.!.!.!.!.!.!.!.!.!.!.!.!.!.!.!.!.!.!.!.!.!.!.!.",
"!.!.!.!.!.!.!.!.!.!.!.!.!.!.!.!.!.!.!.!.!.!.!.!.!.!.!.!.!.!.!.!.!.!.!.!.!.!.!.!.!.!.!.!.!.!.!.!.!.!.!.!.!.!.!.!.!.!.!.!.!.!.!.!.!.!.!.!.!.!.!.!.!.!.!.!.!.!.!.!.!.!.!.!.!.!.!.!.!.!.!.!.!.!.!.!.!.!.!.!.!.!.!.!.!.!.!.!.!.!.  X X X X @ @ @ $ - - - - - - , , , , , , , 2 2 6 6 9 q e i s s s d k k x n M Z D G L U T W W W W W ! W / / / / / / _ _ / _ ' [ ' [ { { { { {  .X.o.o.@.@.&.&.=.=.:.:.,.,.<.3.6.6.9.9.w.r.u.u.p.s.f.f.h.l.l.v.v.v.v.v.v.v.v.v.v.v.v.N.N.N.B.N.B.B.B.A.S.S.D.D.D.D.J.J.J.L.L.L.L.J.P.P.P.P.P.P.P.U.U.U.U.R.R.U.R.R.R.U.U.U.R.U.R.U.U.R.R.U.R.U.R.R.R.R.R.E.R.E.R.E.E.E.E.E.E.E.R.R.R.U.U.U.U.U.U.U.P.J.J.L.J.J.J.D.D.D.D.A.S.A.A.A.B.B.B.B.B.B.B.B.B.N.N.n.n.v.v.v.v.v.v.l.l.l.h.h.h.f.f.s.p.p.u.u.r.r.9.9.6.6.6.3.3.<.,.,.:.=.=.&.&.&.&.@.@.o.o.X.X. . .{ { [ [ [ ' _ _ / / / W W W W R U I L L L H H G H H G G D D D D D D D D Z B B N n b z k k k z z k k k d d d d d s d d d k k k k k d d d d d d d d s s y e q 9 6 6 2 2 , , , - & & & & - - - - & & & & & - & & & $ @ X X   !.!.!.!.!.!.!.!.!.!.!.!.!.!.!.!.!.!.!.!.!.!.!.!.!.!.!.!.!.!.!.!.!.!.!.!.!.!.!.!.!.!.!.!.!.!.!.!.!.!.!.!.!.!.!.!.!.!.!.!.!.!.!.!.!.!.!.!.!.!.!.!.!.!.!.!.!.!.!.!.!.!.!.!.!.!.!.!.!.!.!.!.!.!.!.!.",
"!.!.!.!.!.!.!.!.!.!.!.!.!.!.!.!.!.!.!.!.!.!.!.!.!.!.!.!.!.!.!.!.!.!.!.!.!.!.!.!.!.!.!.!.!.!.!.!.!.!.!.!.!.!.!.!.!.!.!.!.!.!.!.!.!.!.!.!.!.!.!.!.!.!.!.!.!.!.!.!.!.!.!.!.!.!.!.!.!.!.!.!.!.!.!.!.!.!.!.!.!.!.!.!.!.!.!.!.!.!.!.    X X X X @ $ & - , , , , , , , , , , , , 2 2 6 9 q e y s s s d d k x x M Z D H L U R W W W W W W ! W / / / / _ _ _ _ ' [ [ [ { { { {  . . .X.o.o.@.&.&.=.=.=.:.,.,.<.<.3.6.6.9.9.w.r.u.u.p.p.s.h.h.l.l.l.l.v.v.v.v.v.v.v.v.n.N.n.B.B.B.B.B.B.A.S.A.D.D.D.D.D.J.J.J.L.L.P.P.P.P.P.P.P.P.U.P.P.U.U.U.U.U.R.R.R.R.U.U.U.U.R.R.U.R.R.R.R.R.R.R.R.R.R.E.R.E.E.E.E.E.E.E.E.E.R.E.R.R.U.U.U.U.U.P.P.P.P.J.J.J.J.D.D.D.D.D.S.A.A.A.A.A.B.A.B.B.B.B.B.B.N.N.N.N.v.v.v.v.v.v.l.l.l.h.h.f.f.f.s.p.p.u.u.r.w.w.9.6.6.5.3.3.<.<.:.:.=.=.=.&.&.@.@.@.@.o.o.X. . .{ { [ [ ' ' _ _ _ / / W W W W R T U I L L L L L L L L H G D G D G D D D D Z Z Z M x x x k z z z x z z k k k d d d d k k k z k k k d d d d d k k k d s i e q 9 6 6 6 2 , , - - - & & & - & - - & & & & & & & & & @ + X X   !.!.!.!.!.!.!.!.!.!.!.!.!.!.!.!.!.!.!.!.!.!.!.!.!.!.!.!.!.!.!.!.!.!.!.!.!.!.!.!.!.!.!.!.!.!.!.!.!.!.!.!.!.!.!.!.!.!.!.!.!.!.!.!.!.!.!.!.!.!.!.!.!.!.!.!.!.!.!.!.!.!.!.!.!.!.!.!.!.!.!.!.!.!.!.!.",
"!.!.!.!.!.!.!.!.!.!.!.!.!.!.!.!.!.!.!.!.!.!.!.!.!.!.!.!.!.!.!.!.!.!.!.!.!.!.!.!.!.!.!.!.!.!.!.!.!.!.!.!.!.!.!.!.!.!.!.!.!.!.!.!.!.!.!.!.!.!.!.!.!.!.!.!.!.!.!.!.!.!.!.!.!.!.!.!.!.!.!.!.!.!.!.!.!.!.!.!.!.!.!.!.!.!.!.!.!.!.!.!.!.      X @ @ & - , , , , , , , 2 2 , , , 2 6 8 9 q e y s s s d d k z n B Z D H L U W W W W W W ! W / / / / _ _ _ ' ' [ [ [ { { { {  . .o.o.o.o.o.@.&.&.=.=.:.:.,.<.<.3.5.6.6.9.w.r.r.u.u.p.s.f.h.h.l.l.l.l.l.v.l.v.v.v.v.v.v.N.B.B.B.B.B.B.B.A.A.D.D.D.D.D.J.J.J.J.P.P.P.U.P.P.P.U.P.U.P.U.U.U.U.U.U.U.U.U.R.U.U.U.U.U.R.R.R.U.R.R.R.E.E.R.E.E.E.E.E.E.E.E.E.E.E.E.E.E.E.R.R.U.R.R.U.U.U.U.P.P.P.J.J.J.J.J.D.D.D.D.S.S.A.A.A.A.A.B.B.B.B.B.B.B.N.N.N.n.n.v.v.v.v.l.l.l.h.h.h.f.f.f.s.p.u.u.u.r.w.w.9.6.6.5.3.3.<.,.:.:.=.=.&.&.&.&.@.@.@.o.o.o. . .{ { { [ [ ' ' _ _ _ / / W W W W R U I I L L L L L L L L L G H G G G G D D D D Z Z N n b x x x x b x x x k k k k k k k k k k k k k d d d d d k k k d d s y q 9 6 2 2 2 , , - - - - & - - - & & & & & & & & & & $ @ @ X     !.!.!.!.!.!.!.!.!.!.!.!.!.!.!.!.!.!.!.!.!.!.!.!.!.!.!.!.!.!.!.!.!.!.!.!.!.!.!.!.!.!.!.!.!.!.!.!.!.!.!.!.!.!.!.!.!.!.!.!.!.!.!.!.!.!.!.!.!.!.!.!.!.!.!.!.!.!.!.!.!.!.!.!.!.!.!.!.!.!.!.!.!.!.!.!.",
"!.!.!.!.!.!.!.!.!.!.!.!.!.!.!.!.!.!.!.!.!.!.!.!.!.!.!.!.!.!.!.!.!.!.!.!.!.!.!.!.!.!.!.!.!.!.!.!.!.!.!.!.!.!.!.!.!.!.!.!.!.!.!.!.!.!.!.!.!.!.!.!.!.!.!.!.!.!.!.!.!.!.!.!.!.!.!.!.!.!.!.!.!.!.!.!.!.!.!.!.!.!.!.!.!.!.!.!.!.!.!.!.!.!.      X + & - - , , , , , 2 2 2 2 2 2 6 6 8 q q y y i s d d k k z x N Z D G L U R W W W W W W W W / / / _ _ ' ' [ [ { { {  . . . .X.o.o.o.@.@.&.&.=.=.=.=.:.,.3.3.3.6.6.9.9.w.r.u.u.u.p.f.f.h.h.l.l.l.l.l.l.l.l.v.v.v.n.v.N.B.B.B.B.B.A.A.A.A.D.D.D.D.D.J.J.J.P.P.P.P.U.P.U.U.P.U.U.P.U.U.U.U.U.U.U.U.U.U.U.R.R.U.R.R.R.R.R.R.R.E.R.E.E.E.E.E.E.E.E.E.E.E.Q.E.E.E.E.E.R.R.R.R.U.U.U.U.U.P.P.P.J.L.J.J.J.D.D.D.D.S.A.A.A.A.A.B.B.B.B.B.B.B.B.N.N.N.n.n.v.v.v.l.l.l.l.l.h.h.f.f.f.p.p.p.u.u.r.w.9.9.6.6.3.3.3.,.,.:.:.=.=.&.&.&.&.@.@.o.o.o.o. . .{ { { [ [ ' ' _ _ / / W W W W W R R U U I I I L L L L L L L L L J L L L G D D D D Z Z M n n x n x x n x x x x k k k k k k k k k d k k d d d k k k d d s y e q 6 2 2 , , - - - - - - - - - & & & & & & & & & & & @ X X X   !.!.!.!.!.!.!.!.!.!.!.!.!.!.!.!.!.!.!.!.!.!.!.!.!.!.!.!.!.!.!.!.!.!.!.!.!.!.!.!.!.!.!.!.!.!.!.!.!.!.!.!.!.!.!.!.!.!.!.!.!.!.!.!.!.!.!.!.!.!.!.!.!.!.!.!.!.!.!.!.!.!.!.!.!.!.!.!.!.!.!.!.!.!.!.!.",
"!.!.!.!.!.!.!.!.!.!.!.!.!.!.!.!.!.!.!.!.!.!.!.!.!.!.!.!.!.!.!.!.!.!.!.!.!.!.!.!.!.!.!.!.!.!.!.!.!.!.!.!.!.!.!.!.!.!.!.!.!.!.!.!.!.!.!.!.!.!.!.!.!.!.!.!.!.!.!.!.!.!.!.!.!.!.!.!.!.!.!.!.!.!.!.!.!.!.!.!.!.!.!.!.!.!.!.!.!.!.!.!.!.!.      X @ + & - - - - - , 2 2 2 2 2 2 2 6 8 q q e y i s d k k k x x N Z D G L U T W W W W W W W W W / / _ _ ' [ [ { { {  . . . .X.X.o.o.o.@.@.&.&.=.=.=.:.,.<.3.3.6.6.9.9.w.r.r.r.u.u.p.f.f.h.h.l.l.l.l.l.l.l.l.v.v.v.v.v.N.B.B.B.A.A.D.A.D.D.D.D.J.J.J.J.J.P.P.P.P.P.U.U.U.U.U.U.U.U.U.U.U.U.U.U.U.U.U.U.U.R.R.R.R.R.R.R.R.R.R.E.E.E.E.E.E.E.E.E.E.E.E.E.E.E.E.E.E.E.R.R.R.R.R.U.U.U.U.U.P.P.L.L.J.J.J.D.D.D.D.D.S.A.A.A.A.A.A.A.B.B.B.B.N.N.N.N.n.n.v.v.l.v.v.l.l.h.h.h.h.f.s.p.p.u.u.r.r.9.9.9.6.5.3.<.<.,.,.:.:.=.=.&.&.&.$.@.@.@.o.o.o.X. .{ { { [ [ ' ' _ / / / / ! W W W W W R T U U I I I L L L L I L L L L L L L L H G G D D Z Z M M N N N n N n x x x b x x z k k k k k k k k d d d d d d s s i e 0 6 2 , , , - - - - - - - - & & & & & & & & & & & $ @ X X   !.!.!.!.!.!.!.!.!.!.!.!.!.!.!.!.!.!.!.!.!.!.!.!.!.!.!.!.!.!.!.!.!.!.!.!.!.!.!.!.!.!.!.!.!.!.!.!.!.!.!.!.!.!.!.!.!.!.!.!.!.!.!.!.!.!.!.!.!.!.!.!.!.!.!.!.!.!.!.!.!.!.!.!.!.!.!.!.!.!.!.!.!.!.!.!.!.",
"!.!.!.!.!.!.!.!.!.!.!.!.!.!.!.!.!.!.!.!.!.!.!.!.!.!.!.!.!.!.!.!.!.!.!.!.!.!.!.!.!.!.!.!.!.!.!.!.!.!.!.!.!.!.!.!.!.!.!.!.!.!.!.!.!.!.!.!.!.!.!.!.!.!.!.!.!.!.!.!.!.!.!.!.!.!.!.!.!.!.!.!.!.!.!.!.!.!.!.!.!.!.!.!.!.!.!.!.!.!.!.!.!.!.!.!.  X X X @ & - - - - - , 2 2 2 6 6 6 6 9 q q e y s d d k z z x n M Z D G L I Y R W W W W W W W W / / / _ ' [ [ { {  . . .X.X.X.o.o.o.@.@.&.&.&.=.=.:.:.<.3.3.6.6.6.9.w.w.r.r.u.u.p.s.f.h.h.l.l.l.l.l.l.l.l.l.l.v.v.v.N.N.B.B.B.A.S.D.D.D.D.D.J.J.J.J.J.L.P.P.P.U.P.U.U.U.U.U.U.U.U.U.U.U.U.U.U.R.U.R.R.R.R.R.R.R.R.R.R.R.E.E.E.E.E.E.E.E.E.E.E.E.E.Q.E.Q.E.E.E.E.R.R.R.R.R.R.U.U.U.P.P.P.P.L.L.J.J.J.J.D.D.D.D.D.S.A.A.A.A.A.A.B.B.B.B.B.B.N.N.N.n.v.v.v.l.l.l.l.h.h.f.f.f.s.p.p.u.u.r.w.w.9.6.6.3.3.<.<.,.,.:.=.=.=.&.&.&.@.@.@.@.o.o.X.X. . .{ { { [ [ ' _ / / / / / W W W W W W W T U I I I I I I I I I I I U I I I L L L L H G D D Z Z B M M M M M N n n n n x x z k k k k k k k k d d d s s s i y q 8 2 2 , , - - - - - - - - - & & @ @ + $ & & & & $ @ @ X X   !.!.!.!.!.!.!.!.!.!.!.!.!.!.!.!.!.!.!.!.!.!.!.!.!.!.!.!.!.!.!.!.!.!.!.!.!.!.!.!.!.!.!.!.!.!.!.!.!.!.!.!.!.!.!.!.!.!.!.!.!.!.!.!.!.!.!.!.!.!.!.!.!.!.!.!.!.!.!.!.!.!.!.!.!.!.!.!.!.!.!.!.!.!.!.!.!.",
"!.!.!.!.!.!.!.!.!.!.!.!.!.!.!.!.!.!.!.!.!.!.!.!.!.!.!.!.!.!.!.!.!.!.!.!.!.!.!.!.!.!.!.!.!.!.!.!.!.!.!.!.!.!.!.!.!.!.!.!.!.!.!.!.!.!.!.!.!.!.!.!.!.!.!.!.!.!.!.!.!.!.!.!.!.!.!.!.!.!.!.!.!.!.!.!.!.!.!.!.!.!.!.!.!.!.!.!.!.!.!.!.!.!.!.!.  X   X X @ & & & - - - , 2 2 6 8 8 8 q e y y i s d k z z b x N M Z D D H I U W W W W W W W W W W / / / ' [ { { {  . . . .X.o.o.@.@.@.@.@.&.=.=.=.:.,.<.3.5.6.6.9.w.w.r.u.u.u.p.p.f.f.h.h.l.l.l.l.v.l.l.l.l.v.v.v.v.N.N.B.B.B.A.D.D.D.D.D.J.J.J.J.J.J.L.P.P.P.U.P.U.U.U.U.U.U.U.U.U.U.U.U.U.R.R.R.R.R.R.R.R.E.E.E.E.E.E.E.E.E.E.E.E.E.E.E.E.E.Q.E.Q.Q.E.E.E.E.E.E.R.R.R.R.R.U.U.U.P.U.P.P.L.L.J.J.J.D.D.D.D.D.D.S.S.A.A.A.A.A.B.B.B.B.N.B.N.N.N.v.v.v.v.v.l.l.h.h.h.f.f.f.p.p.u.u.r.r.9.9.9.6.6.3.<.<.,.<.:.=.=.=.&.&.&.$.$.@.@.o.o.o.o.X. . .{ { { [ [ ' _ / / / / / ! W W W W W W R T U U U U U U I U I I U U Y Y U I I I L L L H G D D Z Z B B Z M M N M N n x b z k k k k k k k d d d d s i i e 9 8 6 2 , , , , - , , , - , - & & & @ @ + @ @ @ $ & + @ @ X X   !.!.!.!.!.!.!.!.!.!.!.!.!.!.!.!.!.!.!.!.!.!.!.!.!.!.!.!.!.!.!.!.!.!.!.!.!.!.!.!.!.!.!.!.!.!.!.!.!.!.!.!.!.!.!.!.!.!.!.!.!.!.!.!.!.!.!.!.!.!.!.!.!.!.!.!.!.!.!.!.!.!.!.!.!.!.!.!.!.!.!.!.!.!.!.!.!.",
"!.!.!.!.!.!.!.!.!.!.!.!.!.!.!.!.!.!.!.!.!.!.!.!.!.!.!.!.!.!.!.!.!.!.!.!.!.!.!.!.!.!.!.!.!.!.!.!.!.!.!.!.!.!.!.!.!.!.!.!.!.!.!.!.!.!.!.!.!.!.!.!.!.!.!.!.!.!.!.!.!.!.!.!.!.!.!.!.!.!.!.!.!.!.!.!.!.!.!.!.!.!.!.!.!.!.!.!.!.!.!.!.!.!.!.!.!.  !.!.X @ @ & & - - - , 2 2 6 9 0 9 q e y y s s d k z x n N N B Z D D H I U R W W W W W W ! W / / / / ' [ [ { {  . .X.X.X.o.o.@.@.@.@.@.&.=.=.:.,.<.3.3.6.6.9.9.w.w.r.u.u.p.p.f.f.h.l.l.l.l.l.l.v.v.l.v.v.v.v.v.v.N.B.B.B.B.S.D.D.D.J.J.J.J.J.J.L.L.P.P.P.U.U.P.U.U.U.U.U.U.U.U.R.U.U.U.U.R.R.R.R.R.R.E.E.E.R.E.E.E.E.E.E.E.E.E.E.Q.E.E.Q.Q.E.E.Q.Q.E.E.E.E.E.E.R.R.U.R.U.U.U.U.U.P.P.P.J.J.J.J.J.D.D.D.D.D.D.D.S.A.S.S.A.A.A.B.B.B.B.N.N.N.N.n.v.v.v.v.l.l.l.h.h.f.f.f.p.p.u.u.r.w.9.9.6.6.3.3.<.<.,.:.:.=.=.&.&.&.&.$.$.@.@.o.o.o.o.X. . .{ { { [ [ ' _ _ / _ _ / / W W W W W W W R T Y Y Y Y Y Y U U Y T R R R T U U I I I L L L G D D D Z Z Z Z Z Z Z M M N n x z k k k d d d d d d s i y e q 6 2 2 , , , , - , , , , - - - & & & @ + @ + @ @ $ & $ + @ X X   !.!.!.!.!.!.!.!.!.!.!.!.!.!.!.!.!.!.!.!.!.!.!.!.!.!.!.!.!.!.!.!.!.!.!.!.!.!.!.!.!.!.!.!.!.!.!.!.!.!.!.!.!.!.!.!.!.!.!.!.!.!.!.!.!.!.!.!.!.!.!.!.!.!.!.!.!.!.!.!.!.!.!.!.!.!.!.!.!.!.!.!.!.!.!.!.!.",
"!.!.!.!.!.!.!.!.!.!.!.!.!.!.!.!.!.!.!.!.!.!.!.!.!.!.!.!.!.!.!.!.!.!.!.!.!.!.!.!.!.!.!.!.!.!.!.!.!.!.!.!.!.!.!.!.!.!.!.!.!.!.!.!.!.!.!.!.!.!.!.!.!.!.!.!.!.!.!.!.!.!.!.!.!.!.!.!.!.!.!.!.!.!.!.!.!.!.!.!.!.!.!.!.!.!.!.!.!.!.!.!.!.!.!.!.!.!.!.!.  X @ $ & & - - , 2 6 6 8 q q q y y i s d d k z x N M M Z Z D G L L U T W W W W W ! / W / / / _ _ [ [ { {  . . .X.X.o.o.o.@.@.@.&.&.=.=.:.,.<.<.3.6.9.9.w.w.r.u.u.p.p.p.f.h.l.l.l.l.l.l.l.v.l.v.v.v.v.v.v.n.N.B.B.A.A.S.D.D.D.J.J.J.J.J.J.J.P.P.U.U.U.U.U.U.P.U.R.U.R.U.R.U.U.U.U.R.R.R.R.R.E.E.E.E.E.E.E.E.E.E.E.E.E.E.E.E.E.Q.E.Q.Q.E.Q.Q.E.E.E.E.E.R.R.R.R.U.U.R.U.U.U.P.P.P.P.J.J.L.J.J.J.J.J.J.D.D.D.D.D.D.A.S.A.A.B.B.B.B.B.B.N.N.v.v.v.v.v.l.l.h.h.h.f.f.s.p.u.u.u.r.w.9.9.6.6.3.3.<.,.:.:.=.=.=.&.&.&.&.@.@.@.@.o.o.o.o.o. . .{ { { [ [ ' ' _ _ _ _ / / / / W W W W W W R R R R R W W R R R W W W W R T Y U U U U I I L L G G D D D D D D Z Z B M n x z z k k d k k k k d s y e 0 8 2 , , , , , , , , , , - - - - - & & @ @ + + @ + @ $ $ @ @ @ X   !.!.!.!.!.!.!.!.!.!.!.!.!.!.!.!.!.!.!.!.!.!.!.!.!.!.!.!.!.!.!.!.!.!.!.!.!.!.!.!.!.!.!.!.!.!.!.!.!.!.!.!.!.!.!.!.!.!.!.!.!.!.!.!.!.!.!.!.!.!.!.!.!.!.!.!.!.!.!.!.!.!.!.!.!.!.!.!.!.!.!.!.!.!.!.!.!.",
"!.!.!.!.!.!.!.!.!.!.!.!.!.!.!.!.!.!.!.!.!.!.!.!.!.!.!.!.!.!.!.!.!.!.!.!.!.!.!.!.!.!.!.!.!.!.!.!.!.!.!.!.!.!.!.!.!.!.!.!.!.!.!.!.!.!.!.!.!.!.!.!.!.!.!.!.!.!.!.!.!.!.!.!.!.!.!.!.!.!.!.!.!.!.!.!.!.!.!.!.!.!.!.!.!.!.!.!.!.!.!.!.!.!.!.!.!.!.!.!.!.  X @ @ & - - , 2 2 6 7 q e y i s s d d k k b N B Z Z Z D D H L I U T W W W W / / / / / / _ _ _ [ [ { {  . . .X.X.o.o.o.@.@.@.&.=.=.:.<.<.<.3.6.6.9.9.w.r.r.u.p.p.s.f.f.h.l.l.v.v.l.v.l.v.v.v.v.v.n.n.n.N.B.B.B.A.A.D.D.D.D.J.J.L.L.P.J.J.U.U.P.U.U.U.U.U.U.U.U.R.R.R.R.R.U.U.U.U.R.R.R.E.E.E.E.E.E.E.E.E.E.E.E.E.Q.E.E.Q.Q.Q.Q.Q.Q.Q.Q.Q.E.E.E.E.E.E.R.R.R.R.R.U.U.U.P.U.P.P.P.J.L.L.L.J.J.J.J.J.D.D.D.D.D.D.S.D.A.A.A.A.B.B.B.N.B.N.N.v.v.v.l.l.l.h.h.f.f.f.s.p.u.u.u.r.9.9.9.6.6.3.<.<.,.:.:.=.=.=.=.&.&.@.@.@.@.@.o.o.o.o.o.o. . .{ { { [ [ ' ' _ _ _ _ / / / / ! W W W W W W W W W W W W W W W W W W W R R T T R R T U I L L L L G G D G D D Z Z B n x z k k k k k k k d d s y 0 8 6 2 , , , , - - , , , , , , , , - & & & $ @ @ + + $ & & @ + X X   !.!.!.!.!.!.!.!.!.!.!.!.!.!.!.!.!.!.!.!.!.!.!.!.!.!.!.!.!.!.!.!.!.!.!.!.!.!.!.!.!.!.!.!.!.!.!.!.!.!.!.!.!.!.!.!.!.!.!.!.!.!.!.!.!.!.!.!.!.!.!.!.!.!.!.!.!.!.!.!.!.!.!.!.!.!.!.!.!.!.!.!.!.!.!.!.!.",
"!.!.!.!.!.!.!.!.!.!.!.!.!.!.!.!.!.!.!.!.!.!.!.!.!.!.!.!.!.!.!.!.!.!.!.!.!.!.!.!.!.!.!.!.!.!.!.!.!.!.!.!.!.!.!.!.!.!.!.!.!.!.!.!.!.!.!.!.!.!.!.!.!.!.!.!.!.!.!.!.!.!.!.!.!.!.!.!.!.!.!.!.!.!.!.!.!.!.!.!.!.!.!.!.!.!.!.!.!.!.!.!.!.!.!.!.!.!.!.!.!.!.  X X $ & - 2 2 6 8 0 e y i s s s d k z x x M B D D D D G L L I U R W W W W / / / / _ _ _ ' ' [ { { {  . . .X.o.o.o.o.@.@.&.&.=.:.,.<.<.3.3.6.6.9.9.r.r.u.u.p.f.f.f.h.l.l.l.v.v.v.v.v.v.v.v.N.N.n.N.N.N.B.B.A.A.D.A.D.D.J.J.L.L.J.P.P.P.U.U.U.U.U.U.U.U.U.U.U.U.U.U.R.U.R.U.R.R.R.E.E.E.E.E.E.E.E.E.E.E.E.E.Q.E.Q.Q.Q.Q.Q.Q.Q.Q.Q.Q.Q.Q.E.E.E.E.E.R.R.R.R.U.U.R.U.U.U.P.P.P.P.J.L.L.J.J.J.J.J.D.D.D.D.D.D.D.D.D.D.A.A.B.B.B.B.B.B.N.N.v.v.l.l.l.l.h.h.h.f.f.s.p.u.u.r.w.w.9.6.6.3.3.<.<.,.:.:.=.=.=.&.&.&.@.@.@.@.o.@.o.o.o.X.X. . .{ { { { [ [ [ ' ' ' _ _ / / / / / W W W W W W W W W W W W W W W W W W W W W W W R R R T Y U U I L L L H G D D Z B n b k k k k k d d d d s i y 0 6 2 2 , , , - - - , , , , , , , , - - & & & & $ + @ & & & @ + @ X X   !.!.!.!.!.!.!.!.!.!.!.!.!.!.!.!.!.!.!.!.!.!.!.!.!.!.!.!.!.!.!.!.!.!.!.!.!.!.!.!.!.!.!.!.!.!.!.!.!.!.!.!.!.!.!.!.!.!.!.!.!.!.!.!.!.!.!.!.!.!.!.!.!.!.!.!.!.!.!.!.!.!.!.!.!.!.!.!.!.!.!.!.!.!.!.!.",
"!.!.!.!.!.!.!.!.!.!.!.!.!.!.!.!.!.!.!.!.!.!.!.!.!.!.!.!.!.!.!.!.!.!.!.!.!.!.!.!.!.!.!.!.!.!.!.!.!.!.!.!.!.!.!.!.!.!.!.!.!.!.!.!.!.!.!.!.!.!.!.!.!.!.!.!.!.!.!.!.!.!.!.!.!.!.!.!.!.!.!.!.!.!.!.!.!.!.!.!.!.!.!.!.!.!.!.!.!.!.!.!.!.!.!.!.!.!.!.!.!.!.  X @ $ & - , 2 6 6 9 e y s s s d k z x x n B Z D G G L I I L I U W W W W / / / _ / _ _ _ _ ' [ [ { {  . . .X.o.o.o.@.@.$.&.&.=.:.,.<.3.3.5.6.9.9.9.r.u.u.u.p.f.f.h.h.l.l.v.v.v.v.v.v.n.n.N.N.N.N.N.N.B.B.B.A.A.S.D.D.J.J.J.L.P.P.P.P.P.U.U.U.U.U.U.U.U.U.U.U.U.U.U.U.R.U.R.E.R.R.E.E.E.E.E.E.E.E.E.E.E.E.Q.Q.Q.Q.Q.Q.Q.Q.Q.Q.Q.Q.Q.Q.Q.E.E.E.E.E.E.R.R.R.R.U.U.U.U.U.P.P.P.P.P.L.L.L.J.J.J.J.J.J.D.J.J.J.D.D.D.D.A.A.A.A.B.B.B.B.N.n.v.v.v.v.l.h.h.h.f.f.s.p.p.u.u.r.w.9.9.6.5.3.<.<.,.,.:.:.=.=.=.&.&.&.@.@.@.@.o.o.o.o.o.o.X. . . .{ { { { [ { [ [ ' ' _ _ / / / / / / ^ W W W W W W W W W W W W W W W W W W W W W W W W W W T Y Y I L L H G D Z B N x z k k d d d d d s s s y q 6 2 2 , , , - - - , , , , 2 , 2 , , - - - & & & & & & & & $ @ + X X   !.!.!.!.!.!.!.!.!.!.!.!.!.!.!.!.!.!.!.!.!.!.!.!.!.!.!.!.!.!.!.!.!.!.!.!.!.!.!.!.!.!.!.!.!.!.!.!.!.!.!.!.!.!.!.!.!.!.!.!.!.!.!.!.!.!.!.!.!.!.!.!.!.!.!.!.!.!.!.!.!.!.!.!.!.!.!.!.!.!.!.!.!.!.!.!.",
"!.!.!.!.!.!.!.!.!.!.!.!.!.!.!.!.!.!.!.!.!.!.!.!.!.!.!.!.!.!.!.!.!.!.!.!.!.!.!.!.!.!.!.!.!.!.!.!.!.!.!.!.!.!.!.!.!.!.!.!.!.!.!.!.!.!.!.!.!.!.!.!.!.!.!.!.!.!.!.!.!.!.!.!.!.!.!.!.!.!.!.!.!.!.!.!.!.!.!.!.!.!.!.!.!.!.!.!.!.!.!.!.!.!.!.!.!.!.!.!.!.!.  X + & & - , 2 2 6 8 e y s d d d k x x n M Z D D H L L L I I U T W W W W / / / / _ _ ' _ ' ' [ [ { { {  . .o.o.o.o.@.$.&.&.=.=.:.,.<.3.3.5.6.6.6.9.r.u.u.u.p.f.f.h.h.l.l.v.v.v.n.N.N.N.N.N.N.N.N.B.B.B.B.B.A.S.D.D.D.J.J.J.J.P.P.P.P.P.U.U.U.U.U.U.U.R.R.R.R.U.R.U.R.R.R.R.R.R.E.E.E.E.E.E.E.E.E.E.E.Q.Q.E.Q.Q.Q.Q.Q.Q.Q.Q.Q.Q.Q.Q.E.E.E.E.E.E.E.R.R.R.R.R.U.U.U.U.U.U.P.P.P.L.J.L.J.L.J.J.J.J.J.J.J.D.D.D.D.D.D.D.S.A.A.A.B.B.B.N.N.n.v.l.l.l.h.h.h.f.f.s.p.u.u.u.w.w.9.9.6.5.3.<.<.,.:.:.=.=.=.=.&.&.@.@.@.@.@.o.o.o.o.o.o.X.X. . . .{ { { { { [ [ [ [ ' _ _ / / / / / / / W W W W W W W W W W W W W W W W W W W W W W W W W W R T Y I L L G D D Z N b z k d k d d d s s i i y q 8 6 2 , , - - - , , , , , 2 2 2 2 , 2 , - - & & & & & & & & $ @ @ X   !.!.!.!.!.!.!.!.!.!.!.!.!.!.!.!.!.!.!.!.!.!.!.!.!.!.!.!.!.!.!.!.!.!.!.!.!.!.!.!.!.!.!.!.!.!.!.!.!.!.!.!.!.!.!.!.!.!.!.!.!.!.!.!.!.!.!.!.!.!.!.!.!.!.!.!.!.!.!.!.!.!.!.!.!.!.!.!.!.!.!.!.!.!.!.!.",
"!.!.!.!.!.!.!.!.!.!.!.!.!.!.!.!.!.!.!.!.!.!.!.!.!.!.!.!.!.!.!.!.!.!.!.!.!.!.!.!.!.!.!.!.!.!.!.!.!.!.!.!.!.!.!.!.!.!.!.!.!.!.!.!.!.!.!.!.!.!.!.!.!.!.!.!.!.!.!.!.!.!.!.!.!.!.!.!.!.!.!.!.!.!.!.!.!.!.!.!.!.!.!.!.!.!.!.!.!.!.!.!.!.!.!.!.!.!.!.!.!.!.  X X @ & - , 2 2 6 0 e y s d d k z x n M B Z D G L L L L I I U Y R W W W / / / _ _ ' _ ' ' [ [ [ [ { {  . .o.X.o.@.@.@.&.=.=.:.:.,.<.<.3.3.5.6.9.w.r.u.u.u.p.f.h.h.h.l.v.v.v.n.N.N.B.B.B.B.B.B.B.B.B.B.A.A.S.S.D.D.D.J.J.J.J.P.P.P.P.U.U.U.U.P.U.U.R.R.R.R.R.U.R.R.R.R.R.E.E.E.E.E.E.E.E.E.E.E.E.E.E.E.E.Q.Q.Q.Q.Q.Q.Q.Q.Q.Q.Q.Q.Q.E.E.E.E.E.E.E.R.R.R.R.U.R.U.U.U.U.U.P.P.P.L.L.L.L.J.J.J.J.J.J.J.J.J.J.D.J.D.D.D.D.S.A.B.B.B.B.N.N.n.v.l.l.l.l.h.f.f.f.s.p.u.u.r.w.9.9.9.6.3.3.<.<.,.:.:.=.=.=.=.&.&.&.$.$.@.@.@.o.o.o.o.o.X.X.X. . .{ { { { { { { [ [ [ [ ' _ _ _ / / / / / / / / ! W W W W W W W W W W W W W W W W W W W W W W R Y U L L G D Z B N x z k k k d d s i i y y e q 9 6 2 2 2 , , , 2 , 2 2 2 2 2 2 2 2 2 2 , - - - & & & & & & & @ @ X   !.!.!.!.!.!.!.!.!.!.!.!.!.!.!.!.!.!.!.!.!.!.!.!.!.!.!.!.!.!.!.!.!.!.!.!.!.!.!.!.!.!.!.!.!.!.!.!.!.!.!.!.!.!.!.!.!.!.!.!.!.!.!.!.!.!.!.!.!.!.!.!.!.!.!.!.!.!.!.!.!.!.!.!.!.!.!.!.!.!.!.!.!.!.!.!.",
"!.!.!.!.!.!.!.!.!.!.!.!.!.!.!.!.!.!.!.!.!.!.!.!.!.!.!.!.!.!.!.!.!.!.!.!.!.!.!.!.!.!.!.!.!.!.!.!.!.!.!.!.!.!.!.!.!.!.!.!.!.!.!.!.!.!.!.!.!.!.!.!.!.!.!.!.!.!.!.!.!.!.!.!.!.!.!.!.!.!.!.!.!.!.!.!.!.!.!.!.!.!.!.!.!.!.!.!.!.!.!.!.!.!.!.!.!.!.!.!.!.!.!.  X @ & - , , 2 6 0 e i d d k z x n N n Z D D G L L I L I I I U W W W / / / / ' ' ' ' ' [ [ [ [ { { {  . .o.o.o.o.@.@.&.=.=.:.:.,.<.<.3.3.6.6.9.w.r.u.u.p.s.f.f.h.l.l.l.l.v.N.N.B.B.B.B.B.B.B.B.B.A.A.A.A.D.D.D.J.J.J.J.L.J.P.P.P.U.U.U.U.U.U.U.U.U.U.R.R.R.R.R.R.E.R.E.E.R.E.E.E.E.E.E.E.E.E.E.Q.E.Q.Q.Q.Q.Q.Q.Q.Q.Q.Q.Q.Q.Q.Q.E.E.E.E.E.E.E.R.R.R.R.U.U.R.U.U.P.U.U.P.P.J.J.J.J.L.J.L.J.J.J.L.J.J.J.J.J.J.D.D.D.D.S.A.B.B.B.B.N.N.v.v.l.v.l.h.h.h.f.s.p.p.u.u.r.w.9.9.6.6.3.3.<.<.<.:.:.=.=.=.=.&.&.@.$.@.@.@.@.@.@.o.o.o.o.X.X. . . . .{  .{ { { { { [ [ ' ' ' ' _ _ / / / / / / / / W W W W W ! ! W W W ^ W W W W W W W W W W R Y I L H G D Z B N x z k k k d d s i y y y y q 9 6 6 2 2 2 , 2 2 2 6 6 6 6 6 6 2 2 2 2 2 , , - - - - - - & & & @ X     !.!.!.!.!.!.!.!.!.!.!.!.!.!.!.!.!.!.!.!.!.!.!.!.!.!.!.!.!.!.!.!.!.!.!.!.!.!.!.!.!.!.!.!.!.!.!.!.!.!.!.!.!.!.!.!.!.!.!.!.!.!.!.!.!.!.!.!.!.!.!.!.!.!.!.!.!.!.!.!.!.!.!.!.!.!.!.!.!.!.!.!.!.!.!.",
"!.!.!.!.!.!.!.!.!.!.!.!.!.!.!.!.!.!.!.!.!.!.!.!.!.!.!.!.!.!.!.!.!.!.!.!.!.!.!.!.!.!.!.!.!.!.!.!.!.!.!.!.!.!.!.!.!.!.!.!.!.!.!.!.!.!.!.!.!.!.!.!.!.!.!.!.!.!.!.!.!.!.!.!.!.!.!.!.!.!.!.!.!.!.!.!.!.!.!.!.!.!.!.!.!.!.!.!.!.!.!.!.!.!.!.!.!.!.!.!.!.!.!.  X X @ & - 2 6 9 q y s d k k x n M B Z Z D G H L L I I I U Y T R W W / / / _ _ _ ' ' [ [ ' [ [ [ { {  .X.o.o.o.o.@.@.&.=.=.=.:.,.,.<.3.3.6.6.9.w.r.u.u.p.s.f.f.h.l.l.l.v.v.N.N.B.B.B.B.B.A.A.A.A.A.A.A.D.D.D.D.J.J.J.L.L.P.P.P.U.P.U.U.U.U.R.U.U.R.R.R.R.E.R.E.E.R.E.E.E.E.E.E.E.E.E.E.E.Q.E.Q.E.Q.Q.Q.Q.Q.Q.Q.Q.Q.Q.Q.Q.Q.Q.E.E.E.E.E.E.E.E.E.R.R.R.U.U.U.U.U.U.U.U.P.P.J.J.J.J.L.J.L.J.J.J.J.L.L.J.J.J.D.J.D.D.D.D.S.A.B.B.B.N.N.v.v.v.l.l.l.h.f.f.s.p.p.u.u.r.w.9.9.6.6.3.3.<.<.<.:.:.=.=.=.&.&.&.@.@.@.@.@.@.@.@.@.o.o.o.o.o.X.X. . . . . . .{ { { { { [ [ ' ' _ ' _ _ _ / / _ / _ / W W W ! W / W / / W W / W W W W W W W W R Y I L H D D D Z n x k k k d d d s s i y y y q 9 6 6 2 2 , 2 2 2 6 6 8 8 6 6 6 6 6 6 6 2 , , , , , - - - - & & @ X X   !.!.!.!.!.!.!.!.!.!.!.!.!.!.!.!.!.!.!.!.!.!.!.!.!.!.!.!.!.!.!.!.!.!.!.!.!.!.!.!.!.!.!.!.!.!.!.!.!.!.!.!.!.!.!.!.!.!.!.!.!.!.!.!.!.!.!.!.!.!.!.!.!.!.!.!.!.!.!.!.!.!.!.!.!.!.!.!.!.!.!.!.!.!.!.",
"!.!.!.!.!.!.!.!.!.!.!.!.!.!.!.!.!.!.!.!.!.!.!.!.!.!.!.!.!.!.!.!.!.!.!.!.!.!.!.!.!.!.!.!.!.!.!.!.!.!.!.!.!.!.!.!.!.!.!.!.!.!.!.!.!.!.!.!.!.!.!.!.!.!.!.!.!.!.!.!.!.!.!.!.!.!.!.!.!.!.!.!.!.!.!.!.!.!.!.!.!.!.!.!.!.!.!.!.!.!.!.!.!.!.!.!.!.!.!.!.!.!.!.  X X @ & - , 6 0 q y s d k x x M M Z Z D D D L L L I U U U T W W W W / / / _ _ ' ' ' ' ' ' ' [ { {  . .X.o.o.o.@.@.@.&.=.=.:.:.:.,.<.<.3.6.6.9.9.r.u.u.p.f.f.h.h.l.l.l.v.n.N.B.B.B.B.B.B.A.A.A.S.A.D.D.D.D.D.D.J.J.J.J.P.P.U.U.U.U.U.U.R.U.R.R.U.R.R.R.R.R.E.E.E.E.E.E.E.E.E.E.E.E.E.Q.E.Q.Q.Q.Q.Q.Q.Q.Q.Q.Q.Q.Q.Q.Q.E.E.E.E.E.E.E.E.E.E.E.R.R.R.R.U.U.U.U.U.U.P.P.P.P.L.L.J.J.J.J.L.L.J.J.L.L.J.J.J.J.J.J.J.J.D.D.D.D.A.B.B.B.N.N.v.v.v.l.l.h.h.f.f.s.p.u.u.u.r.w.9.9.6.6.3.3.<.<.<.:.:.=.=.=.=.&.&.&.@.@.@.@.@.@.@.@.o.o.o.o.o.o.o.o. . . . . . . . .{ { [ [ [ [ ' ' ' ' _ _ _ / / / / / / ^ W W / / / / / / / W W W W W W W W W Y I L L G D D B n x k k k k k d s s s s y y e 0 8 6 6 2 2 6 6 8 8 8 9 9 9 9 8 9 0 9 6 6 2 , , , , , , - - & & @ @ X   !.!.!.!.!.!.!.!.!.!.!.!.!.!.!.!.!.!.!.!.!.!.!.!.!.!.!.!.!.!.!.!.!.!.!.!.!.!.!.!.!.!.!.!.!.!.!.!.!.!.!.!.!.!.!.!.!.!.!.!.!.!.!.!.!.!.!.!.!.!.!.!.!.!.!.!.!.!.!.!.!.!.!.!.!.!.!.!.!.!.!.!.!.!.!.",
"!.!.!.!.!.!.!.!.!.!.!.!.!.!.!.!.!.!.!.!.!.!.!.!.!.!.!.!.!.!.!.!.!.!.!.!.!.!.!.!.!.!.!.!.!.!.!.!.!.!.!.!.!.!.!.!.!.!.!.!.!.!.!.!.!.!.!.!.!.!.!.!.!.!.!.!.!.!.!.!.!.!.!.!.!.!.!.!.!.!.!.!.!.!.!.!.!.!.!.!.!.!.!.!.!.!.!.!.!.!.!.!.!.!.!.!.!.!.!.!.!.!.!.  X X @ - , 2 6 q e y s d k b n M Z Z D D D D G L L I I U T R W W W W / / / _ _ _ ' ' [ [ ' [ [ [ {  . .X.o.o.o.@.@.&.&.=.=.=.:.:.,.<.<.3.6.6.9.w.r.u.u.p.f.f.h.h.l.l.l.v.n.N.B.B.B.A.B.B.A.A.S.D.D.D.D.D.D.D.D.D.J.J.J.P.P.U.U.U.U.U.U.U.R.R.U.U.U.R.R.R.E.E.E.E.E.E.E.E.E.E.E.E.E.Q.E.Q.Q.Q.Q.Q.Q.Q.Q.Q.Q.Q.Q.Q.E.E.E.E.E.E.E.E.E.E.E.E.R.E.R.R.R.U.U.U.U.U.P.P.P.P.L.J.L.J.J.J.L.L.J.J.L.J.J.L.J.J.J.J.J.J.J.D.D.D.D.A.A.B.B.N.N.v.v.v.v.l.h.h.f.f.s.p.u.u.u.r.w.9.9.6.6.5.3.<.<.,.:.:.=.=.=.=.=.&.@.@.@.@.@.@.@.@.@.@.o.o.o.o.o.o.o.o.X.o.X.X. . . . .{ { { { { { [ [ ' ' ' _ / / / / / / W W W W / / / _ / / / / W W W W W W R U I L L D D D B n b k k k k k d d d s s s y q q 9 6 6 6 6 6 6 9 0 0 q q 0 q q q q q 9 8 6 2 2 , , , , - - & & $ @ X     !.!.!.!.!.!.!.!.!.!.!.!.!.!.!.!.!.!.!.!.!.!.!.!.!.!.!.!.!.!.!.!.!.!.!.!.!.!.!.!.!.!.!.!.!.!.!.!.!.!.!.!.!.!.!.!.!.!.!.!.!.!.!.!.!.!.!.!.!.!.!.!.!.!.!.!.!.!.!.!.!.!.!.!.!.!.!.!.!.!.!.!.!.!.",
"!.!.!.!.!.!.!.!.!.!.!.!.!.!.!.!.!.!.!.!.!.!.!.!.!.!.!.!.!.!.!.!.!.!.!.!.!.!.!.!.!.!.!.!.!.!.!.!.!.!.!.!.!.!.!.!.!.!.!.!.!.!.!.!.!.!.!.!.!.!.!.!.!.!.!.!.!.!.!.!.!.!.!.!.!.!.!.!.!.!.!.!.!.!.!.!.!.!.!.!.!.!.!.!.!.!.!.!.!.!.!.!.!.!.!.!.!.!.!.!.!.!.!.!.  X & - , 2 8 q y s s k k b n M Z Z D D D D D G L L I I Y R W W W W / / _ _ _ ' ' ' ' ' ' [ [ { {  . .X.o.o.@.@.&.&.=.=.=.:.:.:.,.<.<.3.3.6.9.9.r.u.u.p.f.f.h.h.l.l.v.v.v.N.B.B.A.A.A.S.S.A.D.D.D.D.D.D.D.D.J.J.J.J.P.P.P.P.U.U.U.U.U.R.U.U.U.R.R.R.E.E.E.E.E.E.E.E.E.E.E.Q.E.E.Q.E.Q.Q.Q.Q.Q.Q.Q.Q.Q.E.Q.E.E.E.E.E.E.E.E.E.E.E.E.E.R.R.R.R.R.R.U.U.U.U.U.P.U.P.P.J.J.J.L.J.J.J.J.J.L.L.J.L.L.L.L.L.J.J.J.J.J.J.D.D.D.A.B.B.B.N.N.n.v.v.v.l.h.h.f.f.f.p.p.u.u.r.w.9.9.6.6.5.3.<.<.,.:.:.=.=.=.=.&.&.&.@.@.@.@.@.@.@.@.@.@.o.o.o.o.o.o.o.o.o.o.o.X.X.X. . .{ { { { { { [ [ [ ' _ _ _ / / / / / W / / / / / / / / / / / W W W W W R U I L L D D Z M x x k k k k k k d d d s s i y q 0 9 8 6 6 6 8 q q q q q q q q e q q 9 8 8 6 6 2 2 , , - - & & $ + X   !.!.!.!.!.!.!.!.!.!.!.!.!.!.!.!.!.!.!.!.!.!.!.!.!.!.!.!.!.!.!.!.!.!.!.!.!.!.!.!.!.!.!.!.!.!.!.!.!.!.!.!.!.!.!.!.!.!.!.!.!.!.!.!.!.!.!.!.!.!.!.!.!.!.!.!.!.!.!.!.!.!.!.!.!.!.!.!.!.!.!.!.!.!.!.",
"!.!.!.!.!.!.!.!.!.!.!.!.!.!.!.!.!.!.!.!.!.!.!.!.!.!.!.!.!.!.!.!.!.!.!.!.!.!.!.!.!.!.!.!.!.!.!.!.!.!.!.!.!.!.!.!.!.!.!.!.!.!.!.!.!.!.!.!.!.!.!.!.!.!.!.!.!.!.!.!.!.!.!.!.!.!.!.!.!.!.!.!.!.!.!.!.!.!.!.!.!.!.!.!.!.!.!.!.!.!.!.!.!.!.!.!.!.!.!.!.!.!.!.!.  @ & - 2 2 8 q y s d d k x n N B Z D D D D D D D H L I Y R W W W W / / _ _ _ _ ' ' [ ' [ [ [ { { {  .X.o.o.@.@.&.&.=.=.=.:.<.<.,.<.<.3.5.6.9.9.w.r.u.p.f.f.h.h.l.l.v.v.v.N.B.B.A.A.S.D.D.D.D.D.D.D.D.D.J.J.J.J.J.J.P.P.P.U.U.U.U.U.U.U.U.R.U.R.R.R.E.E.E.E.E.E.E.E.Q.E.Q.E.Q.E.E.Q.Q.Q.Q.Q.Q.Q.E.Q.E.E.E.E.E.E.E.E.E.E.E.E.E.E.E.R.E.R.R.R.R.U.R.U.U.U.P.P.P.P.P.J.J.J.L.J.J.J.J.J.J.J.J.L.L.L.L.L.L.L.J.J.J.J.J.D.D.A.A.B.B.N.N.n.v.v.v.l.l.h.h.f.f.p.p.u.u.r.r.9.9.9.6.6.3.<.<.,.:.:.=.=.=.=.&.&.@.@.@.@.@.@.@.@.@.@.@.@.@.@.@.@.o.o.o.o.o.o.o.o.X.X.o. . .{ { { { { [ [ ' ' ' _ _ / / / / / / / _ / / / / / / / / W W W W W T U I I L D D Z B n x z k k k k k k d d d s s y e e q 9 9 8 8 0 q q e e e e e q e e q q 0 9 6 6 6 2 2 , , - - & $ + X     !.!.!.!.!.!.!.!.!.!.!.!.!.!.!.!.!.!.!.!.!.!.!.!.!.!.!.!.!.!.!.!.!.!.!.!.!.!.!.!.!.!.!.!.!.!.!.!.!.!.!.!.!.!.!.!.!.!.!.!.!.!.!.!.!.!.!.!.!.!.!.!.!.!.!.!.!.!.!.!.!.!.!.!.!.!.!.!.!.!.!.!.!.!.",
"!.!.!.!.!.!.!.!.!.!.!.!.!.!.!.!.!.!.!.!.!.!.!.!.!.!.!.!.!.!.!.!.!.!.!.!.!.!.!.!.!.!.!.!.!.!.!.!.!.!.!.!.!.!.!.!.!.!.!.!.!.!.!.!.!.!.!.!.!.!.!.!.!.!.!.!.!.!.!.!.!.!.!.!.!.!.!.!.!.!.!.!.!.!.!.!.!.!.!.!.!.!.!.!.!.!.!.!.!.!.!.!.!.!.!.!.!.!.!.!.!.!.!.!.  X & - , 2 8 q y s d d k x x N M Z D D D D D D D H L U Y R W W W W / / / / / _ _ ' ' [ ' [ [ { { {  .X.X.o.@.@.&.&.=.=.:.:.:.,.<.<.3.3.6.6.9.w.r.r.u.p.f.f.h.h.l.l.v.v.n.N.B.B.A.A.D.D.D.D.D.D.J.J.J.J.J.L.J.J.J.J.P.P.U.U.U.U.U.U.R.R.U.R.R.R.R.E.E.E.E.E.E.E.E.E.Q.E.Q.E.Q.E.Q.Q.Q.Q.Q.Q.Q.Q.E.E.E.E.E.E.E.E.E.E.E.E.E.E.R.R.R.R.R.R.R.U.U.U.U.U.U.U.P.P.P.L.L.L.J.J.J.J.J.J.D.J.J.J.J.L.L.L.L.L.L.L.L.J.J.J.D.D.D.A.A.B.B.N.N.n.v.v.l.l.l.h.h.f.f.s.p.u.u.u.r.w.9.6.6.6.3.<.<.,.:.:.=.=.=.=.&.&.&.$.$.@.$.@.@.@.@.@.@.@.@.@.o.@.o.o.o.o.o.o.o.o.o.X.X.X. . . .{ { { { [ [ [ ' ' _ _ / _ / / _ / _ _ / / _ / / / / W W W W W W Y U L L D Z B M N n x k k k k k k d d d d s i y y e q q q 0 q q e y e y y e y e e e e e q 0 0 9 6 6 2 , , - & & @ @ X   !.!.!.!.!.!.!.!.!.!.!.!.!.!.!.!.!.!.!.!.!.!.!.!.!.!.!.!.!.!.!.!.!.!.!.!.!.!.!.!.!.!.!.!.!.!.!.!.!.!.!.!.!.!.!.!.!.!.!.!.!.!.!.!.!.!.!.!.!.!.!.!.!.!.!.!.!.!.!.!.!.!.!.!.!.!.!.!.!.!.!.!.!.!.",
"!.!.!.!.!.!.!.!.!.!.!.!.!.!.!.!.!.!.!.!.!.!.!.!.!.!.!.!.!.!.!.!.!.!.!.!.!.!.!.!.!.!.!.!.!.!.!.!.!.!.!.!.!.!.!.!.!.!.!.!.!.!.!.!.!.!.!.!.!.!.!.!.!.!.!.!.!.!.!.!.!.!.!.!.!.!.!.!.!.!.!.!.!.!.!.!.!.!.!.!.!.!.!.!.!.!.!.!.!.!.!.!.!.!.!.!.!.!.!.!.!.!.!.!.  X & - , , 6 q y i s d k z b n M B Z D D D D D G L L U T W W W W W / / / / / _ _ _ ' ' [ [ [ { {  . .X.o.o.@.@.@.&.=.=.:.:.,.,.<.3.3.3.6.9.9.w.r.u.u.p.f.h.h.l.l.l.v.n.n.N.B.B.A.S.D.D.D.D.J.J.J.J.J.J.L.L.L.P.P.P.U.U.U.U.U.U.U.U.R.R.R.R.R.R.R.E.E.E.E.E.E.E.E.Q.E.Q.E.Q.Q.Q.Q.Q.Q.Q.E.Q.E.E.E.E.E.E.E.E.E.E.E.E.E.R.R.R.R.E.R.R.R.R.U.U.U.U.R.U.U.P.P.P.L.L.L.J.J.J.J.J.J.J.J.D.J.J.L.J.L.J.L.L.L.J.L.J.J.J.D.D.D.A.B.B.B.N.N.n.v.l.l.l.l.h.h.f.f.s.p.p.u.u.r.w.9.9.6.6.3.3.<.<.,.:.=.=.=.=.&.&.&.$.$.$.@.$.@.$.@.@.@.@.@.@.@.@.@.@.o.o.o.o.o.o.o.o.o.o.X. . . . .{ { { [ [ [ ' ' _ _ _ _ _ _ _ _ _ _ / / _ / / / / W W W W W T U L G D Z B M M N n x k k k k k d k d d s y y y y y y e e q e e y y y y y y y y y y y y e q q 0 8 6 2 , , - & & @ X X   !.!.!.!.!.!.!.!.!.!.!.!.!.!.!.!.!.!.!.!.!.!.!.!.!.!.!.!.!.!.!.!.!.!.!.!.!.!.!.!.!.!.!.!.!.!.!.!.!.!.!.!.!.!.!.!.!.!.!.!.!.!.!.!.!.!.!.!.!.!.!.!.!.!.!.!.!.!.!.!.!.!.!.!.!.!.!.!.!.!.!.!.!.",
"!.!.!.!.!.!.!.!.!.!.!.!.!.!.!.!.!.!.!.!.!.!.!.!.!.!.!.!.!.!.!.!.!.!.!.!.!.!.!.!.!.!.!.!.!.!.!.!.!.!.!.!.!.!.!.!.!.!.!.!.!.!.!.!.!.!.!.!.!.!.!.!.!.!.!.!.!.!.!.!.!.!.!.!.!.!.!.!.!.!.!.!.!.!.!.!.!.!.!.!.!.!.!.!.!.!.!.!.!.!.!.!.!.!.!.!.!.!.!.!.!.!.!.!.!.X $ & , , 2 e e y s d k k z x N M Z D D D D G H L I U R W W W W W W / / / / / _ ' ' ' [ [ [ { {  . .X.o.@.@.@.@.&.&.=.=.:.,.<.<.3.3.6.6.6.9.w.r.u.u.p.f.h.h.l.l.l.v.v.N.B.B.A.S.D.D.D.D.J.D.J.J.J.L.J.P.P.P.P.P.P.P.U.U.U.U.U.R.R.R.R.R.R.R.R.E.E.E.E.E.E.E.E.E.Q.Q.Q.Q.Q.Q.Q.Q.Q.E.Q.E.E.E.E.E.E.E.R.E.E.E.R.E.R.R.R.R.R.R.R.R.R.R.R.U.U.U.U.U.U.U.P.P.L.J.J.J.J.J.J.J.D.J.D.J.D.J.J.J.L.J.J.J.J.L.J.J.J.J.D.D.D.S.A.B.B.B.B.N.n.v.v.l.l.l.h.h.f.f.f.p.p.u.u.r.w.9.9.6.6.3.3.3.<.<.:.:.:.=.=.&.&.&.&.&.$.&.$.@.@.$.@.$.@.@.@.@.@.@.@.@.@.o.o.@.o.o.o.o.o.X.o.X. . . .{ { { { [ [ ' ' ' _ _ _ _ _ / _ _ _ / / / _ / / W W W W W T U L G D Z Z B N N n x x z z k k k k d s i y y y i s i y y y y y y y i i i i i i i i s i y y e q q 9 6 2 2 - - & $ @ X   !.!.!.!.!.!.!.!.!.!.!.!.!.!.!.!.!.!.!.!.!.!.!.!.!.!.!.!.!.!.!.!.!.!.!.!.!.!.!.!.!.!.!.!.!.!.!.!.!.!.!.!.!.!.!.!.!.!.!.!.!.!.!.!.!.!.!.!.!.!.!.!.!.!.!.!.!.!.!.!.!.!.!.!.!.!.!.!.!.!.!.!.!.",
"!.!.!.!.!.!.!.!.!.!.!.!.!.!.!.!.!.!.!.!.!.!.!.!.!.!.!.!.!.!.!.!.!.!.!.!.!.!.!.!.!.!.!.!.!.!.!.!.!.!.!.!.!.!.!.!.!.!.!.!.!.!.!.!.!.!.!.!.!.!.!.!.!.!.!.!.!.!.!.!.!.!.!.!.!.!.!.!.!.!.!.!.!.!.!.!.!.!.!.!.!.!.!.!.!.!.!.!.!.!.!.!.!.!.!.!.!.!.!.!.!.!.!.!.!.  + & - , 6 8 e y s d k k k x N Z Z D D D D H L I I T R W W W W W ^ / / / / / _ ' _ ' ' [ { { { {  .X.o.o.@.@.@.&.=.=.:.:.,.<.3.3.5.6.6.9.9.w.w.u.u.p.f.f.h.l.l.l.v.n.N.B.B.A.D.D.D.D.J.J.J.J.J.P.J.P.P.U.P.P.P.P.U.U.U.U.U.U.R.R.R.R.R.R.E.E.E.E.E.E.E.E.E.Q.Q.E.Q.Q.Q.Q.Q.Q.Q.Q.E.E.E.E.E.E.E.R.R.R.R.R.R.R.R.R.R.R.R.R.R.U.R.R.R.R.R.U.U.P.U.U.P.J.L.L.J.J.J.J.D.J.D.D.D.D.D.J.J.J.J.J.J.J.J.J.J.J.J.J.D.D.D.D.D.A.B.A.B.B.N.n.v.v.v.l.l.h.h.h.f.f.p.p.u.u.r.w.9.9.6.6.3.3.<.<.,.<.:.:.=.=.=.=.&.&.&.&.$.@.@.@.@.$.@.$.@.@.$.@.@.@.@.@.@.@.@.@.o.o.o.o.o.o.X.X.X. . .{ { { { [ [ ' ' ' ' _ _ _ _ _ _ _ _ _ / / / / / W W W W R U L G D D Z Z B M n x x x x x z z k d s i y i s s s i i y y i i y s s s s s s s s s s s i i y e e q 9 6 2 2 - & & @ @ X   !.!.!.!.!.!.!.!.!.!.!.!.!.!.!.!.!.!.!.!.!.!.!.!.!.!.!.!.!.!.!.!.!.!.!.!.!.!.!.!.!.!.!.!.!.!.!.!.!.!.!.!.!.!.!.!.!.!.!.!.!.!.!.!.!.!.!.!.!.!.!.!.!.!.!.!.!.!.!.!.!.!.!.!.!.!.!.!.!.!.!.!.",
"!.!.!.!.!.!.!.!.!.!.!.!.!.!.!.!.!.!.!.!.!.!.!.!.!.!.!.!.!.!.!.!.!.!.!.!.!.!.!.!.!.!.!.!.!.!.!.!.!.!.!.!.!.!.!.!.!.!.!.!.!.!.!.!.!.!.!.!.!.!.!.!.!.!.!.!.!.!.!.!.!.!.!.!.!.!.!.!.!.!.!.!.!.!.!.!.!.!.!.!.!.!.!.!.!.!.!.!.!.!.!.!.!.!.!.!.!.!.!.!.!.!.!.!.!.  X & - , 6 8 e y d k z z k x M Z D D D D G L I U Y W W W W W W W W / / / / / / _ _ ' [ [ { { { {  . .o.o.@.@.@.$.&.=.=.,.,.<.3.3.6.6.6.6.9.9.w.r.u.p.f.f.h.l.l.l.v.v.N.B.A.D.D.D.D.J.J.J.J.J.J.P.P.U.P.P.U.P.P.P.P.U.U.U.U.U.R.R.R.R.R.E.E.E.E.E.E.E.E.E.E.Q.E.Q.Q.Q.Q.Q.Q.Q.E.E.E.E.E.R.R.R.R.R.R.R.R.R.R.R.R.R.U.U.U.U.U.U.U.U.U.U.U.U.U.P.P.P.P.J.J.J.J.J.J.J.D.D.D.D.D.D.D.D.J.J.J.J.J.J.J.J.J.J.J.J.D.D.D.D.A.A.B.B.B.N.N.n.v.v.l.l.l.l.h.h.f.f.s.p.u.u.r.r.w.9.6.6.5.3.3.<.<.<.:.:.=.=.=.=.&.&.&.&.@.&.&.@.@.@.@.@.@.@.@.@.@.$.@.@.@.@.@.@.@.@.@.@.o.o.o.o.o.o. . . . .{ { [ [ [ [ ' ' ' ' ' ' ' ' ' ' _ / / / / W W W W W T U L G D D Z Z B N N N n x x x b x d s s s s s s s s s s i s s s s s d d d d k k d d d s s s y y e 9 8 6 2 , - & $ + X   !.!.!.!.!.!.!.!.!.!.!.!.!.!.!.!.!.!.!.!.!.!.!.!.!.!.!.!.!.!.!.!.!.!.!.!.!.!.!.!.!.!.!.!.!.!.!.!.!.!.!.!.!.!.!.!.!.!.!.!.!.!.!.!.!.!.!.!.!.!.!.!.!.!.!.!.!.!.!.!.!.!.!.!.!.!.!.!.!.!.!.!.",
"!.!.!.!.!.!.!.!.!.!.!.!.!.!.!.!.!.!.!.!.!.!.!.!.!.!.!.!.!.!.!.!.!.!.!.!.!.!.!.!.!.!.!.!.!.!.!.!.!.!.!.!.!.!.!.!.!.!.!.!.!.!.!.!.!.!.!.!.!.!.!.!.!.!.!.!.!.!.!.!.!.!.!.!.!.!.!.!.!.!.!.!.!.!.!.!.!.!.!.!.!.!.!.!.!.!.!.!.!.!.!.!.!.!.!.!.!.!.!.!.!.!.!.!.!.  X $ & , 2 0 e s d d z b x n Z Z D D D G L L U U R W W W W W W W W W / / / / _ _ _ ' [ [ { { { {  .X.o.o.o.@.@.$.&.=.=.:.,.<.3.5.6.6.6.9.9.9.w.r.u.p.f.f.h.h.l.l.v.n.N.B.A.A.D.D.J.J.J.J.J.J.J.P.P.U.P.U.P.P.P.P.U.U.U.U.U.R.R.R.R.E.R.E.E.E.E.E.E.E.E.E.Q.E.Q.Q.Q.Q.Q.Q.E.E.E.E.E.E.R.R.R.U.R.R.R.R.U.U.R.R.R.R.U.U.U.U.U.U.U.U.U.U.P.P.P.P.P.P.J.J.J.J.J.D.J.D.D.D.D.D.D.D.D.D.D.J.J.J.J.J.J.J.J.J.D.D.D.D.D.D.A.A.B.B.B.N.n.v.v.v.l.l.l.l.h.h.f.f.s.p.p.u.u.r.w.9.9.6.6.5.3.3.<.<.,.<.:.=.=.=.&.&.&.&.&.&.&.&.@.&.@.@.@.@.@.@.$.$.$.@.@.@.@.@.@.@.@.@.@.@.o.o.o.o.o. . . . .{ { { { [ [ ' ' ' ' ' [ ' ' ' _ _ / / / / W W W W T U L H D D D Z Z M N M N N N n x z d s s s s s s d d d s s s d d d d k k k z z k k k k k d d s i e q 9 6 2 , - & & $ + X !.!.!.!.!.!.!.!.!.!.!.!.!.!.!.!.!.!.!.!.!.!.!.!.!.!.!.!.!.!.!.!.!.!.!.!.!.!.!.!.!.!.!.!.!.!.!.!.!.!.!.!.!.!.!.!.!.!.!.!.!.!.!.!.!.!.!.!.!.!.!.!.!.!.!.!.!.!.!.!.!.!.!.!.!.!.!.!.!.!.!.!.",
"!.!.!.!.!.!.!.!.!.!.!.!.!.!.!.!.!.!.!.!.!.!.!.!.!.!.!.!.!.!.!.!.!.!.!.!.!.!.!.!.!.!.!.!.!.!.!.!.!.!.!.!.!.!.!.!.!.!.!.!.!.!.!.!.!.!.!.!.!.!.!.!.!.!.!.!.!.!.!.!.!.!.!.!.!.!.!.!.!.!.!.!.!.!.!.!.!.!.!.!.!.!.!.!.!.!.!.!.!.!.!.!.!.!.!.!.!.!.!.!.!.!.!.!.!.  @ & - , 2 0 e s d k z x n M Z D D D G L L I U T R W W W W ! W W W W ^ / / / _ _ ' ' ' [ { { { {  . .o.o.o.@.@.@.&.&.=.:.,.<.3.3.6.6.6.9.9.w.w.r.u.p.p.f.h.h.l.l.v.n.N.B.B.A.D.D.J.J.J.J.J.J.P.P.P.U.P.U.U.U.U.U.U.R.U.R.U.R.U.R.R.R.E.E.E.E.E.E.E.E.E.E.Q.E.Q.Q.Q.Q.Q.E.E.E.E.E.E.R.R.U.U.U.U.U.R.R.U.U.U.U.R.R.U.U.R.U.R.U.U.U.U.U.P.U.P.P.P.L.J.J.J.D.D.D.D.D.D.D.D.D.D.D.D.D.D.D.D.J.J.J.D.J.J.J.J.D.D.D.D.D.A.A.B.B.B.N.N.v.v.l.l.l.l.h.h.h.f.f.s.p.p.u.u.r.w.9.9.6.6.6.3.3.<.<.,.,.:.:.:.=.=.=.&.&.&.&.&.&.&.&.&.$.@.@.$.$.@.@.$.$.$.@.@.$.@.@.@.@.@.@.@.o.o.o.X.X. . . .{ { { { { [ [ [ [ [ [ [ [ ' ' ' _ _ / / / ! W W W R U I G D D D Z Z M M M M B M N x x k d d s d d d d d d d d d d d d k z x x x x x x x z k k k d s i e q 8 6 2 , - & & @ X   !.!.!.!.!.!.!.!.!.!.!.!.!.!.!.!.!.!.!.!.!.!.!.!.!.!.!.!.!.!.!.!.!.!.!.!.!.!.!.!.!.!.!.!.!.!.!.!.!.!.!.!.!.!.!.!.!.!.!.!.!.!.!.!.!.!.!.!.!.!.!.!.!.!.!.!.!.!.!.!.!.!.!.!.!.!.!.!.!.!.!.",
"!.!.!.!.!.!.!.!.!.!.!.!.!.!.!.!.!.!.!.!.!.!.!.!.!.!.!.!.!.!.!.!.!.!.!.!.!.!.!.!.!.!.!.!.!.!.!.!.!.!.!.!.!.!.!.!.!.!.!.!.!.!.!.!.!.!.!.!.!.!.!.!.!.!.!.!.!.!.!.!.!.!.!.!.!.!.!.!.!.!.!.!.!.!.!.!.!.!.!.!.!.!.!.!.!.!.!.!.!.!.!.!.!.!.!.!.!.!.!.!.!.!.!.!.  X @ & , , 2 9 e i d k x x N Z D D G G L L I U U T R W W W W W W W W W / / / _ _ ' ' ' [ { { { {  . .X.o.o.o.o.@.@.@.&.=.:.:.<.3.3.5.6.9.9.9.9.w.r.u.p.p.f.f.h.l.l.v.v.N.B.B.A.D.D.J.J.J.L.P.J.P.P.U.P.P.U.U.U.U.P.U.U.U.U.U.U.U.U.R.R.R.R.R.E.E.E.E.E.E.E.E.E.E.E.E.E.E.E.E.E.R.R.R.R.U.U.U.U.U.U.U.R.U.U.U.U.U.R.U.U.U.U.U.U.U.U.U.U.P.P.P.L.L.J.J.J.J.D.D.D.D.D.D.D.D.D.S.D.D.D.D.D.D.J.J.J.J.D.D.D.D.D.D.D.D.A.A.A.B.B.B.N.N.v.v.v.l.l.l.l.h.h.f.f.s.p.p.u.u.r.r.w.9.9.6.6.5.3.<.<.<.,.:.:.=.=.=.=.&.&.&.&.&.&.&.&.&.&.$.$.@.$.@.@.$.@.$.@.&.$.&.$.@.@.@.@.@.@.o.o.X.X. . . . .{ { { { [ [ [ [ [ [ [ [ [ ' ' ' _ / / / ! W W W W U I H D D D Z Z B B Z Z n M N x x k k d d d d d d k d d k k k k k z x x n n n n n x x x x z k d s y e 0 6 2 2 , - & $ @   !.!.!.!.!.!.!.!.!.!.!.!.!.!.!.!.!.!.!.!.!.!.!.!.!.!.!.!.!.!.!.!.!.!.!.!.!.!.!.!.!.!.!.!.!.!.!.!.!.!.!.!.!.!.!.!.!.!.!.!.!.!.!.!.!.!.!.!.!.!.!.!.!.!.!.!.!.!.!.!.!.!.!.!.!.!.!.!.!.!.!.",
"!.!.!.!.!.!.!.!.!.!.!.!.!.!.!.!.!.!.!.!.!.!.!.!.!.!.!.!.!.!.!.!.!.!.!.!.!.!.!.!.!.!.!.!.!.!.!.!.!.!.!.!.!.!.!.!.!.!.!.!.!.!.!.!.!.!.!.!.!.!.!.!.!.!.!.!.!.!.!.!.!.!.!.!.!.!.!.!.!.!.!.!.!.!.!.!.!.!.!.!.!.!.!.!.!.!.!.!.!.!.!.!.!.!.!.!.!.!.!.!.!.!.!.!.  X + & - , 2 6 q y d k x x N Z D D H L L L I U U T R W W W W W W W W W W / _ / _ _ ' [ [ { { { {  . .o.o.o.o.o.@.@.@.&.=.:.<.<.3.3.5.6.6.9.9.w.w.r.u.u.s.f.f.h.l.v.v.v.N.B.B.A.D.D.J.J.L.L.L.L.P.P.P.U.P.P.U.P.U.U.U.U.U.U.U.U.U.U.U.R.U.U.U.R.R.R.R.E.E.E.E.E.E.E.E.E.E.E.E.R.R.U.U.U.U.U.U.U.U.U.U.U.U.U.U.U.U.U.U.U.U.U.U.U.P.P.P.P.P.P.J.J.J.J.J.J.D.D.D.D.S.A.A.A.A.A.A.S.D.D.D.D.D.J.J.J.D.J.J.D.D.D.D.D.A.A.A.B.B.B.B.N.N.v.v.v.v.l.l.l.h.h.f.f.f.p.p.u.u.u.r.w.9.9.6.6.5.3.3.<.<.,.<.:.:.=.=.=.=.&.&.&.=.&.&.&.&.&.&.&.@.&.&.@.&.&.&.@.&.&.&.&.@.&.@.@.@.o.o.o.X.X. . . . . .{ { { { { [ [ [ [ [ [ [ ' ' _ _ / / / / ! ! W W R U L G D D Z Z Z V V Z n M M N x x k k k k k k k k d k k k z k z x x N M M N N M n b x x x z k d s y q 8 6 2 , , - & + X   !.!.!.!.!.!.!.!.!.!.!.!.!.!.!.!.!.!.!.!.!.!.!.!.!.!.!.!.!.!.!.!.!.!.!.!.!.!.!.!.!.!.!.!.!.!.!.!.!.!.!.!.!.!.!.!.!.!.!.!.!.!.!.!.!.!.!.!.!.!.!.!.!.!.!.!.!.!.!.!.!.!.!.!.!.!.!.!.!.!.",
"!.!.!.!.!.!.!.!.!.!.!.!.!.!.!.!.!.!.!.!.!.!.!.!.!.!.!.!.!.!.!.!.!.!.!.!.!.!.!.!.!.!.!.!.!.!.!.!.!.!.!.!.!.!.!.!.!.!.!.!.!.!.!.!.!.!.!.!.!.!.!.!.!.!.!.!.!.!.!.!.!.!.!.!.!.!.!.!.!.!.!.!.!.!.!.!.!.!.!.!.!.!.!.!.!.!.!.!.!.!.!.!.!.!.!.!.!.!.!.!.!.!.!.!.!.X @ & & , , 6 9 y s k x x N B D D H L L L L I U Y R W W W W W W W W W / / / / _ _ [ [ [ [ { {  . . .X.o.o.o.o.o.@.@.&.=.:.<.<.3.3.5.6.6.9.9.w.r.r.u.p.p.f.f.h.l.l.v.n.N.B.B.A.D.D.J.J.L.L.L.L.L.P.P.U.P.P.P.P.P.P.P.P.P.U.U.U.P.U.U.U.U.U.U.U.U.U.R.R.R.R.R.R.R.R.R.R.R.R.U.U.U.U.R.U.P.U.U.P.U.P.U.U.P.U.U.U.U.U.U.U.U.U.P.P.P.P.P.P.L.L.L.J.J.J.J.J.D.D.D.D.A.S.S.A.A.A.A.S.D.S.D.D.D.D.D.D.D.D.D.D.D.D.D.S.A.A.A.A.B.B.B.N.N.v.v.v.v.l.l.l.h.h.f.f.f.s.p.p.u.u.r.w.w.9.9.6.6.3.3.<.<.<.<.<.:.:.=.=.=.&.&.=.=.=.=.=.&.&.&.&.&.&.&.&.&.&.&.&.&.&.&.&.&.@.&.@.@.@.o.o.o.X.X.X. . . .{ { { { { { [ [ { [ { [ [ [ ' _ / / / / / / W W W Y L L D D D Z Z Z Z Z V Z B M N x x z z z k k k k k k z x x b x x n M B B M M M M n n n x x z k d s y q 6 6 2 , - & @ X   !.!.!.!.!.!.!.!.!.!.!.!.!.!.!.!.!.!.!.!.!.!.!.!.!.!.!.!.!.!.!.!.!.!.!.!.!.!.!.!.!.!.!.!.!.!.!.!.!.!.!.!.!.!.!.!.!.!.!.!.!.!.!.!.!.!.!.!.!.!.!.!.!.!.!.!.!.!.!.!.!.!.!.!.!.!.!.!.!.!.",
"!.!.!.!.!.!.!.!.!.!.!.!.!.!.!.!.!.!.!.!.!.!.!.!.!.!.!.!.!.!.!.!.!.!.!.!.!.!.!.!.!.!.!.!.!.!.!.!.!.!.!.!.!.!.!.!.!.!.!.!.!.!.!.!.!.!.!.!.!.!.!.!.!.!.!.!.!.!.!.!.!.!.!.!.!.!.!.!.!.!.!.!.!.!.!.!.!.!.!.!.!.!.!.!.!.!.!.!.!.!.!.!.!.!.!.!.!.!.!.!.!.!.!.!.!.X X @ & - , 2 8 y s k z n N B D D G H L L L I U U T W W W W W W W W W / / / _ _ ' ' [ [ { { {  . . .X.o.o.o.o.o.@.&.&.=.:.<.<.3.3.5.6.6.6.9.9.r.r.u.p.p.f.h.h.l.l.v.v.N.B.B.B.D.D.J.J.J.L.L.J.J.P.J.P.P.J.P.P.J.J.P.P.P.P.P.P.P.P.P.P.P.P.P.U.P.U.U.U.U.U.R.R.R.R.R.U.R.R.U.U.U.U.U.U.U.U.P.P.P.P.P.P.P.P.P.P.P.P.P.U.U.P.P.P.P.P.J.J.L.L.J.J.J.D.J.D.D.D.D.A.A.A.A.A.A.A.A.A.S.D.D.D.D.D.D.D.D.D.D.D.D.D.D.A.A.A.B.B.B.B.N.N.N.v.v.v.v.v.l.l.l.h.h.f.f.f.s.p.u.u.u.r.9.9.6.6.6.6.3.<.<.<.<.<.:.:.:.=.=.=.=.&.&.=.=.=.=.=.=.&.&.&.&.&.&.&.&.&.&.&.&.&.&.&.&.$.@.@.o.o.o.X.X.X. . . . . .{ { { { { [ [ { [ [ [ [ _ _ / / / / / / W W W R U L G D D D D D Z Z Z Z M B M M N x x x x b x z k z x x n n n n N M B Z V Z M M M M N N x x k d s i e 0 6 2 2 , - & + X !.!.!.!.!.!.!.!.!.!.!.!.!.!.!.!.!.!.!.!.!.!.!.!.!.!.!.!.!.!.!.!.!.!.!.!.!.!.!.!.!.!.!.!.!.!.!.!.!.!.!.!.!.!.!.!.!.!.!.!.!.!.!.!.!.!.!.!.!.!.!.!.!.!.!.!.!.!.!.!.!.!.!.!.!.!.!.!.!.!.",
"!.!.!.!.!.!.!.!.!.!.!.!.!.!.!.!.!.!.!.!.!.!.!.!.!.!.!.!.!.!.!.!.!.!.!.!.!.!.!.!.!.!.!.!.!.!.!.!.!.!.!.!.!.!.!.!.!.!.!.!.!.!.!.!.!.!.!.!.!.!.!.!.!.!.!.!.!.!.!.!.!.!.!.!.!.!.!.!.!.!.!.!.!.!.!.!.!.!.!.!.!.!.!.!.!.!.!.!.!.!.!.!.!.!.!.!.!.!.!.!.!.!.!.!.!.  X @ & - , 6 8 e s d z x n B Z D D G H H L L I U T W W W W W W W W W / / / / _ _ ' [ [ { { {  . . .o.o.o.o.@.@.@.&.&.=.:.<.<.3.3.3.6.6.6.9.9.w.r.u.p.p.f.f.h.l.l.l.v.N.N.B.B.S.D.D.J.J.J.L.J.J.J.J.J.L.J.J.J.J.J.J.J.J.J.J.J.J.J.J.J.L.J.J.P.P.P.P.U.U.U.U.U.U.U.U.U.U.U.U.U.P.P.P.U.P.P.P.J.P.P.P.P.P.P.P.P.P.P.P.P.P.P.P.J.P.J.J.L.J.J.J.D.J.D.D.D.D.D.D.A.A.A.A.A.A.A.A.A.A.S.D.D.D.D.D.D.D.D.D.D.D.D.A.A.A.A.B.B.B.B.N.N.N.n.v.v.v.v.l.l.l.h.h.h.f.f.s.p.p.u.u.r.w.9.9.6.6.6.3.3.<.<.<.<.<.:.:.=.=.=.=.=.=.=.=.=.=.=.=.=.=.&.=.&.=.&.&.&.&.&.&.&.&.&.&.$.@.@.o.o.o.o.X.X.X.X. . . .{ { { { { { { [ [ { [ [ ' ' _ _ / _ / / W W W W T I L G G D D D D D D Z B B Z M B M N N N n n x b x n N M M M M M B Z Z Z Z Z B Z Z B M N n x k d s y q 9 6 2 , , - $ X   !.!.!.!.!.!.!.!.!.!.!.!.!.!.!.!.!.!.!.!.!.!.!.!.!.!.!.!.!.!.!.!.!.!.!.!.!.!.!.!.!.!.!.!.!.!.!.!.!.!.!.!.!.!.!.!.!.!.!.!.!.!.!.!.!.!.!.!.!.!.!.!.!.!.!.!.!.!.!.!.!.!.!.!.!.!.!.!.!.",
"!.!.!.!.!.!.!.!.!.!.!.!.!.!.!.!.!.!.!.!.!.!.!.!.!.!.!.!.!.!.!.!.!.!.!.!.!.!.!.!.!.!.!.!.!.!.!.!.!.!.!.!.!.!.!.!.!.!.!.!.!.!.!.!.!.!.!.!.!.!.!.!.!.!.!.!.!.!.!.!.!.!.!.!.!.!.!.!.!.!.!.!.!.!.!.!.!.!.!.!.!.!.!.!.!.!.!.!.!.!.!.!.!.!.!.!.!.!.!.!.!.!.!.!.!.X X $ & - , 2 9 e s d z x N B Z Z D D G G L I U U R W W W W W W W W ^ / / / / _ ' ' [ [ { { {  . .X.o.o.o.o.@.@.$.&.&.=.=.,.<.<.3.5.6.6.9.9.9.r.r.u.u.p.f.f.h.l.l.l.v.n.N.B.B.S.D.D.D.J.J.J.L.J.J.J.J.L.J.J.J.L.L.J.J.J.J.J.J.L.L.J.J.J.L.J.J.P.P.P.P.U.U.U.U.U.U.U.P.P.P.P.P.U.P.P.J.L.J.L.L.L.L.L.L.P.L.P.P.P.L.P.P.J.P.J.P.L.L.J.J.J.J.J.J.D.D.D.D.D.S.A.A.A.A.A.A.B.A.A.A.S.A.S.A.D.D.D.D.D.D.D.D.D.D.S.A.A.B.B.B.B.B.N.N.N.N.v.v.v.v.l.l.l.l.h.h.h.f.f.p.p.u.u.r.w.9.9.6.6.6.3.3.3.<.<.<.,.:.:.=.=.=.=.=.=.=.=.=.=.=.=.=.=.=.=.=.=.&.&.=.=.&.&.&.&.&.&.@.$.@.o.o.o.o.X.o.X.o.o. . . .{ { { { { { { { { [ [ [ ' _ / / / / / W W W W W T I L L L D D D D D Z Z Z Z Z Z Z Z M M N N N N N M M B Z Z Z Z Z D D Z Z Z Z Z B B B M N n x k d s y q 8 6 2 , - & @   !.!.!.!.!.!.!.!.!.!.!.!.!.!.!.!.!.!.!.!.!.!.!.!.!.!.!.!.!.!.!.!.!.!.!.!.!.!.!.!.!.!.!.!.!.!.!.!.!.!.!.!.!.!.!.!.!.!.!.!.!.!.!.!.!.!.!.!.!.!.!.!.!.!.!.!.!.!.!.!.!.!.!.!.!.!.!.!.!.",
"!.!.!.!.!.!.!.!.!.!.!.!.!.!.!.!.!.!.!.!.!.!.!.!.!.!.!.!.!.!.!.!.!.!.!.!.!.!.!.!.!.!.!.!.!.!.!.!.!.!.!.!.!.!.!.!.!.!.!.!.!.!.!.!.!.!.!.!.!.!.!.!.!.!.!.!.!.!.!.!.!.!.!.!.!.!.!.!.!.!.!.!.!.!.!.!.!.!.!.!.!.!.!.!.!.!.!.!.!.!.!.!.!.!.!.!.!.!.!.!.!.!.!.!.    @ $ & - , 6 9 y s d z x n M B Z D D G G L I U T R W W W W W W W W / / / / / _ ' [ [ [ { { {  . .X.o.o.o.@.@.@.$.&.&.=.:.,.<.3.3.5.6.9.6.9.w.r.r.u.u.p.s.f.h.h.l.l.v.N.N.B.B.A.D.D.D.J.J.J.J.J.J.J.J.J.L.J.J.J.J.J.J.J.J.J.J.J.J.J.J.J.J.J.J.J.J.L.L.L.L.P.P.P.P.P.P.L.P.P.P.L.L.J.J.J.J.J.J.L.J.L.J.J.L.L.L.J.L.J.J.J.J.J.J.J.J.J.J.J.J.D.D.D.D.D.D.S.A.A.A.A.A.A.A.A.B.A.A.A.S.D.S.D.D.D.D.D.D.D.D.D.S.A.A.A.A.B.B.B.B.N.N.N.n.n.v.v.v.v.l.l.l.h.h.f.f.f.f.p.u.u.r.w.9.9.6.6.6.6.3.<.<.<.<.<.<.:.=.=.=.=.=.=.=.=.=.=.:.=.=.=.=.=.=.=.=.=.=.=.=.&.&.&.&.&.@.$.@.@.o.o.o.o.o.o.o.o. . . . .{ { { { { { { { { [ [ ' _ / / / / / W W W W W W R U U L L L G G D D D D Z D Z Z Z Z B B M B M B Z Z Z Z Z Z Z D D D D D Z Z Z Z Z Z Z Z M x x k d s y q 8 2 2 , & + X !.!.!.!.!.!.!.!.!.!.!.!.!.!.!.!.!.!.!.!.!.!.!.!.!.!.!.!.!.!.!.!.!.!.!.!.!.!.!.!.!.!.!.!.!.!.!.!.!.!.!.!.!.!.!.!.!.!.!.!.!.!.!.!.!.!.!.!.!.!.!.!.!.!.!.!.!.!.!.!.!.!.!.!.!.!.!.!.!.",
"!.!.!.!.!.!.!.!.!.!.!.!.!.!.!.!.!.!.!.!.!.!.!.!.!.!.!.!.!.!.!.!.!.!.!.!.!.!.!.!.!.!.!.!.!.!.!.!.!.!.!.!.!.!.!.!.!.!.!.!.!.!.!.!.!.!.!.!.!.!.!.!.!.!.!.!.!.!.!.!.!.!.!.!.!.!.!.!.!.!.!.!.!.!.!.!.!.!.!.!.!.!.!.!.!.!.!.!.!.!.!.!.!.!.!.!.!.!.!.!.!.!.!.  X X @ & - , , 6 9 y s d z x n M Z Z D D G L L L U T W W W W W W W W W / / / _ / _ _ ' [ [ { { {  . .X.o.o.@.@.@.@.@.&.&.=.:.:.,.3.3.5.6.6.9.9.9.w.r.r.u.p.f.f.h.h.l.l.v.n.B.B.B.A.D.D.D.D.J.J.J.J.J.J.J.J.J.J.J.J.J.J.D.J.J.J.D.D.J.J.J.J.D.J.J.J.J.J.J.J.J.J.J.L.J.J.J.L.J.J.J.J.J.J.J.J.J.D.J.J.J.J.J.J.J.J.J.J.J.J.J.J.J.J.J.J.J.D.D.D.D.D.D.D.D.D.D.S.A.A.A.A.A.A.B.A.A.A.A.A.A.S.S.D.D.D.D.D.D.D.D.D.D.A.A.B.B.B.B.B.N.N.N.n.N.v.v.v.v.l.v.l.l.h.h.h.f.f.f.p.u.u.r.w.9.9.6.6.6.5.3.3.3.3.<.,.,.,.:.=.=.=.=.=.=.=.=.:.=.=.=.=.=.=.=.=.=.=.=.=.=.=.&.&.&.&.@.@.@.@.@.o.o.o.o.o.o.o.o.X. . . . . .{ { { { { { [ ' ' ' _ _ _ / / W ! W W W W W T Y I I L L H D D D D D D D D Z Z D Z Z Z Z Z Z Z D D D D D D D D D D Z Z Z Z Z Z Z Z Z M n x k d i e 0 6 2 , - @ X   !.!.!.!.!.!.!.!.!.!.!.!.!.!.!.!.!.!.!.!.!.!.!.!.!.!.!.!.!.!.!.!.!.!.!.!.!.!.!.!.!.!.!.!.!.!.!.!.!.!.!.!.!.!.!.!.!.!.!.!.!.!.!.!.!.!.!.!.!.!.!.!.!.!.!.!.!.!.!.!.!.!.!.!.!.!.!.!.",
"!.!.!.!.!.!.!.!.!.!.!.!.!.!.!.!.!.!.!.!.!.!.!.!.!.!.!.!.!.!.!.!.!.!.!.!.!.!.!.!.!.!.!.!.!.!.!.!.!.!.!.!.!.!.!.!.!.!.!.!.!.!.!.!.!.!.!.!.!.!.!.!.!.!.!.!.!.!.!.!.!.!.!.!.!.!.!.!.!.!.!.!.!.!.!.!.!.!.!.!.!.!.!.!.!.!.!.!.!.!.!.!.!.!.!.!.!.!.!.!.!.!.!.  X @ & & - , 2 6 8 y s d k x n M Z Z D D G L L I U T W W ! W W W ^ / W / / / / _ ' ' [ [ [ { { {  . .X.o.o.o.@.@.@.@.&.&.=.=.:.,.<.3.6.6.9.9.9.9.r.r.u.u.p.s.f.f.h.l.l.v.v.N.N.B.A.A.D.D.D.D.D.D.J.J.J.J.J.J.J.J.J.J.J.D.D.D.D.D.D.D.D.D.D.D.D.J.J.J.J.J.D.D.J.J.J.J.J.J.J.J.J.J.J.J.J.D.D.D.D.D.D.D.D.J.J.J.J.J.J.J.J.J.J.J.J.J.J.J.D.D.D.D.D.D.D.D.D.A.A.A.A.A.A.A.A.A.A.A.A.A.A.S.A.D.D.D.D.D.D.D.D.D.D.A.A.A.A.A.B.B.B.B.N.N.N.n.n.n.v.v.l.v.l.l.l.h.h.f.f.s.p.u.u.r.r.w.9.9.6.6.6.6.3.3.3.3.<.,.:.:.:.:.=.=.=.:.:.:.:.:.:.=.=.=.=.=.=.=.=.=.=.=.=.&.=.&.&.$.$.@.@.@.@.o.o.o.o.o.o.o.o.X.X. . . .{ { { { { [ [ ' [ ' ' _ _ / / / ! W W W W W R T U I I L L H G G G G D D D D D D D D D D D D D D D D G D G G D D D Z Z Z D D Z D Z Z B M x k d s y q 8 2 , - $ X   !.!.!.!.!.!.!.!.!.!.!.!.!.!.!.!.!.!.!.!.!.!.!.!.!.!.!.!.!.!.!.!.!.!.!.!.!.!.!.!.!.!.!.!.!.!.!.!.!.!.!.!.!.!.!.!.!.!.!.!.!.!.!.!.!.!.!.!.!.!.!.!.!.!.!.!.!.!.!.!.!.!.!.!.!.!.!.!.",
"!.!.!.!.!.!.!.!.!.!.!.!.!.!.!.!.!.!.!.!.!.!.!.!.!.!.!.!.!.!.!.!.!.!.!.!.!.!.!.!.!.!.!.!.!.!.!.!.!.!.!.!.!.!.!.!.!.!.!.!.!.!.!.!.!.!.!.!.!.!.!.!.!.!.!.!.!.!.!.!.!.!.!.!.!.!.!.!.!.!.!.!.!.!.!.!.!.!.!.!.!.!.!.!.!.!.!.!.!.!.!.!.!.!.!.!.!.!.!.!.!.!.!.  X + & & - , , 6 8 e i d k x x M Z Z D D G L I I U T W W W W W W ! ^ / / / / _ ' ' [ [ [ [ [ { {  . .o.o.o.o.@.@.@.&.&.&.=.=.:.,.<.3.5.6.9.9.9.w.w.r.u.u.u.p.f.h.h.l.l.l.v.v.N.B.B.A.D.D.D.D.J.D.D.J.D.J.D.J.D.D.D.D.D.D.D.D.D.D.D.D.D.D.D.D.D.D.D.D.D.D.D.D.D.D.D.D.J.D.J.D.D.D.D.D.D.D.D.D.D.D.D.D.D.D.D.D.D.D.D.D.J.D.D.J.J.J.D.J.D.D.D.D.D.D.D.A.A.A.A.A.A.A.A.A.A.A.A.A.A.A.S.S.D.D.D.D.D.D.D.D.D.D.D.S.A.A.A.A.B.B.B.B.N.N.N.N.n.v.v.v.v.l.l.l.l.h.h.f.f.s.p.u.u.u.r.w.9.9.6.6.6.6.3.3.3.<.<.,.<.<.:.:.:.:.=.:.:.:.:.:.:.=.=.=.=.=.=.=.=.=.=.=.=.=.=.&.&.&.@.@.@.@.@.o.o.o.o.o.o.o.o.X.X.X. . .{ { { { { [ [ [ [ ' [ ' _ _ / / / / W W W W W T U U U I I L L L H H L L J J L L L H D G G G G G G H H L H L L D D D D D D D D D Z Z Z M n x k d i e 0 6 , - & @   !.!.!.!.!.!.!.!.!.!.!.!.!.!.!.!.!.!.!.!.!.!.!.!.!.!.!.!.!.!.!.!.!.!.!.!.!.!.!.!.!.!.!.!.!.!.!.!.!.!.!.!.!.!.!.!.!.!.!.!.!.!.!.!.!.!.!.!.!.!.!.!.!.!.!.!.!.!.!.!.!.!.!.!.!.!.!.!.",
"!.!.!.!.!.!.!.!.!.!.!.!.!.!.!.!.!.!.!.!.!.!.!.!.!.!.!.!.!.!.!.!.!.!.!.!.!.!.!.!.!.!.!.!.!.!.!.!.!.!.!.!.!.!.!.!.!.!.!.!.!.!.!.!.!.!.!.!.!.!.!.!.!.!.!.!.!.!.!.!.!.!.!.!.!.!.!.!.!.!.!.!.!.!.!.!.!.!.!.!.!.!.!.!.!.!.!.!.!.!.!.!.!.!.!.!.!.!.!.!.!.!.!.!.X @ & & - , 2 6 8 q y s d k z n M Z Z D G L I I U T W W W W W W ! W / / / _ _ ' ' ' [ [ [ { { {  . .o.o.o.o.@.@.&.&.&.=.=.=.:.,.<.3.6.6.9.9.9.9.w.r.r.u.u.p.f.f.h.l.l.l.v.v.N.B.B.A.A.D.D.D.D.D.D.D.D.J.J.D.D.D.D.D.D.D.D.D.D.S.S.A.A.A.A.A.A.S.D.D.D.D.D.D.D.D.D.D.D.D.D.D.D.D.D.D.D.D.D.D.D.D.S.D.D.D.D.D.D.D.D.D.D.D.D.D.D.D.D.D.D.D.D.D.D.S.A.A.A.A.A.A.A.A.A.A.A.A.A.A.A.A.A.D.D.D.D.D.D.D.D.D.D.D.D.S.A.A.A.A.B.B.B.B.B.N.N.N.N.v.v.v.v.v.l.l.l.h.h.f.f.f.p.p.u.u.u.r.w.9.9.6.6.6.6.3.3.<.<.<.<.,.,.,.:.:.:.:.:.:.:.:.:.:.:.=.=.:.=.=.=.=.=.=.=.=.&.&.&.&.@.@.@.@.@.@.@.o.o.o.o.o.o.o.o.o. . . . .{ { { { [ [ [ [ [ [ ' _ _ / / / W W W W W T Y Y T T T U I I L L L I I I I I I L L L L L L L L L L L L L L L G G D D D D D D D Z Z M N x k d s y q 6 2 , & @ X   !.!.!.!.!.!.!.!.!.!.!.!.!.!.!.!.!.!.!.!.!.!.!.!.!.!.!.!.!.!.!.!.!.!.!.!.!.!.!.!.!.!.!.!.!.!.!.!.!.!.!.!.!.!.!.!.!.!.!.!.!.!.!.!.!.!.!.!.!.!.!.!.!.!.!.!.!.!.!.!.!.!.!.!.!.!.!.",
"!.!.!.!.!.!.!.!.!.!.!.!.!.!.!.!.!.!.!.!.!.!.!.!.!.!.!.!.!.!.!.!.!.!.!.!.!.!.!.!.!.!.!.!.!.!.!.!.!.!.!.!.!.!.!.!.!.!.!.!.!.!.!.!.!.!.!.!.!.!.!.!.!.!.!.!.!.!.!.!.!.!.!.!.!.!.!.!.!.!.!.!.!.!.!.!.!.!.!.!.!.!.!.!.!.!.!.!.!.!.!.!.!.!.!.!.!.!.!.!.!.!.!.!.X + $ & - - , 2 6 q y s d k k x n M Z D D L I I U Y R W W W W W / ! / / / _ _ ' [ [ [ [ { { {  . . .o.o.o.@.@.@.&.&.&.=.:.:.,.<.<.3.6.6.9.9.9.w.w.r.r.u.p.p.f.h.h.l.l.l.v.v.N.N.B.B.B.A.D.D.D.D.D.D.D.D.D.J.D.D.D.D.D.D.S.A.A.A.A.A.A.A.A.A.A.A.A.A.A.A.A.S.S.A.S.D.D.D.D.D.D.A.S.A.A.A.A.A.A.A.A.A.A.D.S.A.D.S.D.D.D.D.D.D.D.D.D.D.D.D.D.D.A.A.A.A.A.A.A.A.A.A.A.A.A.A.A.A.A.S.S.D.D.D.D.D.D.D.D.D.D.D.D.D.S.D.A.A.A.B.B.B.B.N.N.N.n.n.n.v.v.v.l.l.l.l.h.h.f.f.s.p.p.u.u.r.w.9.9.9.9.6.6.5.3.<.<.<.<.,.,.:.,.,.,.,.,.,.,.:.:.:.:.=.=.=.=.=.=.=.=.=.=.=.&.&.&.&.&.@.@.@.@.@.o.o.o.o.o.o.o.o.X.X. . . . . . .{ { { [ [ [ [ [ ' ' _ / / / / W W W W W W W W W W T Y Y Y U U Y Y Y T T Y U U U I U Y U I I U I I I I I L L G G G D D D D D Z B N x k d s y q 6 2 , & & @ X !.!.!.!.!.!.!.!.!.!.!.!.!.!.!.!.!.!.!.!.!.!.!.!.!.!.!.!.!.!.!.!.!.!.!.!.!.!.!.!.!.!.!.!.!.!.!.!.!.!.!.!.!.!.!.!.!.!.!.!.!.!.!.!.!.!.!.!.!.!.!.!.!.!.!.!.!.!.!.!.!.!.!.!.!.!.!.",
"!.!.!.!.!.!.!.!.!.!.!.!.!.!.!.!.!.!.!.!.!.!.!.!.!.!.!.!.!.!.!.!.!.!.!.!.!.!.!.!.!.!.!.!.!.!.!.!.!.!.!.!.!.!.!.!.!.!.!.!.!.!.!.!.!.!.!.!.!.!.!.!.!.!.!.!.!.!.!.!.!.!.!.!.!.!.!.!.!.!.!.!.!.!.!.!.!.!.!.!.!.!.!.!.!.!.!.!.!.!.!.!.!.!.!.!.!.!.!.!.!.!.!.!.  @ $ & & - , , 6 9 q y s d k z b N B D D H L I I U R W W W W / / / / / _ _ _ ' ' [ [ { { {  . . .X.o.o.o.@.@.@.&.=.=.:.:.<.<.<.3.3.6.6.9.9.9.9.w.w.r.u.p.f.f.h.h.l.l.l.v.v.N.N.B.B.B.A.A.D.D.D.D.D.D.D.D.D.D.D.D.S.A.A.A.A.A.A.A.B.A.B.A.B.A.B.A.A.A.A.A.A.A.A.A.A.A.A.A.A.A.A.A.A.A.A.A.B.B.A.B.A.A.A.A.A.A.A.A.A.A.A.S.A.D.A.D.A.A.A.A.A.A.A.A.A.A.A.A.A.A.A.A.A.A.A.A.A.S.A.D.D.D.D.D.D.D.D.D.D.D.D.D.D.D.A.A.A.B.A.B.B.B.B.B.N.N.N.n.v.v.v.v.l.l.l.h.h.f.f.f.s.p.u.u.r.w.w.w.9.9.6.6.5.3.3.3.<.<.,.<.<.,.<.,.,.,.,.,.,.:.:.:.:.:.:.=.=.=.=.=.=.=.=.=.&.&.&.&.@.@.@.@.@.@.@.o.o.o.o.o.o.o.o.o.X. . . . . .{ { { [ [ [ ' ' ' _ _ _ / / / W W W W W W W W W W W W R R R W W W W W W R R T R R R T Y T T T T T Y Y I L L L H G G D D D Z B N x k d s y q 8 2 , - & @ X   !.!.!.!.!.!.!.!.!.!.!.!.!.!.!.!.!.!.!.!.!.!.!.!.!.!.!.!.!.!.!.!.!.!.!.!.!.!.!.!.!.!.!.!.!.!.!.!.!.!.!.!.!.!.!.!.!.!.!.!.!.!.!.!.!.!.!.!.!.!.!.!.!.!.!.!.!.!.!.!.!.!.!.!.!.!.",
"!.!.!.!.!.!.!.!.!.!.!.!.!.!.!.!.!.!.!.!.!.!.!.!.!.!.!.!.!.!.!.!.!.!.!.!.!.!.!.!.!.!.!.!.!.!.!.!.!.!.!.!.!.!.!.!.!.!.!.!.!.!.!.!.!.!.!.!.!.!.!.!.!.!.!.!.!.!.!.!.!.!.!.!.!.!.!.!.!.!.!.!.!.!.!.!.!.!.!.!.!.!.!.!.!.!.!.!.!.!.!.!.!.!.!.!.!.!.!.!.!.!.!.  X X @ $ & & - , 2 6 0 e i s d k x n M Z D G L L I U T W W W W W / / / / _ ' ' ' [ [ { { {  . . . .o.o.o.@.@.@.&.&.=.=.:.,.<.<.<.3.3.5.6.9.9.9.w.w.r.r.u.p.s.f.f.h.h.l.l.v.v.n.N.B.B.B.B.A.A.S.D.D.D.D.D.D.D.D.D.A.S.A.A.A.A.A.B.B.B.B.A.B.B.B.B.A.B.A.A.A.A.B.A.A.A.A.A.A.A.B.B.B.B.B.B.B.B.B.B.B.B.B.B.A.B.A.B.A.A.A.A.A.A.A.A.A.A.A.A.A.A.B.A.A.A.A.B.A.A.A.A.A.A.A.A.A.S.A.D.D.D.D.D.D.D.D.J.J.J.J.D.D.D.D.D.A.A.A.B.B.B.B.B.N.N.N.N.n.v.v.v.v.l.l.l.h.h.f.f.f.p.p.p.u.u.r.w.9.9.9.6.9.6.6.3.3.3.<.<.<.<.3.<.<.<.<.,.<.<.,.:.:.:.:.:.:.=.=.=.=.=.=.=.=.&.&.&.&.$.$.@.@.@.@.@.@.o.@.@.@.@.@.o.o.X.X. .X. . .{ { { { [ { [ ' ' ' _ _ / / / W W W W W W ! W W W W W W W W W W W W W W W W W W W W W W W W W W W R T Y I L L L G G D D D Z B N x k d s y q 8 2 , - & @ X   !.!.!.!.!.!.!.!.!.!.!.!.!.!.!.!.!.!.!.!.!.!.!.!.!.!.!.!.!.!.!.!.!.!.!.!.!.!.!.!.!.!.!.!.!.!.!.!.!.!.!.!.!.!.!.!.!.!.!.!.!.!.!.!.!.!.!.!.!.!.!.!.!.!.!.!.!.!.!.!.!.!.!.!.!.!.",
"!.!.!.!.!.!.!.!.!.!.!.!.!.!.!.!.!.!.!.!.!.!.!.!.!.!.!.!.!.!.!.!.!.!.!.!.!.!.!.!.!.!.!.!.!.!.!.!.!.!.!.!.!.!.!.!.!.!.!.!.!.!.!.!.!.!.!.!.!.!.!.!.!.!.!.!.!.!.!.!.!.!.!.!.!.!.!.!.!.!.!.!.!.!.!.!.!.!.!.!.!.!.!.!.!.!.!.!.!.!.!.!.!.!.!.!.!.!.!.!.!.!.!.  X X @ + @ & - , , 6 8 q y s d k k b M Z D G H L I I Y W W W W / / / / / _ ' ' [ { { { {  . . . .X.X.o.o.@.@.@.&.&.=.=.:.<.<.<.3.3.3.5.6.6.9.w.9.w.r.r.u.p.s.f.f.h.l.l.l.v.v.v.N.N.B.B.B.A.A.D.A.S.D.D.D.D.D.D.D.D.A.A.A.A.A.B.B.B.B.B.B.B.B.B.B.B.B.B.A.A.A.B.B.B.B.B.B.A.B.B.B.B.B.B.B.B.B.B.N.B.B.B.B.B.B.B.B.B.B.B.B.B.B.A.B.B.A.B.B.B.B.A.B.A.A.A.B.A.B.A.A.A.A.A.A.S.A.S.D.D.D.D.D.D.D.J.J.J.J.D.D.D.D.D.D.D.A.A.A.B.B.B.B.B.N.N.N.N.n.v.v.v.l.l.l.l.h.h.f.f.s.p.p.u.u.r.r.w.w.9.9.6.6.6.6.6.3.3.3.<.<.3.3.3.<.<.<.<.<.,.,.,.:.:.:.:.=.=.=.=.=.=.=.&.&.&.&.&.@.@.@.@.@.@.@.@.@.@.@.@.o.o.o.o.o.o.X. . . .{ { { { { [ [ ' ' ' _ _ / / / W W ! W W W W ! ! W W W W W ^ W W W W W W W W ! W W W W W W W W W W W W T U I I L L L G D Z Z M x x k d s i e 8 2 , - & & @ X !.!.!.!.!.!.!.!.!.!.!.!.!.!.!.!.!.!.!.!.!.!.!.!.!.!.!.!.!.!.!.!.!.!.!.!.!.!.!.!.!.!.!.!.!.!.!.!.!.!.!.!.!.!.!.!.!.!.!.!.!.!.!.!.!.!.!.!.!.!.!.!.!.!.!.!.!.!.!.!.!.!.!.!.!.!.",
"!.!.!.!.!.!.!.!.!.!.!.!.!.!.!.!.!.!.!.!.!.!.!.!.!.!.!.!.!.!.!.!.!.!.!.!.!.!.!.!.!.!.!.!.!.!.!.!.!.!.!.!.!.!.!.!.!.!.!.!.!.!.!.!.!.!.!.!.!.!.!.!.!.!.!.!.!.!.!.!.!.!.!.!.!.!.!.!.!.!.!.!.!.!.!.!.!.!.!.!.!.!.!.!.!.!.!.!.!.!.!.!.!.!.!.!.!.!.!.!.!.!.!.!.  X X @ @ @ & - , 2 6 q y s d k k x N Z D D D H L L U R W W W / / / / _ ' ' [ [ { { {  . .X. . .X.o.o.o.o.@.@.&.=.=.:.:.<.<.<.<.3.3.5.6.6.9.9.w.w.r.r.u.u.p.f.f.h.h.l.l.v.v.n.n.N.B.B.B.B.A.A.A.A.A.S.D.D.A.A.A.A.A.A.A.A.B.B.B.B.B.B.B.B.B.B.B.B.B.B.B.B.B.B.B.B.B.B.B.B.N.B.N.B.B.N.N.N.N.N.N.N.N.N.N.N.B.B.B.B.B.B.B.B.B.B.B.B.B.B.B.B.A.A.B.A.B.B.B.A.B.A.A.A.A.A.A.S.S.D.D.D.D.D.D.D.J.J.J.D.D.D.D.D.D.D.D.D.A.A.A.A.B.B.B.B.N.N.N.n.N.v.v.v.v.v.l.l.h.h.f.f.f.s.p.p.u.u.u.r.w.9.w.9.6.6.6.6.6.5.5.3.3.3.3.3.<.<.<.<.<.<.<.,.:.:.:.:.:.=.=.=.=.=.&.&.&.&.&.&.&.$.$.@.@.@.@.@.@.@.@.@.@.@.o.o.o.o.o.X. . . .{ { { { [ [ [ ' ' ' _ / _ / / W W W / / / / / / / / / / / / / / / / / / W ! W W W W W W W W W W W W R T U I I L L G D Z Z M x x k k d i e 8 2 2 , - & + X   !.!.!.!.!.!.!.!.!.!.!.!.!.!.!.!.!.!.!.!.!.!.!.!.!.!.!.!.!.!.!.!.!.!.!.!.!.!.!.!.!.!.!.!.!.!.!.!.!.!.!.!.!.!.!.!.!.!.!.!.!.!.!.!.!.!.!.!.!.!.!.!.!.!.!.!.!.!.!.!.!.!.!.!.!.",
"!.!.!.!.!.!.!.!.!.!.!.!.!.!.!.!.!.!.!.!.!.!.!.!.!.!.!.!.!.!.!.!.!.!.!.!.!.!.!.!.!.!.!.!.!.!.!.!.!.!.!.!.!.!.!.!.!.!.!.!.!.!.!.!.!.!.!.!.!.!.!.!.!.!.!.!.!.!.!.!.!.!.!.!.!.!.!.!.!.!.!.!.!.!.!.!.!.!.!.!.!.!.!.!.!.!.!.!.!.!.!.!.!.!.!.!.!.!.!.!.!.!.!.!.!.  X X X + & - , 2 6 0 e i d k k x x M Z D D D L L U R W W W / / / _ _ ' [ [ { { {  . . .X.X.X.o.o.o.o.@.@.&.&.=.=.:.,.,.<.<.<.<.3.3.5.6.9.9.9.w.w.r.u.u.p.s.f.f.h.h.l.v.v.n.n.N.B.B.B.B.A.A.D.A.S.S.A.S.A.A.A.A.A.A.A.B.B.B.B.B.B.B.B.N.B.N.B.B.B.B.B.N.N.N.B.N.B.N.N.N.N.N.N.N.N.n.N.n.n.n.n.N.n.N.n.N.N.N.N.B.B.B.N.B.B.B.B.B.B.B.B.B.B.B.B.B.B.A.A.B.B.A.B.A.A.A.S.S.A.D.D.D.D.D.D.D.D.J.J.J.D.J.D.J.D.D.D.D.D.A.B.A.A.B.B.B.B.N.N.N.n.n.v.v.v.l.l.l.l.h.f.f.f.s.p.p.u.u.u.u.r.w.w.9.9.6.6.6.6.6.5.5.3.3.3.3.3.<.<.<.<.<.<.,.,.:.:.:.:.=.=.=.=.=.=.&.&.&.&.&.$.$.@.@.@.@.@.@.@.@.@.@.@.o.o.o.o.o.o.X.X. . .{ { { { { [ [ [ [ ' ' _ _ / / / / / / / _ _ / / / / / _ _ _ _ _ _ _ / / / W ^ W W W W W W W W W W W W R Y U I L L G D Z B N x x k k d s e 9 2 2 , - & $ @   !.!.!.!.!.!.!.!.!.!.!.!.!.!.!.!.!.!.!.!.!.!.!.!.!.!.!.!.!.!.!.!.!.!.!.!.!.!.!.!.!.!.!.!.!.!.!.!.!.!.!.!.!.!.!.!.!.!.!.!.!.!.!.!.!.!.!.!.!.!.!.!.!.!.!.!.!.!.!.!.!.!.!.!.!.",
"!.!.!.!.!.!.!.!.!.!.!.!.!.!.!.!.!.!.!.!.!.!.!.!.!.!.!.!.!.!.!.!.!.!.!.!.!.!.!.!.!.!.!.!.!.!.!.!.!.!.!.!.!.!.!.!.!.!.!.!.!.!.!.!.!.!.!.!.!.!.!.!.!.!.!.!.!.!.!.!.!.!.!.!.!.!.!.!.!.!.!.!.!.!.!.!.!.!.!.!.!.!.!.!.!.!.!.!.!.!.!.!.!.!.!.!.!.!.!.!.!.!.!.!.!.!.  X X @ & - - , 6 9 e y s d k x x M Z D D D G L I T W W W / / _ _ ' ' [ [ { {  . .X.X.X.o.X.X.o.o.@.@.$.&.=.=.:.:.,.<.<.<.<.<.3.3.3.6.9.9.9.9.w.w.u.u.p.p.s.f.h.h.l.l.l.v.v.N.N.B.B.B.A.A.A.A.A.A.A.A.A.A.A.A.B.B.B.B.B.B.N.B.N.N.N.N.N.N.N.N.N.N.B.N.N.N.N.N.N.N.N.n.N.N.n.n.v.n.v.v.v.v.v.v.v.v.n.v.n.n.N.N.N.N.N.N.N.N.B.B.B.B.B.B.B.B.B.B.B.B.B.B.B.B.A.A.A.A.A.A.D.D.D.D.D.D.D.D.D.D.J.D.J.J.J.D.D.D.D.D.S.A.A.A.A.B.B.B.N.N.N.N.n.v.v.v.v.v.l.l.l.h.h.h.f.f.s.p.p.u.u.u.u.r.w.w.9.9.9.6.6.6.6.6.5.5.3.3.3.3.3.<.<.<.<.,.,.,.:.:.:.=.=.=.=.=.=.&.&.&.&.$.$.$.@.@.@.@.@.@.@.@.@.@.@.@.o.o.o.X.X.X.X. . .{ { { { { [ [ [ [ ' ' ' ' _ _ / / / / _ _ _ _ _ _ _ _ ' _ ' ' ' _ _ / / / / / / / / / ^ W W W W W W W R Y U I I L G D Z Z N x x k k d s y 9 6 2 , - & $ @ X !.!.!.!.!.!.!.!.!.!.!.!.!.!.!.!.!.!.!.!.!.!.!.!.!.!.!.!.!.!.!.!.!.!.!.!.!.!.!.!.!.!.!.!.!.!.!.!.!.!.!.!.!.!.!.!.!.!.!.!.!.!.!.!.!.!.!.!.!.!.!.!.!.!.!.!.!.!.!.!.!.!.!.!.!.",
"!.!.!.!.!.!.!.!.!.!.!.!.!.!.!.!.!.!.!.!.!.!.!.!.!.!.!.!.!.!.!.!.!.!.!.!.!.!.!.!.!.!.!.!.!.!.!.!.!.!.!.!.!.!.!.!.!.!.!.!.!.!.!.!.!.!.!.!.!.!.!.!.!.!.!.!.!.!.!.!.!.!.!.!.!.!.!.!.!.!.!.!.!.!.!.!.!.!.!.!.!.!.!.!.!.!.!.!.!.!.!.!.!.!.!.!.!.!.!.!.!.!.!.!.!.!.  X @ + & & - , 2 6 0 e i s d k x N Z D D D G L I T W W ^ / / _ ' [ [ [ [ { {  . .X.X.X.o.o.o.o.o.@.$.$.&.=.=.:.,.<.<.3.<.<.3.3.3.6.6.9.9.9.9.w.r.u.u.u.p.s.f.h.h.l.l.l.v.v.N.N.B.B.B.A.A.A.A.A.A.A.A.A.A.A.A.B.B.B.B.N.N.N.N.N.N.N.N.N.N.N.N.N.N.n.n.N.n.N.n.N.n.n.n.v.n.v.v.v.v.v.v.v.v.v.v.l.v.v.v.v.v.v.n.n.N.N.N.N.N.N.N.B.B.N.B.B.B.B.B.B.B.B.B.B.B.B.B.A.A.A.S.D.D.D.D.D.D.D.D.J.J.D.J.J.J.J.D.D.D.D.D.D.D.A.A.A.A.B.B.B.N.N.N.N.n.v.v.v.v.v.l.l.h.h.h.h.f.f.s.p.p.p.u.u.u.r.r.w.9.9.9.9.6.6.6.6.6.6.3.3.3.3.3.<.3.<.<.,.,.,.:.:.:.=.=.=.=.=.&.&.&.&.@.$.@.@.@.@.@.$.@.@.@.@.@.@.o.o.o.o.o.X.o.o. . . .{ { { { { { { [ [ [ ' ' ' ' _ _ _ _ _ _ ' ' ' ' ' ' ' [ [ [ [ ' _ _ _ / / / / / / / / W / W W W W W W R Y U I L D D Z B B x x k k d s y 9 6 2 , - & $ @ X !.!.!.!.!.!.!.!.!.!.!.!.!.!.!.!.!.!.!.!.!.!.!.!.!.!.!.!.!.!.!.!.!.!.!.!.!.!.!.!.!.!.!.!.!.!.!.!.!.!.!.!.!.!.!.!.!.!.!.!.!.!.!.!.!.!.!.!.!.!.!.!.!.!.!.!.!.!.!.!.!.!.!.!.!.",
"!.!.!.!.!.!.!.!.!.!.!.!.!.!.!.!.!.!.!.!.!.!.!.!.!.!.!.!.!.!.!.!.!.!.!.!.!.!.!.!.!.!.!.!.!.!.!.!.!.!.!.!.!.!.!.!.!.!.!.!.!.!.!.!.!.!.!.!.!.!.!.!.!.!.!.!.!.!.!.!.!.!.!.!.!.!.!.!.!.!.!.!.!.!.!.!.!.!.!.!.!.!.!.!.!.!.!.!.!.!.!.!.!.!.!.!.!.!.!.!.!.!.!.!.!.!.  X X @ + & - , , 6 9 q y i s k x N B D D G L L I U W W / / _ _ ' [ [ [ { {  . . .X.X.X.o.o.o.@.@.@.&.&.&.=.:.<.<.<.3.3.3.3.3.3.3.6.6.6.6.9.9.9.w.r.u.u.p.s.f.f.h.l.l.l.v.v.v.N.N.B.B.B.A.A.A.A.A.A.A.A.A.B.B.B.B.B.B.B.N.N.n.N.N.N.n.N.N.n.n.v.n.n.n.n.n.v.v.v.v.v.v.v.v.v.v.l.v.l.v.l.l.l.l.l.v.v.l.v.v.v.v.n.n.n.n.n.N.n.N.N.N.N.B.N.N.N.B.B.B.B.B.B.B.B.A.A.A.A.A.A.A.D.D.D.D.D.D.D.J.J.J.J.J.J.D.D.D.D.D.D.D.A.A.A.B.B.B.B.N.N.N.n.v.n.n.v.l.l.l.l.l.h.h.h.h.f.f.f.s.p.p.u.u.u.r.r.r.w.9.9.9.9.6.6.6.6.6.6.6.3.3.3.<.<.<.<.<.,.,.:.:.=.=.=.=.=.=.&.=.&.@.&.@.@.@.$.$.@.@.@.@.@.@.o.@.o.o.o.o.X.o.o. . . .{  .{  .{ { { { { [ [ [ [ ' ' ' ' [ ' ' [ ' [ [ [ [ [ { { [ { [ [ ' ' _ _ _ _ _ / / / / / / W W W W W W R Y I L D D Z B M n x k k d s e 0 6 2 , - & $ @ X !.!.!.!.!.!.!.!.!.!.!.!.!.!.!.!.!.!.!.!.!.!.!.!.!.!.!.!.!.!.!.!.!.!.!.!.!.!.!.!.!.!.!.!.!.!.!.!.!.!.!.!.!.!.!.!.!.!.!.!.!.!.!.!.!.!.!.!.!.!.!.!.!.!.!.!.!.!.!.!.!.!.!.!.!.",
"!.!.!.!.!.!.!.!.!.!.!.!.!.!.!.!.!.!.!.!.!.!.!.!.!.!.!.!.!.!.!.!.!.!.!.!.!.!.!.!.!.!.!.!.!.!.!.!.!.!.!.!.!.!.!.!.!.!.!.!.!.!.!.!.!.!.!.!.!.!.!.!.!.!.!.!.!.!.!.!.!.!.!.!.!.!.!.!.!.!.!.!.!.!.!.!.!.!.!.!.!.!.!.!.!.!.!.!.!.!.!.!.!.!.!.!.!.!.!.!.!.!.!.!.!.!.  X X @ @ $ & - 2 2 8 0 e y s k z n B D D D H L U Y W W / / _ _ _ ' [ { {  . .X.X.X.X.o.o.o.@.@.@.&.&.&.=.=.,.<.<.<.3.3.3.3.3.3.3.6.6.6.6.9.9.9.w.r.u.p.p.s.f.f.h.h.l.l.l.v.v.N.N.B.B.B.B.A.A.A.A.A.A.A.B.A.B.B.B.B.N.N.N.N.n.n.n.n.n.v.v.v.v.v.v.v.v.n.v.v.v.v.v.v.v.l.l.l.l.l.l.l.l.l.l.l.l.l.l.l.l.l.l.v.v.v.v.v.v.v.v.n.n.N.N.N.N.N.B.N.B.B.B.B.B.B.B.B.B.A.A.A.A.A.S.D.D.D.D.D.J.J.D.D.J.J.J.J.D.D.D.D.D.D.D.D.S.A.A.A.B.B.N.N.N.N.N.v.v.v.v.v.l.l.l.l.l.h.h.h.f.f.f.p.p.p.u.u.u.u.r.r.r.r.w.w.9.9.6.6.6.6.6.6.3.3.3.3.<.<.,.,.:.:.:.:.=.=.=.=.=.=.&.&.&.@.@.@.@.$.@.$.@.@.@.@.@.@.@.o.o.o.X.X.o.o.o. . . .{  . . . . .{ { { { { [ [ [ [ [ [ [ [ { [ { [ { { { { { { { { { [ [ [ ' ' _ _ _ _ / / / / / W W W W W R Y U L G D Z Z B n x z k d s e q 6 2 , - & & + X !.!.!.!.!.!.!.!.!.!.!.!.!.!.!.!.!.!.!.!.!.!.!.!.!.!.!.!.!.!.!.!.!.!.!.!.!.!.!.!.!.!.!.!.!.!.!.!.!.!.!.!.!.!.!.!.!.!.!.!.!.!.!.!.!.!.!.!.!.!.!.!.!.!.!.!.!.!.!.!.!.!.!.!.!.",
"!.!.!.!.!.!.!.!.!.!.!.!.!.!.!.!.!.!.!.!.!.!.!.!.!.!.!.!.!.!.!.!.!.!.!.!.!.!.!.!.!.!.!.!.!.!.!.!.!.!.!.!.!.!.!.!.!.!.!.!.!.!.!.!.!.!.!.!.!.!.!.!.!.!.!.!.!.!.!.!.!.!.!.!.!.!.!.!.!.!.!.!.!.!.!.!.!.!.!.!.!.!.!.!.!.!.!.!.!.!.!.!.!.!.!.!.!.!.!.!.!.!.!.!.!.!.    X X + @ & - , 2 6 6 e y s k k x M Z D G L L U R W W / / _ _ ' [ [ { {  . .X.X.X.o.o.o.@.@.$.&.&.&.=.=.:.,.<.<.3.3.3.3.3.3.3.3.3.5.6.6.6.9.w.r.u.u.u.p.s.f.f.h.h.l.l.l.v.v.N.N.B.B.B.A.A.A.A.A.A.A.A.A.A.A.A.B.B.N.N.N.n.n.v.v.v.v.n.n.v.v.v.v.v.v.v.v.v.v.v.v.v.l.l.l.l.l.l.l.l.l.l.l.l.l.l.l.l.l.l.l.l.v.v.v.v.v.v.v.v.n.N.n.N.N.N.N.N.B.B.B.B.B.B.B.B.A.B.A.A.A.S.A.S.D.D.D.D.D.J.D.D.D.J.D.J.J.D.D.D.D.D.D.D.A.A.A.A.B.B.B.B.N.N.N.n.v.v.v.v.l.l.l.l.l.h.h.h.f.f.f.f.s.p.p.p.u.u.u.u.r.r.r.r.9.9.9.9.6.6.6.6.3.3.3.3.3.<.<.,.,.,.:.:.=.=.=.=.=.=.&.&.&.&.&.@.&.@.$.$.&.@.@.@.@.@.o.o.o.o.o.o.o.o.o.o. . . . . . . . . .{ { { { { { [ { { { { { { { { { { { { { { { { { { { { [ [ [ ' ' ' _ _ _ _ / / ! W W W W R T U L H D D Z Z M x z k d i e 9 6 2 , - & & @ X   !.!.!.!.!.!.!.!.!.!.!.!.!.!.!.!.!.!.!.!.!.!.!.!.!.!.!.!.!.!.!.!.!.!.!.!.!.!.!.!.!.!.!.!.!.!.!.!.!.!.!.!.!.!.!.!.!.!.!.!.!.!.!.!.!.!.!.!.!.!.!.!.!.!.!.!.!.!.!.!.!.!.!.!.",
"!.!.!.!.!.!.!.!.!.!.!.!.!.!.!.!.!.!.!.!.!.!.!.!.!.!.!.!.!.!.!.!.!.!.!.!.!.!.!.!.!.!.!.!.!.!.!.!.!.!.!.!.!.!.!.!.!.!.!.!.!.!.!.!.!.!.!.!.!.!.!.!.!.!.!.!.!.!.!.!.!.!.!.!.!.!.!.!.!.!.!.!.!.!.!.!.!.!.!.!.!.!.!.!.!.!.!.!.!.!.!.!.!.!.!.!.!.!.!.!.!.!.!.!.!.      X X @ @ & - , 2 2 8 q y s d k b N Z D H L I T W W W / / _ ' ' [ { { {  .X.X.X.o.o.o.@.@.$.&.&.=.=.=.=.:.,.<.<.3.3.3.3.3.3.3.3.3.6.6.6.9.9.w.r.r.u.u.p.f.f.f.h.l.l.l.v.v.v.n.N.B.B.B.A.A.A.A.A.A.A.A.A.B.A.B.B.B.N.N.N.n.v.v.v.v.v.v.v.v.v.v.l.v.v.l.l.l.v.l.l.l.l.l.l.l.l.h.l.h.h.h.h.h.h.h.h.h.l.l.l.l.l.l.v.v.v.v.v.v.v.v.n.N.n.N.N.N.N.N.N.B.B.B.B.B.B.B.A.A.A.A.A.S.D.D.D.D.D.D.D.D.D.D.J.J.J.D.D.D.D.D.D.D.S.A.A.A.A.B.B.B.N.N.N.n.v.v.v.v.v.v.l.l.l.l.l.h.h.h.f.f.f.f.s.p.p.p.u.u.u.r.r.r.r.w.9.9.9.9.6.6.6.5.3.3.3.3.<.<.<.,.,.:.=.=.=.=.=.=.=.&.&.&.&.&.&.$.&.@.$.@.@.@.@.@.@.o.o.o.o.o.o.o.X.o.o.o.X.X.X.X.X. . . . . . .{ { { { { { { { {  . . . . . . . . . .{  .{ { { { { { [ [ ' ' _ _ _ / / W W W W R T U I L G D D Z M n z k d i e 9 6 2 2 , - & @ X   !.!.!.!.!.!.!.!.!.!.!.!.!.!.!.!.!.!.!.!.!.!.!.!.!.!.!.!.!.!.!.!.!.!.!.!.!.!.!.!.!.!.!.!.!.!.!.!.!.!.!.!.!.!.!.!.!.!.!.!.!.!.!.!.!.!.!.!.!.!.!.!.!.!.!.!.!.!.!.!.!.!.!.!.",
"!.!.!.!.!.!.!.!.!.!.!.!.!.!.!.!.!.!.!.!.!.!.!.!.!.!.!.!.!.!.!.!.!.!.!.!.!.!.!.!.!.!.!.!.!.!.!.!.!.!.!.!.!.!.!.!.!.!.!.!.!.!.!.!.!.!.!.!.!.!.!.!.!.!.!.!.!.!.!.!.!.!.!.!.!.!.!.!.!.!.!.!.!.!.!.!.!.!.!.!.!.!.!.!.!.!.!.!.!.!.!.!.!.!.!.!.!.!.!.!.!.!.!.!.!.  X X X X @ @ & - - 2 2 8 q y i d k b M Z D G L I R W W W / / _ ' [ [ [ { {  . .X.X.o.o.o.@.@.@.&.&.=.=.:.:.:.,.<.3.3.3.3.3.5.5.5.5.5.6.6.6.9.9.w.r.u.u.p.p.f.f.f.h.l.l.l.l.v.v.n.N.B.B.B.A.A.A.A.A.A.A.A.A.A.B.B.B.B.N.N.N.n.v.v.v.v.v.l.v.l.l.l.l.v.l.v.l.l.l.l.l.l.h.h.l.h.h.h.h.h.h.h.h.h.h.h.h.h.h.h.h.h.l.l.l.l.l.v.v.v.v.v.v.n.N.N.N.N.N.N.B.N.B.B.B.B.B.A.A.A.A.A.A.A.S.S.D.D.D.D.D.D.D.J.J.D.D.D.D.D.D.D.D.D.D.A.A.B.B.B.B.B.N.N.N.n.n.v.v.v.v.l.l.l.l.l.l.l.h.h.h.h.f.f.f.f.s.p.p.u.u.u.u.u.r.r.w.w.9.9.9.6.6.6.5.5.3.3.3.<.<.,.,.:.:.:.=.=.=.=.=.=.=.=.&.&.&.&.&.&.&.@.@.@.@.@.@.o.@.o.o.o.o.o.o.o.X.o.X.X.o.X.o.X.X. . . . . . .{ { {  . . . . . . .X.X.X. . . . . . . . . . .{ { { [ [ ' ' _ _ _ / ^ W W W W T U I L H D D Z Z N x k d s y q 8 6 2 , - & & @ X !.!.!.!.!.!.!.!.!.!.!.!.!.!.!.!.!.!.!.!.!.!.!.!.!.!.!.!.!.!.!.!.!.!.!.!.!.!.!.!.!.!.!.!.!.!.!.!.!.!.!.!.!.!.!.!.!.!.!.!.!.!.!.!.!.!.!.!.!.!.!.!.!.!.!.!.!.!.!.!.!.!.!.!.",
"!.!.!.!.!.!.!.!.!.!.!.!.!.!.!.!.!.!.!.!.!.!.!.!.!.!.!.!.!.!.!.!.!.!.!.!.!.!.!.!.!.!.!.!.!.!.!.!.!.!.!.!.!.!.!.!.!.!.!.!.!.!.!.!.!.!.!.!.!.!.!.!.!.!.!.!.!.!.!.!.!.!.!.!.!.!.!.!.!.!.!.!.!.!.!.!.!.!.!.!.!.!.!.!.!.!.!.!.!.!.!.!.!.!.!.!.!.!.!.!.!.!.!.!.  X @ + @ @ @ @ & - , 2 2 8 q y s d k x M Z D H L U R W W W / / _ ' [ [ [ { {  . .X.o.o.o.o.@.@.&.&.&.=.=.:.:.:.,.<.3.3.3.3.5.6.5.5.6.6.6.6.6.9.9.w.r.u.u.p.p.s.f.f.h.h.h.l.l.v.v.v.N.B.B.B.A.A.S.A.S.A.A.A.A.B.A.B.B.B.N.N.N.v.v.v.v.v.v.l.l.l.l.l.l.l.l.l.l.l.l.l.h.l.h.h.h.h.h.h.f.f.f.f.f.f.f.f.f.h.h.h.h.h.h.h.l.l.l.l.l.l.v.v.n.n.n.N.N.n.N.N.B.B.B.B.B.B.B.B.B.A.A.B.A.A.A.A.S.D.D.D.D.D.D.D.D.D.D.D.D.D.D.D.D.D.D.A.A.A.B.B.B.B.B.N.N.v.n.v.v.v.v.v.v.v.l.l.l.l.l.l.h.h.h.h.h.f.f.f.p.p.p.p.u.u.u.r.r.w.w.w.9.6.6.6.6.6.6.3.3.3.<.<.<.,.<.:.:.=.=.=.=.=.=.=.=.=.&.&.&.&.$.&.@.@.@.@.@.@.@.o.@.@.@.o.o.o.o.o.o.o.o.o.o.o.X.o.X.o.X. . . .X. . .X. .X.X.X.X.o.o.o.X.X.X.o.o.o. .o. . . . .{ { [ [ ' _ _ _ / / ! W W W T U I L L G D D Z M x k k d y e 9 6 2 , - - & @ X   !.!.!.!.!.!.!.!.!.!.!.!.!.!.!.!.!.!.!.!.!.!.!.!.!.!.!.!.!.!.!.!.!.!.!.!.!.!.!.!.!.!.!.!.!.!.!.!.!.!.!.!.!.!.!.!.!.!.!.!.!.!.!.!.!.!.!.!.!.!.!.!.!.!.!.!.!.!.!.!.!.!.!.",
"!.!.!.!.!.!.!.!.!.!.!.!.!.!.!.!.!.!.!.!.!.!.!.!.!.!.!.!.!.!.!.!.!.!.!.!.!.!.!.!.!.!.!.!.!.!.!.!.!.!.!.!.!.!.!.!.!.!.!.!.!.!.!.!.!.!.!.!.!.!.!.!.!.!.!.!.!.!.!.!.!.!.!.!.!.!.!.!.!.!.!.!.!.!.!.!.!.!.!.!.!.!.!.!.!.!.!.!.!.!.!.!.!.!.!.!.!.!.!.!.!.!.!.!.  X + + @ @ + @ & - , 2 2 8 q y s d z x B Z D L I Y R W W / / / _ _ ' [ [ { {  . . .o.o.o.@.@.&.&.&.&.=.=.=.:.:.<.<.<.3.3.3.6.5.6.6.6.6.6.6.6.9.9.r.r.u.u.p.p.f.f.h.h.h.l.l.l.v.v.n.N.B.B.B.A.A.S.S.A.S.A.A.B.A.B.B.B.B.N.N.n.n.v.v.v.l.v.l.l.l.l.l.l.l.l.l.l.h.h.h.h.h.h.h.h.h.f.f.f.f.f.f.f.f.f.f.f.f.f.h.h.h.h.h.l.h.l.l.l.v.v.v.v.v.v.n.n.N.N.N.N.N.N.B.B.B.B.B.B.B.B.A.B.A.A.A.A.A.A.S.D.D.D.D.D.D.D.D.D.D.D.D.D.D.D.A.A.A.B.B.B.B.N.N.n.n.n.v.v.v.v.v.v.v.v.l.l.l.l.l.l.l.l.h.h.h.f.f.f.f.f.p.p.u.u.u.u.r.w.w.w.9.9.6.6.6.6.6.3.3.3.<.<.,.<.<.:.:.=.=.=.=.=.=.=.=.=.&.&.&.&.&.@.@.$.$.@.@.@.@.@.@.@.@.o.@.o.o.@.o.o.o.o.o.o.o.o.o.o.o.o.o.X.X.X.o.o.X.o.o.o.o.o.o.o.o.o.o.o.o.X.o.X.X. . .{ { { [ [ ' _ _ / / W W W W T U I L L G D D Z M n x k d s y q 6 2 2 - - & & + X   !.!.!.!.!.!.!.!.!.!.!.!.!.!.!.!.!.!.!.!.!.!.!.!.!.!.!.!.!.!.!.!.!.!.!.!.!.!.!.!.!.!.!.!.!.!.!.!.!.!.!.!.!.!.!.!.!.!.!.!.!.!.!.!.!.!.!.!.!.!.!.!.!.!.!.!.!.!.!.!.!.!.",
"!.!.!.!.!.!.!.!.!.!.!.!.!.!.!.!.!.!.!.!.!.!.!.!.!.!.!.!.!.!.!.!.!.!.!.!.!.!.!.!.!.!.!.!.!.!.!.!.!.!.!.!.!.!.!.!.!.!.!.!.!.!.!.!.!.!.!.!.!.!.!.!.!.!.!.!.!.!.!.!.!.!.!.!.!.!.!.!.!.!.!.!.!.!.!.!.!.!.!.!.!.!.!.!.!.!.!.!.!.!.!.!.!.!.!.!.!.!.!.!.!.!.!.  X + + + @ $ & $ & - , , 2 6 q y s d z x M D G L U T W W W / / / _ ' ' [ [ { {  .o.o.o.o.@.@.&.&.&.&.&.=.=.=.:.:.<.,.<.<.<.3.5.5.6.6.6.9.9.9.9.9.w.r.r.u.u.p.p.f.f.f.h.h.h.l.l.v.v.v.N.B.B.B.A.S.D.D.A.S.A.A.A.A.A.B.B.N.N.n.n.n.v.v.l.l.v.l.l.l.l.l.l.l.l.h.h.h.h.h.h.h.h.f.f.f.f.f.f.f.s.f.f.f.f.f.f.f.f.f.f.f.f.h.h.h.h.l.l.l.l.v.v.v.v.n.N.n.N.N.N.N.B.B.B.N.B.B.B.B.B.B.B.A.A.A.A.A.A.A.S.D.D.D.D.D.D.D.D.D.D.D.D.D.S.A.A.B.B.B.B.B.N.N.N.N.v.n.n.v.v.v.v.v.v.v.v.l.l.l.l.l.l.l.l.l.h.f.f.f.f.f.p.p.p.u.u.u.r.r.w.9.9.9.9.9.6.6.6.5.3.3.<.<.<.<.:.:.=.=.=.=.=.=.=.=.=.=.&.&.&.&.&.&.&.@.@.@.$.$.@.$.@.@.@.@.@.@.@.@.@.@.@.@.o.o.@.o.o.@.o.o.o.o.o.o.@.o.o.o.o.o.@.@.@.o.o.o.o.o.o.o.X.X.X. . . .{ { [ ' _ / / / / W W W T U I L L H D D Z B N x k d s y q 8 6 , , - & & @ X X !.!.!.!.!.!.!.!.!.!.!.!.!.!.!.!.!.!.!.!.!.!.!.!.!.!.!.!.!.!.!.!.!.!.!.!.!.!.!.!.!.!.!.!.!.!.!.!.!.!.!.!.!.!.!.!.!.!.!.!.!.!.!.!.!.!.!.!.!.!.!.!.!.!.!.!.!.!.!.!.!.!.",
"!.!.!.!.!.!.!.!.!.!.!.!.!.!.!.!.!.!.!.!.!.!.!.!.!.!.!.!.!.!.!.!.!.!.!.!.!.!.!.!.!.!.!.!.!.!.!.!.!.!.!.!.!.!.!.!.!.!.!.!.!.!.!.!.!.!.!.!.!.!.!.!.!.!.!.!.!.!.!.!.!.!.!.!.!.!.!.!.!.!.!.!.!.!.!.!.!.!.!.!.!.!.!.!.!.!.!.!.!.!.!.!.!.!.!.!.!.!.!.!.!.!.  X @ @ @ @ + @ & & & - - , 2 6 e y s d k x B D G L U R W W W / / / / _ ' [ [ { {  . .o.o.o.@.@.&.&.&.&.&.=.=.=.=.:.<.<.<.<.<.3.3.5.5.6.6.6.9.9.9.9.w.r.r.u.u.p.p.s.f.f.h.h.h.l.l.l.v.v.N.B.B.A.A.D.D.D.D.D.A.S.A.A.B.B.B.B.N.N.n.v.v.v.l.l.l.l.l.l.l.l.l.h.l.h.h.h.h.h.h.f.f.f.h.f.f.s.s.p.s.p.s.s.p.s.p.s.p.f.f.f.f.f.h.h.l.l.l.l.l.v.v.v.v.n.n.n.N.n.N.N.N.N.B.N.B.B.B.B.B.B.B.B.B.A.A.A.A.A.S.D.S.D.D.D.D.D.D.D.D.D.D.D.A.A.B.B.B.B.B.N.N.N.N.N.n.N.v.v.v.v.v.v.v.v.v.v.l.v.l.l.l.l.l.l.h.h.h.h.f.f.f.s.p.p.u.u.u.r.r.r.9.w.9.9.9.6.6.6.6.3.3.3.<.<.<.<.:.:.=.=.=.=.=.=.=.=.&.&.&.&.&.&.&.$.@.@.@.@.$.$.$.$.@.@.@.@.$.$.$.@.@.@.@.@.@.@.@.@.@.@.o.@.o.o.@.@.@.@.@.@.@.@.@.@.@.o.o.o.o.o.o.o.o.X. . .{ { [ [ ' _ / / / W W W R U I L L H G D Z Z N n z d s i e 0 6 2 , , - & $ + X   !.!.!.!.!.!.!.!.!.!.!.!.!.!.!.!.!.!.!.!.!.!.!.!.!.!.!.!.!.!.!.!.!.!.!.!.!.!.!.!.!.!.!.!.!.!.!.!.!.!.!.!.!.!.!.!.!.!.!.!.!.!.!.!.!.!.!.!.!.!.!.!.!.!.!.!.!.!.!.!.!.",
"!.!.!.!.!.!.!.!.!.!.!.!.!.!.!.!.!.!.!.!.!.!.!.!.!.!.!.!.!.!.!.!.!.!.!.!.!.!.!.!.!.!.!.!.!.!.!.!.!.!.!.!.!.!.!.!.!.!.!.!.!.!.!.!.!.!.!.!.!.!.!.!.!.!.!.!.!.!.!.!.!.!.!.!.!.!.!.!.!.!.!.!.!.!.!.!.!.!.!.!.!.!.!.!.!.!.!.!.!.!.!.!.!.!.!.!.!.!.!.!.!.  X @ @ $ & $ @ & & & & - , , 2 6 0 y s d k x Z D G L U R ! W W / / / / _ _ ' [ { { {  .X.o.o.@.@.&.&.&.&.=.=.=.=.=.:.:.<.,.<.<.3.3.3.6.6.6.6.9.9.9.w.w.r.r.r.u.u.p.p.f.f.h.h.h.l.l.l.l.v.N.N.B.A.A.A.A.D.D.D.A.A.A.A.B.B.B.B.N.N.v.v.v.l.l.v.l.l.l.h.l.l.h.h.h.h.h.h.h.h.f.f.f.f.f.f.s.p.p.p.p.p.p.p.p.p.p.p.p.f.f.f.f.f.f.h.h.h.l.l.l.l.v.v.v.v.n.N.N.n.N.N.B.B.N.N.N.B.B.B.B.B.B.B.B.B.A.A.A.A.A.S.A.D.D.D.D.D.D.D.D.D.A.D.S.A.B.B.B.B.N.B.N.N.N.n.N.n.n.v.v.v.v.v.v.v.v.v.v.v.v.v.l.v.l.l.l.h.l.h.h.f.f.f.f.s.p.p.u.u.u.r.r.r.w.w.9.9.9.6.6.6.6.5.3.<.<.,.:.:.:.:.:.=.=.=.=.=.=.&.=.&.&.&.&.$.&.&.&.&.&.@.$.$.@.@.@.@.$.&.&.&.&.&.&.@.&.&.$.$.$.@.@.@.@.@.@.@.@.@.$.$.@.@.@.@.@.@.@.o.o.o.o.o.o.X.X. .{ { [ [ ' _ _ / / W W W W T I L L L G D Z Z M n x k d s y q 8 2 2 , - & & @ X   !.!.!.!.!.!.!.!.!.!.!.!.!.!.!.!.!.!.!.!.!.!.!.!.!.!.!.!.!.!.!.!.!.!.!.!.!.!.!.!.!.!.!.!.!.!.!.!.!.!.!.!.!.!.!.!.!.!.!.!.!.!.!.!.!.!.!.!.!.!.!.!.!.!.!.!.!.!.!.!.!.",
"!.!.!.!.!.!.!.!.!.!.!.!.!.!.!.!.!.!.!.!.!.!.!.!.!.!.!.!.!.!.!.!.!.!.!.!.!.!.!.!.!.!.!.!.!.!.!.!.!.!.!.!.!.!.!.!.!.!.!.!.!.!.!.!.!.!.!.!.!.!.!.!.!.!.!.!.!.!.!.!.!.!.!.!.!.!.!.!.!.!.!.!.!.!.!.!.!.!.!.!.!.!.!.!.!.!.!.!.!.!.!.!.!.!.!.!.!.!.!.!.  X @ $ & & & & & & & & - , , 2 6 8 e i s k z N Z D H L U T W W W W / / / _ _ ' [ [ {  . .X.o.@.@.&.&.&.&.&.&.&.=.=.=.:.:.:.<.<.<.<.3.3.6.6.6.6.9.9.9.w.w.r.r.u.u.p.p.f.f.f.f.h.h.h.l.l.v.v.n.N.B.B.B.A.S.D.D.D.D.D.A.A.A.B.B.N.N.N.n.n.v.v.l.l.l.l.l.l.h.h.l.h.h.h.h.h.h.f.f.f.f.f.f.p.p.p.p.p.u.u.u.p.u.p.u.p.p.p.p.f.f.f.f.f.h.h.l.l.l.l.v.v.v.v.v.n.n.n.n.N.N.N.n.N.N.N.N.N.B.N.B.B.B.B.B.A.B.A.A.A.A.A.A.A.D.A.S.A.D.A.S.A.A.A.B.B.B.B.B.N.N.N.N.n.n.n.n.n.v.v.v.n.n.n.v.v.v.v.v.v.v.v.l.v.l.l.l.l.h.h.h.f.f.f.s.p.p.u.u.u.u.u.r.r.w.9.9.9.9.6.6.6.6.3.3.<.<.,.:.:.:.:.:.:.=.=.=.=.&.&.&.&.&.&.&.&.&.&.&.=.&.$.&.&.&.&.&.&.&.=.&.&.&.&.&.=.&.&.&.@.@.@.$.@.$.@.@.@.@.&.@.@.@.@.$.@.@.@.o.o.o.o.o.X.o. .{ { [ [ ' _ _ / / W W W W R U L L H G D Z B M n x k d s y q 8 2 2 2 , - & & @ @   !.!.!.!.!.!.!.!.!.!.!.!.!.!.!.!.!.!.!.!.!.!.!.!.!.!.!.!.!.!.!.!.!.!.!.!.!.!.!.!.!.!.!.!.!.!.!.!.!.!.!.!.!.!.!.!.!.!.!.!.!.!.!.!.!.!.!.!.!.!.!.!.!.!.!.!.!.!.!.!.",
"!.!.!.!.!.!.!.!.!.!.!.!.!.!.!.!.!.!.!.!.!.!.!.!.!.!.!.!.!.!.!.!.!.!.!.!.!.!.!.!.!.!.!.!.!.!.!.!.!.!.!.!.!.!.!.!.!.!.!.!.!.!.!.!.!.!.!.!.!.!.!.!.!.!.!.!.!.!.!.!.!.!.!.!.!.!.!.!.!.!.!.!.!.!.!.!.!.!.!.!.!.!.!.!.!.!.!.!.!.!.!.!.!.!.!.!.!.!.!.!.X X @ & & & & & & & & & - , , 2 8 0 e s d z n M Z D G L U T W W W W / / _ / _ ' [ { {  . .o.o.@.@.@.&.&.&.&.&.&.=.=.=.=.:.:.,.,.<.<.<.3.3.6.6.6.9.9.w.w.w.r.r.u.u.u.p.p.s.s.f.f.h.h.l.l.l.v.v.N.B.B.B.A.S.D.D.D.D.A.A.A.B.B.B.B.B.N.v.v.v.v.l.l.l.l.l.h.l.h.l.h.h.h.h.h.h.h.f.f.f.s.p.p.p.p.u.u.u.u.u.u.u.u.p.u.p.p.p.p.p.f.f.f.h.h.h.l.l.v.l.l.v.v.v.v.n.n.N.n.n.N.N.n.n.n.n.n.N.N.B.B.B.B.B.A.B.A.B.A.A.A.A.A.A.A.A.A.A.A.A.A.A.B.B.B.B.B.N.N.N.n.n.n.N.n.n.v.v.v.n.n.n.N.n.n.N.n.N.n.n.v.v.v.v.l.l.l.h.h.h.f.f.f.f.s.p.p.p.u.u.u.u.u.r.r.w.9.9.9.9.6.6.5.3.3.<.<.,.,.<.:.:.:.=.=.=.=.=.=.&.&.&.&.&.&.&.&.=.=.=.&.&.&.&.&.&.=.=.=.=.=.&.&.=.=.=.&.&.&.@.&.$.&.&.&.@.&.@.&.&.&.@.&.@.@.@.@.o.o.o.o.o.o.X. . .{ { [ ' ' _ _ / / W W W W U I L H D D Z M N b k k d s y q 8 6 2 2 , - - & & @ X   !.!.!.!.!.!.!.!.!.!.!.!.!.!.!.!.!.!.!.!.!.!.!.!.!.!.!.!.!.!.!.!.!.!.!.!.!.!.!.!.!.!.!.!.!.!.!.!.!.!.!.!.!.!.!.!.!.!.!.!.!.!.!.!.!.!.!.!.!.!.!.!.!.!.!.!.!.!.!.",
"!.!.!.!.!.!.!.!.!.!.!.!.!.!.!.!.!.!.!.!.!.!.!.!.!.!.!.!.!.!.!.!.!.!.!.!.!.!.!.!.!.!.!.!.!.!.!.!.!.!.!.!.!.!.!.!.!.!.!.!.!.!.!.!.!.!.!.!.!.!.!.!.!.!.!.!.!.!.!.!.!.!.!.!.!.!.!.!.!.!.!.!.!.!.!.!.!.!.!.!.!.!.!.!.!.!.!.!.!.!.!.!.!.!.!.!.!.!.  X X @ & & & & & & - - - - - , 2 6 9 q y s k x N Z Z D L L U T W W W W W / / _ _ ' [ { {  . .X.o.@.@.$.$.$.&.@.&.&.&.=.=.=.=.:.:.,.,.<.<.3.3.6.6.6.9.6.9.w.w.w.r.u.u.u.p.p.p.s.f.f.h.h.l.l.l.l.v.n.N.B.B.A.A.S.D.S.D.D.A.A.A.B.B.B.N.N.v.v.v.v.v.l.l.l.l.l.h.l.h.h.h.h.h.h.h.f.f.f.f.s.p.p.p.u.u.u.u.u.u.u.u.u.u.u.u.u.p.p.p.s.f.f.f.h.h.l.l.l.l.v.l.v.v.v.v.v.v.n.v.v.v.n.n.v.n.n.N.N.N.B.N.B.B.B.B.A.A.A.A.B.A.B.A.A.A.A.A.A.B.A.B.B.A.B.B.B.N.N.N.N.n.n.n.n.v.n.v.n.n.N.n.N.n.N.N.N.N.n.N.n.n.v.v.v.v.l.l.l.h.h.h.h.h.f.f.s.p.p.p.p.u.u.u.u.r.r.w.9.9.9.6.6.5.3.3.<.<.<.<.,.:.:.:.=.=.:.=.=.=.=.=.=.&.&.&.=.=.=.=.=.=.=.=.=.=.=.=.=.=.=.=.=.=.=.=.=.&.&.&.@.&.&.&.&.&.&.&.&.&.@.&.@.$.@.@.@.o.o.o.o.o.o.X. . .{ { [ ' ' _ / / / ^ W W W Y I L H D D Z M x z k d d s y q 9 6 2 2 2 , - - & $ X   !.!.!.!.!.!.!.!.!.!.!.!.!.!.!.!.!.!.!.!.!.!.!.!.!.!.!.!.!.!.!.!.!.!.!.!.!.!.!.!.!.!.!.!.!.!.!.!.!.!.!.!.!.!.!.!.!.!.!.!.!.!.!.!.!.!.!.!.!.!.!.!.!.!.!.!.!.!.!.",
"!.!.!.!.!.!.!.!.!.!.!.!.!.!.!.!.!.!.!.!.!.!.!.!.!.!.!.!.!.!.!.!.!.!.!.!.!.!.!.!.!.!.!.!.!.!.!.!.!.!.!.!.!.!.!.!.!.!.!.!.!.!.!.!.!.!.!.!.!.!.!.!.!.!.!.!.!.!.!.!.!.!.!.!.!.!.!.!.!.!.!.!.!.!.!.!.!.!.!.!.!.!.!.!.!.!.!.!.!.!.!.!.!.!.!.!.!.  X @ @ & & - - - - & & - - , , , 2 6 9 y s d x n M Z D G L L I Y W W W W W / / _ _ ' [ { {  . .X.o.o.@.@.@.@.&.@.&.&.&.&.=.=.=.=.:.:.:.<.<.<.3.3.6.6.6.9.9.w.w.r.u.u.u.u.u.p.s.s.f.f.h.h.l.l.l.l.v.n.N.N.B.B.A.S.A.S.D.A.A.A.B.B.B.B.N.N.v.v.v.v.l.l.l.l.l.l.l.h.l.h.h.h.h.h.h.f.f.f.f.p.p.u.u.u.u.u.r.u.u.u.r.u.u.u.u.u.u.p.p.p.s.f.f.f.h.h.l.l.l.l.l.l.v.v.v.v.v.v.v.v.v.v.v.v.v.v.n.n.N.N.N.N.B.B.B.B.A.A.B.B.B.A.A.A.B.A.B.A.B.B.B.B.B.B.N.N.N.N.n.n.n.v.v.n.n.n.v.n.n.n.N.n.n.N.N.N.N.N.N.n.N.v.v.v.v.l.v.l.l.h.h.h.f.f.f.f.f.s.p.p.p.u.u.u.u.r.r.w.9.9.9.6.6.5.3.3.3.<.<.<.,.,.:.:.:.:.:.=.=.:.=.=.=.=.=.=.=.=.=.=.=.=.=.=.=.=.=.:.=.=.=.=.=.=.=.=.=.&.&.&.&.&.&.&.&.&.&.&.&.&.&.&.$.$.$.@.@.o.o.o.o.o.X.X. .{ { [ [ _ _ / / / / W W W T U L G D D Z M x z k d d s y q 9 6 6 2 2 2 , , - & + X   !.!.!.!.!.!.!.!.!.!.!.!.!.!.!.!.!.!.!.!.!.!.!.!.!.!.!.!.!.!.!.!.!.!.!.!.!.!.!.!.!.!.!.!.!.!.!.!.!.!.!.!.!.!.!.!.!.!.!.!.!.!.!.!.!.!.!.!.!.!.!.!.!.!.!.!.!.!.",
"!.!.!.!.!.!.!.!.!.!.!.!.!.!.!.!.!.!.!.!.!.!.!.!.!.!.!.!.!.!.!.!.!.!.!.!.!.!.!.!.!.!.!.!.!.!.!.!.!.!.!.!.!.!.!.!.!.!.!.!.!.!.!.!.!.!.!.!.!.!.!.!.!.!.!.!.!.!.!.!.!.!.!.!.!.!.!.!.!.!.!.!.!.!.!.!.!.!.!.!.!.!.!.!.!.!.!.!.!.!.!.!.!.!.!.!.!.  X @ $ & & - - - - ; - , , , 2 2 6 8 q y d k x M B Z D H L I U Y R W W W W / / / _ ' [ {  . .o.o.o.@.@.@.$.$.$.$.&.&.&.&.=.=.=.=.=.=.:.<.,.<.3.3.5.6.6.9.9.w.r.r.u.u.u.u.u.p.s.s.f.f.h.h.l.l.l.l.v.n.N.B.B.B.A.A.A.A.A.A.B.B.B.B.B.N.N.N.v.v.l.l.v.l.l.l.l.h.h.h.l.h.h.h.h.h.f.f.f.f.p.p.p.u.u.u.r.r.r.r.r.r.r.r.r.u.r.u.u.u.p.p.p.p.f.f.h.h.h.l.l.l.v.l.v.v.v.v.v.v.v.v.v.v.v.v.v.v.v.n.N.N.N.N.N.B.B.B.B.B.B.B.B.B.B.B.B.B.B.B.B.B.B.B.B.B.N.N.N.v.v.n.v.n.v.v.n.v.v.n.N.n.N.N.N.N.N.B.N.N.N.N.N.N.n.n.v.l.l.l.l.h.h.h.h.h.f.f.f.f.f.s.p.p.p.u.u.u.u.r.w.w.9.9.6.6.6.3.5.3.3.<.<.<.,.,.,.<.:.:.:.=.=.=.=.=.=.=.=.=.=.=.:.:.=.=.:.:.:.:.:.:.:.:.:.=.=.=.=.=.=.=.=.&.&.=.&.&.&.&.=.&.&.&.@.@.$.$.@.@.o.o.o.o.o. . . .{ { [ _ _ / / / W W W W T U L H D D Z M b k d d s i y q 0 8 6 6 6 2 2 , - & @ X X   !.!.!.!.!.!.!.!.!.!.!.!.!.!.!.!.!.!.!.!.!.!.!.!.!.!.!.!.!.!.!.!.!.!.!.!.!.!.!.!.!.!.!.!.!.!.!.!.!.!.!.!.!.!.!.!.!.!.!.!.!.!.!.!.!.!.!.!.!.!.!.!.!.!.!.!.!.",
"!.!.!.!.!.!.!.!.!.!.!.!.!.!.!.!.!.!.!.!.!.!.!.!.!.!.!.!.!.!.!.!.!.!.!.!.!.!.!.!.!.!.!.!.!.!.!.!.!.!.!.!.!.!.!.!.!.!.!.!.!.!.!.!.!.!.!.!.!.!.!.!.!.!.!.!.!.!.!.!.!.!.!.!.!.!.!.!.!.!.!.!.!.!.!.!.!.!.!.!.!.!.!.!.!.!.!.!.!.!.!.!.!.!.!.!.  X X + $ & - , , , , , , , 2 2 2 6 8 e e i d k n M Z Z D H L I U U R W W W W W / / _ ' [ { {  .o.o.o.@.@.@.$.$.@.&.@.&.&.&.=.=.=.=.=.=.:.:.,.<.<.3.5.6.6.9.9.w.r.r.u.u.u.u.u.p.p.s.f.f.h.h.l.l.l.l.v.v.n.B.B.B.B.A.B.A.B.B.B.B.B.B.N.N.N.N.v.v.l.l.l.l.l.l.l.l.l.l.h.h.h.h.h.f.f.f.f.s.p.p.u.u.u.r.r.r.r.w.r.r.r.r.w.r.r.r.u.u.u.u.p.p.s.f.f.f.h.h.h.l.l.l.l.l.v.v.v.v.v.v.v.v.l.v.v.v.v.v.v.n.n.N.N.N.N.B.B.B.B.B.B.B.B.B.B.B.B.B.B.B.B.B.B.B.N.N.N.v.n.v.v.v.n.n.v.v.n.N.n.N.N.N.N.N.N.B.N.B.N.N.N.n.n.n.v.v.l.l.l.l.l.l.h.h.h.f.f.f.f.f.s.s.p.p.p.p.u.u.u.r.w.9.9.6.6.6.6.5.3.3.<.<.<.,.,.<.,.,.:.:.:.=.=.:.=.=.=.:.=.:.:.:.:.:.:.:.,.,.<.,.,.:.:.:.:.:.:.=.=.=.=.=.=.=.=.=.&.&.&.&.&.&.&.@.$.$.@.@.@.@.o.o.o.o. . .{ { [ ' _ / / / W W W W R U L H D D Z B b k d d s y e e 0 9 8 6 6 6 2 2 , - & @ X X   !.!.!.!.!.!.!.!.!.!.!.!.!.!.!.!.!.!.!.!.!.!.!.!.!.!.!.!.!.!.!.!.!.!.!.!.!.!.!.!.!.!.!.!.!.!.!.!.!.!.!.!.!.!.!.!.!.!.!.!.!.!.!.!.!.!.!.!.!.!.!.!.!.!.!.!.",
"!.!.!.!.!.!.!.!.!.!.!.!.!.!.!.!.!.!.!.!.!.!.!.!.!.!.!.!.!.!.!.!.!.!.!.!.!.!.!.!.!.!.!.!.!.!.!.!.!.!.!.!.!.!.!.!.!.!.!.!.!.!.!.!.!.!.!.!.!.!.!.!.!.!.!.!.!.!.!.!.!.!.!.!.!.!.!.!.!.!.!.!.!.!.!.!.!.!.!.!.!.!.!.!.!.!.!.!.!.!.!.!.!.!.!.!.X @ + $ & - - , , , , , , 2 2 6 6 8 8 q y s k z n Z Z D D G L I U Y R W W W W W / / _ ' [ { {  . .o.o.@.@.$.$.&.&.@.&.&.&.&.=.=.=.=.=.=.=.:.,.<.<.3.5.6.6.9.9.w.r.r.u.u.u.u.u.p.p.p.f.f.f.h.l.l.l.l.v.v.n.B.B.B.B.B.A.B.B.B.B.B.B.B.N.N.N.n.v.v.l.l.l.l.l.l.l.l.l.h.l.h.h.h.h.f.f.f.s.p.p.p.u.u.r.r.r.r.w.w.w.w.w.w.w.w.r.w.r.r.u.u.u.p.p.s.f.f.f.h.h.l.l.l.l.l.v.l.v.v.l.v.l.l.l.l.l.v.l.v.v.v.n.N.N.N.N.B.B.B.B.B.B.B.B.B.B.B.B.B.B.B.B.B.N.N.N.n.n.v.v.v.v.v.v.v.n.n.n.N.N.N.N.N.N.B.N.B.B.B.N.N.N.N.N.n.v.v.l.l.l.l.l.l.l.h.h.h.h.f.f.f.f.f.f.p.p.p.p.p.u.u.u.r.w.9.9.6.6.6.5.3.3.3.<.<.<.<.<.,.,.:.:.:.=.:.:.:.:.:.:.:.,.<.,.,.:.,.<.<.<.<.,.<.,.:.:.:.:.=.=.=.=.=.=.=.=.=.&.&.&.&.&.&.&.&.$.@.@.@.@.o.o.o.o.o. . .{ { [ ' _ _ / / W W W W T U L H D D Z M n k d s i y y e q q 0 8 6 6 2 2 , - & @ @ X X   !.!.!.!.!.!.!.!.!.!.!.!.!.!.!.!.!.!.!.!.!.!.!.!.!.!.!.!.!.!.!.!.!.!.!.!.!.!.!.!.!.!.!.!.!.!.!.!.!.!.!.!.!.!.!.!.!.!.!.!.!.!.!.!.!.!.!.!.!.!.!.!.!.!.!.",
"!.!.!.!.!.!.!.!.!.!.!.!.!.!.!.!.!.!.!.!.!.!.!.!.!.!.!.!.!.!.!.!.!.!.!.!.!.!.!.!.!.!.!.!.!.!.!.!.!.!.!.!.!.!.!.!.!.!.!.!.!.!.!.!.!.!.!.!.!.!.!.!.!.!.!.!.!.!.!.!.!.!.!.!.!.!.!.!.!.!.!.!.!.!.!.!.!.!.!.!.!.!.!.!.!.!.!.!.!.!.!.!.!.!.!.  @ @ & & & - , , , , , , 2 2 6 6 6 8 q e i d k x M Z Z D G G L I U Y R W W W W W / / _ ' [ [ {  . .o.o.@.@.@.@.$.&.&.&.&.&.&.=.=.=.=.=.=.=.=.:.,.<.3.3.6.6.9.9.w.r.r.r.u.u.u.u.u.p.p.s.f.h.h.h.l.l.l.v.v.N.N.B.B.B.B.B.B.B.B.B.B.B.N.N.N.n.n.v.v.l.l.l.l.l.l.l.l.l.l.h.h.h.h.h.f.f.f.s.p.p.u.u.u.r.r.w.w.w.9.9.9.9.w.w.9.w.w.r.r.r.u.u.u.p.p.s.f.f.f.h.h.h.l.l.l.l.l.l.l.l.v.l.l.l.l.v.v.v.v.v.v.v.n.N.N.N.N.B.B.B.B.B.B.B.B.B.N.N.N.B.N.B.B.N.N.n.n.n.v.v.v.v.v.v.n.N.v.N.N.N.N.N.N.B.B.B.B.B.B.B.B.N.N.N.N.v.v.v.v.l.l.l.l.l.l.l.l.h.h.h.f.f.f.f.f.f.s.p.p.p.p.u.r.r.9.9.9.6.6.6.6.5.3.3.<.3.<.<.<.<.:.:.:.:.:.:.:.:.,.,.<.<.<.<.<.<.<.<.<.<.<.<.<.<.<.:.,.:.:.=.=.=.=.=.=.=.=.=.=.&.&.&.&.&.&.$.$.@.@.@.o.o.o.o.o. .{ { { [ ' _ _ / / ^ W W W R U I L G D Z M x k d s s y y e e q 0 9 9 6 6 2 , , - & @ + @ X   !.!.!.!.!.!.!.!.!.!.!.!.!.!.!.!.!.!.!.!.!.!.!.!.!.!.!.!.!.!.!.!.!.!.!.!.!.!.!.!.!.!.!.!.!.!.!.!.!.!.!.!.!.!.!.!.!.!.!.!.!.!.!.!.!.!.!.!.!.!.!.!.!.!.",
"!.!.!.!.!.!.!.!.!.!.!.!.!.!.!.!.!.!.!.!.!.!.!.!.!.!.!.!.!.!.!.!.!.!.!.!.!.!.!.!.!.!.!.!.!.!.!.!.!.!.!.!.!.!.!.!.!.!.!.!.!.!.!.!.!.!.!.!.!.!.!.!.!.!.!.!.!.!.!.!.!.!.!.!.!.!.!.!.!.!.!.!.!.!.!.!.!.!.!.!.!.!.!.!.!.!.!.!.!.!.!.!.!.!.  X + & & - - , , , , 2 , 2 2 6 6 9 9 9 e y s k x n B Z D D G G H L U R W W W W W W / / _ ' [ [ {  . .X.o.o.@.@.@.@.@.$.&.&.&.&.&.&.&.&.&.=.=.=.:.,.<.3.3.6.6.6.9.9.w.r.r.r.r.u.u.u.p.p.s.f.h.h.l.l.l.v.v.n.N.N.N.B.B.B.B.B.B.B.B.N.N.N.N.N.n.n.v.v.v.l.v.l.l.l.l.l.h.l.h.h.h.h.h.f.f.s.p.p.u.u.u.r.r.w.w.9.9.9.9.9.9.9.9.9.9.9.w.w.r.r.u.u.p.p.p.f.f.f.h.h.h.l.l.l.l.l.l.l.l.l.l.l.l.l.l.l.l.l.v.v.v.n.n.N.N.N.N.N.N.B.N.B.N.N.N.N.N.N.N.N.N.N.N.N.n.n.v.n.v.v.v.v.v.n.n.n.N.N.N.N.N.B.B.B.B.B.B.B.B.B.B.B.n.N.v.v.v.v.l.v.l.l.v.l.l.l.h.h.h.h.h.f.f.f.f.f.f.p.s.p.u.u.r.r.w.9.9.9.6.6.6.6.5.3.3.3.3.<.,.,.:.:.:.,.,.,.<.,.<.<.<.<.<.<.3.3.3.3.3.<.<.<.<.<.<.<.:.:.:.=.=.=.=.=.=.=.&.&.&.&.&.&.@.&.$.@.@.@.@.o.o.X.X. . .{ { { [ ' _ _ / / W W W W W Y I L G D Z M x k d d s y y e e q 0 q 9 8 6 2 2 , - - & & @ @ X   !.!.!.!.!.!.!.!.!.!.!.!.!.!.!.!.!.!.!.!.!.!.!.!.!.!.!.!.!.!.!.!.!.!.!.!.!.!.!.!.!.!.!.!.!.!.!.!.!.!.!.!.!.!.!.!.!.!.!.!.!.!.!.!.!.!.!.!.!.!.!.!.!.",
"!.!.!.!.!.!.!.!.!.!.!.!.!.!.!.!.!.!.!.!.!.!.!.!.!.!.!.!.!.!.!.!.!.!.!.!.!.!.!.!.!.!.!.!.!.!.!.!.!.!.!.!.!.!.!.!.!.!.!.!.!.!.!.!.!.!.!.!.!.!.!.!.!.!.!.!.!.!.!.!.!.!.!.!.!.!.!.!.!.!.!.!.!.!.!.!.!.!.!.!.!.!.!.!.!.!.!.!.!.!.!.!.!.  X + & - & & - , , 2 2 2 2 2 6 6 8 0 q e y s d k x n M Z D D G G H L U T W W W W W W / / / _ [ [ {  . .o.o.o.@.@.@.@.$.@.$.&.@.&.&.&.&.&.&.=.=.=.:.,.<.3.3.3.6.6.9.9.9.r.r.r.r.r.u.u.p.p.s.f.h.h.l.l.l.v.v.n.n.N.N.N.B.N.B.B.B.B.N.N.N.N.N.n.v.v.v.v.v.l.l.l.l.l.l.l.h.l.l.h.h.f.h.f.f.p.p.p.u.u.u.r.w.w.9.9.9.9.9.9.9.9.6.9.9.9.9.9.w.w.r.u.u.u.p.p.s.f.f.h.h.h.l.l.l.l.l.l.l.l.l.l.l.l.l.l.l.v.l.v.v.v.n.N.n.N.N.N.N.N.N.N.N.N.N.N.N.N.N.N.N.N.N.n.n.v.n.n.v.v.v.v.v.n.N.N.n.N.N.N.B.B.N.B.B.B.B.B.B.B.B.N.N.N.n.v.v.v.v.v.l.v.l.v.l.l.l.l.h.h.h.h.h.h.h.f.f.f.s.p.p.u.u.r.r.w.w.9.9.9.6.6.6.6.6.3.3.3.<.<.<.,.,.<.<.<.<.<.<.3.<.3.3.3.5.5.5.5.3.3.<.<.<.<.<.<.<.,.:.:.=.=.=.=.=.=.&.&.&.&.&.@.&.@.@.@.@.@.o.o.o.o. . . .{ { { [ [ ' _ / / / W W W W R U L L D Z M b k k d s i y y e e q 0 q 0 6 6 2 2 , - - & & @ X     !.!.!.!.!.!.!.!.!.!.!.!.!.!.!.!.!.!.!.!.!.!.!.!.!.!.!.!.!.!.!.!.!.!.!.!.!.!.!.!.!.!.!.!.!.!.!.!.!.!.!.!.!.!.!.!.!.!.!.!.!.!.!.!.!.!.!.!.!.!.!.!.",
"!.!.!.!.!.!.!.!.!.!.!.!.!.!.!.!.!.!.!.!.!.!.!.!.!.!.!.!.!.!.!.!.!.!.!.!.!.!.!.!.!.!.!.!.!.!.!.!.!.!.!.!.!.!.!.!.!.!.!.!.!.!.!.!.!.!.!.!.!.!.!.!.!.!.!.!.!.!.!.!.!.!.!.!.!.!.!.!.!.!.!.!.!.!.!.!.!.!.!.!.!.!.!.!.!.!.!.!.!.!.!.!.!.X + & - - - - - , , 2 2 2 6 6 6 6 8 0 e e i d d k z x N Z D D D D H L U T W W W W W W / / / _ ' [ { {  .o.o.o.@.@.@.@.@.@.$.$.&.@.&.@.&.&.&.=.=.:.:.<.<.<.3.3.5.6.6.6.9.9.w.r.r.r.u.u.p.p.s.f.h.h.l.l.l.l.v.v.v.N.N.N.B.N.B.B.B.N.N.N.N.N.n.v.n.v.v.v.l.l.v.l.l.l.l.h.l.h.h.h.f.f.f.f.s.p.p.u.u.u.r.r.w.9.9.9.9.6.6.6.6.6.6.6.6.9.9.9.w.9.r.r.u.u.u.p.s.f.f.f.h.h.h.h.l.h.l.h.l.h.l.h.l.l.l.l.l.l.l.v.v.v.v.N.n.N.N.N.N.N.N.N.N.N.n.N.N.N.N.N.N.N.N.n.v.n.n.v.v.v.v.v.v.n.n.N.N.N.N.N.N.B.B.B.B.B.B.B.B.B.B.B.N.N.n.v.v.v.v.v.v.v.v.l.l.l.l.l.l.h.h.h.l.h.h.h.h.f.f.s.p.p.u.u.u.r.w.w.w.9.9.9.6.6.6.5.3.3.3.<.<.<.<.<.<.3.3.3.3.3.3.3.5.6.6.6.6.6.6.3.3.3.3.<.<.<.<.<.,.:.:.=.=.=.=.=.=.&.&.&.&.@.@.@.@.@.@.@.o.o.X.X. . .{ { { { [ ' ' _ / / / W W W W W U I L D Z M x k d d s i y y e e q q q 0 9 8 6 2 , , - - & & @ X     !.!.!.!.!.!.!.!.!.!.!.!.!.!.!.!.!.!.!.!.!.!.!.!.!.!.!.!.!.!.!.!.!.!.!.!.!.!.!.!.!.!.!.!.!.!.!.!.!.!.!.!.!.!.!.!.!.!.!.!.!.!.!.!.!.!.!.!.!.!.!.",
"!.!.!.!.!.!.!.!.!.!.!.!.!.!.!.!.!.!.!.!.!.!.!.!.!.!.!.!.!.!.!.!.!.!.!.!.!.!.!.!.!.!.!.!.!.!.!.!.!.!.!.!.!.!.!.!.!.!.!.!.!.!.!.!.!.!.!.!.!.!.!.!.!.!.!.!.!.!.!.!.!.!.!.!.!.!.!.!.!.!.!.!.!.!.!.!.!.!.!.!.!.!.!.!.!.!.!.!.!.!.!.!.!.X @ & - - - - , , , 2 2 6 6 6 6 8 0 q y y s d k k z x N Z D D D G H L U T R W W W W W / / _ _ ' [ {  . .X.o.o.o.o.@.@.@.$.@.@.&.@.&.&.&.&.&.=.=.:.:.:.,.<.<.3.5.6.6.9.9.9.w.r.r.r.u.u.p.p.s.f.h.h.h.l.l.l.l.v.v.v.N.N.B.B.B.B.N.N.N.N.N.N.N.n.v.v.v.v.l.l.v.l.l.l.h.l.h.h.h.h.f.f.f.f.p.p.p.u.u.u.r.w.9.9.9.9.6.6.6.6.6.6.6.6.6.6.6.9.9.w.w.r.r.u.u.p.p.p.f.f.f.h.h.h.h.h.h.h.h.h.h.h.h.h.l.l.l.l.l.l.v.v.v.n.n.n.N.n.n.N.n.N.N.n.N.n.n.n.n.N.n.N.n.n.n.n.v.n.n.v.n.n.v.v.N.N.N.N.N.N.B.N.B.B.B.B.B.B.B.B.N.N.N.n.n.v.v.v.v.v.v.v.v.l.v.l.l.l.l.l.l.l.l.l.h.h.h.h.f.f.s.p.p.p.u.u.r.r.w.w.w.9.9.9.6.6.6.6.3.3.3.<.3.3.3.3.3.3.3.5.5.6.6.6.6.9.6.6.6.5.3.3.3.3.<.<.<.,.,.:.:.:.=.=.=.=.&.&.&.&.@.@.@.@.@.@.@.o.o.X.X. . . .{ { { { [ [ ' _ _ / / ! W W W W U I H D Z M b k d d s i y y e e q q q 0 0 9 8 6 2 , , , - & & + X     !.!.!.!.!.!.!.!.!.!.!.!.!.!.!.!.!.!.!.!.!.!.!.!.!.!.!.!.!.!.!.!.!.!.!.!.!.!.!.!.!.!.!.!.!.!.!.!.!.!.!.!.!.!.!.!.!.!.!.!.!.!.!.!.!.!.!.!.!.!.",
"!.!.!.!.!.!.!.!.!.!.!.!.!.!.!.!.!.!.!.!.!.!.!.!.!.!.!.!.!.!.!.!.!.!.!.!.!.!.!.!.!.!.!.!.!.!.!.!.!.!.!.!.!.!.!.!.!.!.!.!.!.!.!.!.!.!.!.!.!.!.!.!.!.!.!.!.!.!.!.!.!.!.!.!.!.!.!.!.!.!.!.!.!.!.!.!.!.!.!.!.!.!.!.!.!.!.!.!.!.!.!.!.!.X + & - - , , , , 2 2 2 2 6 6 8 9 q y y s s d k k x x M Z Z D D G G L I U T R W W W W W / / _ [ [ { {  .X.X.o.o.@.@.@.@.@.@.@.@.@.&.@.&.&.&.=.=.:.:.:.,.<.<.3.3.6.6.6.9.9.w.w.r.r.u.u.p.s.f.f.h.h.h.l.l.l.l.v.v.n.N.N.N.B.N.B.N.N.N.N.N.n.n.n.v.v.l.l.l.l.l.l.l.l.l.h.h.h.h.h.f.f.f.s.p.p.p.u.u.r.r.w.9.9.9.9.6.6.6.6.6.6.6.6.6.6.6.6.6.9.9.w.r.r.u.u.u.p.p.s.f.f.f.f.h.h.h.h.h.h.h.h.h.h.l.l.l.l.l.l.v.v.v.v.v.n.n.n.n.n.N.n.N.n.N.n.n.n.N.v.N.N.N.N.n.N.n.n.v.v.v.v.v.n.n.n.N.N.N.N.N.N.B.B.B.B.B.N.B.B.N.N.n.N.N.n.v.v.v.v.v.v.v.v.v.v.v.v.v.l.l.l.l.l.l.h.l.h.f.f.f.f.p.p.u.u.u.u.r.r.w.w.w.9.9.6.6.6.6.6.5.5.3.5.6.6.6.6.6.6.6.6.6.9.9.9.9.9.6.6.6.5.3.3.3.3.<.<.<.,.:.=.=.=.=.=.&.&.&.&.&.@.@.@.@.o.o.o.o.X.X. . .{ { { { { [ [ ' _ _ / / / ^ W W W U L H D Z M x k k d s s i y e y e e q q 0 9 8 6 2 2 , , - & & & @ X   !.!.!.!.!.!.!.!.!.!.!.!.!.!.!.!.!.!.!.!.!.!.!.!.!.!.!.!.!.!.!.!.!.!.!.!.!.!.!.!.!.!.!.!.!.!.!.!.!.!.!.!.!.!.!.!.!.!.!.!.!.!.!.!.!.!.!.!.!.!.",
"!.!.!.!.!.!.!.!.!.!.!.!.!.!.!.!.!.!.!.!.!.!.!.!.!.!.!.!.!.!.!.!.!.!.!.!.!.!.!.!.!.!.!.!.!.!.!.!.!.!.!.!.!.!.!.!.!.!.!.!.!.!.!.!.!.!.!.!.!.!.!.!.!.!.!.!.!.!.!.!.!.!.!.!.!.!.!.!.!.!.!.!.!.!.!.!.!.!.!.!.!.!.!.!.!.!.!.!.!.!.!.!.!.X @ & - , , 2 2 2 2 2 6 6 6 0 0 q e y s s d k k k x x x N B Z Z D G L I Y Y R W W W W ^ / _ _ ' [ { {  . .X.o.o.o.@.@.@.@.$.@.&.&.@.&.&.&.=.=.=.:.:.:.<.<.<.3.3.6.6.6.9.9.9.w.w.r.u.u.p.p.s.f.f.h.h.l.l.l.l.v.v.v.n.N.N.N.N.B.B.B.N.N.N.N.n.n.v.v.l.l.v.l.l.l.l.l.h.l.h.h.h.f.f.f.f.s.p.p.u.u.u.r.w.w.9.9.6.9.6.6.6.3.5.5.5.6.6.6.6.6.6.9.9.w.w.r.r.r.u.u.p.p.s.f.f.f.f.f.h.h.h.h.h.h.h.h.h.l.l.l.v.v.v.v.v.v.v.n.n.n.v.n.n.n.v.n.n.v.n.n.N.v.n.N.N.N.N.n.n.n.v.v.v.n.n.n.n.N.N.N.N.N.N.B.B.B.B.B.B.B.B.N.N.N.N.N.N.n.n.n.v.v.v.v.v.v.v.v.l.v.v.v.l.l.l.l.l.l.h.h.h.f.f.f.f.p.p.p.u.u.u.r.r.r.w.w.9.9.9.9.9.6.6.6.6.6.6.6.6.6.6.6.6.6.9.9.9.9.9.9.9.6.6.6.6.5.3.3.<.<.<.,.:.:.=.=.=.=.=.&.&.&.$.@.@.@.o.o.o.o.o. . . . .{ { { { { [ [ ' _ _ _ / / W W W W Y I H D Z Z n x k k d s s y y y e e q q 0 0 8 6 6 2 2 , , - & & @ X X   !.!.!.!.!.!.!.!.!.!.!.!.!.!.!.!.!.!.!.!.!.!.!.!.!.!.!.!.!.!.!.!.!.!.!.!.!.!.!.!.!.!.!.!.!.!.!.!.!.!.!.!.!.!.!.!.!.!.!.!.!.!.!.!.!.!.!.!.!.",
"!.!.!.!.!.!.!.!.!.!.!.!.!.!.!.!.!.!.!.!.!.!.!.!.!.!.!.!.!.!.!.!.!.!.!.!.!.!.!.!.!.!.!.!.!.!.!.!.!.!.!.!.!.!.!.!.!.!.!.!.!.!.!.!.!.!.!.!.!.!.!.!.!.!.!.!.!.!.!.!.!.!.!.!.!.!.!.!.!.!.!.!.!.!.!.!.!.!.!.!.!.!.!.!.!.!.!.!.!.!.!.!.!.X @ & - , 2 2 2 6 6 2 6 8 9 e q e y s s s d k z k x x x n M Z Z Z D H L I U R W W ! W W / / _ ' [ { { {  .X.X.o.o.o.@.@.@.@.$.@.@.@.@.&.&.=.=.=.:.:.:.,.,.<.3.3.6.6.6.9.9.9.9.w.r.u.u.p.p.s.f.f.h.l.l.l.l.l.v.v.v.n.N.N.N.B.N.N.B.N.N.N.N.n.n.v.v.v.l.l.l.l.l.h.l.l.h.h.h.h.f.f.f.s.p.p.p.u.u.u.r.w.9.9.9.6.6.6.6.5.3.3.3.3.3.3.5.6.6.6.6.9.9.9.w.r.r.r.u.u.p.p.p.f.f.f.f.f.h.h.h.h.h.h.h.h.l.l.l.l.v.v.v.v.v.v.v.v.n.v.n.v.n.n.n.v.n.n.n.v.N.N.N.N.N.N.N.v.n.n.n.v.v.v.v.n.N.N.N.N.N.N.B.B.B.B.B.B.B.N.B.N.N.N.n.N.n.n.v.v.v.v.v.v.v.v.v.v.v.v.v.v.v.l.l.l.l.l.h.h.h.h.f.f.f.p.p.p.u.u.r.r.r.r.w.w.9.9.9.9.6.9.6.6.9.9.9.9.9.9.6.9.9.9.9.9.9.9.9.9.6.6.6.6.6.5.3.3.<.<.,.:.:.:.=.=.=.&.&.&.&.$.$.@.@.o.o.o.X.o. . . . .{ {  .{ { [ [ [ _ _ / / / / W W W T I L D D Z M x z k k d s s i y y y e e q 0 9 8 6 2 2 2 , - - & $ @ X   !.!.!.!.!.!.!.!.!.!.!.!.!.!.!.!.!.!.!.!.!.!.!.!.!.!.!.!.!.!.!.!.!.!.!.!.!.!.!.!.!.!.!.!.!.!.!.!.!.!.!.!.!.!.!.!.!.!.!.!.!.!.!.!.!.!.!.!.!.",
"!.!.!.!.!.!.!.!.!.!.!.!.!.!.!.!.!.!.!.!.!.!.!.!.!.!.!.!.!.!.!.!.!.!.!.!.!.!.!.!.!.!.!.!.!.!.!.!.!.!.!.!.!.!.!.!.!.!.!.!.!.!.!.!.!.!.!.!.!.!.!.!.!.!.!.!.!.!.!.!.!.!.!.!.!.!.!.!.!.!.!.!.!.!.!.!.!.!.!.!.!.!.!.!.!.!.!.!.!.!.!.!.  X + & - , 2 2 6 6 8 8 8 9 q y y y i s s d d k k z b x x x B M M Z Z D H L I Y W W W W W / / _ ' ' [ { {  . .X.X.X.o.o.@.@.$.@.@.@.@.@.&.&.=.=.=.:.:.:.:.,.<.<.3.5.6.6.6.9.9.9.r.u.u.p.p.s.s.f.f.h.h.l.l.l.v.v.v.v.N.N.N.B.N.N.B.N.N.N.n.N.v.v.v.l.l.l.l.l.l.l.l.l.h.h.h.h.h.h.f.f.s.p.p.u.u.u.r.r.9.9.9.6.6.6.6.5.3.3.3.3.3.3.3.3.5.6.6.6.6.6.9.9.9.w.w.r.u.u.u.p.p.s.f.f.f.f.h.h.h.h.h.h.h.h.l.l.l.l.l.v.v.v.v.v.v.v.v.v.n.n.v.n.n.n.n.n.N.N.N.N.N.N.N.N.N.N.n.n.n.n.n.n.N.N.n.N.N.N.N.N.B.B.B.B.B.B.N.N.N.N.N.N.n.N.n.v.v.n.v.v.v.v.v.v.v.v.v.v.v.v.l.l.l.l.l.l.h.h.h.h.f.f.f.p.p.p.u.u.u.r.r.w.w.w.w.9.9.9.9.9.9.9.w.9.w.9.w.9.w.9.w.w.9.w.9.9.9.9.6.6.6.6.6.5.3.3.<.,.<.:.:.=.=.=.&.&.&.&.$.@.@.o.o.o.o.o.o. . . . . .{ { { { [ [ ' ' _ / / / / W W W R U L G D Z Z N x k k k d s s i y y y e q q 9 6 6 2 2 2 2 , - & & + X   !.!.!.!.!.!.!.!.!.!.!.!.!.!.!.!.!.!.!.!.!.!.!.!.!.!.!.!.!.!.!.!.!.!.!.!.!.!.!.!.!.!.!.!.!.!.!.!.!.!.!.!.!.!.!.!.!.!.!.!.!.!.!.!.!.!.!.!.!.",
"!.!.!.!.!.!.!.!.!.!.!.!.!.!.!.!.!.!.!.!.!.!.!.!.!.!.!.!.!.!.!.!.!.!.!.!.!.!.!.!.!.!.!.!.!.!.!.!.!.!.!.!.!.!.!.!.!.!.!.!.!.!.!.!.!.!.!.!.!.!.!.!.!.!.!.!.!.!.!.!.!.!.!.!.!.!.!.!.!.!.!.!.!.!.!.!.!.!.!.!.!.!.!.!.!.!.!.!.!.!.!.!.!.X $ & - , 2 2 6 8 9 9 8 0 q e i s s s d d d k x x n n x n x N N N Z D G L L U R W W W W / / _ ' ' [ { { {  . .X.X.X.o.o.@.@.@.@.@.@.&.&.&.&.=.=.=.:.:.:.,.<.3.3.6.6.6.6.6.w.w.r.u.u.p.p.s.f.f.f.h.h.l.l.l.l.v.v.v.v.N.n.N.N.B.B.N.N.N.N.n.n.v.v.l.v.l.l.l.l.l.h.h.h.h.h.f.f.f.f.f.s.p.p.p.u.u.r.w.9.9.9.6.6.6.5.3.3.3.3.3.<.3.3.3.3.3.6.6.6.6.9.9.9.9.w.w.r.r.u.u.p.p.p.p.f.f.f.f.f.f.h.h.h.l.h.l.l.l.l.v.v.v.v.v.v.v.n.v.v.v.n.v.n.v.n.v.N.N.N.N.N.N.N.N.N.N.N.N.n.N.N.N.N.N.N.N.N.N.B.B.B.B.B.B.B.N.B.B.B.B.N.N.N.n.N.n.n.v.v.v.v.v.v.v.v.v.v.v.v.v.l.v.l.l.l.l.l.h.h.h.h.f.f.f.s.p.p.u.u.u.r.r.r.r.w.w.w.w.w.w.w.w.r.w.r.w.9.w.w.w.w.r.w.w.9.9.9.9.9.9.9.9.6.6.5.3.<.<.<.:.:.:.=.=.=.&.&.@.$.@.@.@.o.o.o.X.X. . . . . .{ { { { [ [ [ ' ' _ / / / W W W W T I L G D Z M n x z k d d s s i y y q q q 9 6 6 2 2 2 , , - & & + X   !.!.!.!.!.!.!.!.!.!.!.!.!.!.!.!.!.!.!.!.!.!.!.!.!.!.!.!.!.!.!.!.!.!.!.!.!.!.!.!.!.!.!.!.!.!.!.!.!.!.!.!.!.!.!.!.!.!.!.!.!.!.!.!.!.!.!.!.!.",
"!.!.!.!.!.!.!.!.!.!.!.!.!.!.!.!.!.!.!.!.!.!.!.!.!.!.!.!.!.!.!.!.!.!.!.!.!.!.!.!.!.!.!.!.!.!.!.!.!.!.!.!.!.!.!.!.!.!.!.!.!.!.!.!.!.!.!.!.!.!.!.!.!.!.!.!.!.!.!.!.!.!.!.!.!.!.!.!.!.!.!.!.!.!.!.!.!.!.!.!.!.!.!.!.!.!.!.!.!.!.!.!.!.X $ & - , 2 2 6 8 0 9 0 q q y i s s s d k k k z x x n x x x x N n Z D G L I U T W W W W W / / _ ' [ [ { {  . . .X.X.X.o.o.o.@.@.@.@.&.&.&.&.=.=.=.=.:.:.,.<.3.3.6.6.6.6.9.w.r.u.u.u.p.p.s.f.f.f.h.h.l.l.l.l.v.v.v.v.N.N.N.N.B.B.N.N.N.N.n.n.v.v.v.v.l.l.l.l.l.l.h.h.h.h.f.f.f.f.f.p.p.p.u.u.r.w.w.9.9.9.6.6.5.6.3.3.3.3.<.3.<.3.<.3.3.3.3.5.6.6.6.6.9.9.w.w.r.u.u.u.p.p.p.s.f.f.f.f.f.f.h.h.h.l.l.l.l.l.l.v.v.v.v.v.v.v.v.v.v.v.v.n.v.n.n.n.N.N.N.N.N.N.N.N.N.N.N.N.N.N.N.N.N.N.N.N.B.B.B.B.B.B.B.B.B.B.B.B.B.B.N.N.N.N.n.n.n.n.v.v.v.v.v.v.v.v.v.v.v.v.l.l.v.l.l.l.l.l.h.h.h.h.f.f.s.p.p.u.u.u.r.r.r.r.r.r.r.r.r.r.r.r.r.r.r.r.r.r.r.r.r.r.w.w.w.w.9.9.9.9.6.6.6.6.3.3.<.<.<.:.=.=.=.=.&.&.@.@.@.o.o.o.o.X.X. . . . . .{ { { { { [ [ [ ' ' _ / / / / W W W W U L G D D Z M n x z k d d s i y y q q 0 9 6 6 6 2 , , , - - & @ X   !.!.!.!.!.!.!.!.!.!.!.!.!.!.!.!.!.!.!.!.!.!.!.!.!.!.!.!.!.!.!.!.!.!.!.!.!.!.!.!.!.!.!.!.!.!.!.!.!.!.!.!.!.!.!.!.!.!.!.!.!.!.!.!.!.!.!.!.!.",
"!.!.!.!.!.!.!.!.!.!.!.!.!.!.!.!.!.!.!.!.!.!.!.!.!.!.!.!.!.!.!.!.!.!.!.!.!.!.!.!.!.!.!.!.!.!.!.!.!.!.!.!.!.!.!.!.!.!.!.!.!.!.!.!.!.!.!.!.!.!.!.!.!.!.!.!.!.!.!.!.!.!.!.!.!.!.!.!.!.!.!.!.!.!.!.!.!.!.!.!.!.!.!.!.!.!.!.!.!.!.!.!.!.X & & , , 2 2 6 8 0 0 9 0 q y i s s d d d k k k k z x x n b n n N B D G H L I Y R W W W W / / _ _ ' [ { {  . . . .X.X.X.o.@.@.@.@.@.&.&.&.&.&.=.=.:.=.:.,.<.3.3.5.6.6.9.9.w.r.u.u.p.p.s.s.f.f.f.h.l.l.l.v.v.v.n.v.n.N.N.N.B.B.B.N.B.N.N.n.n.v.n.v.v.l.l.l.l.l.h.h.h.h.h.h.f.f.f.s.p.p.u.u.u.r.r.9.9.9.6.6.6.6.3.3.3.3.<.<.3.3.<.<.<.3.3.3.5.5.6.6.6.6.9.9.9.w.r.r.u.u.p.p.p.s.p.f.f.f.f.f.h.h.h.l.l.l.l.l.l.v.v.v.v.v.v.v.v.v.v.v.n.n.n.n.N.n.N.N.N.N.N.N.N.N.N.N.N.B.N.N.B.B.B.B.B.B.B.B.B.B.A.A.B.B.B.B.B.B.B.N.N.N.N.n.N.n.n.v.v.v.v.v.v.v.v.v.v.v.v.v.v.l.l.v.l.l.l.l.h.h.h.h.f.f.f.p.p.p.u.u.u.r.u.u.r.r.r.r.r.u.u.u.r.u.r.u.u.u.u.u.r.r.r.w.w.w.9.9.w.9.9.6.6.5.3.<.<.,.:.=.=.=.=.&.&.@.@.@.@.o.o.o.X.X. . . . . .{  .{ { { { [ ' ' _ _ / / / / W W W W T I L G D Z B N x z k d d d s i y e q 0 8 6 6 6 2 2 , , - - & @ X   !.!.!.!.!.!.!.!.!.!.!.!.!.!.!.!.!.!.!.!.!.!.!.!.!.!.!.!.!.!.!.!.!.!.!.!.!.!.!.!.!.!.!.!.!.!.!.!.!.!.!.!.!.!.!.!.!.!.!.!.!.!.!.!.!.!.!.!.!.",
"!.!.!.!.!.!.!.!.!.!.!.!.!.!.!.!.!.!.!.!.!.!.!.!.!.!.!.!.!.!.!.!.!.!.!.!.!.!.!.!.!.!.!.!.!.!.!.!.!.!.!.!.!.!.!.!.!.!.!.!.!.!.!.!.!.!.!.!.!.!.!.!.!.!.!.!.!.!.!.!.!.!.!.!.!.!.!.!.!.!.!.!.!.!.!.!.!.!.!.!.!.!.!.!.!.!.!.!.!.!.!.!.  + & & - , , 6 6 8 q e 0 q q e i s d s d d k k k k z x x x x n n M Z Z D G L L Y R W W W / / / / _ ' [ { { {  . . . . .X.o.o.@.@.@.$.&.&.&.&.&.=.=.=.:.:.,.<.3.3.6.6.6.9.9.r.u.u.p.p.p.s.s.f.f.h.h.l.l.l.l.v.v.n.n.n.n.N.B.N.B.B.B.B.B.N.N.n.n.v.v.v.l.l.l.l.l.h.l.h.h.h.f.f.f.s.p.p.p.u.u.u.r.r.w.9.9.9.6.6.6.3.3.<.<.<.<.<.<.<.<.<.<.3.3.3.3.6.6.6.6.6.9.9.w.w.r.r.u.u.u.p.p.p.p.s.f.f.f.f.h.h.h.l.l.l.l.v.v.v.v.v.v.v.v.v.v.v.v.v.v.v.n.N.N.N.N.N.N.N.N.N.N.N.B.B.N.N.B.B.B.B.B.B.B.B.A.B.B.A.B.B.B.B.B.B.B.B.B.N.N.N.N.N.N.N.v.v.n.v.v.v.v.n.v.v.v.v.v.v.v.l.l.l.l.l.l.l.l.h.h.f.f.f.f.s.p.p.u.u.u.u.u.u.u.u.u.u.u.u.u.u.u.u.u.u.u.u.u.u.r.r.r.w.w.9.w.9.9.9.6.6.6.3.3.<.,.:.:.=.=.=.&.&.@.@.@.@.o.o.o.o.X. . . .{  . .{ { { { [ [ [ ' ' _ / / / / ^ W W W R U I L D D Z M x x z k k d s y y e e 0 8 6 6 6 2 2 , - - & & + X   !.!.!.!.!.!.!.!.!.!.!.!.!.!.!.!.!.!.!.!.!.!.!.!.!.!.!.!.!.!.!.!.!.!.!.!.!.!.!.!.!.!.!.!.!.!.!.!.!.!.!.!.!.!.!.!.!.!.!.!.!.!.!.!.!.!.!.!.!.",
"!.!.!.!.!.!.!.!.!.!.!.!.!.!.!.!.!.!.!.!.!.!.!.!.!.!.!.!.!.!.!.!.!.!.!.!.!.!.!.!.!.!.!.!.!.!.!.!.!.!.!.!.!.!.!.!.!.!.!.!.!.!.!.!.!.!.!.!.!.!.!.!.!.!.!.!.!.!.!.!.!.!.!.!.!.!.!.!.!.!.!.!.!.!.!.!.!.!.!.!.!.!.!.!.!.!.!.!.!.!.!.!.  @ & & - , , 6 6 0 q 0 q q e y i s s s d d k k k k k k x x n n N Z Z Z D D G L U R W W W W / / / _ _ [ [ { {  . . . . .X.o.@.@.@.@.@.&.&.&.&.=.=.=.=.:.,.<.<.3.5.6.6.9.w.9.r.u.u.p.s.s.f.f.f.f.h.h.l.l.l.v.v.v.n.n.N.N.N.B.B.B.B.B.N.B.N.N.N.N.v.v.v.v.l.l.l.l.l.h.h.h.h.f.f.f.s.p.p.u.u.u.u.r.r.w.9.9.6.6.6.3.3.<.<.<.<.<.<.,.<.<.<.<.<.<.3.3.3.6.5.6.6.6.9.9.w.w.r.u.u.u.u.p.p.p.s.f.f.f.f.f.h.h.h.h.l.l.v.v.v.v.v.v.v.v.v.v.v.v.v.v.v.n.n.N.N.N.N.N.N.N.N.B.N.B.N.B.N.B.B.B.B.B.B.B.B.B.B.A.A.A.B.B.B.B.B.B.B.B.B.N.N.N.N.N.n.N.n.n.n.n.v.v.v.v.v.v.v.v.v.v.v.l.v.l.v.l.l.l.h.h.h.h.h.f.f.p.p.p.u.u.u.u.u.u.u.u.u.u.u.u.u.p.p.p.p.u.p.u.u.u.r.r.r.r.r.w.w.w.9.9.6.6.5.3.3.<.,.:.=.=.=.&.&.$.@.@.@.o.o.o.X.o. . . . . .{ { { { { [ [ ' ' _ _ _ / / ! W ! W W W T U L G D Z M n b x x k d s i y y e q 9 8 6 6 2 , , - - & & + X   !.!.!.!.!.!.!.!.!.!.!.!.!.!.!.!.!.!.!.!.!.!.!.!.!.!.!.!.!.!.!.!.!.!.!.!.!.!.!.!.!.!.!.!.!.!.!.!.!.!.!.!.!.!.!.!.!.!.!.!.!.!.!.!.!.!.!.!.!.",
"!.!.!.!.!.!.!.!.!.!.!.!.!.!.!.!.!.!.!.!.!.!.!.!.!.!.!.!.!.!.!.!.!.!.!.!.!.!.!.!.!.!.!.!.!.!.!.!.!.!.!.!.!.!.!.!.!.!.!.!.!.!.!.!.!.!.!.!.!.!.!.!.!.!.!.!.!.!.!.!.!.!.!.!.!.!.!.!.!.!.!.!.!.!.!.!.!.!.!.!.!.!.!.!.!.!.!.!.!.!.!.!.  X $ & - , , 6 6 q q q q q e y y i s s d d k k k k k k z b x n M B Z Z D D H L U T W W W W / / / / _ ' [ [ { { { {  . .X.o.@.@.@.@.$.&.&.&.=.=.=.:.:.<.<.<.3.3.6.6.6.9.9.w.r.u.p.p.s.f.f.f.f.f.h.h.l.l.l.l.v.v.n.N.N.B.N.B.B.B.B.B.B.B.B.N.N.n.N.n.v.v.v.l.l.l.l.l.h.h.h.f.f.f.s.p.p.u.u.u.r.r.w.w.9.9.6.6.6.6.3.<.<.<.<.<.,.,.,.<.,.<.<.<.<.<.3.3.5.5.6.6.6.9.9.9.w.r.u.u.u.u.p.p.p.p.s.f.f.f.f.h.h.h.l.l.v.l.l.l.v.v.v.v.v.v.v.v.v.v.v.n.n.n.N.n.N.N.N.N.B.B.B.B.B.N.B.B.B.B.B.B.B.A.B.B.A.B.A.A.B.A.B.B.B.B.B.B.B.B.N.N.N.N.N.N.N.N.n.v.n.v.n.n.v.v.v.v.v.v.v.v.l.v.l.v.v.l.l.h.h.h.h.h.f.f.s.p.p.p.p.p.p.p.p.p.p.p.p.u.p.p.p.p.p.p.p.u.u.u.u.u.r.r.r.w.r.9.9.9.9.6.6.3.3.<.,.:.:.=.=.&.&.$.@.@.o.o.o.X.o.o. . . .{ { { { { { { [ [ ' ' ' _ / / / / / W W W W R U I G D D Z M x x z k d s i y y e q 0 8 6 2 2 , , - & & $ @   !.!.!.!.!.!.!.!.!.!.!.!.!.!.!.!.!.!.!.!.!.!.!.!.!.!.!.!.!.!.!.!.!.!.!.!.!.!.!.!.!.!.!.!.!.!.!.!.!.!.!.!.!.!.!.!.!.!.!.!.!.!.!.!.!.!.!.!.!.!.",
"!.!.!.!.!.!.!.!.!.!.!.!.!.!.!.!.!.!.!.!.!.!.!.!.!.!.!.!.!.!.!.!.!.!.!.!.!.!.!.!.!.!.!.!.!.!.!.!.!.!.!.!.!.!.!.!.!.!.!.!.!.!.!.!.!.!.!.!.!.!.!.!.!.!.!.!.!.!.!.!.!.!.!.!.!.!.!.!.!.!.!.!.!.!.!.!.!.!.!.!.!.!.!.!.!.!.!.!.!.!.!.!.  X @ & , , 2 6 6 0 q e q q e y y s s s d d d d d k k k z x x n M B Z D D D G L I U R W W ! / / / / / _ ' [ [ [ { {  . .X.o.@.@.@.$.$.&.&.&.&.=.=.=.:.<.<.<.3.5.6.6.6.9.9.w.u.u.p.p.s.f.f.f.h.h.h.h.l.l.l.l.v.v.n.N.N.B.B.B.B.B.B.B.B.B.B.N.B.B.N.n.n.v.v.l.l.l.l.h.l.h.f.f.f.f.s.p.p.u.u.u.r.r.w.w.9.9.9.6.6.6.3.<.<.<.<.<.,.,.,.,.,.,.,.<.<.<.3.3.3.3.3.6.6.6.9.9.9.w.r.u.u.u.u.u.p.p.p.p.s.f.f.f.f.h.h.l.l.v.l.v.l.v.v.v.v.v.v.v.v.v.n.v.n.v.v.N.N.N.N.N.N.B.N.B.B.N.B.B.B.A.A.A.A.A.A.A.A.A.B.A.B.A.B.B.B.B.B.B.B.N.B.N.B.N.N.N.N.N.N.n.N.n.N.n.n.n.n.v.v.v.v.v.v.v.v.v.l.l.l.l.l.h.h.h.h.f.f.f.s.f.f.f.s.f.s.s.p.p.p.p.p.p.p.p.p.p.p.p.u.u.u.u.u.u.r.r.r.w.w.w.9.6.6.6.3.<.<.,.:.=.=.&.&.$.@.@.@.o.o.o.o. . . . .{  .{ { { { { [ [ ' ' _ _ / / / / / W W W W W T U L D D Z M n x z k d s i i y e q 0 9 6 2 , , - - & & @ X   !.!.!.!.!.!.!.!.!.!.!.!.!.!.!.!.!.!.!.!.!.!.!.!.!.!.!.!.!.!.!.!.!.!.!.!.!.!.!.!.!.!.!.!.!.!.!.!.!.!.!.!.!.!.!.!.!.!.!.!.!.!.!.!.!.!.!.!.!.!.",
"!.!.!.!.!.!.!.!.!.!.!.!.!.!.!.!.!.!.!.!.!.!.!.!.!.!.!.!.!.!.!.!.!.!.!.!.!.!.!.!.!.!.!.!.!.!.!.!.!.!.!.!.!.!.!.!.!.!.!.!.!.!.!.!.!.!.!.!.!.!.!.!.!.!.!.!.!.!.!.!.!.!.!.!.!.!.!.!.!.!.!.!.!.!.!.!.!.!.!.!.!.!.!.!.!.!.!.!.!.!.!.!.  X & - , 2 2 2 6 9 q q e q e e i s s s d d d d d d d d z x x N M B Z D D D G L L U R W W W W W / / / _ ' [ [ [ { {  . .X.o.@.@.@.$.&.&.&.&.=.=.=.:.:.<.<.<.3.5.6.6.6.6.w.w.u.u.p.s.f.f.f.h.h.h.h.h.l.l.l.v.v.v.n.N.B.B.B.B.B.B.B.B.B.B.B.B.B.B.N.N.v.v.v.v.l.l.l.l.h.h.f.f.f.s.p.p.p.u.u.u.u.r.w.w.9.9.6.6.6.3.3.<.<.<.<.<.<.:.:.:.:.:.,.,.,.<.<.3.3.3.3.5.6.6.6.9.9.9.w.r.r.u.u.u.u.p.p.p.p.s.f.f.f.f.h.h.l.l.l.v.v.l.l.v.v.v.v.v.v.v.v.v.v.v.n.n.n.N.N.N.N.N.N.B.B.B.B.B.B.A.A.B.A.A.B.A.A.A.A.A.B.A.B.B.B.B.B.B.B.B.B.B.N.N.B.N.N.N.N.N.N.N.n.N.n.N.n.n.n.n.v.v.v.v.v.v.v.v.v.l.l.l.l.h.h.h.h.f.f.f.f.f.f.f.f.f.f.f.f.s.s.s.f.f.f.p.p.p.p.u.u.u.u.u.u.r.r.r.w.9.9.9.6.6.6.3.<.,.:.:.=.&.&.&.$.@.@.o.o.o.o.o. . . . .{ { { { { { [ [ ' _ _ _ _ / / / / ! W W W W R U L G D Z M n n x z k d s y y e q 0 9 6 2 2 , - - & $ @ X   !.!.!.!.!.!.!.!.!.!.!.!.!.!.!.!.!.!.!.!.!.!.!.!.!.!.!.!.!.!.!.!.!.!.!.!.!.!.!.!.!.!.!.!.!.!.!.!.!.!.!.!.!.!.!.!.!.!.!.!.!.!.!.!.!.!.!.!.!.!.",
"!.!.!.!.!.!.!.!.!.!.!.!.!.!.!.!.!.!.!.!.!.!.!.!.!.!.!.!.!.!.!.!.!.!.!.!.!.!.!.!.!.!.!.!.!.!.!.!.!.!.!.!.!.!.!.!.!.!.!.!.!.!.!.!.!.!.!.!.!.!.!.!.!.!.!.!.!.!.!.!.!.!.!.!.!.!.!.!.!.!.!.!.!.!.!.!.!.!.!.!.!.!.!.!.!.!.!.!.!.!.!.!.  X @ & , 2 2 2 6 8 9 q q q e y i s s s s d d d d d d d k z x n N Z D D D D G L I U W W W W W ^ / / _ _ ' [ [ [ { {  .X.o.o.@.@.@.$.&.&.&.&.=.=.=.:.<.<.3.3.3.6.6.6.9.9.9.r.u.u.p.s.f.f.h.h.h.h.h.h.l.l.l.v.v.v.N.N.B.B.B.B.B.A.A.B.B.B.B.B.N.B.N.N.n.n.v.l.l.l.l.h.h.h.h.f.f.s.s.p.p.u.u.u.u.r.r.w.9.9.9.6.6.6.3.3.<.<.,.,.:.:.,.:.:.:.,.,.,.,.<.<.<.<.3.3.6.6.6.6.6.9.9.9.r.r.r.u.u.u.u.p.p.p.s.f.f.f.f.h.h.l.l.l.l.v.v.v.v.l.v.v.v.v.v.v.v.v.v.n.n.n.N.N.N.B.B.N.B.B.B.B.A.A.A.A.A.A.A.A.A.A.A.A.A.A.B.A.B.B.B.B.B.B.B.B.B.B.B.N.B.N.N.N.N.N.N.N.N.N.N.N.n.N.n.n.n.n.n.v.v.v.v.l.l.l.l.l.l.l.h.l.h.h.h.h.h.h.f.h.f.f.f.f.f.f.f.f.f.f.s.p.p.p.p.u.u.u.u.u.u.r.w.w.9.9.9.6.5.3.<.,.:.=.=.=.&.&.$.@.@.o.o.o.o.o. . . . .{ { { { { { [ ' ' ' ' _ _ / / / / W W W W W W U I L D Z Z N x b z k s s i y y q q 9 6 2 , , - - & @ @ X   !.!.!.!.!.!.!.!.!.!.!.!.!.!.!.!.!.!.!.!.!.!.!.!.!.!.!.!.!.!.!.!.!.!.!.!.!.!.!.!.!.!.!.!.!.!.!.!.!.!.!.!.!.!.!.!.!.!.!.!.!.!.!.!.!.!.!.!.!.!.",
"!.!.!.!.!.!.!.!.!.!.!.!.!.!.!.!.!.!.!.!.!.!.!.!.!.!.!.!.!.!.!.!.!.!.!.!.!.!.!.!.!.!.!.!.!.!.!.!.!.!.!.!.!.!.!.!.!.!.!.!.!.!.!.!.!.!.!.!.!.!.!.!.!.!.!.!.!.!.!.!.!.!.!.!.!.!.!.!.!.!.!.!.!.!.!.!.!.!.!.!.!.!.!.!.!.!.!.!.!.!.!.    X $ & , 2 2 2 6 8 8 9 q q q e y s s s s s d d d d d k k x x n M Z D D D D H L U T W W W W W W / / / _ ' [ [ { {  . . .o.o.@.@.@.@.&.&.&.=.=.=.:.:.,.<.<.3.5.6.6.6.9.w.w.r.u.p.p.f.f.h.h.h.h.h.l.l.l.l.v.v.v.n.N.N.B.B.B.B.A.A.B.B.B.A.B.B.B.N.N.n.n.n.v.l.l.l.l.l.h.h.f.f.f.f.s.p.p.p.u.u.u.r.w.w.9.9.9.6.6.6.3.3.<.<.<.,.,.,.:.:.:.:.:.:.:.:.,.<.<.<.<.3.3.3.6.6.6.9.9.9.w.w.r.r.u.u.u.u.p.p.p.s.f.f.f.f.h.h.l.l.l.l.l.v.l.v.l.v.v.v.v.v.v.v.n.v.n.n.N.N.N.B.N.B.B.B.B.A.A.A.A.A.A.A.A.A.A.S.A.A.A.A.A.A.A.A.B.B.A.B.B.B.B.B.B.B.N.N.N.N.N.N.N.N.N.N.B.B.N.N.N.N.N.N.n.n.v.v.v.v.v.l.l.l.l.l.l.l.l.l.l.l.l.h.h.h.h.h.h.h.h.f.f.f.f.f.f.s.p.p.s.p.p.p.u.u.u.r.u.w.9.9.9.6.6.3.<.<.,.:.=.=.&.&.$.$.@.@.o.o.o.o.o. . . .{ { { { { { [ [ ' ' _ _ _ / / / / W W W W W W T I L G D Z N n b z k d s i i y e 0 8 6 2 , , , - & @ X X   !.!.!.!.!.!.!.!.!.!.!.!.!.!.!.!.!.!.!.!.!.!.!.!.!.!.!.!.!.!.!.!.!.!.!.!.!.!.!.!.!.!.!.!.!.!.!.!.!.!.!.!.!.!.!.!.!.!.!.!.!.!.!.!.!.!.!.!.!.!.",
"!.!.!.!.!.!.!.!.!.!.!.!.!.!.!.!.!.!.!.!.!.!.!.!.!.!.!.!.!.!.!.!.!.!.!.!.!.!.!.!.!.!.!.!.!.!.!.!.!.!.!.!.!.!.!.!.!.!.!.!.!.!.!.!.!.!.!.!.!.!.!.!.!.!.!.!.!.!.!.!.!.!.!.!.!.!.!.!.!.!.!.!.!.!.!.!.!.!.!.!.!.!.!.!.!.!.!.!.    X X X @ @ & , 2 2 2 6 8 7 8 q q q y y i s i s s s d d d d d h z x n M Z D D G G L I Y R W W W W W / / _ _ _ _ [ [ { {  . . .o.o.@.@.@.@.@.&.&.=.=.=.:.,.,.<.3.3.6.6.6.9.9.w.r.u.u.p.p.f.f.h.h.h.l.l.l.l.v.v.v.v.N.N.N.B.B.B.B.B.A.A.B.A.B.B.B.B.B.B.N.v.n.v.v.l.l.l.l.h.h.h.f.f.f.f.s.p.p.p.u.u.u.r.r.w.9.9.9.9.6.6.3.3.3.<.<.,.,.:.:.:.:.:.:.:.:.:.,.,.,.<.3.3.3.3.3.5.6.6.9.9.9.9.w.r.r.r.u.u.u.p.p.p.s.f.f.f.h.h.l.l.l.l.l.l.l.l.v.l.v.v.v.v.n.n.n.n.n.n.N.N.B.B.B.B.B.B.B.B.A.A.A.A.A.A.A.A.S.D.S.A.S.A.A.A.A.A.B.A.B.B.B.B.B.B.B.N.B.N.N.B.B.N.N.B.B.B.B.B.N.B.N.N.N.N.N.N.N.n.n.v.v.v.l.v.l.l.v.l.l.l.l.l.l.l.l.l.l.h.h.h.h.h.h.h.f.f.f.f.f.s.p.f.p.p.u.u.u.u.r.r.w.w.9.9.6.5.3.<.,.:.=.=.&.&.$.@.@.@.o.o.o.o.X. . . .{  .{ { { { [ [ ' ' _ _ _ / / / / W W W W W W R U L G D Z B N x z k d s s i y e q 8 6 2 2 , , - & @ X X   !.!.!.!.!.!.!.!.!.!.!.!.!.!.!.!.!.!.!.!.!.!.!.!.!.!.!.!.!.!.!.!.!.!.!.!.!.!.!.!.!.!.!.!.!.!.!.!.!.!.!.!.!.!.!.!.!.!.!.!.!.!.!.!.!.!.!.!.!.!.",
"!.!.!.!.!.!.!.!.!.!.!.!.!.!.!.!.!.!.!.!.!.!.!.!.!.!.!.!.!.!.!.!.!.!.!.!.!.!.!.!.!.!.!.!.!.!.!.!.!.!.!.!.!.!.!.!.!.!.!.!.!.!.!.!.!.!.!.!.!.!.!.!.!.!.!.!.!.!.!.!.!.!.!.!.!.!.!.!.!.!.!.!.!.!.!.!.!.!.!.!.!.!.!.!.!.!.!.  X X X @ X + & - , , 2 2 6 7 7 8 0 q q y y s s s s s s s d d k k x x x n B Z D D G L I Y Y R W W W W / / / / / _ ' [ { { {  .X.X.o.o.@.@.@.@.&.&.=.=.=.:.:.<.<.<.3.5.6.6.6.9.w.w.r.u.p.p.s.f.f.h.h.h.l.l.l.l.v.v.N.N.B.B.B.B.B.B.A.A.A.A.A.B.B.B.B.B.B.B.N.n.n.v.v.v.l.l.l.h.h.h.f.f.f.f.f.p.p.p.u.u.u.r.r.w.w.9.9.9.6.6.6.3.3.<.<.,.,.,.:.:.:.:.:.=.:.:.:.,.,.<.<.<.<.<.3.3.5.6.6.9.9.9.w.w.r.r.r.u.u.u.p.p.p.p.f.f.f.h.h.h.l.l.l.l.v.l.l.v.v.v.v.v.n.v.n.n.n.N.N.N.B.N.B.B.B.B.B.A.A.A.A.A.A.A.S.S.D.S.S.D.D.S.A.A.A.A.A.A.A.A.A.B.A.B.B.B.B.B.B.B.B.B.B.B.B.B.B.B.B.B.B.B.B.B.B.N.N.N.N.n.n.v.v.v.v.v.v.v.v.v.v.v.v.v.l.l.l.l.l.l.h.h.h.h.h.f.f.f.f.f.f.p.p.p.u.u.u.u.r.r.r.w.9.9.6.6.3.<.,.:.=.=.&.&.@.$.@.@.o.o.o.o.X. . .{ { { { { { [ [ [ [ ' ' _ _ / / _ / / / W W W W W Y L G D D Z M n b k d d s i y e 0 8 6 6 , , , - & @ @ X   !.!.!.!.!.!.!.!.!.!.!.!.!.!.!.!.!.!.!.!.!.!.!.!.!.!.!.!.!.!.!.!.!.!.!.!.!.!.!.!.!.!.!.!.!.!.!.!.!.!.!.!.!.!.!.!.!.!.!.!.!.!.!.!.!.!.!.!.!.!.",
"!.!.!.!.!.!.!.!.!.!.!.!.!.!.!.!.!.!.!.!.!.!.!.!.!.!.!.!.!.!.!.!.!.!.!.!.!.!.!.!.!.!.!.!.!.!.!.!.!.!.!.!.!.!.!.!.!.!.!.!.!.!.!.!.!.!.!.!.!.!.!.!.!.!.!.!.!.!.!.!.!.!.!.!.!.!.!.!.!.!.!.!.!.!.!.!.!.!.!.!.!.!.!.!.!.!.!.  X @ @ @ @ $ & - , , , 2 2 6 6 6 9 q q y i s s s y s s d k k k k x x n M Z D G H L L U Y R R W W W W ^ / / / / _ ' [ {  . .X.X.o.o.o.@.@.$.&.&.&.=.=.:.:.,.,.<.3.3.6.6.6.9.9.w.r.u.u.u.p.s.f.f.h.h.l.l.l.l.v.n.N.N.N.B.B.B.B.B.A.A.A.A.A.A.A.A.B.B.B.B.N.N.N.n.v.v.v.v.v.l.l.h.h.f.f.f.f.s.s.p.p.u.u.u.u.r.w.w.9.9.9.6.6.6.3.3.<.<.,.,.,.:.:.:.:.=.:.:.:.:.:.:.<.,.<.<.<.3.3.3.6.6.6.6.9.9.9.w.w.r.r.u.u.u.u.p.p.s.f.f.f.h.h.l.h.l.l.l.l.l.l.l.v.v.v.v.v.n.n.n.n.N.N.B.N.B.B.B.B.B.A.A.A.A.A.A.A.A.D.D.D.D.D.D.D.D.S.A.S.A.A.A.A.A.B.B.B.B.B.B.B.B.B.B.B.B.A.B.A.B.B.B.B.B.B.B.B.B.B.B.B.N.N.N.n.N.n.n.n.n.n.v.v.v.v.v.v.v.l.v.l.l.l.l.l.h.h.h.h.h.f.f.f.f.f.f.s.p.p.u.u.u.r.r.w.w.9.6.6.3.3.<.,.:.=.&.&.&.@.@.@.o.o.o.o.o. . . .{  .{ { { [ [ [ ' ' ' _ _ _ / / / / W / W W W W R I L D D Z Z M x z k d d s y e 0 8 6 6 2 , , - & $ @ X   !.!.!.!.!.!.!.!.!.!.!.!.!.!.!.!.!.!.!.!.!.!.!.!.!.!.!.!.!.!.!.!.!.!.!.!.!.!.!.!.!.!.!.!.!.!.!.!.!.!.!.!.!.!.!.!.!.!.!.!.!.!.!.!.!.!.!.!.!.!.",
"!.!.!.!.!.!.!.!.!.!.!.!.!.!.!.!.!.!.!.!.!.!.!.!.!.!.!.!.!.!.!.!.!.!.!.!.!.!.!.!.!.!.!.!.!.!.!.!.!.!.!.!.!.!.!.!.!.!.!.!.!.!.!.!.!.!.!.!.!.!.!.!.!.!.!.!.!.!.!.!.!.!.!.!.!.!.!.!.!.!.!.!.!.!.!.!.!.!.!.!.!.!.!.!.!.!.!.X @ @ + $ & & & - , , , 2 2 6 6 6 8 9 q y y i i y y y s d d k z x x n M M Z D G L L L U R R W W W W W / / / / _ _ [ {  . . .X.X.o.o.@.@.@.&.&.&.=.=.=.:.:.,.<.3.3.5.6.6.9.9.9.w.r.u.u.p.p.f.f.h.h.l.l.l.l.v.v.n.N.N.B.B.B.B.B.A.A.A.A.A.A.A.A.B.A.B.B.B.B.N.N.N.v.v.l.v.l.l.l.h.h.h.f.f.f.f.s.p.p.u.u.u.u.r.r.w.9.9.9.6.6.6.3.3.<.<.<.,.,.,.:.:.=.:.=.:.:.:.:.:.:.,.<.<.<.<.<.3.3.5.6.6.6.9.9.w.w.w.r.r.u.u.u.p.p.p.p.f.f.f.h.h.h.l.l.l.l.l.l.l.v.v.v.v.v.v.v.n.N.N.N.B.B.B.B.B.B.B.A.A.A.A.A.A.A.D.D.D.D.D.D.D.D.D.D.D.S.D.D.A.A.A.B.B.B.B.B.B.B.B.B.B.B.B.A.A.B.A.B.A.B.A.B.A.B.B.B.B.B.B.B.N.N.N.B.N.N.N.n.N.N.N.n.n.v.v.v.v.v.l.v.l.l.l.l.l.h.h.h.f.f.f.f.f.s.s.p.u.u.u.r.r.w.w.9.6.6.3.3.<.<.:.=.=.&.&.@.@.@.o.o.o.o.o. . . .{ { { { { [ [ ' [ ' ' ' _ _ _ / / / / ^ W W W W R U L G D D Z B N x z k d s y e 0 8 6 6 2 2 , - & $ @ X   !.!.!.!.!.!.!.!.!.!.!.!.!.!.!.!.!.!.!.!.!.!.!.!.!.!.!.!.!.!.!.!.!.!.!.!.!.!.!.!.!.!.!.!.!.!.!.!.!.!.!.!.!.!.!.!.!.!.!.!.!.!.!.!.!.!.!.!.!.!.",
"!.!.!.!.!.!.!.!.!.!.!.!.!.!.!.!.!.!.!.!.!.!.!.!.!.!.!.!.!.!.!.!.!.!.!.!.!.!.!.!.!.!.!.!.!.!.!.!.!.!.!.!.!.!.!.!.!.!.!.!.!.!.!.!.!.!.!.!.!.!.!.!.!.!.!.!.!.!.!.!.!.!.!.!.!.!.!.!.!.!.!.!.!.!.!.!.!.!.!.!.!.!.!.!.!.!.!.  + $ & & & & & - , , , 2 2 2 2 6 6 8 0 e e y y y y s s d d k z x x n M B Z D G L L U R W W W W W W ! / / / _ _ ' [ {  . .X.o.o.o.@.@.@.&.&.=.=.=.=.=.:.,.<.<.3.3.5.6.6.9.9.w.w.r.u.u.p.s.f.f.h.h.l.l.l.l.v.v.N.N.B.B.B.B.B.A.A.A.S.A.S.A.A.A.A.A.B.B.B.B.N.N.n.n.v.v.l.l.l.l.l.h.h.f.f.f.f.s.p.p.p.u.u.u.u.r.r.w.9.9.9.6.6.6.3.3.<.<.<.<.:.:.:.:.=.:.=.=.=.=.:.:.,.,.,.,.<.<.3.3.3.3.6.6.6.9.9.9.w.w.r.r.r.u.u.u.p.p.s.f.f.f.h.h.h.h.h.l.l.l.l.v.v.v.v.v.v.n.n.n.N.N.B.B.B.B.B.B.A.A.A.A.A.A.A.S.A.D.D.D.D.D.D.D.D.D.D.D.D.S.A.A.A.A.B.B.B.A.B.B.B.B.B.B.A.A.A.A.A.A.A.A.A.A.A.A.A.A.A.B.B.B.B.B.B.B.B.N.B.N.B.N.N.N.N.N.n.N.n.n.v.v.v.l.l.l.l.h.h.h.f.h.f.f.f.f.f.p.p.u.u.u.r.r.w.9.6.6.5.3.<.<.:.:.=.&.&.&.@.@.o.o.o.o.X. . . . .{ { { { [ [ [ ' ' ' _ ' _ _ _ / / / / W W W W W Y I L G D D Z M x x k d s i y q 8 6 2 2 , , - & $ + X   !.!.!.!.!.!.!.!.!.!.!.!.!.!.!.!.!.!.!.!.!.!.!.!.!.!.!.!.!.!.!.!.!.!.!.!.!.!.!.!.!.!.!.!.!.!.!.!.!.!.!.!.!.!.!.!.!.!.!.!.!.!.!.!.!.!.!.!.!.!.",
"!.!.!.!.!.!.!.!.!.!.!.!.!.!.!.!.!.!.!.!.!.!.!.!.!.!.!.!.!.!.!.!.!.!.!.!.!.!.!.!.!.!.!.!.!.!.!.!.!.!.!.!.!.!.!.!.!.!.!.!.!.!.!.!.!.!.!.!.!.!.!.!.!.!.!.!.!.!.!.!.!.!.!.!.!.!.!.!.!.!.!.!.!.!.!.!.!.!.!.!.!.!.!.!.!.!.!.!.X + @ & & & - , , , 2 2 2 2 2 6 6 6 8 0 q y y y y s s d k k z x N M M Z D D H L I Y W W W W W W W / / / _ _ ' [ { {  . .X.o.o.o.@.@.&.&.=.=.=.=.:.:.,.<.<.<.3.3.6.6.9.9.9.r.r.u.u.p.s.f.f.h.h.h.l.l.l.v.v.v.N.B.B.B.B.B.B.A.A.S.A.S.A.A.D.A.A.A.B.B.B.B.N.N.N.v.v.v.v.l.l.l.h.h.h.f.f.f.f.s.p.p.p.u.u.u.u.r.r.w.w.9.9.6.6.6.3.3.<.<.<.,.:.:.:.:.:.=.=.=.=.=.:.=.:.,.,.,.<.<.<.3.3.3.5.6.6.6.6.9.9.9.w.w.r.r.u.u.u.p.p.s.f.f.f.h.h.h.h.h.h.l.l.l.l.l.l.v.v.n.n.N.N.N.B.B.B.B.B.B.B.A.A.A.A.S.S.S.D.D.D.D.D.D.D.D.D.D.D.D.D.D.D.A.A.A.B.B.A.B.A.A.A.B.B.A.A.A.A.A.A.A.A.A.A.A.A.A.A.A.B.A.B.A.B.B.B.B.B.B.B.B.B.B.B.B.B.N.N.N.B.B.N.n.v.v.v.l.l.l.l.l.h.h.f.f.f.f.f.s.p.u.u.u.u.r.r.9.9.6.6.3.<.<.<.:.:.=.&.@.@.@.o.o.o.o.X.X.o. . . .{ { { [ [ [ ' ' _ ' _ _ _ / / / / / / ^ W W W T U L H G D Z B n x k d s i y q 8 6 2 2 , - - & @ @ X   !.!.!.!.!.!.!.!.!.!.!.!.!.!.!.!.!.!.!.!.!.!.!.!.!.!.!.!.!.!.!.!.!.!.!.!.!.!.!.!.!.!.!.!.!.!.!.!.!.!.!.!.!.!.!.!.!.!.!.!.!.!.!.!.!.!.!.!.!.!.",
"!.!.!.!.!.!.!.!.!.!.!.!.!.!.!.!.!.!.!.!.!.!.!.!.!.!.!.!.!.!.!.!.!.!.!.!.!.!.!.!.!.!.!.!.!.!.!.!.!.!.!.!.!.!.!.!.!.!.!.!.!.!.!.!.!.!.!.!.!.!.!.!.!.!.!.!.!.!.!.!.!.!.!.!.!.!.!.!.!.!.!.!.!.!.!.!.!.!.!.!.!.!.!.!.!.!.!.!.  X + + $ & - - , , , 2 , 2 2 6 2 6 6 6 0 e y y y i s d k k x x N M Z Z D D G L I U Y T W W W W W / / _ _ _ ' [ { {  .X.o.o.o.o.@.$.&.&.=.=.=.:.:.,.<.,.<.<.3.3.6.6.9.9.w.r.r.u.u.p.s.f.f.h.h.l.l.l.v.v.v.n.N.N.B.B.B.A.A.A.A.A.S.D.D.S.A.S.A.A.A.A.B.B.B.N.N.v.n.v.v.l.v.l.l.l.h.h.h.f.f.s.p.p.p.p.p.u.u.r.r.w.9.9.9.6.6.6.3.3.3.<.<.<.<.,.:.:.:.:.=.:.=.=.=.:.:.:.:.:.,.<.<.<.3.3.3.6.6.6.9.9.9.9.9.w.w.r.r.u.u.u.p.p.s.f.f.f.f.h.h.h.h.h.l.l.l.l.l.l.v.v.v.n.N.n.N.B.B.B.B.B.A.B.A.A.S.A.S.D.D.D.D.D.D.D.D.D.J.J.D.D.D.D.D.S.A.A.A.B.B.B.B.B.B.A.A.A.A.A.S.A.A.A.S.S.S.A.S.A.D.A.A.A.A.A.B.A.A.B.B.B.B.B.B.B.B.B.B.B.B.B.B.B.N.N.N.N.v.v.l.l.l.l.l.h.h.f.f.f.f.s.p.p.u.u.u.r.r.w.9.6.6.5.3.<.<.:.=.=.&.&.@.@.@.o.o.o.o.o.X. . . .{ { { { [ [ [ ' ' _ _ _ _ / / / / / / W W W W R U I L G D D Z M x z d s s y q 8 6 6 2 , - & & + X X   !.!.!.!.!.!.!.!.!.!.!.!.!.!.!.!.!.!.!.!.!.!.!.!.!.!.!.!.!.!.!.!.!.!.!.!.!.!.!.!.!.!.!.!.!.!.!.!.!.!.!.!.!.!.!.!.!.!.!.!.!.!.!.!.!.!.!.!.!.!.",
"!.!.!.!.!.!.!.!.!.!.!.!.!.!.!.!.!.!.!.!.!.!.!.!.!.!.!.!.!.!.!.!.!.!.!.!.!.!.!.!.!.!.!.!.!.!.!.!.!.!.!.!.!.!.!.!.!.!.!.!.!.!.!.!.!.!.!.!.!.!.!.!.!.!.!.!.!.!.!.!.!.!.!.!.!.!.!.!.!.!.!.!.!.!.!.!.!.!.!.!.!.!.!.!.!.!.!.!.!.  X X @ & & - - - , , , , 2 2 , 2 2 2 6 q e y i s d d k x b n M Z Z D D D G L I U U T R W W W W / _ _ _ _ ' [ {  . .X.o.o.o.@.@.$.&.=.=.=.:.:.:.<.<.<.<.3.3.3.6.6.9.9.w.r.u.u.u.p.f.f.f.h.l.l.l.v.v.n.N.N.N.B.B.B.B.B.A.A.S.A.S.D.D.S.D.S.S.A.A.A.A.B.B.B.N.N.v.v.v.l.v.l.l.h.h.h.f.f.f.f.p.p.p.p.p.u.u.u.r.r.w.9.9.9.6.6.5.3.3.<.<.<.<.<.:.:.:.:.:.=.=.=.=.=.:.:.:.:.:.,.,.<.<.3.3.3.6.6.6.6.6.9.9.9.w.w.r.r.r.u.u.p.p.s.f.f.f.f.f.f.h.h.h.l.l.l.v.v.v.v.v.n.N.N.N.B.B.B.B.B.B.A.A.A.S.S.S.D.D.D.D.D.D.D.D.J.J.J.D.D.D.D.D.D.A.A.A.A.A.A.B.A.A.A.A.S.D.D.D.D.D.D.D.D.D.S.D.D.D.D.S.S.A.S.S.A.A.A.A.B.B.B.A.A.A.A.B.B.B.B.A.B.B.B.B.N.N.v.v.v.v.l.l.l.h.h.h.f.f.f.s.p.p.u.u.r.r.w.9.9.6.5.3.<.<.:.=.=.=.&.@.@.@.o.o.o.o.o. . . . . .{ { { [ [ [ ' ' ' _ _ _ _ _ _ / / / / W W W W Y I L G D D Z M x z k s i y q 9 6 6 2 , - & & + X X   !.!.!.!.!.!.!.!.!.!.!.!.!.!.!.!.!.!.!.!.!.!.!.!.!.!.!.!.!.!.!.!.!.!.!.!.!.!.!.!.!.!.!.!.!.!.!.!.!.!.!.!.!.!.!.!.!.!.!.!.!.!.!.!.!.!.!.!.!.!.",
"!.!.!.!.!.!.!.!.!.!.!.!.!.!.!.!.!.!.!.!.!.!.!.!.!.!.!.!.!.!.!.!.!.!.!.!.!.!.!.!.!.!.!.!.!.!.!.!.!.!.!.!.!.!.!.!.!.!.!.!.!.!.!.!.!.!.!.!.!.!.!.!.!.!.!.!.!.!.!.!.!.!.!.!.!.!.!.!.!.!.!.!.!.!.!.!.!.!.!.!.!.!.!.!.!.!.!.!.!.  X @ $ & & - - - - , 2 , , , , , , 2 6 0 e i s d k k z x x n M Z D D D D L I I I U U T W W W / / _ _ _ _ ' [ { {  .X.o.o.o.@.@.&.&.=.=.=.:.,.<.<.<.<.<.3.3.6.6.9.9.w.r.r.u.u.p.p.f.f.h.h.l.l.l.v.v.v.N.N.B.B.B.B.B.A.A.S.S.A.D.D.D.D.D.S.A.S.A.A.B.B.B.B.N.N.N.v.v.l.l.l.l.l.h.h.h.f.f.f.s.s.p.p.p.u.u.u.u.r.r.w.9.9.6.6.6.3.3.3.<.<.<.,.,.:.:.:.=.=.=.=.=.=.=.:.:.:.,.,.,.<.<.<.3.3.5.6.6.6.6.6.9.9.9.9.w.w.r.u.u.u.p.p.s.s.f.f.f.f.h.h.h.l.l.l.l.v.v.v.n.n.n.N.N.B.B.B.B.B.A.B.A.A.A.D.D.D.D.D.D.D.D.D.J.D.J.J.J.J.J.D.D.D.S.A.A.A.A.A.A.A.A.A.S.A.D.D.D.D.D.D.D.D.D.D.D.D.D.D.D.D.D.D.D.S.A.S.A.A.A.A.A.A.A.A.A.A.A.A.A.A.A.B.B.B.B.N.N.n.v.v.l.l.l.h.h.h.f.f.f.s.p.p.u.u.r.w.9.9.6.5.3.<.<.:.=.=.&.&.&.@.@.@.o.o.o.X. . . . . .{ { { { [ [ [ _ _ _ _ _ _ _ _ _ / / / W W W W T U I L G D Z B n z k d s y q 8 6 6 2 , - - & + X   !.!.!.!.!.!.!.!.!.!.!.!.!.!.!.!.!.!.!.!.!.!.!.!.!.!.!.!.!.!.!.!.!.!.!.!.!.!.!.!.!.!.!.!.!.!.!.!.!.!.!.!.!.!.!.!.!.!.!.!.!.!.!.!.!.!.!.!.!.!.!.",
"!.!.!.!.!.!.!.!.!.!.!.!.!.!.!.!.!.!.!.!.!.!.!.!.!.!.!.!.!.!.!.!.!.!.!.!.!.!.!.!.!.!.!.!.!.!.!.!.!.!.!.!.!.!.!.!.!.!.!.!.!.!.!.!.!.!.!.!.!.!.!.!.!.!.!.!.!.!.!.!.!.!.!.!.!.!.!.!.!.!.!.!.!.!.!.!.!.!.!.!.!.!.!.!.!.!.!.!.!.  X X @ & & & & - - - , , , - - - , 2 6 9 e i s d k k z z x N Z D D D D D L I I I U Y R W W W ^ / / _ _ _ ' [ {  . .X.o.o.@.@.$.&.&.=.:.:.,.,.<.<.<.<.3.3.5.6.6.9.9.w.r.r.u.u.p.s.f.f.h.l.l.l.v.v.n.N.N.N.B.B.B.B.B.B.A.S.A.S.D.D.D.D.D.S.S.S.A.A.A.B.B.B.N.N.n.n.v.v.l.l.l.h.h.h.f.f.f.f.f.f.s.p.p.p.u.u.u.r.r.w.9.9.9.6.6.6.3.3.3.<.<.,.,.,.:.:.=.=.=.=.=.=.=.=.:.:.:.,.,.<.<.<.3.3.3.5.5.6.6.6.6.6.9.9.9.9.w.r.u.u.u.u.p.p.s.f.f.f.h.h.h.l.l.l.l.v.v.v.v.n.N.N.N.N.B.B.B.B.B.A.A.D.D.D.D.D.D.D.D.D.J.J.J.J.J.J.J.J.D.D.D.D.D.S.A.A.A.A.A.S.A.S.S.D.D.D.D.D.D.D.D.D.D.D.D.D.D.D.D.D.D.D.D.D.S.A.D.A.A.S.A.S.S.A.A.A.A.S.A.D.A.A.A.B.B.B.B.N.N.n.v.l.l.l.h.h.h.f.f.s.p.p.u.u.r.w.9.9.6.6.3.3.<.<.:.=.=.&.&.@.@.@.o.o.o.X.X. . . . . .{ { [ [ [ ' ' ' _ _ _ _ _ _ _ _ / / ! W W W R U I L G D Z Z n x k d s y q 9 6 2 2 , - & & + @ X !.!.!.!.!.!.!.!.!.!.!.!.!.!.!.!.!.!.!.!.!.!.!.!.!.!.!.!.!.!.!.!.!.!.!.!.!.!.!.!.!.!.!.!.!.!.!.!.!.!.!.!.!.!.!.!.!.!.!.!.!.!.!.!.!.!.!.!.!.!.!.",
"!.!.!.!.!.!.!.!.!.!.!.!.!.!.!.!.!.!.!.!.!.!.!.!.!.!.!.!.!.!.!.!.!.!.!.!.!.!.!.!.!.!.!.!.!.!.!.!.!.!.!.!.!.!.!.!.!.!.!.!.!.!.!.!.!.!.!.!.!.!.!.!.!.!.!.!.!.!.!.!.!.!.!.!.!.!.!.!.!.!.!.!.!.!.!.!.!.!.!.!.!.!.!.!.!.!.!.!.!.!.  X @ @ & & & & & - - - - & - - , , 6 8 e y s d k k x x N Z Z D D D D D L L U Y U R W W W W / / / _ _ ' [ { {  .X.X.o.o.@.@.&.&.=.=.:.:.,.,.,.<.<.<.3.3.6.6.9.9.w.r.r.u.u.u.p.s.f.f.h.l.l.v.v.v.N.N.N.B.B.B.B.A.A.A.A.A.S.D.D.D.D.D.D.D.A.S.A.A.A.B.B.B.B.N.N.n.v.l.l.l.l.l.l.h.h.f.f.f.f.s.f.p.p.p.p.u.u.u.r.r.w.w.9.6.6.6.3.3.3.<.<.<.<.<.:.:.:.=.=.=.=.=.=.:.:.:.:.,.,.<.<.<.<.3.3.3.3.6.6.6.6.6.6.6.9.9.w.w.r.u.u.u.u.p.p.f.f.f.h.h.h.l.l.l.l.l.l.v.v.v.n.n.N.N.B.B.B.B.B.B.A.A.S.D.D.D.D.D.D.J.D.J.D.J.J.J.J.D.D.D.D.D.D.D.D.A.A.S.S.A.S.D.D.D.D.D.J.J.D.D.D.J.D.D.D.D.D.D.D.D.D.D.D.D.D.D.A.D.S.D.D.D.D.D.D.D.D.D.D.D.D.A.A.A.A.B.B.B.N.N.v.v.v.l.l.h.h.h.f.f.s.p.u.u.r.w.9.9.6.6.3.3.<.,.:.=.=.&.&.@.@.@.@.o.o.X.X. . .X. . .{ { { [ [ [ ' ' _ _ _ _ / / _ / / / W W W W R U I L G D Z B N x k d s y q 0 6 6 2 , - & & + X   !.!.!.!.!.!.!.!.!.!.!.!.!.!.!.!.!.!.!.!.!.!.!.!.!.!.!.!.!.!.!.!.!.!.!.!.!.!.!.!.!.!.!.!.!.!.!.!.!.!.!.!.!.!.!.!.!.!.!.!.!.!.!.!.!.!.!.!.!.!.!.",
"!.!.!.!.!.!.!.!.!.!.!.!.!.!.!.!.!.!.!.!.!.!.!.!.!.!.!.!.!.!.!.!.!.!.!.!.!.!.!.!.!.!.!.!.!.!.!.!.!.!.!.!.!.!.!.!.!.!.!.!.!.!.!.!.!.!.!.!.!.!.!.!.!.!.!.!.!.!.!.!.!.!.!.!.!.!.!.!.!.!.!.!.!.!.!.!.!.!.!.!.!.!.!.!.!.!.!.!.!.!.    X X @ X @ @ $ & - & & & & - , 2 6 9 e i d k z x n M B Z Z Z D D D D H L U Y T W W W W / / / / _ _ ' ' { {  .X.o.o.o.@.@.&.&.=.=.:.<.,.,.<.<.<.3.3.5.6.6.9.9.w.r.r.u.u.u.p.f.f.h.l.l.l.l.v.v.N.N.N.B.B.B.B.A.A.A.A.S.D.D.D.D.D.D.D.D.D.S.A.A.A.A.B.B.B.N.N.N.v.v.l.l.l.l.h.h.h.h.f.f.f.f.f.f.s.p.p.u.u.u.u.r.w.w.9.9.6.6.6.3.3.3.<.<.<.<.:.<.:.:.:.=.=.=.:.:.:.:.:.,.,.,.<.<.<.<.3.3.3.5.6.6.6.6.6.6.9.9.9.w.w.r.u.u.u.p.p.s.f.f.h.h.h.h.l.l.l.l.v.v.v.v.v.N.N.N.B.B.B.B.B.B.A.A.A.D.D.D.D.D.D.J.J.J.J.J.J.J.J.D.D.D.D.D.D.D.D.D.D.D.D.A.S.D.D.D.D.D.D.J.J.D.J.J.D.D.D.D.J.J.D.D.D.D.D.D.D.D.D.D.D.D.D.D.D.D.D.D.D.D.D.D.D.D.D.S.S.A.B.B.B.B.N.v.v.l.l.l.h.h.f.f.s.p.u.u.r.w.9.9.6.6.3.3.<.,.:.=.=.=.&.&.$.@.@.o.o.o.X.X. . . . .{ { { [ { [ ' ' _ _ _ _ _ / / / / / W W W W R U L L D D D B n z k d i y e 0 6 6 , , - & $ @ X   !.!.!.!.!.!.!.!.!.!.!.!.!.!.!.!.!.!.!.!.!.!.!.!.!.!.!.!.!.!.!.!.!.!.!.!.!.!.!.!.!.!.!.!.!.!.!.!.!.!.!.!.!.!.!.!.!.!.!.!.!.!.!.!.!.!.!.!.!.!.!.",
"!.!.!.!.!.!.!.!.!.!.!.!.!.!.!.!.!.!.!.!.!.!.!.!.!.!.!.!.!.!.!.!.!.!.!.!.!.!.!.!.!.!.!.!.!.!.!.!.!.!.!.!.!.!.!.!.!.!.!.!.!.!.!.!.!.!.!.!.!.!.!.!.!.!.!.!.!.!.!.!.!.!.!.!.!.!.!.!.!.!.!.!.!.!.!.!.!.!.!.!.!.!.!.!.!.!.!.!.!.!.!.!.    X X X X @ & & & & & & - , 2 6 q y s d k x x n B Z D D D Z Z D G L I U U Y W W W W W / / _ _ ' ' [ { {  .X.o.o.@.@.$.&.=.=.=.:.,.,.,.<.<.<.3.6.6.6.6.9.9.w.r.r.u.u.p.p.f.f.h.l.l.v.v.v.N.N.N.B.B.B.B.B.A.A.A.A.A.D.D.D.D.D.D.D.D.A.S.A.A.A.A.A.B.B.B.N.N.n.v.v.v.l.l.h.h.h.h.h.f.f.f.f.f.s.p.p.p.u.u.u.r.w.w.9.9.6.6.6.3.3.3.<.<.<.,.<.,.,.:.:.:.=.=.:.:.:.:.<.<.<.<.<.<.<.<.<.3.3.3.6.5.6.6.6.6.9.9.9.w.w.r.r.u.u.u.p.s.f.f.h.h.h.l.h.l.l.l.l.l.v.v.v.N.N.N.B.B.B.B.B.B.B.A.A.D.D.D.D.D.J.J.D.J.J.J.J.J.J.D.D.D.J.D.D.D.D.D.D.D.D.D.D.D.D.D.D.J.D.D.J.J.J.J.J.J.D.J.J.J.J.J.D.D.D.D.D.D.D.D.D.D.D.D.J.J.J.J.J.D.J.J.D.D.D.D.D.A.A.B.B.B.B.N.v.v.l.l.h.h.h.f.f.p.u.u.u.r.w.9.9.6.5.3.<.,.,.:.=.=.&.&.&.@.@.@.@.o.o.X.X.X. . . .{ { { [ [ ' ' ' ' _ _ _ / / / / W W W W W T U L H D D Z M n z k d s y q 0 6 2 , , - & $ + X   !.!.!.!.!.!.!.!.!.!.!.!.!.!.!.!.!.!.!.!.!.!.!.!.!.!.!.!.!.!.!.!.!.!.!.!.!.!.!.!.!.!.!.!.!.!.!.!.!.!.!.!.!.!.!.!.!.!.!.!.!.!.!.!.!.!.!.!.!.!.!.",
"!.!.!.!.!.!.!.!.!.!.!.!.!.!.!.!.!.!.!.!.!.!.!.!.!.!.!.!.!.!.!.!.!.!.!.!.!.!.!.!.!.!.!.!.!.!.!.!.!.!.!.!.!.!.!.!.!.!.!.!.!.!.!.!.!.!.!.!.!.!.!.!.!.!.!.!.!.!.!.!.!.!.!.!.!.!.!.!.!.!.!.!.!.!.!.!.!.!.!.!.!.!.!.!.!.!.!.!.!.!.!.!.!.!.!.    X @ @ $ & & & - , 2 6 q e s d d z n M B Z D G G D D G H L I U Y U U W W W W ^ / / _ ' [ [ { { {  .X.X.o.o.@.$.&.=.=.:.:.,.,.<.<.<.3.3.6.6.6.9.9.w.r.r.r.u.u.p.p.f.f.h.l.l.v.v.v.N.N.B.B.B.B.B.B.A.A.A.A.S.D.D.D.D.D.D.D.D.S.D.S.S.A.A.B.B.B.B.N.N.n.v.v.v.l.l.l.l.h.h.f.f.f.f.f.f.p.p.p.p.p.u.u.r.r.w.w.9.9.6.6.5.3.3.<.<.<.<.<.,.,.,.:.:.=.:.:.:.:.<.:.<.<.<.<.<.<.<.<.<.3.3.3.3.5.5.6.6.6.9.9.9.9.w.r.r.u.u.p.p.s.f.f.h.h.h.h.l.l.l.l.v.v.v.v.n.N.n.N.B.B.B.B.B.B.B.A.A.D.D.D.D.J.J.D.J.J.J.D.J.J.J.J.D.J.D.J.D.D.D.D.D.D.D.D.D.D.D.D.D.D.D.D.J.J.J.J.J.J.J.J.J.J.J.J.J.D.D.D.D.D.D.D.D.D.D.J.J.J.J.J.J.J.J.J.J.D.J.D.D.S.A.A.B.B.N.N.v.l.l.l.l.h.h.f.s.p.u.u.r.w.9.9.6.5.3.<.,.:.:.:.=.=.&.&.&.@.@.@.o.o.o.o.o. . . .{ { { { [ [ ' ' _ _ _ / / / / / W W W W W T U L H D D Z M x x k d i y q 9 6 2 2 , - & $ @ X   !.!.!.!.!.!.!.!.!.!.!.!.!.!.!.!.!.!.!.!.!.!.!.!.!.!.!.!.!.!.!.!.!.!.!.!.!.!.!.!.!.!.!.!.!.!.!.!.!.!.!.!.!.!.!.!.!.!.!.!.!.!.!.!.!.!.!.!.!.!.!.",
"!.!.!.!.!.!.!.!.!.!.!.!.!.!.!.!.!.!.!.!.!.!.!.!.!.!.!.!.!.!.!.!.!.!.!.!.!.!.!.!.!.!.!.!.!.!.!.!.!.!.!.!.!.!.!.!.!.!.!.!.!.!.!.!.!.!.!.!.!.!.!.!.!.!.!.!.!.!.!.!.!.!.!.!.!.!.!.!.!.!.!.!.!.!.!.!.!.!.!.!.!.!.!.!.!.!.!.!.!.!.!.!.!.!.!.!.  X @ @ + $ & - - , 2 9 e s s d k b M Z D D G L L G G L L I I U U U T W W W W / / / _ ' [ [ {  . . .o.o.o.o.@.&.&.=.=.:.:.,.,.<.<.3.3.6.6.9.9.6.9.w.r.r.u.u.u.p.s.f.f.h.h.l.l.v.v.N.N.B.B.B.B.B.A.A.A.A.S.A.A.S.D.D.D.D.D.D.D.D.A.S.A.A.A.B.B.B.N.N.N.v.v.v.v.l.h.h.h.h.f.f.f.f.f.f.f.s.p.p.p.u.u.u.r.r.9.w.9.9.6.6.3.3.3.3.<.<.<.<.,.,.:.,.=.:.:.:.:.:.,.:.,.<.,.<.<.<.<.<.<.3.3.3.5.5.6.6.9.9.9.9.9.w.r.r.r.u.u.u.p.p.f.f.h.h.h.h.l.l.l.l.l.v.v.v.v.v.N.N.N.N.N.B.B.B.B.A.S.D.D.J.J.D.J.J.J.J.D.J.D.J.J.J.J.J.D.D.D.D.D.D.D.D.D.D.D.D.D.D.J.J.J.J.J.J.J.J.J.J.J.J.J.J.J.J.J.D.D.J.J.D.D.D.J.J.J.J.J.J.J.J.L.J.J.J.J.J.D.D.D.D.A.B.B.B.N.v.v.l.l.l.l.h.f.f.p.u.u.r.r.9.9.6.5.3.<.<.<.:.:.=.=.=.&.&.&.$.@.@.@.o.o.o.o. . .{ { { [ [ [ ' ' ' _ _ _ _ _ / / W W W W W Y I L H D D B N b z k d i y q 9 6 2 2 , - & & @ X   !.!.!.!.!.!.!.!.!.!.!.!.!.!.!.!.!.!.!.!.!.!.!.!.!.!.!.!.!.!.!.!.!.!.!.!.!.!.!.!.!.!.!.!.!.!.!.!.!.!.!.!.!.!.!.!.!.!.!.!.!.!.!.!.!.!.!.!.!.!.!.",
"!.!.!.!.!.!.!.!.!.!.!.!.!.!.!.!.!.!.!.!.!.!.!.!.!.!.!.!.!.!.!.!.!.!.!.!.!.!.!.!.!.!.!.!.!.!.!.!.!.!.!.!.!.!.!.!.!.!.!.!.!.!.!.!.!.!.!.!.!.!.!.!.!.!.!.!.!.!.!.!.!.!.!.!.!.!.!.!.!.!.!.!.!.!.!.!.!.!.!.!.!.!.!.!.!.  !.!.!.!.!.!.!.!.!.  X X X X @ & & - 2 2 6 q y s d k x N Z D D G L L L L L L I U U Y R R W W W W W / / _ ' [ { { {  . .o.o.o.o.o.@.&.=.=.:.:.,.,.,.<.<.3.3.6.6.9.6.9.w.9.w.r.u.u.u.p.s.f.f.h.l.l.l.v.n.N.N.B.B.A.B.A.B.A.A.A.A.A.A.S.D.D.D.D.D.D.D.A.D.A.A.A.A.A.B.B.B.N.N.n.v.v.v.l.l.h.h.h.f.f.f.f.f.f.f.s.p.p.p.u.u.u.r.r.w.9.9.9.6.6.5.3.3.3.3.<.<.<.<.,.<.,.:.:.:.:.:.:.:.:.,.,.<.<.<.<.<.<.<.<.3.3.3.3.6.6.6.9.9.9.9.9.w.r.r.r.u.u.p.p.f.f.f.h.h.h.h.h.l.l.v.v.v.v.v.v.v.N.n.N.N.N.B.B.B.A.S.D.D.D.D.D.D.D.D.J.J.J.D.J.J.J.J.J.D.D.D.D.D.D.D.D.D.D.D.D.D.D.J.J.J.J.J.L.J.J.J.J.J.J.J.J.J.J.D.J.D.J.J.J.D.J.J.J.J.J.J.J.J.L.J.J.J.J.J.J.J.D.D.D.D.A.A.B.B.N.v.v.l.l.l.h.h.f.p.p.u.u.r.w.9.6.6.3.3.<.<.,.:.:.=.=.=.=.&.&.@.@.@.@.o.o.o. . .{ { { { [ [ ' ' ' _ _ / / / / / W W W W W Y I L G D Z M n x k d s y e 0 8 6 2 2 , - - & @ X   !.!.!.!.!.!.!.!.!.!.!.!.!.!.!.!.!.!.!.!.!.!.!.!.!.!.!.!.!.!.!.!.!.!.!.!.!.!.!.!.!.!.!.!.!.!.!.!.!.!.!.!.!.!.!.!.!.!.!.!.!.!.!.!.!.!.!.!.!.!.!.",
"!.!.!.!.!.!.!.!.!.!.!.!.!.!.!.!.!.!.!.!.!.!.!.!.!.!.!.!.!.!.!.!.!.!.!.!.!.!.!.!.!.!.!.!.!.!.!.!.!.!.!.!.!.!.!.!.!.!.!.!.!.!.!.!.!.!.!.!.!.!.!.!.!.!.!.!.!.!.!.!.!.!.!.!.!.!.!.!.!.!.!.!.!.!.!.!.!.!.!.!.!.!.                !.!.!.!.!.  X X X X $ & - , 2 6 8 q i d z x n M Z D D L I I I I L I U T Y Y W W W W W / / / _ ' [ [ { { {  . .o.o.o.@.@.@.&.=.=.:.:.,.,.,.<.<.3.3.6.6.6.6.9.9.w.w.r.u.u.p.p.f.f.f.h.h.l.l.v.v.N.B.B.B.A.B.B.B.A.A.A.A.A.A.A.A.S.S.A.S.D.D.D.A.S.A.A.A.A.A.B.B.N.N.n.v.v.l.l.l.h.h.h.h.f.f.f.f.f.f.s.p.p.p.p.u.u.u.r.r.w.9.9.9.6.6.6.3.3.3.<.<.<.<.<.<.:.:.:.:.:.:.,.,.,.,.,.,.<.,.<.<.<.<.<.<.3.3.3.5.6.6.6.9.9.9.9.9.w.r.r.r.u.u.p.p.f.f.f.h.h.h.l.l.l.v.v.l.v.v.v.v.v.v.v.N.N.B.B.B.A.S.D.D.D.D.D.D.D.J.D.J.J.D.J.D.J.J.J.J.D.J.J.D.D.D.D.J.D.J.J.J.J.J.J.J.J.J.J.L.L.J.J.J.J.J.J.J.J.J.J.D.D.D.J.J.J.J.J.J.J.J.J.J.J.L.L.J.L.L.J.J.J.D.D.D.A.A.B.B.B.N.n.v.l.l.l.h.f.s.p.u.u.r.w.9.9.6.6.3.3.3.,.,.:.=.=.=.=.&.&.@.@.@.@.o.o.X. . . .{ { { [ [ [ ' ' _ _ / / / / W W W W W R U I L D D Z M x x k d s y q 0 8 6 2 2 , - & & @ @ X   !.!.!.!.!.!.!.!.!.!.!.!.!.!.!.!.!.!.!.!.!.!.!.!.!.!.!.!.!.!.!.!.!.!.!.!.!.!.!.!.!.!.!.!.!.!.!.!.!.!.!.!.!.!.!.!.!.!.!.!.!.!.!.!.!.!.!.!.!.!.",
"!.!.!.!.!.!.!.!.!.!.!.!.!.!.!.!.!.!.!.!.!.!.!.!.!.!.!.!.!.!.!.!.!.!.!.!.!.!.!.!.!.!.!.!.!.!.!.!.!.!.!.!.!.!.!.!.!.!.!.!.!.!.!.!.!.!.!.!.!.!.!.!.!.!.!.!.!.!.!.!.!.!.!.!.!.!.!.!.!.!.!.!.!.!.!.!.!.    X X   X       X X     !.!.!.!.!.  X X X @ $ - , 2 6 9 q y s k x x M Z D D G L I U I I I U T W W R W W W W W / / _ ' [ [ [ { { {  .o.o.o.o.o.@.@.&.=.=.:.:.,.,.<.,.<.3.3.6.6.6.6.9.w.w.u.r.u.u.p.s.f.f.f.h.l.l.l.v.v.N.B.B.B.A.B.B.B.B.B.B.A.B.A.A.A.A.S.A.S.A.D.S.S.A.A.A.A.A.B.B.B.N.N.n.v.l.l.l.l.h.h.h.h.h.f.f.f.f.f.f.f.p.p.p.u.u.u.r.r.w.9.9.9.6.6.6.3.3.3.3.<.<.<.<.<.<.,.,.,.:.,.:.,.,.:.,.,.<.<.<.<.<.<.<.<.<.3.3.5.6.6.6.9.6.9.9.w.9.w.w.r.r.u.u.p.s.f.f.f.h.h.h.h.l.l.l.v.l.v.v.v.v.v.v.n.n.B.B.B.B.A.S.D.D.D.D.D.D.D.J.J.J.D.D.D.J.J.J.J.D.J.D.J.D.D.J.J.J.J.J.J.J.J.J.J.J.P.J.L.L.J.J.J.J.J.J.J.J.J.J.J.D.J.D.J.J.J.J.J.J.J.J.J.L.J.L.P.L.L.L.J.J.D.D.D.S.A.B.B.B.B.n.v.v.l.l.h.f.f.p.p.u.u.r.w.9.6.6.6.3.<.<.<.,.:.:.=.=.=.=.&.&.$.@.o.o.X. . . .{ { [ [ [ ' ' _ _ _ _ / / / W W W W W T I L L D D Z N b k d s i y q 0 7 6 2 , , , - & & @ X   !.!.!.!.!.!.!.!.!.!.!.!.!.!.!.!.!.!.!.!.!.!.!.!.!.!.!.!.!.!.!.!.!.!.!.!.!.!.!.!.!.!.!.!.!.!.!.!.!.!.!.!.!.!.!.!.!.!.!.!.!.!.!.!.!.!.!.!.!.!.",
"!.!.!.!.!.!.!.!.!.!.!.!.!.!.!.!.!.!.!.!.!.!.!.!.!.!.!.!.!.!.!.!.!.!.!.!.!.!.!.!.!.!.!.!.!.!.!.!.!.!.!.!.!.!.!.!.!.!.!.!.!.!.!.!.!.!.!.!.!.!.!.!.!.!.!.!.!.!.!.!.!.!.!.!.!.!.!.!.!.!.!.!.!.!.!.!.    X X X X X     X X X     !.!.!.!.!.    X X @ & - 2 2 8 0 y s d z x N Z Z D G L I U Y U U U Y W W W W W W W W / / / _ ' [ [ [ { { {  .o.o.o.o.@.@.@.&.&.=.:.:.,.,.,.<.<.3.5.6.6.6.9.w.w.r.u.u.u.p.p.s.f.f.h.h.l.l.l.l.v.N.N.B.B.B.B.B.B.B.B.B.B.A.A.A.A.A.A.S.A.S.A.S.A.A.A.A.A.B.B.B.N.N.N.N.v.v.l.l.l.l.h.h.h.h.h.f.f.f.f.f.s.p.p.p.u.u.u.u.r.w.w.9.6.6.6.6.3.3.3.3.3.3.3.<.<.<.,.,.,.,.,.,.,.<.,.,.,.<.,.,.<.<.<.<.<.<.3.3.3.6.6.6.6.6.9.9.9.9.9.w.w.r.u.u.u.p.p.f.f.f.f.h.l.l.l.l.l.l.v.l.v.v.v.v.n.N.B.B.B.B.A.A.D.D.D.D.D.D.D.D.D.D.D.D.D.J.J.J.J.J.J.J.J.J.J.J.J.D.J.J.J.J.J.L.L.P.P.P.P.J.J.J.J.J.J.J.J.J.J.J.J.D.J.J.J.J.J.J.J.J.J.J.J.J.J.L.L.L.J.L.J.J.D.D.D.D.A.A.B.B.N.N.n.v.l.l.h.h.f.s.p.u.u.r.w.w.9.6.6.3.3.<.<.,.,.:.=.=.=.=.&.&.@.@.@.o.X.X. . .{ { { { [ ' ' ' _ _ / / / W W W W W W T U L G D Z M x x k d s y e q 9 6 6 2 , , , - & & @ @ X   !.!.!.!.!.!.!.!.!.!.!.!.!.!.!.!.!.!.!.!.!.!.!.!.!.!.!.!.!.!.!.!.!.!.!.!.!.!.!.!.!.!.!.!.!.!.!.!.!.!.!.!.!.!.!.!.!.!.!.!.!.!.!.!.!.!.!.!.!.",
"!.!.!.!.!.!.!.!.!.!.!.!.!.!.!.!.!.!.!.!.!.!.!.!.!.!.!.!.!.!.!.!.!.!.!.!.!.!.!.!.!.!.!.!.!.!.!.!.!.!.!.!.!.!.!.!.!.!.!.!.!.!.!.!.!.!.!.!.!.!.!.!.!.!.!.!.!.!.!.!.!.!.!.!.!.!.!.!.!.!.!.!.!.!.!.  X X X @ @ X X     X @ X X X   X       X X X + @ & , 2 6 6 q y s k x n B Z D D H L U R R R T T R W W W W W W / / / / _ ' [ [ { { { {  . .X.X.o.o.@.@.&.&.&.=.=.:.:.,.<.<.3.3.5.6.6.9.9.w.w.r.r.u.u.p.p.f.f.f.h.h.l.l.l.v.v.v.N.N.B.B.N.B.B.B.B.B.B.B.B.A.A.A.A.A.A.A.A.A.A.A.A.A.B.B.B.B.N.N.N.n.v.l.l.l.l.h.h.h.h.h.f.f.f.f.f.f.s.s.p.p.p.u.u.u.u.r.w.w.9.6.6.6.5.3.3.3.3.3.3.3.<.<.<.<.,.<.,.,.<.,.,.,.,.,.,.,.<.<.<.<.<.<.3.3.3.5.6.6.6.6.6.9.9.9.9.w.w.w.r.u.u.u.p.s.p.f.f.h.h.h.h.l.l.l.l.l.l.l.v.v.n.N.N.B.B.B.A.A.D.D.D.D.D.D.D.D.D.D.J.J.D.J.J.J.J.J.J.J.J.J.J.J.J.J.J.J.J.L.J.J.L.P.P.P.P.P.J.L.J.J.J.L.J.L.J.J.J.J.J.J.J.J.J.J.J.L.J.J.J.J.J.J.J.L.J.J.J.J.D.D.D.D.S.A.B.B.B.N.N.n.v.l.l.h.f.f.p.p.u.u.r.w.9.9.6.6.3.3.<.<.,.:.=.=.=.=.=.&.@.@.@.o.o.o. . . .{ { { [ ' ' _ _ / / / / / W W W W R T I L D D Z N x k d d s y e 0 8 6 6 2 2 2 , , - & & + X   !.!.!.!.!.!.!.!.!.!.!.!.!.!.!.!.!.!.!.!.!.!.!.!.!.!.!.!.!.!.!.!.!.!.!.!.!.!.!.!.!.!.!.!.!.!.!.!.!.!.!.!.!.!.!.!.!.!.!.!.!.!.!.!.!.!.!.!.!.",
"!.!.!.!.!.!.!.!.!.!.!.!.!.!.!.!.!.!.!.!.!.!.!.!.!.!.!.!.!.!.!.!.!.!.!.!.!.!.!.!.!.!.!.!.!.!.!.!.!.!.!.!.!.!.!.!.!.!.!.!.!.!.!.!.!.!.!.!.!.!.!.!.!.!.!.!.!.!.!.!.!.!.!.!.!.!.!.!.!.!.!.!.!.!.  X X X @ + @ X X X X X X X X X X X X X X @ @ @ & - - , 2 8 9 e i s k x N Z D G G L U T R W W W W W W W W W W / / / _ _ ' ' [ { { {  . . .o.X.X.o.o.@.@.&.&.&.=.=.:.,.,.<.<.<.3.3.6.6.9.9.9.w.r.r.u.u.p.p.f.f.h.h.h.h.l.l.v.v.n.N.N.N.N.N.B.N.B.B.B.B.B.B.B.B.A.B.A.A.A.A.A.A.A.A.A.B.B.B.N.N.N.n.v.v.l.l.l.l.h.h.h.h.h.f.f.f.f.f.f.f.s.p.p.p.u.u.u.r.r.w.9.9.6.6.6.6.3.3.3.3.3.3.<.<.<.<.<.<.<.<.<.<.<.,.,.,.<.<.,.<.,.<.<.<.<.<.3.3.6.6.6.6.6.6.9.9.9.9.9.9.w.w.r.u.u.u.p.p.f.f.f.h.h.h.h.h.l.l.v.l.v.v.v.v.n.N.B.B.B.B.A.S.D.D.D.D.D.D.D.D.D.D.D.J.J.D.J.J.J.J.J.J.J.L.L.J.J.J.J.J.J.J.P.U.P.U.U.P.P.P.J.L.L.L.L.J.J.J.J.J.J.J.J.J.J.J.J.J.J.J.J.J.J.J.J.J.J.J.J.J.D.J.D.D.D.S.A.B.B.B.N.N.n.v.l.l.h.h.f.s.p.u.u.u.r.w.9.9.6.6.3.3.<.,.:.:.=.=.=.&.&.&.@.@.o.o.X.X. . .{ { { [ [ ' _ _ / / / ^ W W W W W R U I H D Z M x x k d s s y e 0 8 6 2 2 2 2 , - - & $ @ X   !.!.!.!.!.!.!.!.!.!.!.!.!.!.!.!.!.!.!.!.!.!.!.!.!.!.!.!.!.!.!.!.!.!.!.!.!.!.!.!.!.!.!.!.!.!.!.!.!.!.!.!.!.!.!.!.!.!.!.!.!.!.!.!.!.!.!.!.!.",
"!.!.!.!.!.!.!.!.!.!.!.!.!.!.!.!.!.!.!.!.!.!.!.!.!.!.!.!.!.!.!.!.!.!.!.!.!.!.!.!.!.!.!.!.!.!.!.!.!.!.!.!.!.!.!.!.!.!.!.!.!.!.!.!.!.!.!.!.!.!.!.!.!.!.!.!.!.!.!.!.!.!.!.!.!.!.!.!.!.!.!.!.!.    X X X X X X @ @ + @ @ @ + @ @ X @ X X @ + $ & - , , 2 6 8 q e y s k x B Z D H L I Y W W W W W W W W W W / / / _ _ _ ' ' [ { { {  . . . .X.o.o.o.o.@.@.@.&.&.=.=.:.:.,.,.<.<.3.5.6.6.9.9.9.w.r.r.u.u.p.p.f.f.h.h.h.l.l.l.v.v.v.n.n.N.n.N.N.N.N.B.B.B.B.B.B.A.B.B.B.B.B.A.B.A.A.B.B.B.B.B.N.N.N.n.v.v.v.l.l.l.l.h.h.h.h.h.f.f.f.f.f.f.f.s.p.p.p.u.u.u.r.w.9.9.9.6.6.5.3.3.3.3.3.3.<.<.<.<.<.<.<.<.,.<.,.<.<.,.<.<.<.,.,.,.<.<.<.<.3.3.3.3.3.5.6.6.6.6.9.9.9.9.w.r.r.r.u.u.u.p.p.f.f.h.h.h.h.l.h.l.l.l.l.l.l.v.n.N.N.B.B.B.A.A.S.D.D.D.D.D.D.D.D.D.J.J.J.J.J.J.J.J.L.J.L.J.L.J.J.J.J.J.P.P.P.U.U.P.P.P.P.P.P.L.L.L.L.J.J.J.J.J.J.J.J.J.J.J.J.J.J.J.J.J.J.J.J.J.J.J.D.J.J.D.D.D.D.S.A.B.B.B.B.N.n.v.l.l.l.h.f.s.p.p.u.u.r.9.9.9.6.6.5.3.<.<.,.:.:.=.=.=.&.&.@.@.@.o.o.X.X. . .{ { [ [ ' _ _ / / / ^ W W W W W T U L G D Z M x z k d s i e q 0 8 6 2 2 2 2 , - - & & + X   !.!.!.!.!.!.!.!.!.!.!.!.!.!.!.!.!.!.!.!.!.!.!.!.!.!.!.!.!.!.!.!.!.!.!.!.!.!.!.!.!.!.!.!.!.!.!.!.!.!.!.!.!.!.!.!.!.!.!.!.!.!.!.!.!.!.!.!.!.",
"!.!.!.!.!.!.!.!.!.!.!.!.!.!.!.!.!.!.!.!.!.!.!.!.!.!.!.!.!.!.!.!.!.!.!.!.!.!.!.!.!.!.!.!.!.!.!.!.!.!.!.!.!.!.!.!.!.!.!.!.!.!.!.!.!.!.!.!.!.!.!.!.!.!.!.!.!.!.!.!.!.!.!.!.!.!.!.!.!.!.!.!.!.    X X X X X X + + @ @ @ + @ @ @ @ X X @ @ & & - , 2 2 6 6 0 y y s k k n Z D G L L I R W W W W W W W W W / / / _ _ ' _ [ [ { { {  . . . .o.o.o.o.o.@.@.@.@.&.=.&.=.=.:.,.<.<.<.3.3.6.6.9.9.9.9.r.r.u.u.p.p.f.f.h.h.h.l.l.l.v.v.v.n.v.n.n.n.N.N.N.N.N.B.B.N.B.B.B.B.B.B.B.B.A.A.A.B.B.B.B.N.N.N.n.v.v.v.l.l.l.l.h.h.h.h.h.h.h.h.h.f.f.f.s.p.p.p.p.p.u.u.r.r.9.9.9.6.6.6.3.3.3.3.3.3.<.<.<.<.<.<.<.<.<.,.<.,.,.<.<.<.<.<.,.,.<.<.3.<.3.3.3.3.5.5.6.6.6.6.9.6.9.9.9.w.w.r.r.u.u.p.p.s.f.f.f.h.h.h.h.l.l.l.l.v.l.v.v.n.N.B.B.B.B.A.A.D.D.D.D.D.D.D.D.J.J.J.J.J.J.J.J.J.J.L.J.J.L.J.L.J.P.P.P.U.P.P.P.P.P.U.P.P.P.L.P.L.L.J.J.L.L.J.J.J.J.J.J.D.J.J.J.J.J.J.J.J.J.J.D.D.D.D.J.D.D.D.D.A.A.B.B.B.B.N.n.v.v.l.l.h.f.f.p.p.u.u.r.r.9.9.9.6.6.3.3.<.<.,.:.:.=.=.&.&.@.@.@.o.o.o.o. . .{ { { [ ' _ _ / / / W W W W W R Y I L D Z Z N x k d d s y e q 9 7 6 6 2 2 2 , - - & & + X   !.!.!.!.!.!.!.!.!.!.!.!.!.!.!.!.!.!.!.!.!.!.!.!.!.!.!.!.!.!.!.!.!.!.!.!.!.!.!.!.!.!.!.!.!.!.!.!.!.!.!.!.!.!.!.!.!.!.!.!.!.!.!.!.!.!.!.!.!.",
"!.!.!.!.!.!.!.!.!.!.!.!.!.!.!.!.!.!.!.!.!.!.!.!.!.!.!.!.!.!.!.!.!.!.!.!.!.!.!.!.!.!.!.!.!.!.!.!.!.!.!.!.!.!.!.!.!.!.!.!.!.!.!.!.!.!.!.!.!.!.!.!.!.!.!.!.!.!.!.!.!.!.!.!.!.!.!.!.!.!.!.!.!.    X X X X X X + @ & & & & & @ + X X @ $ & & - , , 2 6 9 q e i s d z n B Z D G L I U R W W W W W W W W / / _ / _ _ ' [ [ { { {  . . .o.o.o.o.o.o.o.@.@.@.@.&.&.&.=.=.:.,.,.<.<.3.5.6.6.6.6.9.9.r.r.u.u.p.p.s.f.f.h.h.l.l.v.l.v.v.v.v.v.v.n.v.N.N.N.N.N.N.B.N.B.N.B.B.B.B.B.B.B.B.A.B.B.B.N.N.N.v.n.v.v.v.l.l.l.l.h.h.h.h.h.h.h.h.f.f.f.f.f.s.p.p.p.u.u.u.r.w.9.9.9.6.6.3.3.3.3.3.3.3.<.<.<.<.3.<.<.<.<.,.,.,.<.<.,.<.,.<.<.<.<.<.3.<.3.3.3.3.5.5.6.6.6.6.9.6.9.9.9.w.r.r.u.u.p.p.s.f.f.f.h.h.h.h.h.l.l.l.l.v.v.n.n.N.N.B.B.B.A.S.D.D.S.D.D.D.D.D.D.D.J.J.J.J.J.J.J.J.J.J.L.L.P.P.J.P.P.P.U.U.P.P.P.P.U.U.P.U.P.P.J.J.J.J.J.L.L.J.J.J.J.J.D.J.D.J.J.J.J.J.J.D.D.D.D.D.D.D.D.D.A.D.A.B.B.B.B.B.N.n.v.l.l.l.h.f.f.s.p.p.u.u.r.r.9.9.6.6.6.3.3.<.,.:.:.=.=.=.&.&.@.@.@.o.o.o.X. .{ { { [ ' _ _ / / / W W W W W T I L H D Z B n z k d s s i e 0 9 7 6 6 6 2 , , - - & & + X   !.!.!.!.!.!.!.!.!.!.!.!.!.!.!.!.!.!.!.!.!.!.!.!.!.!.!.!.!.!.!.!.!.!.!.!.!.!.!.!.!.!.!.!.!.!.!.!.!.!.!.!.!.!.!.!.!.!.!.!.!.!.!.!.!.!.!.!.!.",
"!.!.!.!.!.!.!.!.!.!.!.!.!.!.!.!.!.!.!.!.!.!.!.!.!.!.!.!.!.!.!.!.!.!.!.!.!.!.!.!.!.!.!.!.!.!.!.!.!.!.!.!.!.!.!.!.!.!.!.!.!.!.!.!.!.!.!.!.!.!.!.!.!.!.!.!.!.!.!.!.!.!.!.!.!.!.!.!.!.!.!.!.!.    X X X   X X @ @ & & & & & $ @ + + @ & & - , , 2 6 8 q y i s d k x B Z D D G L I U R W W W ^ / / / / / / _ _ _ ' [ [ { { {  . . . .o.o.o.o.o.o.o.@.@.@.&.&.&.=.=.=.:.:.,.<.<.3.3.6.6.6.9.9.w.w.u.u.u.p.p.f.f.h.h.l.l.l.l.v.v.v.v.v.v.v.v.v.v.N.N.N.N.N.N.N.N.N.N.N.B.B.B.B.B.B.B.B.B.N.N.N.N.n.v.v.v.v.l.l.l.h.l.h.h.h.h.h.h.f.f.f.f.f.f.s.p.p.p.u.u.r.r.w.9.9.9.6.6.5.3.3.3.3.3.3.<.<.<.<.<.<.<.<.<.,.,.,.,.<.,.<.,.,.<.<.<.<.3.3.3.3.3.3.3.3.6.6.6.6.6.6.6.9.9.9.w.w.u.u.u.p.p.s.f.f.f.h.h.h.h.l.l.l.l.v.v.v.n.N.N.B.B.B.A.A.A.A.A.D.D.D.D.D.D.D.D.J.J.J.J.J.P.J.J.J.P.P.P.P.P.P.P.P.P.U.U.P.U.P.U.P.P.P.P.P.J.P.J.J.J.L.J.L.J.J.D.D.J.J.D.J.D.J.D.J.J.D.D.D.D.D.D.D.D.S.D.A.B.A.B.B.B.N.N.n.v.v.v.l.h.h.f.f.f.p.u.u.u.r.w.9.9.6.6.5.3.<.<.,.:.:.=.=.&.&.@.@.@.o.o.X. . .{ { { [ ' _ _ / / / W W W W R U I L G D Z M n z k d s s y q 0 8 7 6 2 2 2 , , - & & & + X   !.!.!.!.!.!.!.!.!.!.!.!.!.!.!.!.!.!.!.!.!.!.!.!.!.!.!.!.!.!.!.!.!.!.!.!.!.!.!.!.!.!.!.!.!.!.!.!.!.!.!.!.!.!.!.!.!.!.!.!.!.!.!.!.!.!.!.!.!.",
"!.!.!.!.!.!.!.!.!.!.!.!.!.!.!.!.!.!.!.!.!.!.!.!.!.!.!.!.!.!.!.!.!.!.!.!.!.!.!.!.!.!.!.!.!.!.!.!.!.!.!.!.!.!.!.!.!.!.!.!.!.!.!.!.!.!.!.!.!.!.!.!.!.!.!.!.!.!.!.!.!.!.!.!.!.!.!.!.!.!.!.!.    X X X X X X X @ @ & & & & & & & $ @ @ & & - , , 6 8 q y s d k z x N M Z Z D D H L I T W W W W / / / / / / / _ _ [ [ { { { { {  . .X.o.o.o.o.o.o.@.@.@.@.&.&.=.=.=.=.:.:.,.<.<.3.5.6.6.9.9.9.9.w.u.u.u.p.s.f.f.h.h.h.l.l.l.v.l.v.l.v.v.v.v.v.n.n.n.n.n.v.n.N.N.N.N.N.B.B.B.B.B.B.B.B.B.N.N.N.n.n.v.v.l.l.l.l.l.l.h.l.h.h.h.h.h.h.f.h.f.f.f.f.s.p.p.p.u.u.r.w.9.9.9.6.6.5.3.3.3.3.3.3.<.<.<.<.<.<.<.<.<.<.<.<.,.<.,.<.<.,.<.<.<.3.3.3.3.3.3.3.3.3.6.6.6.6.5.6.6.6.9.w.w.r.r.u.u.u.p.p.s.f.f.f.h.h.h.h.l.l.v.v.v.v.n.N.N.B.B.B.B.A.A.A.S.A.D.D.D.D.D.D.D.J.J.J.J.J.J.P.P.J.P.P.P.P.P.U.P.U.U.U.U.U.P.U.P.P.P.P.P.P.L.L.J.J.J.J.J.J.J.J.J.J.J.J.J.J.J.D.D.D.D.D.D.D.D.D.D.D.D.A.A.A.A.B.B.B.B.N.N.v.v.v.v.l.h.h.f.f.f.p.p.u.u.r.r.w.9.9.6.6.3.<.<.,.<.:.=.=.&.&.@.@.@.o.o.X.X. .{ { [ [ ' ' _ _ / W W W W W Y I L H D D Z M n x k d s i y q 0 8 6 6 2 2 2 , , - - & & + X   !.!.!.!.!.!.!.!.!.!.!.!.!.!.!.!.!.!.!.!.!.!.!.!.!.!.!.!.!.!.!.!.!.!.!.!.!.!.!.!.!.!.!.!.!.!.!.!.!.!.!.!.!.!.!.!.!.!.!.!.!.!.!.!.!.!.!.!.!.",
"!.!.!.!.!.!.!.!.!.!.!.!.!.!.!.!.!.!.!.!.!.!.!.!.!.!.!.!.!.!.!.!.!.!.!.!.!.!.!.!.!.!.!.!.!.!.!.!.!.!.!.!.!.!.!.!.!.!.!.!.!.!.!.!.!.!.!.!.!.!.!.!.!.!.!.!.!.!.!.!.!.!.!.!.!.!.!.!.!.!.!.!.!.    X X @ X @ @ + @ @ & & & & $ @ @ @ + & & , , 2 6 q y s d k x n N M Z Z Z D D G L I T W W W / / / _ / / / / / _ ' [ { { { {  . . . .o.o.o.o.@.@.@.@.@.&.&.&.=.=.=.=.:.,.,.<.<.3.3.6.6.6.9.9.9.r.r.u.p.p.f.f.h.h.h.h.l.l.l.l.l.l.l.l.v.v.v.v.v.v.v.v.v.n.n.n.n.N.n.N.N.N.B.N.B.B.B.B.N.B.N.N.n.n.v.v.v.l.l.l.l.l.l.h.h.h.h.h.h.h.h.h.h.f.f.f.p.s.p.p.u.u.u.r.w.9.9.6.6.6.3.3.3.3.<.<.<.<.<.<.<.<.<.<.<.<.<.<.<.<.<.<.,.<.,.<.<.<.3.3.<.3.3.3.3.3.3.3.3.3.6.6.6.6.9.9.9.w.r.r.u.u.u.p.p.s.f.f.f.h.h.l.l.l.l.v.v.v.n.N.N.B.B.B.A.B.A.A.D.A.D.D.D.J.D.J.J.J.J.J.J.L.P.P.P.P.U.P.P.P.U.U.U.U.U.U.U.U.U.U.U.U.P.P.P.P.P.J.L.J.L.J.L.J.J.J.J.J.D.J.D.J.D.D.D.D.D.D.D.D.D.D.A.S.A.A.A.B.B.B.B.B.N.N.N.v.v.v.v.l.l.h.f.f.f.p.p.p.u.r.r.r.9.9.6.6.3.3.<.<.,.:.=.=.&.&.&.@.@.o.o.o.X. .{ { { [ ' _ _ / / W W W W T U I L D D Z B N x z k d s i y q 0 8 6 2 2 2 , , - - - & & + X   !.!.!.!.!.!.!.!.!.!.!.!.!.!.!.!.!.!.!.!.!.!.!.!.!.!.!.!.!.!.!.!.!.!.!.!.!.!.!.!.!.!.!.!.!.!.!.!.!.!.!.!.!.!.!.!.!.!.!.!.!.!.!.!.!.!.!.!.!.",
"!.!.!.!.!.!.!.!.!.!.!.!.!.!.!.!.!.!.!.!.!.!.!.!.!.!.!.!.!.!.!.!.!.!.!.!.!.!.!.!.!.!.!.!.!.!.!.!.!.!.!.!.!.!.!.!.!.!.!.!.!.!.!.!.!.!.!.!.!.!.!.!.!.!.!.!.!.!.!.!.!.!.!.!.!.!.!.!.!.!.!.!.!.    X @ + + @ @ $ & @ $ & & & @ + @ @ @ & - 2 6 6 0 q y s d z n M M Z Z Z Z Z D G L U R W W W / / / / / / / / _ _ ' [ { { { {  . .X.X.X.o.o.@.@.@.$.$.@.&.&.=.=.=.=.=.=.:.,.,.<.3.5.6.6.6.9.9.w.r.u.u.p.p.f.f.h.h.h.l.l.l.l.l.v.l.v.l.v.l.v.v.v.v.v.v.v.v.v.v.N.n.N.N.N.N.N.N.B.B.B.B.B.N.N.N.n.v.v.v.v.v.v.l.l.l.h.l.h.h.h.h.h.h.h.h.h.h.f.f.f.s.p.p.u.u.u.r.w.9.9.6.6.6.5.3.3.3.<.<.<.<.<.<.<.3.3.3.3.<.3.<.3.<.<.<.<.,.,.<.<.<.<.<.<.<.<.3.3.3.3.3.6.3.5.3.6.6.6.9.9.9.w.r.r.u.u.u.p.p.s.f.f.f.h.h.l.l.v.v.v.v.n.N.N.N.B.B.B.B.A.A.A.D.D.D.D.D.D.D.J.J.J.J.L.L.P.P.P.P.U.U.P.U.U.U.U.U.U.U.U.R.U.U.U.P.P.U.P.P.L.J.L.J.J.J.J.J.J.D.J.J.J.D.D.D.D.D.D.D.D.D.D.D.S.S.S.S.A.A.A.B.B.B.B.N.N.N.N.v.v.l.l.l.l.h.f.f.f.f.p.p.u.u.r.w.w.9.9.6.6.3.<.<.,.:.=.=.=.&.&.@.@.@.o.X. . .{ { { [ [ _ _ / / W W W R Y I L G D D Z M n x k k d s y y q 0 8 6 2 2 2 , , - - - & & + X   !.!.!.!.!.!.!.!.!.!.!.!.!.!.!.!.!.!.!.!.!.!.!.!.!.!.!.!.!.!.!.!.!.!.!.!.!.!.!.!.!.!.!.!.!.!.!.!.!.!.!.!.!.!.!.!.!.!.!.!.!.!.!.!.!.!.!.!.!.",
"!.!.!.!.!.!.!.!.!.!.!.!.!.!.!.!.!.!.!.!.!.!.!.!.!.!.!.!.!.!.!.!.!.!.!.!.!.!.!.!.!.!.!.!.!.!.!.!.!.!.!.!.!.!.!.!.!.!.!.!.!.!.!.!.!.!.!.!.!.!.!.!.!.!.!.!.!.!.!.!.!.!.!.!.!.!.!.!.!.!.!.!.!.  X X X + + $ & & & & & & + @ @ X + $ & - , 2 6 9 q e y s k z x M Z Z D D D D D L I Y W W W W / / / _ / / _ _ _ _ ' { { { {  . .X.o.X.o.o.@.@.@.@.@.@.&.&.=.=.=.=.=.:.:.,.,.<.<.3.3.6.6.6.9.9.w.w.u.u.p.f.f.f.h.h.l.l.l.l.l.l.v.v.v.v.l.l.v.l.v.v.v.v.v.v.v.n.n.N.N.N.N.N.B.B.N.B.B.B.N.N.N.N.v.v.v.v.v.v.v.l.l.l.l.h.l.h.l.h.h.h.h.h.h.h.f.f.f.f.p.p.p.u.u.r.r.9.9.9.6.6.5.3.3.3.<.<.<.3.<.<.3.3.3.3.3.<.<.3.<.<.<.3.<.<.<.<.<.<.<.<.<.3.<.<.<.<.<.<.3.3.3.3.3.6.6.6.6.9.9.w.r.r.r.u.u.p.p.s.f.f.h.h.l.l.l.l.v.v.n.N.N.N.B.B.B.B.B.A.A.D.D.D.D.D.D.D.J.J.J.J.L.L.P.P.P.U.U.U.U.U.U.U.U.U.U.U.U.U.U.U.U.U.U.P.P.P.J.J.L.J.J.J.D.J.D.D.J.D.D.D.D.D.D.D.D.D.D.D.D.D.A.S.A.A.A.A.A.B.B.B.B.B.N.N.n.v.v.l.l.l.l.h.h.f.f.f.p.p.u.u.u.r.w.9.9.6.5.3.3.<.,.:.:.=.=.=.&.@.@.o.o.o. . .{ { { [ ' _ / / / W W W R U I L G D D Z N x x k d d s y e q q 6 6 6 2 2 , , - - - & & + X   !.!.!.!.!.!.!.!.!.!.!.!.!.!.!.!.!.!.!.!.!.!.!.!.!.!.!.!.!.!.!.!.!.!.!.!.!.!.!.!.!.!.!.!.!.!.!.!.!.!.!.!.!.!.!.!.!.!.!.!.!.!.!.!.!.!.!.!.!.",
"!.!.!.!.!.!.!.!.!.!.!.!.!.!.!.!.!.!.!.!.!.!.!.!.!.!.!.!.!.!.!.!.!.!.!.!.!.!.!.!.!.!.!.!.!.!.!.!.!.!.!.!.!.!.!.!.!.!.!.!.!.!.!.!.!.!.!.!.!.!.!.!.!.!.!.!.!.!.!.!.!.!.!.!.!.!.!.!.!.!.!.!.!.!.  X X + @ $ $ $ $ $ @ @ + X X @ @ & & - 2 2 6 8 q e i s k z x N B Z D D D G L L U R W W W / / / _ _ _ / _ _ _ ' [ { { { {  . .X.X.o.o.@.@.@.@.&.&.&.&.=.=.=.=.=.:.:.:.,.,.<.<.3.3.5.6.6.6.9.w.r.u.u.p.f.f.f.h.h.l.l.l.l.l.l.v.v.v.v.l.v.v.v.v.v.v.v.v.v.n.n.N.n.N.N.N.B.N.B.B.B.B.B.N.N.N.N.n.v.v.v.v.v.l.l.l.l.l.l.h.l.h.l.h.h.h.h.h.h.f.f.f.f.s.p.p.u.u.r.w.w.w.9.6.6.5.3.3.3.<.<.3.3.<.<.3.3.3.3.3.3.<.3.<.<.<.<.<.<.<.<.<.<.<.<.<.<.<.<.<.<.<.<.<.3.3.3.3.3.6.6.6.6.9.9.w.r.r.u.u.p.p.s.f.f.f.h.h.l.l.l.l.v.v.N.N.B.B.B.B.B.A.A.A.A.A.D.D.D.D.J.J.J.J.J.L.P.P.P.U.U.U.U.U.U.U.U.U.U.R.R.R.U.U.U.U.P.U.P.P.P.J.L.J.J.J.D.D.D.D.D.D.D.D.D.D.D.D.D.D.D.D.A.S.S.A.A.A.A.A.A.A.B.B.B.B.N.N.N.n.v.v.l.l.l.l.h.h.f.f.f.f.p.p.u.u.u.r.9.9.9.6.3.3.<.<.,.:.=.=.=.&.$.@.o.o.o. . .{ { { [ ' _ / / ^ W W W T I L L G D Z M n x z k d s s y y q 0 6 6 2 2 , , , - - - & & @ X   !.!.!.!.!.!.!.!.!.!.!.!.!.!.!.!.!.!.!.!.!.!.!.!.!.!.!.!.!.!.!.!.!.!.!.!.!.!.!.!.!.!.!.!.!.!.!.!.!.!.!.!.!.!.!.!.!.!.!.!.!.!.!.!.!.!.!.!.!.",
"!.!.!.!.!.!.!.!.!.!.!.!.!.!.!.!.!.!.!.!.!.!.!.!.!.!.!.!.!.!.!.!.!.!.!.!.!.!.!.!.!.!.!.!.!.!.!.!.!.!.!.!.!.!.!.!.!.!.!.!.!.!.!.!.!.!.!.!.!.!.!.!.!.!.!.!.!.!.!.!.!.!.!.!.!.!.!.!.!.!.!.!.!.!.    X + $ @ & @ @ + @ @ @ X X @ + & - , 2 2 6 9 q e s d d k x n B Z D D G G L I Y W W W W / / / _ _ _ _ _ _ ' ' [ { { {  . .o.o.o.o.@.@.@.&.@.&.&.&.=.=.=.:.:.:.:.:.:.<.,.<.<.3.3.5.6.6.9.9.w.r.u.u.p.f.f.f.h.l.l.l.l.l.l.l.v.v.l.v.v.v.v.v.l.v.v.v.v.n.n.n.N.N.N.N.N.N.B.B.B.B.N.B.N.N.N.N.n.N.v.v.v.v.v.l.l.l.l.l.l.l.l.h.h.h.h.h.h.h.h.f.f.f.p.p.p.u.u.u.r.w.9.9.6.6.6.6.3.3.<.<.3.3.<.<.3.3.3.<.3.<.3.<.<.<.<.3.<.<.<.<.<.<.<.<.<.<.<.<.<.<.<.<.<.<.<.3.3.3.5.6.6.6.9.9.9.w.r.r.u.u.p.p.s.f.f.f.h.h.h.l.l.l.v.v.N.N.B.B.B.B.A.B.A.A.S.S.D.D.D.J.J.J.J.J.J.P.U.U.P.U.U.U.U.U.U.U.U.U.U.U.U.U.U.U.U.U.P.U.P.P.J.J.J.J.J.J.D.D.D.D.D.D.D.D.D.A.S.D.D.D.A.S.A.A.A.A.A.A.A.B.A.B.B.B.B.B.N.N.N.v.v.l.v.l.l.h.h.h.f.f.s.s.p.p.u.u.r.w.9.9.6.6.3.3.<.<.:.:.=.&.&.@.@.@.o.X. . .{ { [ [ ' _ / / W W W W Y I L G D D Z M n x k k d s i y e q 0 6 2 2 2 2 , , - - & & $ @ X   !.!.!.!.!.!.!.!.!.!.!.!.!.!.!.!.!.!.!.!.!.!.!.!.!.!.!.!.!.!.!.!.!.!.!.!.!.!.!.!.!.!.!.!.!.!.!.!.!.!.!.!.!.!.!.!.!.!.!.!.!.!.!.!.!.!.!.!.!.",
"!.!.!.!.!.!.!.!.!.!.!.!.!.!.!.!.!.!.!.!.!.!.!.!.!.!.!.!.!.!.!.!.!.!.!.!.!.!.!.!.!.!.!.!.!.!.!.!.!.!.!.!.!.!.!.!.!.!.!.!.!.!.!.!.!.!.!.!.!.!.!.!.!.!.!.!.!.!.!.!.!.!.!.!.!.!.!.!.!.!.!.!.!.!.!.  X @ @ @ + @ @ @ + @ X X @ @ @ & - , , 2 6 q q y i s k k x n M Z D D G L L U Y W W W W / / / _ _ _ _ _ _ ' [ { { { {  . .o.o.o.@.@.@.$.&.&.&.&.&.=.=.=.:.:.:.,.:.<.,.<.<.<.3.3.5.6.6.9.9.w.r.u.p.p.f.h.h.h.l.l.l.l.l.l.v.l.v.v.v.v.v.v.v.v.v.v.v.v.n.n.n.N.N.N.B.N.B.B.B.B.B.N.B.N.N.N.N.N.n.v.v.v.v.v.l.l.l.l.l.l.l.l.l.h.h.h.h.h.h.h.f.f.f.s.p.p.u.u.u.w.w.w.9.6.6.6.6.5.3.3.<.3.3.<.3.3.3.3.3.3.3.3.3.<.<.<.<.<.<.<.,.<.<.,.<.<.<.<.,.,.<.,.<.<.,.<.<.<.3.3.6.5.6.6.9.9.9.w.r.r.u.u.p.p.s.f.f.f.h.h.l.l.l.v.v.n.N.B.B.B.B.B.A.A.A.S.A.S.D.D.D.J.J.J.J.J.P.U.U.U.U.U.U.U.U.U.U.U.U.U.R.U.U.U.U.U.P.U.U.P.P.P.J.J.J.J.J.D.D.D.D.D.D.D.S.S.A.S.A.D.D.S.S.A.A.A.A.A.A.B.A.A.B.B.B.B.B.N.N.n.v.v.l.l.l.l.h.l.h.h.f.f.f.s.p.u.u.u.r.9.9.6.6.5.3.<.<.,.:.=.=.&.&.@.@.o.X. . .{ { [ [ ' _ / / W W W R U I L G D D Z M x x z d d s i y e q 0 6 6 2 2 , , - - & & & @ X   !.!.!.!.!.!.!.!.!.!.!.!.!.!.!.!.!.!.!.!.!.!.!.!.!.!.!.!.!.!.!.!.!.!.!.!.!.!.!.!.!.!.!.!.!.!.!.!.!.!.!.!.!.!.!.!.!.!.!.!.!.!.!.!.!.!.!.!.!.!.",
"!.!.!.!.!.!.!.!.!.!.!.!.!.!.!.!.!.!.!.!.!.!.!.!.!.!.!.!.!.!.!.!.!.!.!.!.!.!.!.!.!.!.!.!.!.!.!.!.!.!.!.!.!.!.!.!.!.!.!.!.!.!.!.!.!.!.!.!.!.!.!.!.!.!.!.!.!.!.!.!.!.!.!.!.!.!.!.!.!.!.!.!.!.!.!.!.X X X @ @ @ @ @ + @ @ @ + @ & & - - , 2 6 9 q e y s d k z n M Z Z D L L L U R W W W ^ / / _ _ _ ' ' _ ' ' [ { {  . . . .o.o.o.@.@.$.&.&.=.&.=.=.=.=.=.:.:.:.<.<.<.<.<.<.<.3.3.6.6.6.9.9.r.u.u.p.s.f.f.h.h.l.l.l.l.v.v.v.v.v.v.v.v.v.v.v.v.v.v.n.v.n.n.N.B.N.B.B.B.B.B.B.B.B.N.B.N.N.N.N.N.N.n.v.v.v.v.v.v.v.l.l.l.l.l.l.l.h.h.h.h.h.h.f.f.f.s.p.p.u.u.u.r.w.9.9.6.6.6.6.3.3.3.3.3.<.<.3.3.3.3.3.3.3.3.3.<.<.<.<.<.<.<.,.<.,.<.,.<.<.<.,.,.,.,.,.,.,.<.<.<.<.3.3.3.6.6.6.6.9.9.w.r.r.u.u.p.p.f.f.f.h.h.h.l.l.v.n.n.N.N.N.B.B.B.B.A.A.A.D.D.D.D.D.J.J.J.J.J.P.U.U.U.U.U.U.R.U.U.U.U.U.U.U.R.U.U.U.U.U.U.U.U.U.J.J.L.J.J.D.D.D.D.D.D.S.A.S.A.A.A.A.S.S.A.S.A.A.A.A.B.A.A.A.B.B.B.B.B.N.N.N.n.v.v.l.l.l.l.l.h.h.h.h.f.f.s.p.p.u.u.r.w.9.9.6.6.3.<.<.,.:.=.=.&.&.@.@.o.o. . . .{ [ ' ' _ / / W W W T U L L G D Z B N x z k d s s i y e q 9 6 6 2 2 , , - - & & @ @ X   !.!.!.!.!.!.!.!.!.!.!.!.!.!.!.!.!.!.!.!.!.!.!.!.!.!.!.!.!.!.!.!.!.!.!.!.!.!.!.!.!.!.!.!.!.!.!.!.!.!.!.!.!.!.!.!.!.!.!.!.!.!.!.!.!.!.!.!.!.!.",
"!.!.!.!.!.!.!.!.!.!.!.!.!.!.!.!.!.!.!.!.!.!.!.!.!.!.!.!.!.!.!.!.!.!.!.!.!.!.!.!.!.!.!.!.!.!.!.!.!.!.!.!.!.!.!.!.!.!.!.!.!.!.!.!.!.!.!.!.!.!.!.!.!.!.!.!.!.!.!.!.!.!.!.!.!.!.!.!.!.!.!.!.!.!.!.!.  X X X X X @ @ + + + @ @ & & - - , 2 2 6 6 e e y i d d k x N M Z D L L U U R W W W / / / _ ' _ ' ' ' [ [ { { {  . . .X.o.o.o.@.@.&.&.&.&.&.=.=.=.:.:.:.:.<.<.,.<.<.<.<.3.3.5.6.6.6.9.9.r.u.u.p.p.f.f.h.h.l.l.v.l.v.v.v.v.n.n.n.n.n.n.v.n.v.v.v.N.N.N.N.N.B.B.B.B.B.B.B.B.B.B.B.B.B.B.B.N.N.N.n.v.v.v.l.l.l.l.l.l.l.l.h.l.l.h.h.h.h.h.f.f.f.s.p.p.u.u.u.r.w.w.9.9.6.6.5.3.3.3.3.3.3.3.3.3.3.3.3.3.3.3.<.<.<.3.3.<.<.<.<.<.,.,.,.:.<.<.,.,.,.:.:.,.:.,.,.,.<.<.<.<.3.3.6.6.6.9.9.w.r.u.u.u.p.s.f.f.f.h.h.l.l.v.v.v.n.N.N.B.B.B.B.A.A.A.A.D.D.D.D.J.J.J.J.J.P.U.U.U.U.U.U.R.U.U.U.U.U.U.U.U.U.U.U.U.U.U.U.U.P.P.J.L.J.J.D.D.D.S.A.S.S.A.A.A.A.A.A.A.S.A.A.S.A.A.A.B.A.A.A.A.A.B.B.B.B.N.N.n.v.v.l.l.l.l.l.l.h.h.h.f.f.f.p.p.p.u.u.w.w.9.9.6.5.3.<.,.:.=.=.=.&.@.@.o.o.X. .{ { [ ' _ _ / / W W R Y I L G D D Z M n x k k d d s i y q 0 9 6 6 2 , , - - & & $ + X X !.!.!.!.!.!.!.!.!.!.!.!.!.!.!.!.!.!.!.!.!.!.!.!.!.!.!.!.!.!.!.!.!.!.!.!.!.!.!.!.!.!.!.!.!.!.!.!.!.!.!.!.!.!.!.!.!.!.!.!.!.!.!.!.!.!.!.!.!.!.!.",
"!.!.!.!.!.!.!.!.!.!.!.!.!.!.!.!.!.!.!.!.!.!.!.!.!.!.!.!.!.!.!.!.!.!.!.!.!.!.!.!.!.!.!.!.!.!.!.!.!.!.!.!.!.!.!.!.!.!.!.!.!.!.!.!.!.!.!.!.!.!.!.!.!.!.!.!.!.!.!.!.!.!.!.!.!.!.!.!.!.!.!.!.!.!.!.!.!.  X X X X X X @ + @ @ $ & & - , , , 2 2 6 9 q y i d k k x x N Z D L I Y T R W W W / / _ _ _ ' _ ' [ [ [ { {  . . . .X.X.o.o.@.$.&.&.=.&.=.=.=.=.=.:.:.<.<.<.<.<.<.<.<.3.3.5.6.6.9.9.w.w.u.u.u.p.f.f.h.l.l.l.l.v.v.n.n.v.n.N.N.N.n.n.N.n.n.n.n.N.n.N.N.N.B.B.B.B.B.B.A.B.B.B.B.B.N.B.N.N.N.N.N.v.v.v.v.v.l.l.l.l.l.l.l.l.l.h.h.h.h.h.f.f.f.p.p.p.u.u.u.r.w.9.9.9.6.6.6.5.3.3.3.3.3.3.3.3.3.3.3.3.5.3.3.3.<.<.<.<.<.<.<.<.,.,.,.:.:.,.,.,.:.,.:.:.:.:.:.:.:.,.,.<.<.3.3.6.6.6.9.w.w.r.u.u.u.p.s.f.f.f.h.h.l.l.l.v.v.n.N.B.B.B.A.B.A.A.A.A.D.D.D.D.J.J.J.J.P.P.P.U.U.U.U.U.R.U.R.R.U.U.U.U.U.U.U.U.U.U.P.U.U.P.J.J.J.J.D.D.D.S.S.S.A.A.A.A.A.A.A.A.A.A.S.A.A.A.A.A.B.A.B.B.B.B.B.N.B.N.N.v.v.v.l.v.l.l.l.l.h.h.h.f.f.f.s.p.p.u.u.r.w.9.9.6.6.3.<.<.,.=.=.=.&.@.@.o.o.o. .{ { [ [ _ / / W W W W Y I L G D D Z M x z k k d s s y y q 9 8 6 2 2 , - - - & & @ @ X   !.!.!.!.!.!.!.!.!.!.!.!.!.!.!.!.!.!.!.!.!.!.!.!.!.!.!.!.!.!.!.!.!.!.!.!.!.!.!.!.!.!.!.!.!.!.!.!.!.!.!.!.!.!.!.!.!.!.!.!.!.!.!.!.!.!.!.!.!.!.!.",
"!.!.!.!.!.!.!.!.!.!.!.!.!.!.!.!.!.!.!.!.!.!.!.!.!.!.!.!.!.!.!.!.!.!.!.!.!.!.!.!.!.!.!.!.!.!.!.!.!.!.!.!.!.!.!.!.!.!.!.!.!.!.!.!.!.!.!.!.!.!.!.!.!.!.!.!.!.!.!.!.!.!.!.!.!.!.!.!.!.!.!.!.!.!.!.!.!.!.  X X X X X @ @ @ @ $ & & - , , , , 2 6 0 e y s d k k z x M Z D L I Y R W W W W / / _ _ _ ' ' ' [ { { {  . . . .X.X.o.o.@.@.&.&.=.=.=.=.=.=.=.:.:.,.<.,.<.<.<.<.<.3.3.6.6.6.6.6.9.9.r.u.u.p.s.f.f.h.l.l.l.l.v.v.n.n.n.N.N.N.N.N.N.N.N.N.N.n.N.N.B.N.B.B.B.B.B.B.B.B.A.A.B.B.B.B.B.B.N.N.N.N.n.v.v.v.l.l.l.l.l.l.l.l.h.l.h.h.h.h.f.f.f.f.p.p.p.u.u.u.r.r.9.9.9.6.6.6.6.5.5.3.3.3.3.3.3.3.3.3.3.3.3.3.3.<.3.<.<.<.<.<.,.,.,.,.,.,.:.:.,.:.:.:.=.:.=.:.=.:.:.,.,.<.<.3.3.5.6.9.9.9.w.r.u.u.u.p.p.f.f.h.h.h.l.v.l.v.v.n.N.B.B.B.B.B.A.A.A.D.D.D.D.J.J.J.J.J.P.U.U.U.U.U.U.U.U.U.U.R.U.U.U.U.U.U.U.U.U.P.P.P.P.P.J.J.D.D.D.D.S.A.A.A.A.A.A.A.A.A.A.A.A.A.A.A.A.A.A.A.B.B.B.B.B.B.B.N.N.N.n.v.v.v.v.l.l.l.l.h.l.h.h.f.f.f.p.p.u.u.u.r.w.9.6.6.3.3.<.,.:.=.=.&.&.@.@.o.o. .{ { [ [ _ / / W W W R U L L D D Z Z M x z k d d s i y e 0 8 6 6 2 2 , - - & & @ @ X     !.!.!.!.!.!.!.!.!.!.!.!.!.!.!.!.!.!.!.!.!.!.!.!.!.!.!.!.!.!.!.!.!.!.!.!.!.!.!.!.!.!.!.!.!.!.!.!.!.!.!.!.!.!.!.!.!.!.!.!.!.!.!.!.!.!.!.!.!.!.!.",
"!.!.!.!.!.!.!.!.!.!.!.!.!.!.!.!.!.!.!.!.!.!.!.!.!.!.!.!.!.!.!.!.!.!.!.!.!.!.!.!.!.!.!.!.!.!.!.!.!.!.!.!.!.!.!.!.!.!.!.!.!.!.!.!.!.!.!.!.!.!.!.!.!.!.!.!.!.!.!.!.!.!.!.!.!.!.!.!.!.!.!.!.!.!.!.!.!.!.  X X X X X X X + @ $ & & - - - , 2 2 8 0 y i s d d k k x N Z D G L U R W W W ! / / _ _ _ ' ' [ [ { { { {  . . .X.X.X.o.@.@.&.&.=.=.=.=.=.=.:.:.:.,.<.<.<.<.<.<.3.3.3.3.6.6.6.6.9.w.r.u.u.p.f.f.f.h.h.l.l.v.v.v.n.N.N.N.N.B.B.N.N.N.N.N.N.N.N.B.B.B.B.B.B.B.B.B.B.B.A.B.B.B.B.B.B.N.N.N.N.N.n.v.v.v.v.l.l.l.l.l.l.l.h.l.h.h.h.h.f.f.f.f.s.p.p.u.u.u.r.w.w.9.9.9.9.6.6.6.5.5.5.3.3.3.3.3.3.3.3.3.3.3.3.3.<.<.<.<.<.<.<.,.:.:.:.,.:.:.:.:.:.=.=.:.=.=.=.:.=.:.:.,.<.<.3.3.6.6.6.9.9.w.r.u.u.u.p.s.f.f.f.h.l.l.l.v.v.n.N.B.B.B.B.B.A.B.A.A.S.D.D.D.J.J.J.J.P.P.P.U.U.U.U.U.U.U.R.U.R.U.U.U.U.U.U.U.U.P.P.P.L.J.J.J.J.D.D.S.A.A.A.B.A.B.B.B.B.A.A.A.A.A.A.A.A.A.A.A.A.B.B.B.B.B.B.B.N.N.n.v.v.v.v.l.l.l.l.l.l.h.h.h.f.f.f.p.p.u.u.r.w.9.9.6.3.3.<.<.:.=.=.&.&.$.@.o.X. .{ { [ [ _ _ / W W W R Y L H D D Z Z M x x k d d s i y q 0 6 6 6 , , - & & & @ @ X X   !.!.!.!.!.!.!.!.!.!.!.!.!.!.!.!.!.!.!.!.!.!.!.!.!.!.!.!.!.!.!.!.!.!.!.!.!.!.!.!.!.!.!.!.!.!.!.!.!.!.!.!.!.!.!.!.!.!.!.!.!.!.!.!.!.!.!.!.!.!.!.!.",
"!.!.!.!.!.!.!.!.!.!.!.!.!.!.!.!.!.!.!.!.!.!.!.!.!.!.!.!.!.!.!.!.!.!.!.!.!.!.!.!.!.!.!.!.!.!.!.!.!.!.!.!.!.!.!.!.!.!.!.!.!.!.!.!.!.!.!.!.!.!.!.!.!.!.!.!.!.!.!.!.!.!.!.!.!.!.!.!.!.!.!.!.!.!.!.!.!.!.!.    X X X X X + $ $ & & - - - , , 6 6 q y i s s d k k b N Z D D L I T W W W W / _ _ _ ' [ [ [ { [ { { {  . .X.X.X.o.o.@.@.&.&.=.=.=.=.=.=.:.:.:.<.<.<.<.<.<.3.3.3.6.6.6.6.6.9.9.w.r.u.u.p.f.f.f.h.l.l.l.l.v.v.n.N.N.N.B.N.B.B.B.N.B.N.B.B.B.B.B.B.B.B.A.B.B.B.A.B.A.A.B.A.B.B.B.B.N.N.N.n.n.v.v.v.v.v.v.l.l.l.l.l.l.l.l.h.h.h.h.f.f.f.s.p.p.p.u.u.r.w.w.w.9.9.9.6.6.6.6.5.5.5.3.3.3.3.3.3.3.6.3.3.3.3.<.<.<.<.<.<.,.,.:.:.:.:.:.:.:.=.=.=.=.=.=.=.=.=.=.=.:.:.,.<.<.3.5.6.6.6.9.9.r.r.u.u.u.p.f.f.f.h.h.l.l.l.v.v.N.N.B.B.B.B.B.B.A.A.A.D.D.D.D.J.J.J.J.P.P.P.U.P.U.U.U.U.U.U.U.U.U.U.U.U.U.U.P.P.U.P.L.L.L.J.J.D.D.S.A.A.B.A.B.B.B.B.A.B.A.A.A.A.A.A.A.A.A.A.A.A.B.B.B.B.B.N.N.N.N.v.v.v.v.v.l.v.v.l.l.h.h.h.f.f.f.s.p.u.u.r.w.9.9.6.5.3.3.<.,.:.=.&.&.&.@.o.o. . .{ [ ' _ / / ^ W W R U L H D D Z Z M x z k d d s y e q 8 6 2 2 , - - & & @ X X     !.!.!.!.!.!.!.!.!.!.!.!.!.!.!.!.!.!.!.!.!.!.!.!.!.!.!.!.!.!.!.!.!.!.!.!.!.!.!.!.!.!.!.!.!.!.!.!.!.!.!.!.!.!.!.!.!.!.!.!.!.!.!.!.!.!.!.!.!.!.!.!.!.",
"!.!.!.!.!.!.!.!.!.!.!.!.!.!.!.!.!.!.!.!.!.!.!.!.!.!.!.!.!.!.!.!.!.!.!.!.!.!.!.!.!.!.!.!.!.!.!.!.!.!.!.!.!.!.!.!.!.!.!.!.!.!.!.!.!.!.!.!.!.!.!.!.!.!.!.!.!.!.!.!.!.!.!.!.!.!.!.!.!.!.!.!.!.!.!.!.!.!.!.!.    X   X X @ + @ $ & & - - , 2 6 9 q e y i s s d k z n M Z D G L U R W W W / / / _ ' [ [ [ [ { { {  . .o.o.o.o.o.o.@.@.&.&.&.=.=.=.=.:.:.:.,.<.<.<.<.3.3.3.3.6.6.6.6.9.9.9.w.w.r.u.u.p.p.f.f.h.l.l.l.l.v.v.n.N.N.B.B.B.B.B.B.B.B.B.B.B.B.B.B.B.B.B.B.A.B.B.A.A.B.A.B.B.B.B.B.B.N.N.N.N.n.v.v.v.v.v.v.l.l.l.l.l.l.l.h.l.h.h.h.f.f.f.s.p.p.u.u.u.u.r.w.w.9.9.9.6.6.6.6.6.5.3.3.5.3.3.5.3.5.5.3.3.3.3.<.<.<.<.,.,.,.:.:.=.=.:.:.=.=.=.=.=.=.=.=.=.=.=.=.=.:.:.:.<.,.<.3.5.6.6.6.9.w.r.u.u.u.p.p.f.f.f.h.h.l.l.l.v.v.N.N.N.B.B.B.B.B.B.A.A.D.D.D.J.J.J.J.J.P.P.P.U.U.P.U.U.U.P.U.U.U.U.U.U.U.U.P.P.P.J.P.J.J.J.D.D.D.A.A.A.B.B.B.B.B.B.B.A.A.A.A.A.A.A.A.A.A.A.A.B.A.B.B.B.B.B.B.N.N.n.v.v.v.l.l.l.l.l.l.l.h.h.f.f.f.s.p.u.u.r.r.w.9.6.6.3.3.<.<.:.:.=.&.&.@.@.o. . .{ [ [ ' _ / / W W W U I L D D Z Z N x x k k d s y e 0 8 6 2 , , - & $ + X X   !.!.!.!.!.!.!.!.!.!.!.!.!.!.!.!.!.!.!.!.!.!.!.!.!.!.!.!.!.!.!.!.!.!.!.!.!.!.!.!.!.!.!.!.!.!.!.!.!.!.!.!.!.!.!.!.!.!.!.!.!.!.!.!.!.!.!.!.!.!.!.!.!.!.!.",
"!.!.!.!.!.!.!.!.!.!.!.!.!.!.!.!.!.!.!.!.!.!.!.!.!.!.!.!.!.!.!.!.!.!.!.!.!.!.!.!.!.!.!.!.!.!.!.!.!.!.!.!.!.!.!.!.!.!.!.!.!.!.!.!.!.!.!.!.!.!.!.!.!.!.!.!.!.!.!.!.!.!.!.!.!.!.!.!.!.!.!.!.!.!.!.!.!.!.!.!.!.      X X X @ @ @ & & - - , 2 6 9 q q e y y s s d d k b n Z D H I T W W W W / / _ ' ' [ [ { { { {  . .o.o.o.o.o.o.@.@.&.&.=.=.=.=.=.:.:.:.,.,.<.<.<.3.3.3.3.6.6.6.6.9.9.9.w.r.r.u.u.p.p.f.f.h.l.l.l.l.v.v.v.N.B.B.B.B.B.B.B.B.B.B.B.B.B.B.B.B.B.B.A.A.B.B.B.A.B.A.B.A.B.B.B.B.B.B.N.N.N.n.n.v.v.v.v.l.v.l.l.l.l.l.l.h.h.h.h.f.f.f.f.s.p.p.u.u.u.r.r.w.w.9.9.9.9.6.6.6.5.3.3.3.3.5.3.5.3.3.5.3.3.<.<.<.<.<.<.,.:.:.:.=.=.=.=.=.=.=.=.=.&.=.&.&.=.&.&.=.=.:.:.:.,.<.<.3.5.6.6.6.9.w.r.r.u.u.p.p.s.f.f.h.l.l.l.l.v.v.n.N.N.N.B.B.B.B.A.A.D.D.D.J.D.J.J.J.L.J.P.U.P.P.P.P.U.U.P.U.U.U.U.U.U.P.P.P.P.P.L.J.J.J.J.D.A.A.B.B.B.B.B.B.B.B.B.A.B.B.B.A.A.A.A.A.A.A.B.A.B.B.B.B.B.B.B.N.N.n.n.v.v.v.l.v.l.l.l.l.l.h.h.f.f.s.p.p.u.u.r.w.9.6.6.6.3.<.,.,.:.=.&.&.@.@.o.X. .{ { [ ' _ / / W W W Y I L G D Z B N x x k k d s y q 9 6 6 2 2 - - & @ @ X   !.!.!.!.!.!.!.!.!.!.!.!.!.!.!.!.!.!.!.!.!.!.!.!.!.!.!.!.!.!.!.!.!.!.!.!.!.!.!.!.!.!.!.!.!.!.!.!.!.!.!.!.!.!.!.!.!.!.!.!.!.!.!.!.!.!.!.!.!.!.!.!.!.!.!.!.",
"!.!.!.!.!.!.!.!.!.!.!.!.!.!.!.!.!.!.!.!.!.!.!.!.!.!.!.!.!.!.!.!.!.!.!.!.!.!.!.!.!.!.!.!.!.!.!.!.!.!.!.!.!.!.!.!.!.!.!.!.!.!.!.!.!.!.!.!.!.!.!.!.!.!.!.!.!.!.!.!.!.!.!.!.!.!.!.!.!.!.!.!.!.!.!.!.!.!.!.!.!.!.!.  X X X @ + + & & - - , 2 6 6 0 q q q e y y i s d k b M Z G L U W W W W / / _ ' ' [ [ { { { {  . .o.o.o.o.o.o.@.@.&.&.&.&.=.=.=.=.:.,.,.,.<.<.<.3.3.3.3.5.6.6.9.9.9.w.r.r.u.u.u.p.p.f.f.f.h.l.l.v.v.v.N.N.B.B.B.B.B.B.B.A.B.B.B.B.A.A.A.B.B.A.B.A.A.B.A.A.A.B.A.B.B.B.B.B.B.N.B.N.N.n.n.v.v.v.v.v.v.v.l.l.l.l.l.h.h.h.h.f.f.f.f.s.p.p.u.u.u.r.r.w.w.9.9.9.6.6.6.6.6.5.3.3.5.3.5.3.3.3.5.3.3.<.<.<.<.<.<.:.:.:.=.=.=.=.=.=.=.=.=.&.&.&.&.&.&.&.&.=.=.=.=.:.:.<.<.3.3.6.6.6.9.9.w.r.r.r.u.u.p.s.f.f.h.l.l.l.v.v.n.n.N.N.N.B.B.B.B.A.A.D.D.D.J.J.J.J.J.J.L.P.P.U.P.P.P.U.U.U.P.U.U.U.P.P.P.P.P.P.L.L.J.J.D.D.A.A.B.B.B.B.B.B.B.B.B.B.B.A.A.B.A.A.A.B.A.A.A.A.B.B.B.B.N.N.N.N.N.n.n.v.v.v.l.v.v.l.l.l.h.h.h.f.f.f.s.p.u.u.r.w.9.9.6.6.3.3.<.,.:.:.=.&.&.@.o.X. .{ { [ ' _ / / W W W T U L G D Z B N n x k k s s y q 8 6 2 , , - & & @ X   !.!.!.!.!.!.!.!.!.!.!.!.!.!.!.!.!.!.!.!.!.!.!.!.!.!.!.!.!.!.!.!.!.!.!.!.!.!.!.!.!.!.!.!.!.!.!.!.!.!.!.!.!.!.!.!.!.!.!.!.!.!.!.!.!.!.!.!.!.!.!.!.!.!.!.!.!.",
"!.!.!.!.!.!.!.!.!.!.!.!.!.!.!.!.!.!.!.!.!.!.!.!.!.!.!.!.!.!.!.!.!.!.!.!.!.!.!.!.!.!.!.!.!.!.!.!.!.!.!.!.!.!.!.!.!.!.!.!.!.!.!.!.!.!.!.!.!.!.!.!.!.!.!.!.!.!.!.!.!.!.!.!.!.!.!.!.!.!.!.!.!.!.!.!.!.!.!.!.!.!.!.!.  X X + + @ $ & & - , 2 6 6 9 9 8 9 q e e y s d d z n B D H I T W W W / / _ ' ' [ [ [ { { {  . .X.o.o.o.o.o.o.@.@.&.&.&.=.=.=.:.:.:.,.<.,.<.3.3.3.3.5.5.6.6.6.9.9.w.r.r.u.u.u.p.p.f.f.h.h.l.l.v.v.n.N.N.B.B.B.B.B.B.B.A.A.B.B.B.A.A.A.A.B.A.B.B.B.A.A.A.A.A.B.B.A.A.B.B.B.B.B.B.N.n.v.n.v.v.v.v.v.v.l.l.l.l.l.l.h.h.f.f.f.f.f.f.p.p.u.u.u.u.r.r.w.9.9.9.9.6.6.6.6.5.6.3.5.5.5.3.3.3.3.3.3.<.<.<.<.<.,.:.:.=.=.=.=.=.=.&.=.=.=.&.&.&.&.&.&.&.&.&.&.&.=.=.:.:.<.<.<.3.5.6.6.9.9.w.w.r.u.u.u.p.s.f.f.h.l.l.l.l.v.n.n.N.N.B.B.B.B.B.A.A.D.D.D.D.J.J.J.L.L.J.P.P.P.P.P.U.U.U.U.U.U.U.U.P.P.P.P.P.L.J.J.J.D.D.S.A.B.B.B.B.B.B.B.N.B.B.B.B.B.A.B.A.B.A.A.A.A.B.B.B.B.B.B.B.B.N.N.N.v.v.v.l.v.l.v.l.l.l.h.h.h.f.f.f.s.p.u.u.r.r.9.9.9.6.6.3.<.<.:.:.=.&.&.@.o.X. .{ { [ ' _ _ / W W W R U L G D Z Z M n x z k s i e 0 6 6 2 , , - & & @ X   !.!.!.!.!.!.!.!.!.!.!.!.!.!.!.!.!.!.!.!.!.!.!.!.!.!.!.!.!.!.!.!.!.!.!.!.!.!.!.!.!.!.!.!.!.!.!.!.!.!.!.!.!.!.!.!.!.!.!.!.!.!.!.!.!.!.!.!.!.!.!.!.!.!.!.!.!.",
"!.!.!.!.!.!.!.!.!.!.!.!.!.!.!.!.!.!.!.!.!.!.!.!.!.!.!.!.!.!.!.!.!.!.!.!.!.!.!.!.!.!.!.!.!.!.!.!.!.!.!.!.!.!.!.!.!.!.!.!.!.!.!.!.!.!.!.!.!.!.!.!.!.!.!.!.!.!.!.!.!.!.!.!.!.!.!.!.!.!.!.!.!.!.!.!.!.!.!.!.!.!.!.!.!.  X X @ + $ & & - , 2 2 6 6 8 6 8 0 q q y s s d k x N Z D L U R W W W / _ _ ' ' [ [ { { {  . . .X.X.o.o.o.o.@.@.@.&.&.&.=.=.:.:.:.:.<.<.<.<.3.3.5.5.5.6.6.9.9.9.w.r.r.r.u.u.p.p.s.f.f.h.l.l.l.v.n.N.N.N.B.B.B.B.A.B.A.A.B.B.B.B.B.B.A.A.B.B.A.A.B.A.B.A.A.A.B.A.B.A.B.B.B.B.B.N.N.N.N.n.n.v.v.v.v.l.l.l.l.l.h.h.h.h.h.h.f.f.f.s.p.p.u.u.u.r.r.r.w.w.9.9.9.6.6.6.6.5.5.3.5.3.3.3.3.3.3.3.3.<.,.,.,.:.:.:.=.=.=.&.&.&.&.&.&.&.&.&.@.&.$.$.$.&.&.&.&.&.=.=.:.<.,.<.<.3.6.6.6.9.9.w.w.r.r.u.u.p.s.f.f.h.l.l.l.v.v.v.v.N.N.N.B.B.B.B.A.A.A.D.D.D.J.J.J.J.J.J.P.P.U.P.P.U.U.P.P.P.U.U.U.P.P.P.L.J.J.J.J.D.D.D.A.B.B.B.B.B.B.B.B.B.B.A.A.A.A.A.B.A.B.A.B.B.A.B.B.B.B.B.N.N.N.n.N.n.v.v.v.v.l.v.l.l.l.l.l.h.h.f.f.s.p.u.u.u.r.w.9.9.6.6.3.<.<.<.:.=.&.&.@.o.o. .{ { [ ' _ / / ^ W W R U I H D D Z M N x k d s i e 0 6 2 2 , , - & @ X X !.!.!.!.!.!.!.!.!.!.!.!.!.!.!.!.!.!.!.!.!.!.!.!.!.!.!.!.!.!.!.!.!.!.!.!.!.!.!.!.!.!.!.!.!.!.!.!.!.!.!.!.!.!.!.!.!.!.!.!.!.!.!.!.!.!.!.!.!.!.!.!.!.!.!.!.!.!.",
"!.!.!.!.!.!.!.!.!.!.!.!.!.!.!.!.!.!.!.!.!.!.!.!.!.!.!.!.!.!.!.!.!.!.!.!.!.!.!.!.!.!.!.!.!.!.!.!.!.!.!.!.!.!.!.!.!.!.!.!.!.!.!.!.!.!.!.!.!.!.!.!.!.!.!.!.!.!.!.!.!.!.!.!.!.!.!.!.!.!.!.!.!.!.!.!.!.!.!.!.!.!.!.!.!.!.    X X @ $ & - - , 2 2 2 6 6 6 6 8 0 e i s d k k x M Z D L Y W W W / / _ _ [ [ { { { {  . . . .X.X.o.o.o.@.@.@.&.&.&.=.=.=.=.:.:.,.<.<.<.3.3.5.5.5.6.6.9.9.9.w.r.r.u.u.u.p.p.s.f.f.h.h.l.v.v.v.N.N.B.B.B.B.B.B.A.B.B.B.A.B.B.B.B.B.A.B.A.A.B.B.A.A.A.A.A.A.A.A.A.B.B.B.B.B.N.N.N.n.n.n.n.v.v.v.v.l.v.l.l.h.l.h.h.h.f.h.f.f.s.p.p.p.u.u.u.r.r.w.w.9.9.9.6.6.6.6.5.3.3.3.3.3.3.3.3.<.<.<.<.<.,.,.:.:.:.=.=.=.&.&.&.&.&.&.&.&.@.@.$.@.@.$.@.@.&.&.&.&.=.=.:.:.,.<.<.3.3.6.6.9.9.9.w.r.r.u.p.p.f.f.f.h.l.l.l.v.v.v.n.N.N.N.B.B.B.B.A.A.A.D.D.D.J.J.J.J.J.P.L.P.P.P.P.P.U.P.U.P.P.U.P.P.P.J.J.J.J.J.D.D.D.A.B.B.B.B.B.B.B.B.B.B.B.B.A.B.B.B.B.B.B.B.B.B.B.B.B.B.N.N.N.N.N.n.v.v.v.v.v.v.v.l.l.l.h.h.h.h.f.f.s.p.p.u.u.r.w.9.9.9.6.3.3.<.<.:.=.=.&.@.@.o. . .{ [ [ ' _ / / W W W Y I L D D Z M N b k d s i e 9 6 2 , , - & & @ X   !.!.!.!.!.!.!.!.!.!.!.!.!.!.!.!.!.!.!.!.!.!.!.!.!.!.!.!.!.!.!.!.!.!.!.!.!.!.!.!.!.!.!.!.!.!.!.!.!.!.!.!.!.!.!.!.!.!.!.!.!.!.!.!.!.!.!.!.!.!.!.!.!.!.!.!.!.!.",
"!.!.!.!.!.!.!.!.!.!.!.!.!.!.!.!.!.!.!.!.!.!.!.!.!.!.!.!.!.!.!.!.!.!.!.!.!.!.!.!.!.!.!.!.!.!.!.!.!.!.!.!.!.!.!.!.!.!.!.!.!.!.!.!.!.!.!.!.!.!.!.!.!.!.!.!.!.!.!.!.!.!.!.!.!.!.!.!.!.!.!.!.!.!.!.!.!.!.!.!.!.!.!.!.!.!.!.!.!.  X @ & & - , , , , 2 6 6 6 8 8 q y s d d k z x B D G I W W W / / / _ ' [ [ { { { {  . . . .X.X.o.o.@.@.@.@.@.&.&.=.=.=.:.:.:.<.<.<.3.3.3.5.6.6.6.6.9.9.w.w.r.u.u.u.u.p.p.f.f.f.h.l.l.l.v.v.N.N.B.B.B.B.A.A.A.B.B.B.B.B.B.B.B.B.B.A.A.B.B.A.A.B.A.B.B.B.B.A.B.B.B.B.B.N.N.N.n.N.n.N.v.v.v.l.l.v.l.l.l.h.h.h.h.h.f.f.f.f.s.p.p.u.u.u.r.r.r.w.9.9.9.6.6.6.6.5.5.3.3.3.3.3.<.<.<.<.<.<.,.,.:.:.:.=.=.=.&.&.&.&.@.&.&.&.$.@.@.@.@.@.@.@.@.@.@.@.&.=.=.=.=.:.,.<.3.3.5.6.6.9.9.9.w.r.r.u.p.p.f.f.f.h.h.l.l.l.v.v.n.N.N.N.B.B.B.B.A.A.A.D.D.D.J.J.J.J.J.L.L.P.P.P.P.P.P.P.P.P.P.P.P.J.J.J.J.J.D.D.D.D.A.B.B.B.B.B.B.B.B.B.B.B.B.B.A.B.B.B.B.B.B.B.B.B.B.B.N.N.N.N.N.n.n.n.v.v.v.v.v.l.l.l.l.h.h.h.f.f.f.s.p.p.u.u.r.w.9.9.6.6.5.3.<.<.:.:.=.&.&.@.o.X. .{ { [ ' _ / / W W W Y L H D D Z M n x k d s y q 9 6 2 , - - & @ @ X   !.!.!.!.!.!.!.!.!.!.!.!.!.!.!.!.!.!.!.!.!.!.!.!.!.!.!.!.!.!.!.!.!.!.!.!.!.!.!.!.!.!.!.!.!.!.!.!.!.!.!.!.!.!.!.!.!.!.!.!.!.!.!.!.!.!.!.!.!.!.!.!.!.!.!.!.!.!.",
"!.!.!.!.!.!.!.!.!.!.!.!.!.!.!.!.!.!.!.!.!.!.!.!.!.!.!.!.!.!.!.!.!.!.!.!.!.!.!.!.!.!.!.!.!.!.!.!.!.!.!.!.!.!.!.!.!.!.!.!.!.!.!.!.!.!.!.!.!.!.!.!.!.!.!.!.!.!.!.!.!.!.!.!.!.!.!.!.!.!.!.!.!.!.!.!.!.!.!.!.!.!.!.!.!.!.!.!.!.!.  X @ & - - , , , , 2 6 6 6 8 0 e y s d d k x M Z G I R W W W / / / _ ' [ { { { { { {  . . .X.X.o.o.@.@.@.@.&.&.&.=.=.=.:.:.:.<.<.<.3.3.3.5.6.6.6.9.9.9.w.r.r.u.u.u.p.p.f.f.f.h.l.l.l.v.v.N.N.B.B.B.B.B.A.B.B.A.A.B.B.B.B.B.B.B.B.B.B.B.B.A.A.A.B.A.B.B.B.B.B.B.B.B.B.N.N.N.N.N.n.n.v.v.v.v.v.l.l.l.l.h.h.h.h.h.f.f.f.s.p.p.p.u.u.u.r.r.w.9.9.9.9.6.6.5.5.3.3.3.3.3.<.<.<.<.<.<.,.:.:.:.:.=.=.=.=.&.&.&.&.&.&.@.$.$.@.@.@.@.@.@.@.@.@.@.@.&.&.=.=.=.:.:.<.<.3.3.5.6.6.9.9.9.w.r.u.u.p.p.f.f.f.h.l.l.l.v.l.v.v.n.N.N.B.B.B.B.B.A.S.D.D.D.D.J.J.J.J.L.P.J.P.P.P.P.P.P.P.P.P.L.J.J.J.J.J.J.J.D.D.A.B.B.A.B.B.B.B.B.N.B.B.B.A.B.B.B.B.B.B.B.B.B.B.B.B.N.N.N.N.N.n.v.v.v.v.v.l.l.l.l.l.h.l.h.h.f.f.f.p.p.p.u.u.r.w.9.9.9.6.6.3.<.<.,.:.=.&.&.@.o.X. .{ { [ ' _ / / W W W T I L G D Z B n x k d s y q 8 6 2 , - & & + X X   !.!.!.!.!.!.!.!.!.!.!.!.!.!.!.!.!.!.!.!.!.!.!.!.!.!.!.!.!.!.!.!.!.!.!.!.!.!.!.!.!.!.!.!.!.!.!.!.!.!.!.!.!.!.!.!.!.!.!.!.!.!.!.!.!.!.!.!.!.!.!.!.!.!.!.!.!.!.",
"!.!.!.!.!.!.!.!.!.!.!.!.!.!.!.!.!.!.!.!.!.!.!.!.!.!.!.!.!.!.!.!.!.!.!.!.!.!.!.!.!.!.!.!.!.!.!.!.!.!.!.!.!.!.!.!.!.!.!.!.!.!.!.!.!.!.!.!.!.!.!.!.!.!.!.!.!.!.!.!.!.!.!.!.!.!.!.!.!.!.!.!.!.!.!.!.!.!.!.!.!.!.!.!.!.!.!.!.!.!.  X @ & & - - , , , 2 6 6 6 6 9 0 e y s d k z N D G I T W W W W / / _ ' [ [ { { { { {  . . . .X.o.o.o.@.@.@.@.&.&.&.=.=.:.:.,.,.<.<.3.3.3.5.6.6.6.9.9.9.w.r.u.u.u.u.p.p.s.f.f.h.h.l.l.v.v.N.N.B.B.B.B.B.A.A.B.B.B.B.B.B.B.B.B.B.B.A.B.A.A.A.A.A.B.B.A.B.A.B.A.B.B.B.B.B.N.N.N.N.n.n.v.v.v.l.v.l.l.l.l.h.l.h.h.h.f.f.f.f.s.p.p.u.u.u.r.r.r.w.9.9.9.6.6.6.5.3.3.3.3.3.<.<.<.<.<.,.,.:.:.:.=.=.=.=.&.&.&.&.&.@.@.@.$.@.@.@.@.@.@.@.@.o.@.@.@.@.&.&.&.=.=.:.,.,.<.3.3.5.6.9.9.9.w.w.r.u.u.p.s.f.f.h.h.l.l.l.l.v.v.v.v.N.N.N.B.B.B.B.A.S.D.D.D.D.J.J.J.L.L.L.J.P.P.P.U.P.J.J.J.J.J.J.J.J.J.D.D.D.A.A.A.B.B.B.B.B.N.B.B.N.B.B.B.B.B.B.B.B.B.B.B.B.N.B.B.N.N.n.N.v.v.v.v.v.l.l.l.l.l.l.h.h.h.h.f.f.f.f.s.p.p.u.u.r.r.9.9.6.6.5.3.3.<.<.:.=.&.&.@.@.o. . .{ [ ' _ _ / W W W T I L G D D Z n x k d s y q 8 6 2 , & & @ @ X   !.!.!.!.!.!.!.!.!.!.!.!.!.!.!.!.!.!.!.!.!.!.!.!.!.!.!.!.!.!.!.!.!.!.!.!.!.!.!.!.!.!.!.!.!.!.!.!.!.!.!.!.!.!.!.!.!.!.!.!.!.!.!.!.!.!.!.!.!.!.!.!.!.!.!.!.!.!.!.",
"!.!.!.!.!.!.!.!.!.!.!.!.!.!.!.!.!.!.!.!.!.!.!.!.!.!.!.!.!.!.!.!.!.!.!.!.!.!.!.!.!.!.!.!.!.!.!.!.!.!.!.!.!.!.!.!.!.!.!.!.!.!.!.!.!.!.!.!.!.!.!.!.!.!.!.!.!.!.!.!.!.!.!.!.!.!.!.!.!.!.!.!.!.!.!.!.!.!.!.!.!.!.!.!.!.!.!.!.!.!.    @ $ & & - - , , 2 2 6 6 6 8 q q y i d k k n Z D L I T W W W / / / _ [ [ [ { { { { { {  . .X.X.o.o.o.@.@.@.&.&.&.=.=.=.:.,.,.<.<.3.3.3.3.3.6.6.9.9.9.w.r.r.u.u.u.u.p.p.f.h.h.l.l.l.l.v.N.N.B.B.B.B.B.A.A.B.B.A.B.B.B.B.B.B.B.B.B.B.B.A.A.A.A.A.B.A.B.A.B.B.B.B.B.N.B.B.N.N.N.N.v.n.v.v.v.l.l.l.l.l.l.l.h.h.h.h.f.f.f.s.s.p.p.u.u.r.r.w.w.9.9.6.6.6.6.3.3.3.3.3.<.<.<.<.<.,.,.:.:.:.:.=.=.=.=.=.&.&.&.@.@.@.@.$.$.@.@.@.@.@.o.o.@.@.@.@.@.@.&.&.=.=.=.:.,.<.<.3.3.6.6.6.9.9.9.r.u.u.p.p.s.f.f.f.h.h.h.l.l.l.v.v.v.N.N.N.B.B.B.B.A.A.S.D.D.D.D.J.J.J.L.J.J.P.L.L.L.P.J.J.J.J.J.J.D.D.D.D.D.S.A.B.B.B.B.B.B.N.B.N.B.B.B.B.B.B.B.B.B.B.B.B.B.B.N.N.N.N.N.n.n.v.v.v.v.l.l.l.l.l.l.h.h.h.h.f.f.f.f.p.p.u.u.u.r.w.9.9.9.6.5.3.3.<.,.:.=.=.&.@.@.o.X. .{ [ ' _ _ / W W W R U L H D D Z N x k d s y q 8 6 2 , - & + X X   !.!.!.!.!.!.!.!.!.!.!.!.!.!.!.!.!.!.!.!.!.!.!.!.!.!.!.!.!.!.!.!.!.!.!.!.!.!.!.!.!.!.!.!.!.!.!.!.!.!.!.!.!.!.!.!.!.!.!.!.!.!.!.!.!.!.!.!.!.!.!.!.!.!.!.!.!.!.!.",
"!.!.!.!.!.!.!.!.!.!.!.!.!.!.!.!.!.!.!.!.!.!.!.!.!.!.!.!.!.!.!.!.!.!.!.!.!.!.!.!.!.!.!.!.!.!.!.!.!.!.!.!.!.!.!.!.!.!.!.!.!.!.!.!.!.!.!.!.!.!.!.!.!.!.!.!.!.!.!.!.!.!.!.!.!.!.!.!.!.!.!.!.!.!.!.!.!.!.!.!.!.!.!.!.!.!.!.!.!.!.!.  X @ & & - - - - , 2 2 6 6 8 0 0 q e s d k b M D G L U R W W W / / _ ' [ { [ [ { { { {  . . .X.X.o.o.@.@.@.&.&.&.=.=.:.:.,.,.<.<.<.3.3.3.3.6.6.6.9.9.9.r.r.u.u.u.p.p.p.f.f.h.l.l.l.v.v.n.N.B.B.B.A.B.B.A.A.A.A.A.A.B.A.A.B.B.B.B.B.B.B.A.B.A.B.B.A.B.B.B.B.B.B.B.B.N.N.N.N.N.n.n.n.v.v.v.v.l.l.l.l.l.l.h.h.h.f.f.f.f.f.s.p.p.u.u.u.r.r.w.w.9.9.6.6.6.3.3.3.<.<.<.<.<.,.<.,.:.:.:.:.=.=.=.=.=.&.&.$.&.$.$.@.@.@.@.@.@.@.@.o.o.o.o.@.@.@.@.@.@.&.&.&.=.=.:.,.<.3.3.3.6.6.9.9.w.r.r.u.u.p.p.s.f.f.f.h.h.l.l.l.l.v.v.v.N.N.N.B.B.B.A.A.D.D.D.D.D.D.J.J.J.J.J.J.J.P.L.L.L.J.J.J.J.J.J.J.D.D.D.D.A.A.B.B.B.B.B.N.N.B.B.B.B.B.B.B.B.B.B.N.B.B.B.B.N.N.N.N.n.v.v.n.v.v.l.v.l.l.l.h.h.h.h.h.h.f.f.f.s.p.p.u.u.u.r.r.9.9.9.6.6.3.<.<.,.:.=.=.&.@.@.o.o. .{ [ [ _ / / W W W R U L G D D Z N x k d s y q 8 6 , , - & @ X   !.!.!.!.!.!.!.!.!.!.!.!.!.!.!.!.!.!.!.!.!.!.!.!.!.!.!.!.!.!.!.!.!.!.!.!.!.!.!.!.!.!.!.!.!.!.!.!.!.!.!.!.!.!.!.!.!.!.!.!.!.!.!.!.!.!.!.!.!.!.!.!.!.!.!.!.!.!.!.!.",
"!.!.!.!.!.!.!.!.!.!.!.!.!.!.!.!.!.!.!.!.!.!.!.!.!.!.!.!.!.!.!.!.!.!.!.!.!.!.!.!.!.!.!.!.!.!.!.!.!.!.!.!.!.!.!.!.!.!.!.!.!.!.!.!.!.!.!.!.!.!.!.!.!.!.!.!.!.!.!.!.!.!.!.!.!.!.!.!.!.!.!.!.!.!.!.!.!.!.!.!.!.!.!.!.!.!.!.!.!.!.!.!.X @ $ & & & - - - , , 2 6 6 6 9 q e i s d k n Z D L I Y R W W W / / ' ' [ { [ [ { { { {  . .X.X.o.o.o.@.@.@.&.&.=.=.:.:.,.<.<.<.<.<.3.3.3.6.6.6.9.9.w.r.r.u.u.u.p.p.p.f.f.h.h.l.l.l.v.v.n.N.B.B.B.B.A.B.A.A.A.A.A.A.B.A.B.B.B.B.B.B.A.B.B.B.B.B.B.A.B.B.B.N.B.N.B.B.B.N.N.N.N.n.v.v.v.v.l.v.l.l.l.l.l.h.h.h.h.f.f.f.f.s.p.p.u.u.u.r.r.r.w.9.9.6.6.6.3.3.<.<.<.<.<.<.,.,.:.:.:.:.=.=.=.=.=.&.&.&.&.$.$.@.@.@.@.@.@.@.@.@.@.@.o.o.@.o.@.@.@.@.@.&.&.=.=.=.:.,.<.3.3.3.6.6.9.9.w.r.r.u.u.p.p.f.f.f.h.h.h.l.l.l.v.v.v.v.N.N.B.B.B.B.A.A.D.D.D.D.D.D.J.J.J.J.J.J.L.L.L.J.J.J.J.J.J.J.D.D.D.D.S.A.A.B.A.B.B.B.B.N.B.B.B.B.N.B.B.B.B.B.B.N.B.N.N.N.N.n.n.n.v.v.v.v.l.l.l.l.l.h.h.h.h.h.f.f.f.f.s.p.p.u.u.u.u.r.w.9.9.9.6.6.3.<.<.,.:.=.=.&.@.@.o.X. .{ [ ' _ / / W W W R U L L G D Z M b k d s y q 8 2 , , & & @ X   !.!.!.!.!.!.!.!.!.!.!.!.!.!.!.!.!.!.!.!.!.!.!.!.!.!.!.!.!.!.!.!.!.!.!.!.!.!.!.!.!.!.!.!.!.!.!.!.!.!.!.!.!.!.!.!.!.!.!.!.!.!.!.!.!.!.!.!.!.!.!.!.!.!.!.!.!.!.!.!.",
"!.!.!.!.!.!.!.!.!.!.!.!.!.!.!.!.!.!.!.!.!.!.!.!.!.!.!.!.!.!.!.!.!.!.!.!.!.!.!.!.!.!.!.!.!.!.!.!.!.!.!.!.!.!.!.!.!.!.!.!.!.!.!.!.!.!.!.!.!.!.!.!.!.!.!.!.!.!.!.!.!.!.!.!.!.!.!.!.!.!.!.!.!.!.!.!.!.!.!.!.!.!.!.!.!.!.!.!.!.!.!.!.  X + & & & & - ; , 2 2 2 6 6 8 0 q y s d k x M D G L U T ! W W / / _ ' [ [ [ [ [ [ { {  . .X.X.o.o.@.@.@.&.&.&.=.:.:.,.,.<.<.<.<.3.3.3.3.6.6.9.9.9.9.w.r.u.u.p.p.p.f.f.f.h.l.l.l.l.l.v.n.N.N.B.B.B.B.B.B.B.A.B.A.B.B.B.A.B.B.B.B.B.B.B.B.A.B.A.B.B.B.B.B.B.B.N.B.B.N.N.N.N.N.n.v.n.v.v.v.l.l.l.l.l.h.h.h.h.h.h.f.f.f.s.p.p.u.u.r.r.w.w.9.9.9.6.6.5.3.3.<.<.<.<.,.<.,.,.,.:.:.:.:.=.=.=.&.&.&.&.$.$.@.$.@.@.@.@.@.@.@.o.@.o.o.o.o.o.o.@.@.@.@.$.&.&.=.=.=.:.,.<.<.<.3.6.6.9.9.w.r.u.u.p.p.s.f.f.f.h.h.l.l.l.v.v.v.v.v.N.B.B.B.B.B.A.A.S.D.D.D.D.J.J.J.J.J.J.J.J.J.J.J.J.D.D.J.D.D.D.D.S.A.A.A.A.B.B.B.B.B.N.B.B.B.N.B.B.B.B.N.B.N.N.N.N.N.N.N.N.n.n.v.v.v.v.l.l.l.l.h.h.h.h.h.f.f.f.f.f.p.p.p.u.u.u.u.r.w.w.9.9.6.6.3.3.<.,.:.=.=.&.@.@.o. . .{ [ ' _ / / ! W ! R U L L G D D M x k d s y q 8 6 , , - & @ X !.!.!.!.!.!.!.!.!.!.!.!.!.!.!.!.!.!.!.!.!.!.!.!.!.!.!.!.!.!.!.!.!.!.!.!.!.!.!.!.!.!.!.!.!.!.!.!.!.!.!.!.!.!.!.!.!.!.!.!.!.!.!.!.!.!.!.!.!.!.!.!.!.!.!.!.!.!.!.!.!.",
"!.!.!.!.!.!.!.!.!.!.!.!.!.!.!.!.!.!.!.!.!.!.!.!.!.!.!.!.!.!.!.!.!.!.!.!.!.!.!.!.!.!.!.!.!.!.!.!.!.!.!.!.!.!.!.!.!.!.!.!.!.!.!.!.!.!.!.!.!.!.!.!.!.!.!.!.!.!.!.!.!.!.!.!.!.!.!.!.!.!.!.!.!.!.!.!.!.!.!.!.!.!.!.!.!.!.!.!.!.!.!.!.!.X @ @ @ & & & - ; , , 2 2 6 6 8 0 e y s k z n Z D H L U ! W W / / _ _ ' ' ' [ [ { { {  . . .X.X.o.o.@.@.&.&.=.=.:.:.<.,.,.<.<.<.3.3.3.3.6.6.6.9.9.w.w.r.u.u.p.p.p.p.f.h.h.h.l.l.l.v.v.v.N.N.N.B.B.B.B.B.B.B.A.B.B.B.B.A.A.A.B.A.B.B.B.B.B.B.B.B.B.B.B.B.N.B.B.N.N.N.N.N.N.N.n.n.v.v.l.l.v.v.l.l.l.h.l.h.h.h.h.f.f.f.f.p.p.u.u.u.u.w.w.9.9.9.6.6.3.3.<.<.<.<.<.,.,.<.<.:.:.:.:.:.=.=.=.=.&.&.&.&.@.$.$.@.@.@.@.@.@.@.@.o.o.@.o.o.o.o.@.@.@.@.@.$.$.&.&.=.:.:.:.,.<.3.5.6.6.9.9.w.r.u.u.p.p.p.f.f.f.h.h.l.l.l.v.v.v.n.n.N.B.B.B.B.B.A.A.A.D.D.D.D.D.D.J.D.J.J.J.J.J.D.D.D.D.D.D.D.D.D.A.A.A.A.B.A.B.A.B.B.B.N.B.B.N.B.N.B.B.N.B.N.N.N.N.N.n.n.n.n.n.v.v.v.v.l.l.h.h.h.h.h.h.f.f.f.f.s.p.p.p.u.u.u.u.u.r.w.w.9.6.6.6.3.3.<.,.:.=.=.&.@.@.o.X. .{ [ [ _ / / ! W W R Y I L G D Z M x k d s y q 8 2 2 , - $ X   !.!.!.!.!.!.!.!.!.!.!.!.!.!.!.!.!.!.!.!.!.!.!.!.!.!.!.!.!.!.!.!.!.!.!.!.!.!.!.!.!.!.!.!.!.!.!.!.!.!.!.!.!.!.!.!.!.!.!.!.!.!.!.!.!.!.!.!.!.!.!.!.!.!.!.!.!.!.!.!.!.",
"!.!.!.!.!.!.!.!.!.!.!.!.!.!.!.!.!.!.!.!.!.!.!.!.!.!.!.!.!.!.!.!.!.!.!.!.!.!.!.!.!.!.!.!.!.!.!.!.!.!.!.!.!.!.!.!.!.!.!.!.!.!.!.!.!.!.!.!.!.!.!.!.!.!.!.!.!.!.!.!.!.!.!.!.!.!.!.!.!.!.!.!.!.!.!.!.!.!.!.!.!.!.!.!.!.!.!.!.!.!.!.!.!.!.  X @ @ & & & - , 2 2 2 6 6 8 0 e y s d k x B D D L I R W W / / / _ _ _ ' ' ' [ { { {  . . .X.X.o.@.@.&.&.=.=.:.:.:.,.,.<.<.3.3.3.3.6.6.6.9.9.9.w.r.r.u.u.p.p.p.s.f.h.h.l.l.l.l.v.l.v.v.N.N.N.B.B.B.B.B.B.B.B.B.B.B.A.A.B.A.B.B.B.B.B.B.B.B.B.B.B.B.B.B.N.B.B.N.N.N.N.N.n.n.v.v.v.l.l.l.v.l.l.l.l.h.h.h.h.h.f.f.f.s.p.p.u.u.r.r.w.w.9.9.6.6.6.3.3.<.<.<.<.,.,.,.:.:.:.:.:.:.=.=.=.=.=.&.&.&.@.@.@.@.@.@.@.@.@.@.@.@.@.o.o.o.o.o.o.o.o.@.@.@.@.$.@.&.&.=.=.:.<.<.3.3.5.6.9.9.w.r.u.u.u.p.p.p.f.f.h.h.h.l.l.l.l.v.v.v.n.N.B.B.B.B.B.A.A.A.S.D.D.D.D.D.D.D.J.D.J.J.D.D.D.D.D.D.D.D.S.A.A.A.B.B.A.B.B.B.B.B.N.N.B.B.B.B.N.N.N.N.N.N.N.N.N.n.v.v.v.v.v.v.v.v.l.l.l.h.h.h.f.f.f.f.f.s.s.p.p.p.u.u.u.u.r.r.w.9.9.6.6.6.3.3.<.,.:.=.=.&.@.@.o.X. .{ { [ _ / / ^ W ! W Y I L G D Z M x k d s y q 6 2 , , & @ X   !.!.!.!.!.!.!.!.!.!.!.!.!.!.!.!.!.!.!.!.!.!.!.!.!.!.!.!.!.!.!.!.!.!.!.!.!.!.!.!.!.!.!.!.!.!.!.!.!.!.!.!.!.!.!.!.!.!.!.!.!.!.!.!.!.!.!.!.!.!.!.!.!.!.!.!.!.!.!.!.!.",
"!.!.!.!.!.!.!.!.!.!.!.!.!.!.!.!.!.!.!.!.!.!.!.!.!.!.!.!.!.!.!.!.!.!.!.!.!.!.!.!.!.!.!.!.!.!.!.!.!.!.!.!.!.!.!.!.!.!.!.!.!.!.!.!.!.!.!.!.!.!.!.!.!.!.!.!.!.!.!.!.!.!.!.!.!.!.!.!.!.!.!.!.!.!.!.!.!.!.!.!.!.!.!.!.!.!.!.!.!.!.!.!.!.!.!.  X @ @ & & - - , 2 2 6 8 9 q e y s d k x M D D H I T W W / / / _ _ _ ' ' [ [ { { {  . . .X.o.o.@.@.&.&.&.=.:.=.:.:.,.<.<.3.3.3.5.6.6.9.9.9.w.w.r.r.u.u.u.p.p.p.f.f.h.h.l.l.l.l.l.l.v.v.n.n.N.N.B.B.B.B.B.B.B.B.B.B.B.A.A.A.B.B.B.B.B.B.B.B.B.B.B.N.N.B.B.N.N.N.N.N.n.v.v.v.v.v.v.l.l.l.l.l.h.h.h.h.h.h.f.f.f.s.p.p.u.u.u.r.r.w.w.9.9.6.6.6.3.3.<.<.<.<.,.,.:.:.:.:.:.:.:.=.=.=.=.=.&.&.&.&.@.@.@.@.@.@.@.@.@.@.@.@.o.o.o.o.o.o.o.o.o.o.o.@.@.@.@.&.=.=.:.:.,.<.3.5.6.6.9.w.w.r.u.u.p.p.p.s.f.f.f.h.h.l.l.l.l.v.v.v.N.N.N.N.B.B.B.A.A.A.D.D.D.D.D.D.D.D.D.J.D.D.D.D.D.D.D.D.A.S.A.A.B.A.B.B.B.B.B.B.B.B.B.B.N.B.N.N.N.N.N.N.N.n.N.n.v.v.v.v.v.v.v.v.l.l.h.h.h.h.f.f.f.f.f.s.s.p.p.p.u.u.u.u.r.r.w.w.9.9.6.6.6.3.3.<.,.:.:.=.&.@.@.o.X. .{ { [ _ _ / / W W W Y I L G D Z M b k d s y q 6 2 , - & @ X !.!.!.!.!.!.!.!.!.!.!.!.!.!.!.!.!.!.!.!.!.!.!.!.!.!.!.!.!.!.!.!.!.!.!.!.!.!.!.!.!.!.!.!.!.!.!.!.!.!.!.!.!.!.!.!.!.!.!.!.!.!.!.!.!.!.!.!.!.!.!.!.!.!.!.!.!.!.!.!.!.!.",
"!.!.!.!.!.!.!.!.!.!.!.!.!.!.!.!.!.!.!.!.!.!.!.!.!.!.!.!.!.!.!.!.!.!.!.!.!.!.!.!.!.!.!.!.!.!.!.!.!.!.!.!.!.!.!.!.!.!.!.!.!.!.!.!.!.!.!.!.!.!.!.!.!.!.!.!.!.!.!.!.!.!.!.!.!.!.!.!.!.!.!.!.!.!.!.!.!.!.!.!.!.!.!.!.!.!.!.!.!.!.!.!.!.!.!.!.  X @ + @ & - , , 2 6 8 9 q e y s s d z n Z D L L Y W W W / / / _ _ ' _ [ ' [ { { {  .X.X.o.o.@.$.&.&.&.=.=.=.:.,.,.<.<.3.3.5.6.6.9.9.9.9.w.r.r.r.u.u.u.p.p.p.p.f.h.h.h.l.l.l.l.l.l.l.v.v.v.N.N.N.B.B.B.N.B.N.N.B.B.B.B.B.B.B.B.B.B.N.B.B.N.N.B.B.N.N.N.N.N.N.n.N.n.v.v.v.v.l.l.l.l.l.h.l.h.h.h.h.h.f.f.f.f.s.p.p.u.u.u.r.r.9.9.9.6.6.6.5.3.<.<.<.<.,.,.:.:.:.:.:.=.:.=.=.=.=.=.=.=.&.&.&.@.&.@.@.@.@.@.$.@.$.@.@.@.o.o.o.o.o.o.o.o.o.o.o.@.@.$.&.&.=.=.:.,.<.3.3.6.6.6.9.w.r.r.u.u.u.p.p.s.f.f.f.h.l.l.l.v.l.v.v.n.N.N.N.B.B.B.B.B.A.A.S.D.D.D.D.D.D.D.D.D.D.D.D.D.D.D.S.S.A.A.A.A.A.B.B.B.B.B.B.N.N.N.N.B.N.N.N.N.N.N.N.N.n.n.v.n.v.v.v.v.v.l.l.l.h.h.h.h.f.f.f.f.s.s.p.p.p.u.u.u.u.u.r.r.r.w.w.9.6.6.6.5.3.<.<.<.:.=.=.&.@.@.o.X. .{ { [ ' _ / / W W W T I L G D Z N z k s i y 0 6 2 , - & + X !.!.!.!.!.!.!.!.!.!.!.!.!.!.!.!.!.!.!.!.!.!.!.!.!.!.!.!.!.!.!.!.!.!.!.!.!.!.!.!.!.!.!.!.!.!.!.!.!.!.!.!.!.!.!.!.!.!.!.!.!.!.!.!.!.!.!.!.!.!.!.!.!.!.!.!.!.!.!.!.!.!.",
"!.!.!.!.!.!.!.!.!.!.!.!.!.!.!.!.!.!.!.!.!.!.!.!.!.!.!.!.!.!.!.!.!.!.!.!.!.!.!.!.!.!.!.!.!.!.!.!.!.!.!.!.!.!.!.!.!.!.!.!.!.!.!.!.!.!.!.!.!.!.!.!.!.!.!.!.!.!.!.!.!.!.!.!.!.!.!.!.!.!.!.!.!.!.!.!.!.!.!.!.!.!.!.!.!.!.!.!.!.!.!.!.!.!.!.!.  X X @ @ & - , 2 2 6 6 8 0 q y i s d k x B D G L U W W W W / / / _ _ ' ' [ [ { { {  . . .o.o.@.@.&.&.&.=.=.=.:.:.,.<.<.3.3.5.6.6.9.9.9.w.w.w.r.r.u.u.u.p.p.p.f.f.f.h.h.h.h.l.l.l.l.l.l.v.v.n.N.N.N.N.N.N.N.N.N.N.B.N.B.B.B.B.B.N.N.N.N.N.N.N.N.N.N.N.N.N.N.N.N.n.v.v.v.v.l.l.l.l.l.h.l.h.h.h.h.h.h.f.f.f.f.p.p.u.u.u.r.r.w.9.9.9.6.6.6.3.3.<.<.<.<.,.<.,.:.:.:.=.=.=.:.=.=.=.=.=.=.&.&.&.&.@.@.@.@.@.@.$.@.@.@.@.@.o.o.o.o.o.o.o.o.o.o.o.o.@.$.&.&.=.=.:.:.<.<.3.6.6.6.9.9.w.r.u.u.u.u.p.p.s.f.f.h.h.l.l.l.l.v.n.n.N.N.N.B.B.B.B.B.A.A.S.S.A.D.D.D.D.D.D.D.D.D.D.D.D.D.S.A.S.A.A.A.A.A.B.B.B.B.B.B.B.N.B.N.B.N.N.N.N.N.N.n.n.v.n.v.v.v.v.v.v.l.l.l.l.h.h.h.f.f.f.f.p.p.p.p.u.u.u.u.u.r.r.w.w.9.9.9.6.6.5.3.3.<.,.<.:.=.&.&.@.@.o.X. .{ [ [ ' / / / W W W Y I L G D B n k d s y e 9 6 , , - & + X !.!.!.!.!.!.!.!.!.!.!.!.!.!.!.!.!.!.!.!.!.!.!.!.!.!.!.!.!.!.!.!.!.!.!.!.!.!.!.!.!.!.!.!.!.!.!.!.!.!.!.!.!.!.!.!.!.!.!.!.!.!.!.!.!.!.!.!.!.!.!.!.!.!.!.!.!.!.!.!.!.!.",
"!.!.!.!.!.!.!.!.!.!.!.!.!.!.!.!.!.!.!.!.!.!.!.!.!.!.!.!.!.!.!.!.!.!.!.!.!.!.!.!.!.!.!.!.!.!.!.!.!.!.!.!.!.!.!.!.!.!.!.!.!.!.!.!.!.!.!.!.!.!.!.!.!.!.!.!.!.!.!.!.!.!.!.!.!.!.!.!.!.!.!.!.!.!.!.!.!.!.!.!.!.!.!.!.!.!.!.!.!.!.!.!.!.!.!.!.!.  X @ + & - , , 2 2 6 6 8 q e y s d k x M D D L I T W W W W / / / _ _ _ ' [ { { { {  . .X.o.o.@.@.&.&.=.=.=.:.:.,.<.<.<.3.3.5.6.6.9.9.w.w.w.r.r.u.u.u.p.p.p.p.f.f.f.f.h.h.h.h.h.h.l.l.l.l.v.v.n.n.n.n.N.n.n.n.N.N.N.N.N.N.N.B.N.N.N.N.N.N.N.N.N.n.N.N.N.n.n.n.v.v.v.v.l.l.l.l.l.h.l.h.h.h.h.h.f.h.f.f.f.p.p.p.u.u.u.r.w.9.9.6.9.6.6.3.3.3.<.<.<.,.,.<.:.:.:.=.=.=.:.=.=.=.=.=.&.=.=.&.&.&.&.&.&.$.&.@.@.@.@.@.@.o.o.o.o.o.o.o.o.o.o.o.o.o.@.@.$.&.=.=.=.:.,.<.<.3.5.6.6.9.w.w.r.u.u.u.u.p.p.f.f.h.h.h.l.l.l.v.v.n.n.n.N.B.B.B.A.A.A.A.A.S.S.A.D.S.D.D.D.S.A.A.S.A.A.A.A.S.A.A.A.A.B.A.B.B.B.B.B.B.N.B.N.N.N.N.N.n.N.N.n.n.n.n.v.v.v.v.v.l.l.l.l.l.h.h.h.f.f.f.s.p.p.p.p.u.u.u.u.u.r.r.w.w.9.9.9.6.6.6.3.3.<.<.,.:.:.=.=.&.$.o.o.X. .{ [ [ ' _ / / W W W Y I H D Z M b k d i y q 8 2 2 - & @ X   !.!.!.!.!.!.!.!.!.!.!.!.!.!.!.!.!.!.!.!.!.!.!.!.!.!.!.!.!.!.!.!.!.!.!.!.!.!.!.!.!.!.!.!.!.!.!.!.!.!.!.!.!.!.!.!.!.!.!.!.!.!.!.!.!.!.!.!.!.!.!.!.!.!.!.!.!.!.!.!.!.!.",
"!.!.!.!.!.!.!.!.!.!.!.!.!.!.!.!.!.!.!.!.!.!.!.!.!.!.!.!.!.!.!.!.!.!.!.!.!.!.!.!.!.!.!.!.!.!.!.!.!.!.!.!.!.!.!.!.!.!.!.!.!.!.!.!.!.!.!.!.!.!.!.!.!.!.!.!.!.!.!.!.!.!.!.!.!.!.!.!.!.!.!.!.!.!.!.!.!.!.!.!.!.!.!.!.!.!.!.!.!.!.!.!.!.!.!.!.!.!.  X @ & - , , , 2 2 6 6 9 q y y s d k n Z D L L U R W W W W W / / _ _ ' ' [ [ { { {  .X.o.o.o.@.$.&.=.=.=.=.:.:.<.<.<.<.3.3.6.6.9.9.9.9.9.w.r.r.u.u.u.p.p.s.f.f.f.f.h.f.h.h.h.h.h.h.l.l.l.l.v.v.n.v.v.v.n.v.n.N.n.N.N.n.N.N.N.N.N.N.N.N.N.N.N.n.N.n.n.v.v.v.v.v.l.l.l.l.l.l.h.l.h.h.h.h.h.f.f.f.f.f.s.p.p.u.u.u.r.w.w.9.9.6.6.6.6.3.3.<.<.<.<.,.<.:.:.=.=.=.:.=.=.=.=.=.=.=.=.=.&.&.&.&.&.&.&.&.$.$.@.@.@.@.@.o.o.o.o.o.o.o.o.o.o.o.o.o.@.@.$.&.=.=.=.:.<.<.<.3.5.6.6.9.9.w.r.r.u.u.u.u.p.s.f.f.h.h.h.h.l.v.v.v.v.v.N.N.B.B.B.A.A.A.A.A.A.A.A.A.S.A.S.A.A.A.A.A.A.D.A.A.A.A.A.B.A.B.A.B.B.B.N.N.N.N.N.N.N.N.N.N.N.N.n.n.v.v.v.v.v.v.v.l.l.l.l.l.h.h.h.f.f.s.p.p.p.p.u.u.u.u.r.r.r.w.w.9.9.9.6.6.6.3.3.<.<.<.,.:.=.=.=.&.@.o.X. . .{ [ [ ' _ / / W W W U L G D Z N x k s y y 0 6 2 , - & @ X   !.!.!.!.!.!.!.!.!.!.!.!.!.!.!.!.!.!.!.!.!.!.!.!.!.!.!.!.!.!.!.!.!.!.!.!.!.!.!.!.!.!.!.!.!.!.!.!.!.!.!.!.!.!.!.!.!.!.!.!.!.!.!.!.!.!.!.!.!.!.!.!.!.!.!.!.!.!.!.!.!.!.",
"!.!.!.!.!.!.!.!.!.!.!.!.!.!.!.!.!.!.!.!.!.!.!.!.!.!.!.!.!.!.!.!.!.!.!.!.!.!.!.!.!.!.!.!.!.!.!.!.!.!.!.!.!.!.!.!.!.!.!.!.!.!.!.!.!.!.!.!.!.!.!.!.!.!.!.!.!.!.!.!.!.!.!.!.!.!.!.!.!.!.!.!.!.!.!.!.!.!.!.!.!.!.!.!.!.!.!.!.!.!.!.!.!.!.!.!.!.!.!.  X @ & - , , 2 2 2 6 8 q q e i s k x B D G L I T W W W W W / / / / _ _ [ [ { { {  . .X.o.o.@.@.&.&.=.=.:.:.:.<.,.<.<.3.3.6.6.6.9.9.9.9.r.w.r.r.u.u.u.p.p.p.f.f.f.f.f.f.f.f.f.h.h.l.l.l.l.v.v.v.v.v.v.v.v.n.v.v.n.n.N.n.N.N.n.N.n.n.n.n.n.n.n.n.v.n.v.v.v.v.v.l.l.l.l.h.l.h.h.h.h.f.f.f.f.f.f.s.s.p.p.u.u.u.r.r.w.w.9.9.6.6.3.3.3.<.<.<.,.,.,.:.:.:.=.=.=.=.=.=.=.=.=.=.=.=.&.=.&.&.&.&.&.&.$.&.$.@.@.@.o.@.@.o.o.o.o.o.o.o.o.o.o.o.@.@.@.@.&.&.=.=.:.,.<.3.3.6.6.6.9.9.w.w.r.r.u.u.u.p.p.f.f.f.h.h.h.l.l.l.v.v.n.n.N.N.B.B.B.B.B.A.A.A.A.A.A.A.A.A.A.A.A.A.A.A.A.A.A.A.B.A.B.B.B.B.B.B.B.N.N.N.N.N.N.N.N.N.N.N.v.N.v.n.v.v.v.v.l.l.l.l.l.l.h.h.h.f.f.f.s.p.p.p.u.u.u.u.u.r.r.w.w.9.9.9.6.6.6.6.3.<.<.<.,.:.=.=.&.&.@.@.o.X. . .{ [ [ ' _ / / W W W U L G D B n z d s y q 8 2 , , - & @ X !.!.!.!.!.!.!.!.!.!.!.!.!.!.!.!.!.!.!.!.!.!.!.!.!.!.!.!.!.!.!.!.!.!.!.!.!.!.!.!.!.!.!.!.!.!.!.!.!.!.!.!.!.!.!.!.!.!.!.!.!.!.!.!.!.!.!.!.!.!.!.!.!.!.!.!.!.!.!.!.!.!.!.",
"!.!.!.!.!.!.!.!.!.!.!.!.!.!.!.!.!.!.!.!.!.!.!.!.!.!.!.!.!.!.!.!.!.!.!.!.!.!.!.!.!.!.!.!.!.!.!.!.!.!.!.!.!.!.!.!.!.!.!.!.!.!.!.!.!.!.!.!.!.!.!.!.!.!.!.!.!.!.!.!.!.!.!.!.!.!.!.!.!.!.!.!.!.!.!.!.!.!.!.!.!.!.!.!.!.!.!.!.!.!.!.!.!.!.!.!.!.!.!.!.X @ & - - , , 2 2 6 6 9 q e y i d k x M Z D L I T W W W W W / / / _ _ ' [ [ [ { {  . .X.o.@.@.&.&.=.=.=.:.:.:.:.<.<.<.3.5.6.6.9.9.9.9.w.r.r.r.r.u.u.u.u.p.p.p.s.f.f.f.f.f.f.f.h.h.l.l.l.l.l.v.v.v.l.v.v.v.v.v.v.v.v.n.n.n.v.n.n.n.n.n.v.v.v.v.n.v.v.v.l.l.l.l.l.l.l.h.h.h.h.h.h.f.f.f.f.f.s.s.p.p.u.u.u.r.r.r.9.9.9.6.6.6.3.3.<.<.<.,.,.,.:.:.:.:.=.=.=.=.=.=.=.=.=.&.&.&.&.&.&.&.=.&.&.&.&.@.$.@.o.o.o.o.o.o.o.o.o.o.o.o.o.o.o.o.@.@.@.@.&.&.=.=.:.,.<.3.3.6.6.9.9.w.w.r.r.r.r.u.u.u.p.p.s.f.f.h.h.h.l.l.l.v.v.v.n.N.N.N.B.B.B.A.A.A.A.B.B.A.A.A.A.A.B.A.A.A.A.A.A.B.B.B.B.B.B.B.B.N.N.N.N.N.N.N.N.N.N.N.N.N.v.n.n.n.v.v.v.v.v.l.l.l.l.h.h.h.f.f.f.s.p.p.p.u.u.u.u.u.r.w.r.w.9.9.9.6.6.6.5.3.3.<.,.,.:.=.=.=.&.&.@.@.o.X. .{ { [ [ ' _ / / W W R U L D Z M x k d i e 9 6 2 , - & @ X   !.!.!.!.!.!.!.!.!.!.!.!.!.!.!.!.!.!.!.!.!.!.!.!.!.!.!.!.!.!.!.!.!.!.!.!.!.!.!.!.!.!.!.!.!.!.!.!.!.!.!.!.!.!.!.!.!.!.!.!.!.!.!.!.!.!.!.!.!.!.!.!.!.!.!.!.!.!.!.!.!.!.!.",
"!.!.!.!.!.!.!.!.!.!.!.!.!.!.!.!.!.!.!.!.!.!.!.!.!.!.!.!.!.!.!.!.!.!.!.!.!.!.!.!.!.!.!.!.!.!.!.!.!.!.!.!.!.!.!.!.!.!.!.!.!.!.!.!.!.!.!.!.!.!.!.!.!.!.!.!.!.!.!.!.!.!.!.!.!.!.!.!.!.!.!.!.!.!.!.!.!.!.!.!.!.!.!.!.!.!.!.!.!.!.!.!.!.!.!.!.!.!.!.!.  X $ & - - , 2 2 2 6 8 9 q q y s d k b M D G L U T W W W W W W / / _ _ ' [ [ [ { {  .X.X.o.@.@.&.&.=.=.=.=.=.:.,.<.<.3.5.6.6.6.9.9.9.9.9.w.w.r.r.r.u.u.u.u.p.p.p.p.s.p.s.f.f.f.f.h.h.h.l.l.l.l.l.l.l.l.l.v.v.v.v.v.v.n.n.n.n.v.v.v.v.v.v.v.v.v.v.v.v.l.v.l.l.h.h.h.h.h.h.h.h.f.f.f.s.p.p.s.p.p.u.u.u.r.r.r.w.9.9.6.6.6.3.3.3.<.<.<.,.,.,.:.:.:.:.=.=.=.=.=.=.=.=.=.&.&.&.&.&.&.&.&.&.&.@.@.@.@.@.@.o.o.o.@.o.@.o.o.o.o.o.o.o.o.o.@.@.@.@.&.&.=.=.:.,.<.3.3.6.9.9.9.w.w.r.r.r.u.u.u.u.p.p.s.f.f.f.h.h.h.l.l.l.l.v.v.n.N.N.B.B.B.B.B.B.B.B.B.B.A.B.B.B.B.A.A.B.B.B.B.B.B.B.B.B.B.B.N.B.N.N.N.N.N.n.N.N.N.N.n.v.v.n.v.v.v.v.l.l.l.l.h.h.h.h.h.h.f.f.s.s.p.p.u.u.u.u.r.r.r.w.w.9.9.9.6.6.6.6.3.<.<.<.,.:.:.:.=.&.&.@.@.o.o. . .{ { [ ' _ _ / / W W R I H D Z n z d s y q 8 2 2 - & $ @ X !.!.!.!.!.!.!.!.!.!.!.!.!.!.!.!.!.!.!.!.!.!.!.!.!.!.!.!.!.!.!.!.!.!.!.!.!.!.!.!.!.!.!.!.!.!.!.!.!.!.!.!.!.!.!.!.!.!.!.!.!.!.!.!.!.!.!.!.!.!.!.!.!.!.!.!.!.!.!.!.!.!.!.!.",
"!.!.!.!.!.!.!.!.!.!.!.!.!.!.!.!.!.!.!.!.!.!.!.!.!.!.!.!.!.!.!.!.!.!.!.!.!.!.!.!.!.!.!.!.!.!.!.!.!.!.!.!.!.!.!.!.!.!.!.!.!.!.!.!.!.!.!.!.!.!.!.!.!.!.!.!.!.!.!.!.!.!.!.!.!.!.!.!.!.!.!.!.!.!.!.!.!.!.!.!.!.!.!.!.!.!.!.!.!.!.!.!.!.!.!.!.!.!.!.!.    X @ & & - , , 2 6 6 8 9 q e i s k x N Z D H L Y T W W W W W / / / _ _ ' ' [ { { {  .X.o.o.@.@.&.&.&.=.=.=.:.:.<.<.3.3.6.6.6.9.9.9.9.9.9.9.w.w.w.r.r.u.u.u.u.p.p.p.p.p.s.s.f.f.f.h.h.h.h.l.l.l.l.l.l.l.v.l.v.l.l.v.v.v.v.v.v.v.v.v.v.v.v.v.v.v.l.v.l.l.l.l.h.h.h.h.h.h.f.f.f.f.f.s.s.p.p.p.u.u.u.u.r.r.9.9.9.6.6.5.3.3.3.<.<.,.,.,.,.:.:.:.:.=.:.=.=.=.=.=.=.=.&.&.&.&.&.&.&.&.&.&.&.@.@.@.@.@.o.o.@.o.@.o.o.o.o.o.o.o.o.o.@.@.@.@.@.&.&.=.=.=.:.,.<.3.3.6.6.9.9.9.w.w.r.r.r.u.u.u.u.p.s.f.f.f.f.h.h.h.l.l.l.l.v.v.n.N.N.N.N.B.B.B.B.B.B.B.B.B.B.B.B.B.B.B.B.B.B.B.B.B.B.B.N.B.B.N.N.N.N.n.N.n.N.n.n.n.N.n.n.v.v.v.v.l.l.l.l.l.l.h.h.h.h.f.f.f.s.p.p.p.u.u.u.r.r.r.w.w.9.9.9.6.6.6.5.3.3.<.<.,.,.:.:.=.&.&.&.@.@.o.X. .{ { { [ ' _ _ / / W W T I G D M x k d i e 8 6 2 , - & + X   !.!.!.!.!.!.!.!.!.!.!.!.!.!.!.!.!.!.!.!.!.!.!.!.!.!.!.!.!.!.!.!.!.!.!.!.!.!.!.!.!.!.!.!.!.!.!.!.!.!.!.!.!.!.!.!.!.!.!.!.!.!.!.!.!.!.!.!.!.!.!.!.!.!.!.!.!.!.!.!.!.!.!.!.",
"!.!.!.!.!.!.!.!.!.!.!.!.!.!.!.!.!.!.!.!.!.!.!.!.!.!.!.!.!.!.!.!.!.!.!.!.!.!.!.!.!.!.!.!.!.!.!.!.!.!.!.!.!.!.!.!.!.!.!.!.!.!.!.!.!.!.!.!.!.!.!.!.!.!.!.!.!.!.!.!.!.!.!.!.!.!.!.!.!.!.!.!.!.!.!.!.!.!.!.!.!.!.!.!.!.!.!.!.!.!.!.!.!.!.!.!.!.!.!.!.!.!.  X + & & - , 2 2 6 6 8 0 q y s d k n M D D H L I U W W W W W / / / _ _ _ [ [ { { {  .X.o.o.@.@.&.&.&.=.=.:.:.<.<.<.3.3.6.6.6.6.6.6.9.9.9.9.9.w.w.r.u.u.u.u.u.u.u.p.p.p.p.s.f.f.f.f.h.h.l.h.h.h.l.l.l.l.l.v.v.v.v.l.v.v.v.v.v.v.v.l.v.v.v.v.v.l.l.l.l.h.h.h.h.h.f.f.f.f.f.f.s.p.p.p.p.u.u.u.u.u.r.w.w.9.9.6.6.6.3.3.3.<.<.<.<.,.,.:.:.:.:.:.:.=.=.=.=.=.&.&.&.&.&.&.&.&.&.&.&.&.&.@.$.$.@.@.@.@.o.o.o.@.@.@.o.o.o.o.@.o.o.@.@.@.@.&.&.&.&.=.=.:.<.3.3.6.6.6.9.9.9.w.r.r.r.r.u.u.u.p.p.p.f.f.f.f.f.h.h.l.l.l.l.v.v.v.n.N.N.N.B.B.N.B.N.B.B.B.B.B.B.B.B.B.B.B.B.B.B.B.B.B.B.B.B.N.N.N.n.N.N.n.n.n.n.n.N.v.v.v.v.v.v.l.l.l.l.l.h.h.h.h.f.f.f.s.s.p.p.p.u.u.u.r.r.r.w.9.9.9.9.9.6.6.6.3.3.<.<.,.,.:.=.=.&.&.$.$.@.o.X. . .{ { [ [ ' _ / / W W W U L D Z N z k s y q 6 2 , - & $ X X   !.!.!.!.!.!.!.!.!.!.!.!.!.!.!.!.!.!.!.!.!.!.!.!.!.!.!.!.!.!.!.!.!.!.!.!.!.!.!.!.!.!.!.!.!.!.!.!.!.!.!.!.!.!.!.!.!.!.!.!.!.!.!.!.!.!.!.!.!.!.!.!.!.!.!.!.!.!.!.!.!.!.!.!.",
"!.!.!.!.!.!.!.!.!.!.!.!.!.!.!.!.!.!.!.!.!.!.!.!.!.!.!.!.!.!.!.!.!.!.!.!.!.!.!.!.!.!.!.!.!.!.!.!.!.!.!.!.!.!.!.!.!.!.!.!.!.!.!.!.!.!.!.!.!.!.!.!.!.!.!.!.!.!.!.!.!.!.!.!.!.!.!.!.!.!.!.!.!.!.!.!.!.!.!.!.!.!.!.!.!.!.!.!.!.!.!.!.!.!.!.!.!.!.!.!.!.!.!.  X @ & - , , 2 2 6 6 9 q e i s k x M Z D D G H L U T R W W W W / / / _ _ [ [ [ { {  .X.o.@.@.@.@.&.&.=.=.:.,.,.<.<.3.3.3.6.6.6.6.9.6.6.9.9.9.9.w.w.r.r.u.u.u.u.u.u.u.p.p.s.s.f.f.f.f.h.h.h.h.h.h.l.l.l.l.l.l.l.l.l.v.v.v.l.l.v.l.v.v.v.v.l.l.l.l.l.h.h.h.h.f.f.f.f.f.f.p.p.p.p.p.u.u.u.u.r.r.w.9.9.9.6.6.6.5.3.3.3.3.<.<.,.,.:.:.:.:.:.=.=.=.=.=.&.=.&.&.&.&.&.&.&.&.&.&.@.&.&.@.$.@.@.@.o.o.o.o.o.o.o.@.o.o.o.@.o.@.@.@.@.$.@.&.&.&.=.=.=.,.<.3.3.6.6.6.9.9.9.9.w.r.r.r.u.u.u.p.p.p.s.f.f.f.f.f.h.h.l.l.l.l.v.v.v.n.v.N.N.N.N.N.N.B.B.N.N.B.B.B.N.N.N.B.N.N.B.B.N.B.N.N.N.N.N.N.n.n.n.n.v.v.n.v.v.v.v.v.v.v.l.l.l.l.l.h.l.h.h.f.f.f.s.p.p.p.u.u.u.u.u.r.w.w.w.9.9.9.9.6.6.5.3.3.3.<.,.:.:.=.=.&.&.$.@.@.o.o.X. . .{ { [ ' _ _ / / W W R I L D Z x k d i e 9 6 2 , - & + X   !.!.!.!.!.!.!.!.!.!.!.!.!.!.!.!.!.!.!.!.!.!.!.!.!.!.!.!.!.!.!.!.!.!.!.!.!.!.!.!.!.!.!.!.!.!.!.!.!.!.!.!.!.!.!.!.!.!.!.!.!.!.!.!.!.!.!.!.!.!.!.!.!.!.!.!.!.!.!.!.!.!.!.!.!.",
"!.!.!.!.!.!.!.!.!.!.!.!.!.!.!.!.!.!.!.!.!.!.!.!.!.!.!.!.!.!.!.!.!.!.!.!.!.!.!.!.!.!.!.!.!.!.!.!.!.!.!.!.!.!.!.!.!.!.!.!.!.!.!.!.!.!.!.!.!.!.!.!.!.!.!.!.!.!.!.!.!.!.!.!.!.!.!.!.!.!.!.!.!.!.!.!.!.!.!.!.!.!.!.!.!.!.!.!.!.!.!.!.!.!.!.!.!.!.!.!.!.!.!.    X @ & - - 2 2 6 6 8 9 q y s d z n M Z D D D G L I U T W W W W W / / _ ' [ [ [ {  . .X.o.@.@.@.&.&.&.=.=.:.<.,.<.<.<.3.3.3.6.5.6.6.6.6.6.6.9.9.9.w.r.r.u.u.u.u.u.u.u.p.p.s.s.f.f.f.f.f.h.h.h.h.h.l.l.l.l.l.l.l.l.l.v.l.l.l.l.l.l.l.l.l.l.l.l.l.h.h.h.h.f.f.f.f.s.s.p.p.p.p.u.u.u.u.u.u.r.w.9.9.9.6.6.6.5.3.3.3.<.<.<.,.,.:.:.:.=.=.=.=.=.=.=.=.=.=.&.&.&.&.&.&.&.&.&.$.&.&.@.@.$.@.@.@.o.o.o.o.o.o.o.o.o.o.@.@.@.@.@.@.@.&.@.&.&.=.=.=.:.<.<.3.3.5.6.6.9.9.w.9.w.w.r.r.u.u.u.u.p.p.p.s.f.f.f.f.f.h.l.l.l.l.l.v.v.v.v.n.N.N.N.n.N.N.N.N.N.N.N.n.N.N.N.N.N.N.N.N.N.N.N.N.N.N.N.n.n.n.v.v.v.v.v.v.v.v.v.v.l.l.v.l.l.l.h.h.h.h.f.f.f.s.p.p.p.u.u.u.r.r.r.r.w.9.9.9.9.6.6.6.5.3.3.<.<.<.:.:.=.=.=.&.&.@.@.o.o.X. . .{ { [ [ ' _ / / ^ W W Y I G D M x k s y q 8 2 , - & $ X     !.!.!.!.!.!.!.!.!.!.!.!.!.!.!.!.!.!.!.!.!.!.!.!.!.!.!.!.!.!.!.!.!.!.!.!.!.!.!.!.!.!.!.!.!.!.!.!.!.!.!.!.!.!.!.!.!.!.!.!.!.!.!.!.!.!.!.!.!.!.!.!.!.!.!.!.!.!.!.!.!.!.!.!.!.",
"!.!.!.!.!.!.!.!.!.!.!.!.!.!.!.!.!.!.!.!.!.!.!.!.!.!.!.!.!.!.!.!.!.!.!.!.!.!.!.!.!.!.!.!.!.!.!.!.!.!.!.!.!.!.!.!.!.!.!.!.!.!.!.!.!.!.!.!.!.!.!.!.!.!.!.!.!.!.!.!.!.!.!.!.!.!.!.!.!.!.!.!.!.!.!.!.!.!.!.!.!.!.!.!.!.!.!.!.!.!.!.!.!.!.!.!.!.!.!.!.!.!.!.!.  X X @ & - , , 2 6 6 9 q y s d k x n M Z Z D D G L L I Y W W W W / / / / _ ' [ { {  . .X.o.@.@.@.&.&.=.=.=.:.:.<.<.<.<.<.3.3.3.6.6.6.6.6.6.6.9.9.9.w.w.r.r.r.r.r.u.u.u.u.p.p.s.f.f.f.f.f.f.h.h.h.h.l.h.l.l.l.l.l.l.l.l.l.l.l.l.l.l.l.l.l.l.l.h.h.h.h.f.f.f.f.p.s.p.p.p.u.u.u.u.u.r.r.r.r.w.9.9.6.6.6.5.3.3.3.<.<.<.,.,.:.:.:.:.=.=.=.=.=.=.&.&.=.=.&.&.&.$.&.&.&.@.@.&.@.&.@.@.@.@.o.o.o.o.o.o.@.o.o.o.@.@.@.@.@.@.@.@.&.&.&.&.&.=.=.:.:.<.<.3.3.6.6.6.6.9.9.9.w.w.w.r.r.u.u.u.p.p.p.s.s.f.f.f.f.h.h.l.l.l.l.l.v.v.v.v.v.v.n.n.n.n.n.N.n.n.n.n.n.n.N.n.n.N.n.N.N.N.N.N.N.N.n.n.n.n.v.v.v.v.v.v.v.v.v.v.v.l.l.l.l.l.h.h.h.f.f.f.s.p.p.u.u.u.u.r.r.r.r.9.9.9.9.6.6.6.6.3.3.3.<.<.<.<.:.=.=.&.&.&.@.@.o.o.X. . .{ { [ [ ' _ _ / / W W W U L D Z N z k s y 0 6 2 , - & + X   !.!.!.!.!.!.!.!.!.!.!.!.!.!.!.!.!.!.!.!.!.!.!.!.!.!.!.!.!.!.!.!.!.!.!.!.!.!.!.!.!.!.!.!.!.!.!.!.!.!.!.!.!.!.!.!.!.!.!.!.!.!.!.!.!.!.!.!.!.!.!.!.!.!.!.!.!.!.!.!.!.!.!.!.!.!.",
"!.!.!.!.!.!.!.!.!.!.!.!.!.!.!.!.!.!.!.!.!.!.!.!.!.!.!.!.!.!.!.!.!.!.!.!.!.!.!.!.!.!.!.!.!.!.!.!.!.!.!.!.!.!.!.!.!.!.!.!.!.!.!.!.!.!.!.!.!.!.!.!.!.!.!.!.!.!.!.!.!.!.!.!.!.!.!.!.!.!.!.!.!.!.!.!.!.!.!.!.!.!.!.!.!.!.!.!.!.!.!.!.!.!.!.!.!.!.!.!.!.!.!.!.!.  X @ $ & - , , 2 2 6 q e y s d k x x N M Z Z D D G L I Y R W W W / / / _ _ [ [ { {  .X.o.o.@.@.@.&.&.=.=.=.:.:.,.,.<.<.3.<.3.3.3.3.6.5.6.6.6.9.9.9.9.w.w.w.w.r.r.r.u.u.p.p.p.p.p.s.f.f.f.f.h.h.h.h.h.h.l.l.l.l.l.l.l.l.l.l.l.l.l.l.l.l.l.l.h.h.h.f.f.f.f.s.s.p.p.p.u.u.u.u.u.u.r.r.w.w.9.9.9.6.6.5.3.3.3.<.<.,.,.,.:.:.:.=.=.=.=.=.=.=.=.&.&.&.&.&.&.&.&.&.&.@.@.$.$.@.$.@.$.@.@.o.o.o.o.o.o.@.o.@.@.@.@.@.@.$.$.@.&.&.&.&.&.=.=.=.:.<.,.<.<.3.5.6.6.6.9.9.9.w.w.r.r.r.u.u.u.u.p.p.p.s.s.f.f.f.h.h.h.h.l.l.v.v.v.v.v.v.v.v.n.v.v.v.v.n.n.v.v.v.v.v.v.v.n.n.n.n.n.N.n.n.N.v.n.n.v.v.v.v.v.v.v.v.l.l.l.l.l.l.l.h.h.h.f.f.f.f.s.p.p.u.u.u.u.r.r.r.w.w.9.9.6.6.6.6.5.5.3.3.<.<.<.,.:.:.=.&.&.&.@.@.o.o.X. .{ { { { [ ' _ _ _ / ^ W W R I L D Z n z d i e 9 6 2 , - & @ X   !.!.!.!.!.!.!.!.!.!.!.!.!.!.!.!.!.!.!.!.!.!.!.!.!.!.!.!.!.!.!.!.!.!.!.!.!.!.!.!.!.!.!.!.!.!.!.!.!.!.!.!.!.!.!.!.!.!.!.!.!.!.!.!.!.!.!.!.!.!.!.!.!.!.!.!.!.!.!.!.!.!.!.!.!.!.",
"!.!.!.!.!.!.!.!.!.!.!.!.!.!.!.!.!.!.!.!.!.!.!.!.!.!.!.!.!.!.!.!.!.!.!.!.!.!.!.!.!.!.!.!.!.!.!.!.!.!.!.!.!.!.!.!.!.!.!.!.!.!.!.!.!.!.!.!.!.!.!.!.!.!.!.!.!.!.!.!.!.!.!.!.!.!.!.!.!.!.!.!.!.!.!.!.!.!.!.!.!.!.!.!.!.!.!.!.!.!.!.!.!.!.!.!.!.!.!.!.!.!.!.!.!.!.  X + & & - - , 2 6 6 q e i s d k z x x N M B Z D G L L U T W W W W / / _ ' [ { { {  .o.X.o.@.@.&.&.&.=.=.=.:.:.:.:.,.<.<.<.<.3.3.3.3.3.6.6.6.9.9.9.9.9.9.9.w.w.r.u.u.u.p.p.p.p.p.s.f.f.f.f.f.h.h.h.h.h.l.h.l.h.l.h.l.h.l.l.l.l.l.l.l.h.l.h.h.f.f.f.s.s.p.p.p.p.u.u.u.u.u.r.r.w.w.w.9.9.9.6.6.6.5.3.3.<.<.,.<.<.:.:.=.=.=.=.=.=.=.=.=.=.&.&.&.&.&.&.&.&.&.&.$.@.@.@.@.@.@.@.@.@.o.o.o.o.o.o.@.@.@.@.@.@.$.&.&.&.&.&.&.=.=.=.=.=.:.,.,.<.<.3.3.6.6.6.9.9.9.9.9.w.w.r.r.r.u.u.u.u.p.p.p.s.f.f.f.f.f.h.h.h.l.l.l.v.l.l.v.l.v.v.v.v.v.v.v.v.v.v.v.v.v.v.v.v.v.n.n.n.v.n.n.v.n.v.v.v.n.v.v.v.v.v.l.v.l.l.l.l.h.h.h.h.h.f.f.f.p.p.p.u.u.u.u.r.r.w.w.w.9.9.6.6.6.6.6.3.3.3.3.<.<.,.,.:.=.=.&.&.@.@.o.o.X. .{ { { [ [ ' _ _ / _ / W W W T I G D B x k d i q 8 6 , - - $ @ X !.!.!.!.!.!.!.!.!.!.!.!.!.!.!.!.!.!.!.!.!.!.!.!.!.!.!.!.!.!.!.!.!.!.!.!.!.!.!.!.!.!.!.!.!.!.!.!.!.!.!.!.!.!.!.!.!.!.!.!.!.!.!.!.!.!.!.!.!.!.!.!.!.!.!.!.!.!.!.!.!.!.!.!.!.!.!.",
"!.!.!.!.!.!.!.!.!.!.!.!.!.!.!.!.!.!.!.!.!.!.!.!.!.!.!.!.!.!.!.!.!.!.!.!.!.!.!.!.!.!.!.!.!.!.!.!.!.!.!.!.!.!.!.!.!.!.!.!.!.!.!.!.!.!.!.!.!.!.!.!.!.!.!.!.!.!.!.!.!.!.!.!.!.!.!.!.!.!.!.!.!.!.!.!.!.!.!.!.!.!.!.!.!.!.!.!.!.!.!.!.!.!.!.!.!.!.!.!.!.!.!.!.!.!.!.  X @ @ & & - , 2 2 8 q e y s d d k k z x x M Z D D G L I U R W W / / / _ ' [ { { {  . .X.o.@.@.&.&.=.=.=.=.=.:.:.:.,.<.<.<.<.<.<.3.3.3.5.6.6.6.6.6.6.9.9.9.w.r.r.u.u.u.u.p.p.p.p.s.s.s.f.f.f.f.f.h.h.h.h.h.h.h.h.h.l.h.l.h.l.h.l.h.l.h.h.h.f.f.f.f.s.p.p.p.u.u.u.u.u.r.r.r.w.w.9.9.9.6.6.6.5.3.3.<.<.<.,.:.:.:.:.=.=.=.=.=.=.=.&.&.&.&.&.@.@.&.&.@.&.@.@.$.@.@.@.@.@.@.@.@.o.o.o.o.o.o.o.o.o.@.@.@.@.@.&.&.&.&.&.=.=.=.=.=.:.,.,.,.<.<.3.3.6.6.6.9.9.9.9.9.w.w.w.r.r.u.u.u.u.u.p.p.p.p.f.f.f.f.h.h.h.h.l.l.l.l.l.l.l.l.l.v.v.v.v.v.v.l.v.v.l.v.l.v.v.v.v.v.v.v.v.v.v.v.v.v.v.v.v.v.l.l.v.l.l.l.l.l.h.h.h.h.f.f.f.f.s.p.p.u.u.u.r.r.w.w.9.9.9.9.9.6.6.6.6.5.3.3.<.<.<.,.:.:.=.=.=.&.@.@.@.o.X. . .{ { [ ' ' _ _ / / / W W W R U L D Z N x k s y q 6 2 , - & @ X   !.!.!.!.!.!.!.!.!.!.!.!.!.!.!.!.!.!.!.!.!.!.!.!.!.!.!.!.!.!.!.!.!.!.!.!.!.!.!.!.!.!.!.!.!.!.!.!.!.!.!.!.!.!.!.!.!.!.!.!.!.!.!.!.!.!.!.!.!.!.!.!.!.!.!.!.!.!.!.!.!.!.!.!.!.!.!.",
"!.!.!.!.!.!.!.!.!.!.!.!.!.!.!.!.!.!.!.!.!.!.!.!.!.!.!.!.!.!.!.!.!.!.!.!.!.!.!.!.!.!.!.!.!.!.!.!.!.!.!.!.!.!.!.!.!.!.!.!.!.!.!.!.!.!.!.!.!.!.!.!.!.!.!.!.!.!.!.!.!.!.!.!.!.!.!.!.!.!.!.!.!.!.!.!.!.!.!.!.!.!.!.!.!.!.!.!.!.!.!.!.!.!.!.!.!.!.!.!.!.!.!.!.!.!.!.!.  X X @ $ & - , 2 6 8 q e y s s s s d d k x N B Z D D G L U W W W / / _ ' ' [ { { {  . .X.o.@.@.&.&.&.=.=.=.=.=.:.,.:.,.,.<.<.<.<.<.3.3.5.5.5.6.6.6.6.6.9.w.w.r.r.u.u.u.u.p.p.p.p.p.s.p.f.f.f.h.f.h.h.h.h.h.h.h.h.h.h.h.l.h.h.h.h.h.h.h.f.f.f.f.s.p.p.p.p.u.u.u.u.r.r.r.w.9.w.9.9.6.6.6.6.3.3.3.<.<.,.,.:.:.=.=.=.=.=.=.=.=.&.&.&.&.&.@.@.@.@.@.@.@.@.@.@.@.@.@.@.@.@.o.o.o.o.o.o.o.o.o.o.o.@.@.@.@.@.&.&.=.&.&.=.=.=.=.=.:.,.,.<.<.<.3.3.6.6.6.6.9.9.9.9.9.w.w.r.r.r.r.u.u.u.p.p.p.p.s.f.f.f.f.h.h.h.h.l.l.l.l.l.l.l.l.v.l.l.l.v.l.l.l.l.l.l.l.l.l.l.l.l.l.l.v.v.v.v.v.v.v.v.l.l.l.l.l.l.l.l.l.h.h.h.h.f.f.f.f.s.p.p.u.u.u.r.w.w.9.w.9.9.9.6.6.6.6.5.3.3.3.<.<.<.,.,.:.:.=.=.&.@.$.@.o.o.X. .{ { [ [ ' _ / / / / W W W R U L H D Z N z d s e 9 6 2 , - & + X   !.!.!.!.!.!.!.!.!.!.!.!.!.!.!.!.!.!.!.!.!.!.!.!.!.!.!.!.!.!.!.!.!.!.!.!.!.!.!.!.!.!.!.!.!.!.!.!.!.!.!.!.!.!.!.!.!.!.!.!.!.!.!.!.!.!.!.!.!.!.!.!.!.!.!.!.!.!.!.!.!.!.!.!.!.!.!.",
"!.!.!.!.!.!.!.!.!.!.!.!.!.!.!.!.!.!.!.!.!.!.!.!.!.!.!.!.!.!.!.!.!.!.!.!.!.!.!.!.!.!.!.!.!.!.!.!.!.!.!.!.!.!.!.!.!.!.!.!.!.!.!.!.!.!.!.!.!.!.!.!.!.!.!.!.!.!.!.!.!.!.!.!.!.!.!.!.!.!.!.!.!.!.!.!.!.!.!.!.!.!.!.!.!.!.!.!.!.!.!.!.!.!.!.!.!.!.!.!.!.!.!.!.!.!.!.!.!.  X X @ & & - , 2 6 8 q e y y y i s s d k x n M Z Z D H I T W W W / / _ ' ' [ [ { {  .X.o.@.@.@.&.&.&.&.&.=.=.=.:.:.,.,.,.<.<.<.<.<.3.3.3.3.3.5.6.6.6.9.9.9.w.r.u.u.u.u.p.p.p.p.p.p.p.p.s.f.f.f.f.f.f.f.f.h.h.h.h.h.h.h.h.h.h.h.h.h.f.f.f.f.f.s.p.p.u.u.p.u.u.r.r.r.r.w.w.9.9.6.6.6.6.3.3.3.3.<.<.<.<.:.:.=.=.=.=.=.&.&.&.&.&.&.&.$.&.@.@.@.@.@.@.@.@.@.@.@.@.@.@.o.@.o.@.o.o.o.o.o.o.o.@.@.@.@.@.@.@.&.&.&.=.=.=.=.=.=.:.,.,.<.<.<.3.3.5.6.6.6.9.9.9.9.9.9.w.r.r.r.r.u.u.u.u.p.p.p.p.p.s.f.f.f.f.f.h.h.h.l.l.l.h.l.l.l.l.l.l.l.l.l.l.l.l.l.l.l.l.l.l.l.v.l.v.l.v.v.v.l.l.l.v.v.l.l.l.l.h.l.h.h.h.h.f.f.f.f.p.p.p.u.u.u.r.r.w.9.9.9.9.9.9.6.6.6.5.3.3.3.3.<.<.,.<.:.=.=.=.&.&.@.@.o.X. . .{ { { [ ' _ / / / / ! W W W Y I L D D M x k d s e 9 6 2 , - & @ X   !.!.!.!.!.!.!.!.!.!.!.!.!.!.!.!.!.!.!.!.!.!.!.!.!.!.!.!.!.!.!.!.!.!.!.!.!.!.!.!.!.!.!.!.!.!.!.!.!.!.!.!.!.!.!.!.!.!.!.!.!.!.!.!.!.!.!.!.!.!.!.!.!.!.!.!.!.!.!.!.!.!.!.!.!.!.!.",
"!.!.!.!.!.!.!.!.!.!.!.!.!.!.!.!.!.!.!.!.!.!.!.!.!.!.!.!.!.!.!.!.!.!.!.!.!.!.!.!.!.!.!.!.!.!.!.!.!.!.!.!.!.!.!.!.!.!.!.!.!.!.!.!.!.!.!.!.!.!.!.!.!.!.!.!.!.!.!.!.!.!.!.!.!.!.!.!.!.!.!.!.!.!.!.!.!.!.!.!.!.!.!.!.!.!.!.!.!.!.!.!.!.!.!.!.!.!.!.!.!.!.!.!.!.!.!.!.!.!.    X + & & , 2 2 6 8 0 q q e e y y s d k x x N B Z D L I R W W W / / _ ' [ [ { {  . .X.o.o.@.@.@.&.&.&.&.=.=.:.:.:.:.:.<.,.<.<.<.<.<.3.3.3.5.6.6.6.6.9.w.w.r.r.u.u.u.u.p.p.p.p.p.p.p.p.s.f.f.f.f.f.f.f.f.h.h.f.h.h.h.h.h.h.h.h.f.f.f.f.f.s.p.p.p.u.u.u.u.u.r.r.r.r.w.w.9.9.6.6.6.5.3.3.3.3.<.,.:.<.:.:.=.=.=.=.=.&.&.&.&.&.$.$.&.$.@.@.@.@.@.@.@.@.@.@.@.@.@.o.@.@.o.o.o.o.o.o.o.o.o.@.@.@.@.@.@.&.&.&.=.=.=.=.=.:.:.:.,.<.<.<.<.3.3.5.6.6.6.9.9.9.9.9.9.w.w.r.r.r.r.u.u.u.u.p.p.p.p.p.f.f.f.f.f.f.h.h.h.h.h.h.h.h.l.h.l.l.h.l.h.l.h.l.h.l.l.l.l.l.l.l.l.l.l.l.l.l.l.l.l.l.l.l.l.l.l.h.h.h.h.f.f.f.f.f.s.p.u.u.u.u.r.r.w.w.9.9.9.6.9.6.6.6.3.3.3.<.<.<.<.<.,.:.:.=.=.&.&.@.@.o.o.X. .{ { { [ ' _ / / / / W W W W Y I L G D Z N x k s y e 9 6 , , & & + X !.!.!.!.!.!.!.!.!.!.!.!.!.!.!.!.!.!.!.!.!.!.!.!.!.!.!.!.!.!.!.!.!.!.!.!.!.!.!.!.!.!.!.!.!.!.!.!.!.!.!.!.!.!.!.!.!.!.!.!.!.!.!.!.!.!.!.!.!.!.!.!.!.!.!.!.!.!.!.!.!.!.!.!.!.!.!.!.",
"!.!.!.!.!.!.!.!.!.!.!.!.!.!.!.!.!.!.!.!.!.!.!.!.!.!.!.!.!.!.!.!.!.!.!.!.!.!.!.!.!.!.!.!.!.!.!.!.!.!.!.!.!.!.!.!.!.!.!.!.!.!.!.!.!.!.!.!.!.!.!.!.!.!.!.!.!.!.!.!.!.!.!.!.!.!.!.!.!.!.!.!.!.!.!.!.!.!.!.!.!.!.!.!.!.!.!.!.!.!.!.!.!.!.!.!.!.!.!.!.!.!.!.!.!.!.!.!.!.!.!.!.  X @ & - , 2 2 6 6 8 9 0 q q e y s d k k x n B Z D L U R W W W / / / _ ' [ { {  . .o.o.o.@.@.$.&.&.&.&.=.=.=.=.=.:.:.:.:.,.,.<.<.<.<.3.3.3.6.6.6.9.9.w.r.r.r.u.u.u.u.u.p.u.p.p.p.p.p.p.s.f.f.f.f.f.f.f.f.f.f.f.h.f.f.h.f.f.f.f.f.f.s.p.p.p.u.u.u.u.u.u.r.r.r.w.w.9.9.9.6.6.6.5.3.3.<.<.<.<.:.:.:.=.=.=.=.=.=.&.&.&.&.&.$.@.@.@.@.@.@.@.@.@.@.@.@.o.o.@.@.@.o.@.o.o.o.o.o.o.o.o.o.@.@.@.@.@.&.&.=.=.=.=.=.:.:.:.:.,.,.<.<.<.<.<.3.5.6.6.6.9.9.9.9.9.9.w.9.w.r.r.r.r.u.u.u.p.u.p.p.p.p.f.f.f.f.f.f.f.h.h.h.h.h.h.h.h.h.h.h.h.h.h.h.h.h.h.h.h.h.h.h.l.l.l.l.l.l.l.l.l.l.l.l.h.l.h.h.h.h.h.f.f.f.s.s.p.p.p.u.u.u.r.r.w.w.9.6.6.6.6.6.6.6.3.3.3.<.<.<.<.,.:.:.=.=.=.&.&.@.@.@.o.o. . .{ { [ [ _ _ / / / W W W W Y I L G D Z M x z d s y q 8 2 2 - & $ @   !.!.!.!.!.!.!.!.!.!.!.!.!.!.!.!.!.!.!.!.!.!.!.!.!.!.!.!.!.!.!.!.!.!.!.!.!.!.!.!.!.!.!.!.!.!.!.!.!.!.!.!.!.!.!.!.!.!.!.!.!.!.!.!.!.!.!.!.!.!.!.!.!.!.!.!.!.!.!.!.!.!.!.!.!.!.!.!.",
"!.!.!.!.!.!.!.!.!.!.!.!.!.!.!.!.!.!.!.!.!.!.!.!.!.!.!.!.!.!.!.!.!.!.!.!.!.!.!.!.!.!.!.!.!.!.!.!.!.!.!.!.!.!.!.!.!.!.!.!.!.!.!.!.!.!.!.!.!.!.!.!.!.!.!.!.!.!.!.!.!.!.!.!.!.!.!.!.!.!.!.!.!.!.!.!.!.!.!.!.!.!.!.!.!.!.!.!.!.!.!.!.!.!.!.!.!.!.!.!.!.!.!.!.!.!.!.!.!.!.!.!.!.  X @ & & - , 2 2 6 6 6 6 6 8 q y s d k k x N B Z D L U R W W W / / _ ' [ [ { {  . .X.o.o.o.@.@.&.&.&.=.=.=.=.=.=.=.=.:.:.:.,.<.<.<.3.3.3.5.6.6.6.9.9.w.r.u.u.u.u.u.p.u.u.u.u.p.p.p.p.p.f.f.f.f.f.f.f.f.f.f.f.f.f.f.f.f.f.f.f.f.s.p.p.p.u.u.u.u.u.u.r.r.r.w.w.w.9.9.9.6.6.6.3.3.<.<.<.,.,.:.:.:.=.=.=.=.=.=.&.&.&.&.&.@.@.$.@.@.@.@.@.@.@.@.@.o.@.o.@.@.o.@.@.@.@.o.o.o.o.o.o.o.@.@.@.@.@.&.&.&.=.=.=.=.:.:.:.:.,.,.<.<.<.<.3.3.3.6.6.6.6.9.9.9.9.9.9.9.w.w.r.r.r.r.u.u.u.u.u.p.p.p.p.f.f.f.f.f.f.f.f.f.f.f.f.f.h.h.h.h.h.h.h.h.h.h.h.h.h.h.h.h.h.h.l.l.l.l.l.l.l.h.l.h.h.h.h.h.f.h.f.f.f.f.s.p.p.p.u.u.r.r.r.w.w.w.9.9.6.6.6.6.5.3.3.3.<.<.<.<.,.,.:.:.=.=.&.&.&.$.@.o.o. . .{ { [ [ ' _ / / / W W W R Y I L G D Z B n x k d i e q 6 2 , - & $ @   !.!.!.!.!.!.!.!.!.!.!.!.!.!.!.!.!.!.!.!.!.!.!.!.!.!.!.!.!.!.!.!.!.!.!.!.!.!.!.!.!.!.!.!.!.!.!.!.!.!.!.!.!.!.!.!.!.!.!.!.!.!.!.!.!.!.!.!.!.!.!.!.!.!.!.!.!.!.!.!.!.!.!.!.!.!.!.!.",
"!.!.!.!.!.!.!.!.!.!.!.!.!.!.!.!.!.!.!.!.!.!.!.!.!.!.!.!.!.!.!.!.!.!.!.!.!.!.!.!.!.!.!.!.!.!.!.!.!.!.!.!.!.!.!.!.!.!.!.!.!.!.!.!.!.!.!.!.!.!.!.!.!.!.!.!.!.!.!.!.!.!.!.!.!.!.!.!.!.!.!.!.!.!.!.!.!.!.!.!.!.!.!.!.!.!.!.!.!.!.!.!.!.!.!.!.!.!.!.!.!.!.!.!.!.!.!.!.!.!.!.!.!.!.  X + & & - , , , 2 2 2 2 6 8 q e s d d k x N Z Z D L Y W W W W / / _ ' [ [ { {  . .X.o.o.o.@.@.@.&.&.&.&.&.=.&.=.=.=.:.:.,.<.<.<.<.<.3.3.5.6.6.9.9.9.r.r.r.u.u.u.u.u.u.u.u.u.p.p.p.s.f.f.f.f.f.f.f.f.f.f.f.f.f.f.f.f.f.f.f.s.p.p.p.p.u.u.u.u.u.u.r.r.r.w.w.9.9.9.9.6.6.6.3.3.<.<.<.,.:.:.=.=.=.=.=.=.=.=.&.=.&.&.@.@.@.@.@.@.@.@.@.o.o.@.o.@.o.o.@.o.@.@.@.o.o.o.o.o.o.o.o.o.@.@.@.@.&.&.&.&.=.=.:.=.:.:.:.,.,.<.,.<.<.<.3.3.3.5.6.6.6.6.9.6.6.6.9.9.9.w.w.r.r.r.r.u.u.u.u.u.u.p.p.s.s.f.s.s.f.f.f.f.f.f.f.f.f.h.h.f.f.f.f.f.f.f.f.f.f.f.h.h.h.h.h.h.h.h.h.l.h.h.h.h.h.f.f.h.f.f.f.f.s.p.p.p.u.u.u.u.r.w.w.w.9.9.9.6.6.6.6.5.3.3.3.<.<.<.,.,.,.:.:.=.=.&.&.&.@.@.o.X. . .{ { { [ ' _ / / / W W W W T I L G D Z Z N x k d s y e 9 6 2 , - & @ X   !.!.!.!.!.!.!.!.!.!.!.!.!.!.!.!.!.!.!.!.!.!.!.!.!.!.!.!.!.!.!.!.!.!.!.!.!.!.!.!.!.!.!.!.!.!.!.!.!.!.!.!.!.!.!.!.!.!.!.!.!.!.!.!.!.!.!.!.!.!.!.!.!.!.!.!.!.!.!.!.!.!.!.!.!.!.!.!.",
"!.!.!.!.!.!.!.!.!.!.!.!.!.!.!.!.!.!.!.!.!.!.!.!.!.!.!.!.!.!.!.!.!.!.!.!.!.!.!.!.!.!.!.!.!.!.!.!.!.!.!.!.!.!.!.!.!.!.!.!.!.!.!.!.!.!.!.!.!.!.!.!.!.!.!.!.!.!.!.!.!.!.!.!.!.!.!.!.!.!.!.!.!.!.!.!.!.!.!.!.!.!.!.!.!.!.!.!.!.!.!.!.!.!.!.!.!.!.!.!.!.!.!.!.!.!.!.!.!.!.!.!.!.!.!.  X X + & & & - - , , , 2 2 6 q e i s d k x N Z D G I T W W W W W / _ _ [ [ { {  . .o.X.o.o.o.@.@.@.&.&.&.&.&.&.=.=.=.=.:.:.,.,.<.<.<.3.3.5.6.6.9.9.w.r.r.u.u.u.u.u.u.u.u.p.p.p.p.p.p.s.f.f.f.f.f.f.s.f.f.f.f.f.f.f.f.p.p.p.p.p.p.u.u.u.u.u.u.r.r.r.r.r.w.9.9.9.6.6.6.6.3.3.<.<.,.:.:.:.=.=.=.=.=.=.=.=.&.&.&.&.&.@.@.@.o.@.o.o.@.o.o.@.@.o.o.@.@.o.o.@.@.@.@.o.o.o.o.o.o.@.@.@.@.@.$.&.&.&.=.=.:.:.:.:.<.,.<.,.<.<.3.<.3.3.5.5.6.6.6.6.6.6.6.6.6.9.9.w.9.w.w.r.r.r.r.u.u.u.u.p.p.p.p.p.p.s.p.p.s.p.s.s.f.f.f.f.f.f.f.f.f.f.f.f.f.f.f.f.f.f.f.f.h.h.h.h.h.h.h.h.h.f.f.f.f.f.f.f.s.p.p.p.u.u.u.u.u.r.w.w.9.9.9.9.6.6.6.6.6.3.3.3.<.<.<.<.<.,.:.:.=.=.=.&.&.@.@.o.o. . .{ { { [ ' _ / / / W W W W T U L G D D Z N x x k d s y q 8 6 2 , - & @ X   !.!.!.!.!.!.!.!.!.!.!.!.!.!.!.!.!.!.!.!.!.!.!.!.!.!.!.!.!.!.!.!.!.!.!.!.!.!.!.!.!.!.!.!.!.!.!.!.!.!.!.!.!.!.!.!.!.!.!.!.!.!.!.!.!.!.!.!.!.!.!.!.!.!.!.!.!.!.!.!.!.!.!.!.!.!.!.!.",
"!.!.!.!.!.!.!.!.!.!.!.!.!.!.!.!.!.!.!.!.!.!.!.!.!.!.!.!.!.!.!.!.!.!.!.!.!.!.!.!.!.!.!.!.!.!.!.!.!.!.!.!.!.!.!.!.!.!.!.!.!.!.!.!.!.!.!.!.!.!.!.!.!.!.!.!.!.!.!.!.!.!.!.!.!.!.!.!.!.!.!.!.!.!.!.!.!.!.!.!.!.!.!.!.!.!.!.!.!.!.!.!.!.!.!.!.!.!.!.!.!.!.!.!.!.!.!.!.!.!.!.!.!.!.!.!.!.!.  X @ @ & & - - - , 2 2 6 9 q y s d k x N Z D H I U R W W W / / _ _ ' [ { { {  . . .X.o.o.o.@.$.$.@.&.&.&.&.=.=.=.=.:.:.:.,.<.<.3.3.3.5.6.9.9.9.w.r.r.u.u.u.u.u.u.u.u.u.p.p.p.s.p.s.p.s.s.s.p.s.f.s.f.f.f.f.f.f.p.p.p.p.p.p.u.u.u.u.r.r.r.r.r.w.w.9.9.9.6.6.6.6.6.3.3.<.<.,.:.:.=.=.=.=.=.=.=.&.&.&.&.$.&.$.@.@.@.o.@.o.@.o.o.o.o.@.o.@.o.@.@.o.@.@.@.@.@.o.@.o.o.@.@.@.@.$.&.&.&.&.&.=.=.=.:.:.<.<.,.,.<.<.<.<.<.3.3.3.3.5.6.6.6.6.6.6.6.6.6.9.9.9.9.w.9.w.w.r.r.u.u.u.u.u.p.u.p.p.p.p.p.p.p.p.p.s.s.f.f.f.f.f.f.f.s.f.f.f.f.f.f.f.f.f.f.f.f.h.h.h.f.f.f.f.f.f.f.f.s.s.p.p.p.u.u.u.u.u.r.r.w.9.9.9.9.9.6.6.6.6.6.3.3.3.<.<.<.,.<.:.:.=.=.=.=.&.&.$.@.o.o.X. .{ { [ [ ' _ _ / / W W W W T U L G D D Z M x z k d s y e 9 6 2 , , - & + X   !.!.!.!.!.!.!.!.!.!.!.!.!.!.!.!.!.!.!.!.!.!.!.!.!.!.!.!.!.!.!.!.!.!.!.!.!.!.!.!.!.!.!.!.!.!.!.!.!.!.!.!.!.!.!.!.!.!.!.!.!.!.!.!.!.!.!.!.!.!.!.!.!.!.!.!.!.!.!.!.!.!.!.!.!.!.!.!.",
"!.!.!.!.!.!.!.!.!.!.!.!.!.!.!.!.!.!.!.!.!.!.!.!.!.!.!.!.!.!.!.!.!.!.!.!.!.!.!.!.!.!.!.!.!.!.!.!.!.!.!.!.!.!.!.!.!.!.!.!.!.!.!.!.!.!.!.!.!.!.!.!.!.!.!.!.!.!.!.!.!.!.!.!.!.!.!.!.!.!.!.!.!.!.!.!.!.!.!.!.!.!.!.!.!.!.!.!.!.!.!.!.!.!.!.!.!.!.!.!.!.!.!.!.!.!.!.!.!.!.!.!.!.!.!.!.!.!.!.!.  X X + $ & & - - , 2 6 9 q y s d k b N Z D L I U R W W W / / / _ ' [ { { { {  . . .o.o.o.@.@.@.@.@.&.&.&.&.=.=.=.=.=.:.<.<.<.<.3.3.6.9.9.9.9.r.r.r.r.r.r.r.r.u.u.u.u.p.p.p.p.p.p.p.p.p.p.p.p.p.s.s.s.p.f.p.p.p.p.p.p.p.u.u.u.u.u.r.r.r.r.w.w.w.9.9.6.6.6.6.3.3.<.<.,.<.:.:.=.=.=.=.=.&.=.&.&.&.&.$.$.$.$.@.@.@.@.@.o.o.o.o.o.o.@.o.@.o.o.@.@.@.@.@.@.@.@.o.@.@.@.@.$.@.$.&.&.&.&.=.=.=.:.:.<.:.,.,.,.<.<.<.<.<.3.3.3.3.5.6.6.6.6.6.6.6.9.6.6.9.9.9.9.9.9.r.r.r.u.u.u.u.u.u.u.u.u.u.u.u.u.u.u.p.p.p.p.p.p.p.p.p.p.p.p.p.s.s.f.s.s.f.f.f.f.f.h.h.f.f.f.f.f.f.s.s.p.p.p.p.u.u.u.u.r.r.r.w.9.w.9.9.6.6.6.6.6.3.3.3.3.3.<.<.,.,.:.:.=.=.=.=.&.&.$.@.o.o.X. .{ { { [ ' _ _ / / W W W W R U L G D D Z M x z k d s y e q 6 6 2 , - - & @ X   !.!.!.!.!.!.!.!.!.!.!.!.!.!.!.!.!.!.!.!.!.!.!.!.!.!.!.!.!.!.!.!.!.!.!.!.!.!.!.!.!.!.!.!.!.!.!.!.!.!.!.!.!.!.!.!.!.!.!.!.!.!.!.!.!.!.!.!.!.!.!.!.!.!.!.!.!.!.!.!.!.!.!.!.!.!.!.!.",
"!.!.!.!.!.!.!.!.!.!.!.!.!.!.!.!.!.!.!.!.!.!.!.!.!.!.!.!.!.!.!.!.!.!.!.!.!.!.!.!.!.!.!.!.!.!.!.!.!.!.!.!.!.!.!.!.!.!.!.!.!.!.!.!.!.!.!.!.!.!.!.!.!.!.!.!.!.!.!.!.!.!.!.!.!.!.!.!.!.!.!.!.!.!.!.!.!.!.!.!.!.!.!.!.!.!.!.!.!.!.!.!.!.!.!.!.!.!.!.!.!.!.!.!.!.!.!.!.!.!.!.!.!.!.!.!.!.!.!.!.!.!.  X X + & & & - , 2 6 9 e y s d k x N Z D L I U R W W W / / / _ ' [ [ { { { {  . .X.o.o.o.@.@.@.@.&.&.&.&.&.=.=.=.=.:.:.<.<.3.3.5.6.6.9.9.w.w.r.r.r.r.r.r.u.u.u.u.u.u.p.p.p.p.p.p.p.p.p.p.p.p.p.p.p.p.p.p.p.p.p.u.u.u.u.u.u.u.u.r.r.w.w.w.9.9.9.6.6.6.3.3.3.<.<.<.:.:.:.=.=.=.=.=.=.&.&.&.&.$.&.$.$.@.@.@.@.o.o.@.o.o.o.o.o.@.o.@.o.@.@.@.@.@.@.@.@.@.@.o.@.@.@.@.&.&.&.&.&.=.=.=.=.:.:.:.,.,.,.<.<.<.<.3.3.3.3.3.3.3.6.6.5.3.5.6.6.6.6.6.6.6.6.9.9.9.9.w.r.r.r.r.u.r.u.u.u.u.u.u.u.u.u.u.u.p.p.p.p.p.p.p.p.p.p.p.p.p.p.p.p.p.s.p.s.f.f.f.f.f.f.s.p.s.p.p.p.p.p.u.u.u.u.u.r.r.w.w.w.9.9.6.6.6.6.6.5.5.3.3.3.3.3.<.,.,.:.:.:.=.=.=.=.&.@.@.o.o.X. . .{ { [ ' _ _ / / W W W W R U L H D D Z N x z k d s i y q 8 6 2 , , - & $ @ X   !.!.!.!.!.!.!.!.!.!.!.!.!.!.!.!.!.!.!.!.!.!.!.!.!.!.!.!.!.!.!.!.!.!.!.!.!.!.!.!.!.!.!.!.!.!.!.!.!.!.!.!.!.!.!.!.!.!.!.!.!.!.!.!.!.!.!.!.!.!.!.!.!.!.!.!.!.!.!.!.!.!.!.!.!.!.!.!.",
"!.!.!.!.!.!.!.!.!.!.!.!.!.!.!.!.!.!.!.!.!.!.!.!.!.!.!.!.!.!.!.!.!.!.!.!.!.!.!.!.!.!.!.!.!.!.!.!.!.!.!.!.!.!.!.!.!.!.!.!.!.!.!.!.!.!.!.!.!.!.!.!.!.!.!.!.!.!.!.!.!.!.!.!.!.!.!.!.!.!.!.!.!.!.!.!.!.!.!.!.!.!.!.!.!.!.!.!.!.!.!.!.!.!.!.!.!.!.!.!.!.!.!.!.!.!.!.!.!.!.!.!.!.!.!.!.!.!.!.!.!.!.!.!.    @ @ & & - , 2 6 9 q y s d k x M D D L I U R W W W ^ / / _ _ ' [ [ { { {  . .o.o.o.@.o.@.@.@.$.$.&.&.&.&.&.=.:.:.:.,.<.<.3.5.6.6.9.9.9.9.w.w.r.w.r.r.u.u.u.u.u.p.p.p.p.p.p.p.p.p.p.p.p.p.p.p.u.p.p.p.p.p.u.p.u.u.u.u.u.r.r.r.r.w.w.9.9.6.6.6.6.3.3.3.<.<.,.:.:.:.=.=.=.=.=.=.&.&.&.&.@.@.@.@.@.@.@.o.o.o.o.o.o.o.o.o.o.o.o.@.o.o.o.@.@.@.@.@.o.@.o.@.@.@.$.$.@.&.&.&.=.=.=.=.:.:.:.:.,.,.,.<.<.<.<.3.3.3.3.3.3.3.6.5.3.3.6.6.6.6.6.6.6.6.6.6.9.9.9.w.9.w.r.r.w.r.r.r.u.r.r.r.r.u.u.u.u.u.u.u.u.u.u.u.u.u.u.u.u.u.u.p.p.p.p.p.p.s.s.s.s.p.p.p.p.p.u.u.u.u.u.u.r.r.w.r.r.w.9.9.9.6.6.6.6.6.6.3.3.3.3.<.<.<.,.,.:.:.=.=.=.=.=.&.@.@.@.o.X.X. .{ { [ ' ' _ / / / W W W R U I L D D Z M x x k d s s y e 9 6 6 2 , - & & @ X   !.!.!.!.!.!.!.!.!.!.!.!.!.!.!.!.!.!.!.!.!.!.!.!.!.!.!.!.!.!.!.!.!.!.!.!.!.!.!.!.!.!.!.!.!.!.!.!.!.!.!.!.!.!.!.!.!.!.!.!.!.!.!.!.!.!.!.!.!.!.!.!.!.!.!.!.!.!.!.!.!.!.!.!.!.!.!.!.!.",
"!.!.!.!.!.!.!.!.!.!.!.!.!.!.!.!.!.!.!.!.!.!.!.!.!.!.!.!.!.!.!.!.!.!.!.!.!.!.!.!.!.!.!.!.!.!.!.!.!.!.!.!.!.!.!.!.!.!.!.!.!.!.!.!.!.!.!.!.!.!.!.!.!.!.!.!.!.!.!.!.!.!.!.!.!.!.!.!.!.!.!.!.!.!.!.!.!.!.!.!.!.!.!.!.!.!.!.!.!.!.!.!.!.!.!.!.!.!.!.!.!.!.!.!.!.!.!.!.!.!.!.!.!.!.!.!.!.!.!.!.!.!.!.!.!.    X + & - , 2 2 6 9 q y s d z n M D D G L U R W W W W / / _ _ _ ' [ { { {  . . .o.o.o.o.o.@.@.@.@.@.@.&.&.&.=.=.:.:.,.<.<.3.5.6.6.9.9.9.9.9.w.w.r.r.r.r.u.u.u.u.u.u.u.u.p.u.u.p.u.u.u.u.u.u.u.u.u.u.u.u.u.u.u.u.u.u.r.r.r.w.r.w.w.9.9.6.6.5.5.3.3.<.<.,.,.:.:.=.=.=.=.=.=.=.&.&.&.@.@.@.@.@.@.@.@.o.@.o.o.o.o.o.o.o.o.o.o.o.o.o.o.o.o.o.o.o.o.o.o.@.@.@.@.@.&.&.&.&.&.=.=.=.:.:.:.:.,.,.<.<.<.<.<.3.3.3.3.3.3.3.3.3.3.3.3.5.5.6.6.6.6.6.6.6.6.6.9.9.9.9.9.9.w.w.w.w.r.r.w.r.r.r.u.u.u.u.u.u.u.u.u.u.u.u.u.u.u.u.u.u.u.p.p.p.p.p.p.p.p.p.p.p.u.u.u.u.u.u.r.r.w.w.w.w.9.9.9.6.6.6.6.6.6.6.3.3.3.3.3.<.<.<.<.:.:.:.=.=.=.&.&.@.@.@.o.o. . .{ { [ [ ' _ / / / W W W R U I L G D Z B N x k d d s y e q 8 6 2 , , - & & + X   !.!.!.!.!.!.!.!.!.!.!.!.!.!.!.!.!.!.!.!.!.!.!.!.!.!.!.!.!.!.!.!.!.!.!.!.!.!.!.!.!.!.!.!.!.!.!.!.!.!.!.!.!.!.!.!.!.!.!.!.!.!.!.!.!.!.!.!.!.!.!.!.!.!.!.!.!.!.!.!.!.!.!.!.!.!.!.!.!.",
"!.!.!.!.!.!.!.!.!.!.!.!.!.!.!.!.!.!.!.!.!.!.!.!.!.!.!.!.!.!.!.!.!.!.!.!.!.!.!.!.!.!.!.!.!.!.!.!.!.!.!.!.!.!.!.!.!.!.!.!.!.!.!.!.!.!.!.!.!.!.!.!.!.!.!.!.!.!.!.!.!.!.!.!.!.!.!.!.!.!.!.!.!.!.!.!.!.!.!.!.!.!.!.!.!.!.!.!.!.!.!.!.!.!.!.!.!.!.!.!.!.!.!.!.!.!.!.!.!.!.!.!.!.!.!.!.!.!.!.!.!.!.!.!.!.!.  X X @ & - , , 6 6 9 q y s d z n Z Z D L I Y W W W W W / / / _ _ ' [ [ { {  . . .o.o.o.o.o.o.o.@.@.@.@.@.&.&.=.=.:.:.,.<.<.3.6.6.6.6.9.9.9.9.9.9.w.r.r.r.u.u.u.u.u.u.u.u.u.u.u.u.u.u.u.u.u.u.u.u.u.u.u.u.u.u.u.u.u.r.r.r.r.w.9.w.9.6.6.6.5.3.3.3.<.,.<.:.:.:.:.=.=.=.=.&.&.&.@.@.@.@.@.@.@.@.@.@.o.o.o.o.o.o.o.o.o.o.o.o.o.o.o.o.o.o.o.o.o.o.o.o.@.@.@.$.@.@.&.&.&.=.=.=.=.=.:.:.:.,.,.,.<.<.<.<.3.3.3.3.3.3.3.3.3.3.3.3.3.3.3.6.6.3.6.6.6.6.6.6.6.9.9.6.9.9.9.9.w.w.w.w.w.w.w.r.r.r.u.u.r.u.u.u.u.u.r.u.u.u.u.u.u.u.u.u.u.u.u.p.p.p.u.u.u.u.u.u.r.r.r.r.w.w.9.9.9.9.9.6.6.6.6.6.5.5.3.3.3.3.<.<.<.<.<.<.:.=.=.=.=.&.&.@.@.@.o.o.X. . .{ { [ ' _ / / / W W W W Y I L G D Z Z N x z k d s y y q 9 6 6 2 , , - & & + X   !.!.!.!.!.!.!.!.!.!.!.!.!.!.!.!.!.!.!.!.!.!.!.!.!.!.!.!.!.!.!.!.!.!.!.!.!.!.!.!.!.!.!.!.!.!.!.!.!.!.!.!.!.!.!.!.!.!.!.!.!.!.!.!.!.!.!.!.!.!.!.!.!.!.!.!.!.!.!.!.!.!.!.!.!.!.!.!.!.",
"!.!.!.!.!.!.!.!.!.!.!.!.!.!.!.!.!.!.!.!.!.!.!.!.!.!.!.!.!.!.!.!.!.!.!.!.!.!.!.!.!.!.!.!.!.!.!.!.!.!.!.!.!.!.!.!.!.!.!.!.!.!.!.!.!.!.!.!.!.!.!.!.!.!.!.!.!.!.!.!.!.!.!.!.!.!.!.!.!.!.!.!.!.!.!.!.!.!.!.!.!.!.!.!.!.!.!.!.!.!.!.!.!.!.!.!.!.!.!.!.!.!.!.!.!.!.!.!.!.!.!.!.!.!.!.!.!.!.!.!.!.!.!.!.!.!.!.  X + $ & - , , 2 6 0 e i d k x N Z D G L I U R W W W W / / / _ _ ' [ [ { {  . . . .X.X.o.o.o.o.o.@.@.@.@.&.&.&.=.=.:.<.<.<.3.3.6.6.6.6.9.9.9.9.w.w.r.r.r.r.r.u.u.u.u.u.u.u.u.u.u.u.u.u.u.u.u.u.u.u.u.u.u.u.u.u.r.r.r.r.w.w.9.9.9.6.6.6.3.3.<.<.<.,.,.,.:.:.=.=.=.=.&.&.&.&.&.$.$.@.@.@.$.@.@.@.o.@.o.o.o.o.o.o.o.o.o.o.o.o.o.o.o.o.o.o.o.o.o.o.o.o.@.@.@.@.&.@.&.&.=.=.=.=.=.:.:.:.,.,.<.<.<.<.3.<.3.3.3.3.<.3.<.<.3.3.3.3.3.3.3.3.3.3.5.5.5.6.6.6.6.6.6.9.9.9.9.9.9.9.w.9.w.w.w.w.r.r.r.r.r.r.r.r.r.r.r.r.r.u.u.u.u.u.u.u.u.u.u.u.u.u.u.r.r.r.r.r.w.w.9.9.9.6.6.6.6.6.6.6.6.6.6.3.3.3.3.<.<.<.<.:.,.:.=.=.=.=.&.&.&.@.@.o.o.o. . .{ { [ ' _ _ / / W W W W Y I L G D D Z N x z k d s i y q 0 8 6 2 , , , - & & + X   !.!.!.!.!.!.!.!.!.!.!.!.!.!.!.!.!.!.!.!.!.!.!.!.!.!.!.!.!.!.!.!.!.!.!.!.!.!.!.!.!.!.!.!.!.!.!.!.!.!.!.!.!.!.!.!.!.!.!.!.!.!.!.!.!.!.!.!.!.!.!.!.!.!.!.!.!.!.!.!.!.!.!.!.!.!.!.!.!.",
"!.!.!.!.!.!.!.!.!.!.!.!.!.!.!.!.!.!.!.!.!.!.!.!.!.!.!.!.!.!.!.!.!.!.!.!.!.!.!.!.!.!.!.!.!.!.!.!.!.!.!.!.!.!.!.!.!.!.!.!.!.!.!.!.!.!.!.!.!.!.!.!.!.!.!.!.!.!.!.!.!.!.!.!.!.!.!.!.!.!.!.!.!.!.!.!.!.!.!.!.!.!.!.!.!.!.!.!.!.!.!.!.!.!.!.!.!.!.!.!.!.!.!.!.!.!.!.!.!.!.!.!.!.!.!.!.!.!.!.!.!.!.!.!.!.!.!.!.  X + & - - , 2 6 8 q y s d k b M Z D D H L U R W W W ! W / / _ _ _ [ [ { { {  . . . . .X.X.o.o.o.o.@.@.@.@.&.&.=.:.:.<.<.3.3.3.5.6.6.6.9.9.9.9.9.9.r.r.r.r.r.r.u.u.u.u.u.u.u.u.u.u.u.u.u.u.u.u.u.u.u.u.u.u.r.r.r.r.w.w.w.9.9.6.6.6.6.3.3.3.<.<.<.,.:.:.:.=.=.=.&.&.&.&.$.$.$.$.@.$.@.@.$.@.@.@.o.@.o.o.o.o.o.o.o.o.o.o.o.o.o.o.o.o.o.o.o.o.o.o.o.@.@.@.@.@.@.@.&.&.&.=.=.=.:.:.:.,.,.<.,.<.3.<.<.<.<.<.<.<.<.<.<.<.<.<.3.3.3.3.3.3.3.3.3.3.3.3.5.6.6.6.6.6.6.6.6.9.9.9.9.9.9.9.w.w.w.w.w.r.w.w.w.w.r.r.r.r.r.r.r.r.r.r.u.u.u.u.u.u.r.r.r.w.w.9.w.9.9.9.6.6.6.6.6.6.6.5.6.3.3.3.3.3.<.<.<.<.<.,.:.:.:.=.=.=.&.&.&.@.@.@.o.o. . .{ { [ [ ' _ / / W W W W T I L G D D Z M n x k d s i y q 0 8 6 2 2 , , , - & & @ X   !.!.!.!.!.!.!.!.!.!.!.!.!.!.!.!.!.!.!.!.!.!.!.!.!.!.!.!.!.!.!.!.!.!.!.!.!.!.!.!.!.!.!.!.!.!.!.!.!.!.!.!.!.!.!.!.!.!.!.!.!.!.!.!.!.!.!.!.!.!.!.!.!.!.!.!.!.!.!.!.!.!.!.!.!.!.!.!.!.",
"!.!.!.!.!.!.!.!.!.!.!.!.!.!.!.!.!.!.!.!.!.!.!.!.!.!.!.!.!.!.!.!.!.!.!.!.!.!.!.!.!.!.!.!.!.!.!.!.!.!.!.!.!.!.!.!.!.!.!.!.!.!.!.!.!.!.!.!.!.!.!.!.!.!.!.!.!.!.!.!.!.!.!.!.!.!.!.!.!.!.!.!.!.!.!.!.!.!.!.!.!.!.!.!.!.!.!.!.!.!.!.!.!.!.!.!.!.!.!.!.!.!.!.!.!.!.!.!.!.!.!.!.!.!.!.!.!.!.!.!.!.!.!.!.!.!.!.!.  X @ @ & - - , 2 6 0 e y s d k x M Z D D G I U R W ! W W W / / / _ ' [ [ { { { { {  . . . . .X.X.X.o.o.o.@.@.&.=.=.:.:.,.<.3.3.3.6.6.6.6.9.9.9.9.9.9.w.r.r.r.r.u.r.r.r.r.r.r.r.u.u.u.u.u.u.u.u.u.u.u.u.u.u.r.r.r.w.w.w.9.9.6.6.6.6.5.3.3.<.<.<.,.:.:.:.:.=.=.=.&.&.&.&.$.$.$.$.@.@.@.@.@.@.@.o.o.o.o.o.o.o.o.o.o.o.o.o.o.o.o.o.o.o.o.o.o.o.o.o.o.o.o.@.@.@.@.@.&.&.&.=.=.=.:.:.:.,.,.,.<.,.<.<.<.<.<.<.<.3.<.<.<.<.<.<.<.3.3.<.<.<.3.<.3.3.3.3.3.3.3.5.5.5.6.6.6.6.6.6.6.9.6.9.9.9.9.w.9.w.w.w.w.w.w.w.w.w.w.w.r.r.r.r.r.r.r.r.r.r.w.r.w.w.9.9.9.9.6.6.6.6.6.5.5.3.3.3.3.3.3.3.3.<.<.<.<.,.,.:.:.:.=.=.=.=.&.&.@.@.@.o.X. . .{ { [ [ ' _ / / ^ W W W T U L G D D Z B N b k k d s y e 0 8 6 6 2 2 , , - - & & @ X   !.!.!.!.!.!.!.!.!.!.!.!.!.!.!.!.!.!.!.!.!.!.!.!.!.!.!.!.!.!.!.!.!.!.!.!.!.!.!.!.!.!.!.!.!.!.!.!.!.!.!.!.!.!.!.!.!.!.!.!.!.!.!.!.!.!.!.!.!.!.!.!.!.!.!.!.!.!.!.!.!.!.!.!.!.!.!.!.!.",
"!.!.!.!.!.!.!.!.!.!.!.!.!.!.!.!.!.!.!.!.!.!.!.!.!.!.!.!.!.!.!.!.!.!.!.!.!.!.!.!.!.!.!.!.!.!.!.!.!.!.!.!.!.!.!.!.!.!.!.!.!.!.!.!.!.!.!.!.!.!.!.!.!.!.!.!.!.!.!.!.!.!.!.!.!.!.!.!.!.!.!.!.!.!.!.!.!.!.!.!.!.!.!.!.!.!.!.!.!.!.!.!.!.!.!.!.!.!.!.!.!.!.!.!.!.!.!.!.!.!.!.!.!.!.!.!.!.!.!.!.!.!.!.!.!.!.!.!.!.  X @ @ & - , 2 6 9 q y y s k k x N B Z D L I U T W W W W W / / / _ ' [ [ { { { { { {  . . . . .X.X.o.o.o.@.@.&.&.=.:.:.,.,.3.3.3.5.5.6.6.6.6.9.9.w.w.w.r.r.r.r.r.r.r.r.r.r.r.r.r.r.u.u.u.u.u.u.u.u.u.u.u.r.r.r.w.w.w.w.9.9.6.6.6.3.3.3.<.<.,.,.:.:.:.=.=.=.=.&.&.&.&.&.$.$.@.@.@.@.$.@.@.@.@.o.o.o.o.o.o.o.o.o.o.o.o.o.o.o.o.o.o.o.o.o.o.o.o.o.o.o.@.@.@.@.@.&.&.&.&.=.=.:.:.:.,.,.<.<.<.<.<.<.<.<.<.<.<.<.,.,.<.<.<.<.<.<.<.<.<.<.<.<.<.<.<.3.3.3.3.3.3.6.3.6.6.6.6.6.6.6.6.9.9.6.9.9.9.9.9.9.9.9.9.9.9.w.w.9.w.w.w.r.w.r.w.r.w.9.w.9.9.9.9.6.6.6.6.6.5.3.3.3.3.3.3.3.3.3.<.<.<.<.<.,.<.:.:.:.=.=.=.=.&.&.@.@.@.o.X.X. .{ { { [ ' _ / / / W W W R U L H D D Z M N x z k d s y e q 8 6 6 2 2 , , , - & & $ + X   !.!.!.!.!.!.!.!.!.!.!.!.!.!.!.!.!.!.!.!.!.!.!.!.!.!.!.!.!.!.!.!.!.!.!.!.!.!.!.!.!.!.!.!.!.!.!.!.!.!.!.!.!.!.!.!.!.!.!.!.!.!.!.!.!.!.!.!.!.!.!.!.!.!.!.!.!.!.!.!.!.!.!.!.!.!.!.!.!.",
"!.!.!.!.!.!.!.!.!.!.!.!.!.!.!.!.!.!.!.!.!.!.!.!.!.!.!.!.!.!.!.!.!.!.!.!.!.!.!.!.!.!.!.!.!.!.!.!.!.!.!.!.!.!.!.!.!.!.!.!.!.!.!.!.!.!.!.!.!.!.!.!.!.!.!.!.!.!.!.!.!.!.!.!.!.!.!.!.!.!.!.!.!.!.!.!.!.!.!.!.!.!.!.!.!.!.!.!.!.!.!.!.!.!.!.!.!.!.!.!.!.!.!.!.!.!.!.!.!.!.!.!.!.!.!.!.!.!.!.!.!.!.!.!.!.!.!.!.    X X @ & & - 2 2 6 9 q y s d k x x M Z D G L I U T W W W W ^ / / _ _ ' [ ' [ { { { { { { { {  . . .X.o.o.@.@.@.&.&.=.=.:.:.,.<.3.3.3.5.6.6.6.9.9.w.w.w.r.w.r.r.r.r.r.r.r.r.r.r.r.r.r.r.u.u.u.u.u.r.u.r.r.r.r.r.r.w.9.9.9.9.6.6.6.3.3.<.<.<.<.:.:.:.=.=.=.=.=.&.&.&.&.@.@.@.@.@.@.@.@.@.@.@.o.@.o.o.o.o.o.o.o.o.o.o.o.o.X.o.X.X.X.X.o.X.X.X.X.o.o.o.o.@.@.@.@.@.&.&.&.=.=.:.:.:.,.,.,.<.<.<.<.<.<.<.<.,.<.,.,.<.,.<.<.<.<.<.<.<.<.<.<.<.<.<.<.<.<.<.<.3.<.3.3.3.3.5.5.6.6.6.6.6.6.6.6.9.6.9.9.9.9.9.9.9.9.9.9.9.w.9.9.w.9.w.w.w.9.9.9.9.6.9.6.6.6.6.3.3.3.3.3.<.<.<.<.<.<.<.<.<.,.,.<.:.<.:.:.=.=.=.&.&.&.@.@.o.o.o.X. .{ { { [ ' _ _ / ^ W W W R U L L D D Z B N x z k d s y y q 9 6 6 2 2 2 , , - - & & $ @ X   !.!.!.!.!.!.!.!.!.!.!.!.!.!.!.!.!.!.!.!.!.!.!.!.!.!.!.!.!.!.!.!.!.!.!.!.!.!.!.!.!.!.!.!.!.!.!.!.!.!.!.!.!.!.!.!.!.!.!.!.!.!.!.!.!.!.!.!.!.!.!.!.!.!.!.!.!.!.!.!.!.!.!.!.!.!.!.!.!.",
"!.!.!.!.!.!.!.!.!.!.!.!.!.!.!.!.!.!.!.!.!.!.!.!.!.!.!.!.!.!.!.!.!.!.!.!.!.!.!.!.!.!.!.!.!.!.!.!.!.!.!.!.!.!.!.!.!.!.!.!.!.!.!.!.!.!.!.!.!.!.!.!.!.!.!.!.!.!.!.!.!.!.!.!.!.!.!.!.!.!.!.!.!.!.!.!.!.!.!.!.!.!.!.!.!.!.!.!.!.!.!.!.!.!.!.!.!.!.!.!.!.!.!.!.!.!.!.!.!.!.!.!.!.!.!.!.!.!.!.!.!.!.!.!.!.!.!.!.!.!.  X @ $ & - , , 2 6 8 q y s d k z x M Z D G L L U Y R W W W W / / / _ ' ' [ [ { { { { { { { {  . . .X.o.o.o.@.@.&.&.=.=.:.:.,.<.<.3.3.5.6.6.6.9.9.w.w.w.r.r.r.r.r.r.r.r.r.r.r.r.r.r.r.r.r.u.u.u.r.r.r.r.r.w.r.w.w.9.9.9.9.6.6.6.3.3.<.<.<.<.:.:.=.=.=.=.=.=.&.&.&.&.@.&.@.@.@.@.@.@.@.@.@.o.o.o.o.o.o.o.o.o.o.o.o.o.X.X.X.X.X.o.X.X.X.X.X.X.X.o.o.o.o.o.@.@.@.@.&.&.=.=.:.:.:.:.<.,.<.<.<.<.<.<.<.<.,.,.:.,.,.,.,.,.<.<.<.,.<.<.,.,.,.,.,.,.<.,.<.<.<.<.<.<.<.3.3.3.3.5.5.5.6.6.6.6.6.6.6.9.6.6.6.6.9.9.6.9.6.9.9.9.9.9.9.9.9.9.6.6.6.6.6.6.6.3.3.3.3.<.<.<.<.,.<.<.<.,.,.,.:.:.:.:.:.:.=.=.=.=.=.&.&.$.@.@.o.o.X. . .{ { [ ' _ _ / / W W W W R I L G D Z Z M x x k d s i y q 0 8 6 2 2 , , , - - - & & @ @ X   !.!.!.!.!.!.!.!.!.!.!.!.!.!.!.!.!.!.!.!.!.!.!.!.!.!.!.!.!.!.!.!.!.!.!.!.!.!.!.!.!.!.!.!.!.!.!.!.!.!.!.!.!.!.!.!.!.!.!.!.!.!.!.!.!.!.!.!.!.!.!.!.!.!.!.!.!.!.!.!.!.!.!.!.!.!.!.!.!.",
"!.!.!.!.!.!.!.!.!.!.!.!.!.!.!.!.!.!.!.!.!.!.!.!.!.!.!.!.!.!.!.!.!.!.!.!.!.!.!.!.!.!.!.!.!.!.!.!.!.!.!.!.!.!.!.!.!.!.!.!.!.!.!.!.!.!.!.!.!.!.!.!.!.!.!.!.!.!.!.!.!.!.!.!.!.!.!.!.!.!.!.!.!.!.!.!.!.!.!.!.!.!.!.!.!.!.!.!.!.!.!.!.!.!.!.!.!.!.!.!.!.!.!.!.!.!.!.!.!.!.!.!.!.!.!.!.!.!.!.!.!.!.!.!.!.!.!.!.!.!.!.  X @ & & - , , 2 6 9 e y s d k x n M Z D D L L I U R W W W / / / _ _ _ ' [ ' [ [ [ { { { { { {  . .X.X.o.o.@.@.&.&.=.=.:.<.<.<.3.3.3.6.6.9.9.9.w.w.w.w.w.r.r.r.w.w.w.r.w.r.r.w.r.r.r.r.r.r.r.r.r.r.r.r.w.w.w.9.9.9.9.9.6.6.6.3.3.<.<.<.,.:.:.:.=.=.=.=.&.&.&.&.@.&.$.@.@.@.@.@.@.@.@.@.o.@.o.o.o.o.o.o.o.o.o.o.o.o.X.X.o.X.X.X.X.X. . . . .o.o.o.o.o.o.@.@.@.&.&.=.=.=.:.:.:.,.,.,.<.<.<.<.,.,.,.,.,.,.,.:.,.:.,.,.,.<.,.<.<.<.:.:.:.,.:.:.,.:.:.:.<.<.<.<.<.<.3.3.3.3.3.3.3.3.5.5.6.6.6.6.6.6.6.6.6.6.6.6.9.6.6.6.9.6.9.9.9.6.6.6.5.5.3.3.3.<.<.<.<.<.<.,.<.<.<.:.:.:.:.:.:.=.=.=.=.=.=.&.&.&.&.@.@.o.o.o.X.X. .{ { { [ ' _ / / / W W W W Y I L D D Z M N x k k d s y e q 8 6 6 2 2 , , , - - & & & @ @ X   !.!.!.!.!.!.!.!.!.!.!.!.!.!.!.!.!.!.!.!.!.!.!.!.!.!.!.!.!.!.!.!.!.!.!.!.!.!.!.!.!.!.!.!.!.!.!.!.!.!.!.!.!.!.!.!.!.!.!.!.!.!.!.!.!.!.!.!.!.!.!.!.!.!.!.!.!.!.!.!.!.!.!.!.!.!.!.!.!.",
"!.!.!.!.!.!.!.!.!.!.!.!.!.!.!.!.!.!.!.!.!.!.!.!.!.!.!.!.!.!.!.!.!.!.!.!.!.!.!.!.!.!.!.!.!.!.!.!.!.!.!.!.!.!.!.!.!.!.!.!.!.!.!.!.!.!.!.!.!.!.!.!.!.!.!.!.!.!.!.!.!.!.!.!.!.!.!.!.!.!.!.!.!.!.!.!.!.!.!.!.!.!.!.!.!.!.!.!.!.!.!.!.!.!.!.!.!.!.!.!.!.!.!.!.!.!.!.!.!.!.!.!.!.!.!.!.!.!.!.!.!.!.!.!.!.!.!.!.!.!.!.!.!.X @ & & - , 2 6 6 q y i s k k x n N Z D D G L I Y R W W ^ / / _ _ _ _ ' ' ' ' [ ' [ [ { { { { {  . .o.o.o.@.@.&.&.=.=.:.:.,.<.3.3.3.6.6.9.9.9.9.w.w.w.w.w.w.w.w.r.w.w.w.w.r.w.r.w.r.r.r.r.r.w.r.r.r.w.9.w.9.9.9.9.6.6.6.3.3.3.<.<.,.:.:.:.=.=.=.=.=.&.&.&.&.&.$.@.$.@.@.@.@.@.@.@.o.o.o.o.o.o.o.o.o.o.o.o.o.o.X.X.o. .X.X. . . . . . . . .o.X.o.o.o.@.@.@.&.&.=.=.=.:.:.:.:.,.,.<.<.<.,.,.,.:.,.:.,.:.,.,.,.,.:.,.,.,.:.:.:.:.:.:.:.:.:.:.:.:.:.:.:.,.,.<.<.<.<.<.<.3.3.3.3.3.3.3.3.5.5.5.6.6.6.5.6.6.6.6.6.6.6.6.6.6.6.6.5.5.3.3.3.3.3.<.<.<.<.<.<.<.,.:.:.:.:.:.=.=.=.=.=.=.=.=.=.&.&.&.&.$.@.@.o.X.X. . .{ { [ [ ' _ / / / W W W W T U L H D D Z M n x k d s i e q 9 6 6 2 2 2 , , - - - & & & @ @ X   !.!.!.!.!.!.!.!.!.!.!.!.!.!.!.!.!.!.!.!.!.!.!.!.!.!.!.!.!.!.!.!.!.!.!.!.!.!.!.!.!.!.!.!.!.!.!.!.!.!.!.!.!.!.!.!.!.!.!.!.!.!.!.!.!.!.!.!.!.!.!.!.!.!.!.!.!.!.!.!.!.!.!.!.!.!.!.!.!.",
"!.!.!.!.!.!.!.!.!.!.!.!.!.!.!.!.!.!.!.!.!.!.!.!.!.!.!.!.!.!.!.!.!.!.!.!.!.!.!.!.!.!.!.!.!.!.!.!.!.!.!.!.!.!.!.!.!.!.!.!.!.!.!.!.!.!.!.!.!.!.!.!.!.!.!.!.!.!.!.!.!.!.!.!.!.!.!.!.!.!.!.!.!.!.!.!.!.!.!.!.!.!.!.!.!.!.!.!.!.!.!.!.!.!.!.!.!.!.!.!.!.!.!.!.!.!.!.!.!.!.!.!.!.!.!.!.!.!.!.!.!.!.!.!.!.!.!.!.!.!.!.!.!.  X @ & & - , 2 6 8 q y s d k z x x N Z D D G L U T W W W ^ / / / / _ _ _ _ ' _ ' ' [ [ { { { { {  . .o.o.@.@.$.&.&.=.=.:.,.<.<.3.3.6.6.6.9.9.9.9.9.w.9.w.9.9.w.9.w.w.9.w.w.w.r.w.r.w.r.r.r.r.r.w.w.w.9.9.9.9.9.6.6.6.5.3.3.<.<.<.<.:.:.:.=.=.=.=.&.&.&.&.&.&.$.$.@.@.@.@.@.@.@.o.@.o.o.o.o.o.X.o.o.X.o.X.X.X. . . . . . . . . .{  . . . . . .X.o.o.@.@.@.&.&.&.=.=.=.=.=.:.:.:.,.,.<.,.:.:.:.:.,.:.:.,.:.:.:.,.:.:.,.:.:.:.:.:.:.:.:.:.=.:.=.=.=.:.:.:.,.,.,.<.<.<.<.<.<.3.3.3.3.3.3.3.3.3.3.3.3.5.3.6.6.6.6.6.6.6.6.5.5.3.3.3.3.<.<.<.<.,.<.<.:.,.:.:.:.:.:.=.=.=.=.=.=.=.=.&.&.&.&.&.@.$.@.@.o.X.X. . .{ { { [ ' ' _ / / ! W W W R Y I L G D D B N x k k d s y e 0 8 6 6 2 2 , , , - - - - & & @ @ X   !.!.!.!.!.!.!.!.!.!.!.!.!.!.!.!.!.!.!.!.!.!.!.!.!.!.!.!.!.!.!.!.!.!.!.!.!.!.!.!.!.!.!.!.!.!.!.!.!.!.!.!.!.!.!.!.!.!.!.!.!.!.!.!.!.!.!.!.!.!.!.!.!.!.!.!.!.!.!.!.!.!.!.!.!.!.!.!.!.",
"!.!.!.!.!.!.!.!.!.!.!.!.!.!.!.!.!.!.!.!.!.!.!.!.!.!.!.!.!.!.!.!.!.!.!.!.!.!.!.!.!.!.!.!.!.!.!.!.!.!.!.!.!.!.!.!.!.!.!.!.!.!.!.!.!.!.!.!.!.!.!.!.!.!.!.!.!.!.!.!.!.!.!.!.!.!.!.!.!.!.!.!.!.!.!.!.!.!.!.!.!.!.!.!.!.!.!.!.!.!.!.!.!.!.!.!.!.!.!.!.!.!.!.!.!.!.!.!.!.!.!.!.!.!.!.!.!.!.!.!.!.!.!.!.!.!.!.!.!.!.!.!.!.  X @ @ & & - , 2 6 9 e y s d k z x x M Z D D L I U T W W ! ! / / / / / / / _ _ _ _ _ [ [ [ [ { { {  . .X.o.o.@.@.&.=.=.=.:.,.<.<.3.3.5.6.6.6.9.9.9.9.9.9.9.9.9.9.9.9.9.9.w.9.w.w.w.w.r.w.w.w.w.w.9.9.9.9.9.9.6.6.6.5.3.3.<.<.<.<.<.:.:.:.=.=.=.=.&.&.&.@.$.&.$.$.@.@.@.@.@.@.@.o.o.o.o.o.o.o.o.X.X.X.X.X.X.X. . . . . . . . .{ { { { {  . . .X.o.o.o.@.@.$.&.&.=.=.=.=.=.=.:.:.:.:.,.:.:.:.:.:.:.:.:.:.:.,.:.,.:.:.:.:.:.:.=.=.=.:.=.=.=.=.=.=.=.=.=.:.:.:.:.,.,.,.<.<.<.<.3.<.<.3.3.3.3.3.3.3.3.3.3.3.3.3.3.3.3.3.3.3.3.3.3.<.<.<.<.<.,.<.<.:.:.:.=.=.:.=.=.=.=.=.=.=.=.=.=.&.&.&.&.$.@.@.@.o.o.X. . .{ { { [ [ ' _ / / / W W W W R U I L G D Z B N b k d d i y q 0 8 6 6 2 2 , , , - - - - & & @ @ X   !.!.!.!.!.!.!.!.!.!.!.!.!.!.!.!.!.!.!.!.!.!.!.!.!.!.!.!.!.!.!.!.!.!.!.!.!.!.!.!.!.!.!.!.!.!.!.!.!.!.!.!.!.!.!.!.!.!.!.!.!.!.!.!.!.!.!.!.!.!.!.!.!.!.!.!.!.!.!.!.!.!.!.!.!.!.!.!.!.",
"!.!.!.!.!.!.!.!.!.!.!.!.!.!.!.!.!.!.!.!.!.!.!.!.!.!.!.!.!.!.!.!.!.!.!.!.!.!.!.!.!.!.!.!.!.!.!.!.!.!.!.!.!.!.!.!.!.!.!.!.!.!.!.!.!.!.!.!.!.!.!.!.!.!.!.!.!.!.!.!.!.!.!.!.!.!.!.!.!.!.!.!.!.!.!.!.!.!.!.!.!.!.!.!.!.!.!.!.!.!.!.!.!.!.!.!.!.!.!.!.!.!.!.!.!.!.!.!.!.!.!.!.!.!.!.!.!.!.!.!.!.!.!.!.!.!.!.!.!.!.!.!.!.!.  X @ + & & - , 2 6 q y s d d k z x n M Z D D L I Y R W W W ! / / / _ / / / / / _ _ ' _ ' [ [ { { {  . .X.o.o.@.&.&.&.=.=.:.<.<.<.3.3.5.6.6.9.9.9.9.9.9.9.9.9.9.9.9.9.9.9.9.9.9.9.w.9.w.w.9.w.9.9.9.9.6.9.6.6.6.6.3.3.3.<.<.<.<.:.:.=.=.=.=.&.&.&.&.&.&.$.$.$.@.@.@.@.@.@.@.o.o.o.o.o.o.o.o.o.o.X.X.X.X. . . . . .{ { { { { { { { { { { {  . .X.o.o.o.@.@.&.&.&.=.=.=.=.=.=.:.:.:.:.:.:.:.:.:.:.:.:.,.:.:.:.:.,.:.:.=.=.=.=.=.=.=.=.=.=.&.&.&.=.=.=.=.=.:.:.:.,.,.<.<.<.<.<.<.<.3.<.<.<.<.3.<.<.<.<.3.3.3.<.3.3.3.3.3.<.<.<.<.<.,.,.,.:.:.:.:.=.=.=.=.=.=.=.=.=.=.=.&.&.&.&.&.$.@.@.@.@.o.o.o.X. .{ { { [ [ [ ' _ / / / ! W W W R Y I L L G D Z M n z k d s y e q 0 6 6 6 2 2 2 , , - - - - & & @ @ X   !.!.!.!.!.!.!.!.!.!.!.!.!.!.!.!.!.!.!.!.!.!.!.!.!.!.!.!.!.!.!.!.!.!.!.!.!.!.!.!.!.!.!.!.!.!.!.!.!.!.!.!.!.!.!.!.!.!.!.!.!.!.!.!.!.!.!.!.!.!.!.!.!.!.!.!.!.!.!.!.!.!.!.!.!.!.!.!.!.",
"!.!.!.!.!.!.!.!.!.!.!.!.!.!.!.!.!.!.!.!.!.!.!.!.!.!.!.!.!.!.!.!.!.!.!.!.!.!.!.!.!.!.!.!.!.!.!.!.!.!.!.!.!.!.!.!.!.!.!.!.!.!.!.!.!.!.!.!.!.!.!.!.!.!.!.!.!.!.!.!.!.!.!.!.!.!.!.!.!.!.!.!.!.!.!.!.!.!.!.!.!.!.!.!.!.!.!.!.!.!.!.!.!.!.!.!.!.!.!.!.!.!.!.!.!.!.!.!.!.!.!.!.!.!.!.!.!.!.!.!.!.!.!.!.!.!.!.!.!.!.!.!.!.!.  X X X @ & & - , 6 9 e i s d k k z x N M Z D G L I Y R W W W W ! W W / / / / / / / _ _ ' [ [ { { { {  . .X.o.@.@.&.&.=.=.:.<.<.<.<.3.3.5.6.6.6.6.6.9.9.9.6.9.9.9.9.6.6.9.9.9.9.9.9.9.9.9.9.9.9.9.9.6.9.6.6.6.6.5.3.3.<.<.<.<.<.,.:.=.=.=.=.=.&.&.&.&.@.$.$.$.$.@.@.@.@.@.o.o.o.o.o.o.o.o.o.X.X.o. . . . . . .{ { { { { { { { { { { { { {  . . .X.o.o.@.@.$.&.&.&.&.=.=.=.=.=.=.=.=.:.:.:.:.:.:.:.:.:.:.,.:.,.:.:.:.=.=.=.=.=.=.=.=.=.=.&.&.&.&.&.=.=.=.=.=.=.:.:.:.,.,.,.,.,.,.<.,.<.<.<.<.<.<.<.<.<.<.<.<.<.<.<.3.<.<.<.<.,.,.:.:.:.:.=.=.=.=.=.=.=.=.=.&.&.&.&.&.&.&.&.@.$.$.@.@.o.o.o.o. . . .{ { { [ [ ' _ _ _ / / W W W W R U I L G D D Z M x z k d s y e q 9 7 6 6 2 2 , , , - - - - & & $ @ X   !.!.!.!.!.!.!.!.!.!.!.!.!.!.!.!.!.!.!.!.!.!.!.!.!.!.!.!.!.!.!.!.!.!.!.!.!.!.!.!.!.!.!.!.!.!.!.!.!.!.!.!.!.!.!.!.!.!.!.!.!.!.!.!.!.!.!.!.!.!.!.!.!.!.!.!.!.!.!.!.!.!.!.!.!.!.!.!.!.",
"!.!.!.!.!.!.!.!.!.!.!.!.!.!.!.!.!.!.!.!.!.!.!.!.!.!.!.!.!.!.!.!.!.!.!.!.!.!.!.!.!.!.!.!.!.!.!.!.!.!.!.!.!.!.!.!.!.!.!.!.!.!.!.!.!.!.!.!.!.!.!.!.!.!.!.!.!.!.!.!.!.!.!.!.!.!.!.!.!.!.!.!.!.!.!.!.!.!.!.!.!.!.!.!.!.!.!.!.!.!.!.!.!.!.!.!.!.!.!.!.!.!.!.!.!.!.!.!.!.!.!.!.!.!.!.!.!.!.!.!.!.!.!.!.!.!.!.!.!.!.!.!.!.!.!.!.  X + $ & & , 2 6 q e i s k k k z b M Z Z D H L L U T W W W W W W ^ W / / / _ / _ _ ' _ ' [ { { { {  .X.o.o.@.@.&.=.=.=.:.<.<.<.<.3.3.6.6.6.6.6.6.6.6.6.6.6.6.6.6.6.9.6.9.9.9.9.9.9.9.9.9.9.6.6.6.6.6.6.6.3.3.3.3.<.<.<.,.,.:.=.=.=.=.=.&.&.&.&.@.@.$.$.@.@.@.@.@.o.@.o.o.o.o.o.o.o.o.X.X.X. . . . . .{ { { { { { { [ { [ [ { [ { { { { {  . .o.o.o.@.@.@.@.&.&.&.=.=.=.=.=.=.=.=.:.=.:.:.:.=.:.:.<.<.<.<.:.:.:.=.=.=.=.=.=.=.=.=.&.&.&.&.&.&.&.=.=.=.=.=.=.=.:.:.:.:.:.,.<.:.,.:.:.:.<.,.<.<.,.<.,.,.,.,.<.,.,.<.,.,.:.,.:.:.=.=.=.=.=.=.=.&.&.&.&.&.&.&.&.&.$.&.@.@.@.@.@.o.o.o.X.X. . .{ { { [ [ [ ' ' _ / / / W W W W R Y I L L G D Z B n x k d s y y q 0 9 7 6 6 2 , , , , , - - - & & @ @ X   !.!.!.!.!.!.!.!.!.!.!.!.!.!.!.!.!.!.!.!.!.!.!.!.!.!.!.!.!.!.!.!.!.!.!.!.!.!.!.!.!.!.!.!.!.!.!.!.!.!.!.!.!.!.!.!.!.!.!.!.!.!.!.!.!.!.!.!.!.!.!.!.!.!.!.!.!.!.!.!.!.!.!.!.!.!.!.!.!.",
"!.!.!.!.!.!.!.!.!.!.!.!.!.!.!.!.!.!.!.!.!.!.!.!.!.!.!.!.!.!.!.!.!.!.!.!.!.!.!.!.!.!.!.!.!.!.!.!.!.!.!.!.!.!.!.!.!.!.!.!.!.!.!.!.!.!.!.!.!.!.!.!.!.!.!.!.!.!.!.!.!.!.!.!.!.!.!.!.!.!.!.!.!.!.!.!.!.!.!.!.!.!.!.!.!.!.!.!.!.!.!.!.!.!.!.!.!.!.!.!.!.!.!.!.!.!.!.!.!.!.!.!.!.!.!.!.!.!.!.!.!.!.!.!.!.!.!.!.!.!.!.!.!.!.!.!.!.  X @ & & - 2 2 8 q y y s d k k x N B Z D D G L L U T W W W W W W W W W W ! / / _ _ _ ' ' [ [ { {  . .X.o.o.@.&.&.=.=.:.:.,.<.<.3.3.3.5.5.5.6.6.6.6.6.6.6.6.6.6.6.6.6.6.9.6.9.9.9.9.6.6.9.6.6.6.6.6.6.3.3.3.<.3.<.<.<.:.:.:.=.=.=.=.=.&.&.&.$.&.@.@.@.@.@.@.@.@.@.@.o.o.o.X.o.X.X.o.o.X. . . . . .{ { { { { { { { [ [ [ [ [ [ [ [ [ { { {  . .o.o.o.@.@.@.@.&.&.&.&.&.&.&.=.=.=.:.=.:.=.:.:.:.:.:.,.:.<.:.:.:.=.=.=.=.=.=.&.=.&.&.&.&.&.$.@.&.&.&.&.&.&.=.=.=.:.:.:.:.:.:.:.:.:.:.:.:.:.:.:.:.:.:.:.:.:.:.,.:.:.:.:.:.:.=.=.=.=.=.=.&.=.&.&.&.&.&.&.@.&.@.@.@.@.@.@.@.o.o.o.X.X. . . .{ { { [ [ [ ' _ _ / / / / W W W ! T Y I L G D D Z N x z k d s y e q 0 8 6 6 6 2 , 2 , , - - - & & & @ @ X   !.!.!.!.!.!.!.!.!.!.!.!.!.!.!.!.!.!.!.!.!.!.!.!.!.!.!.!.!.!.!.!.!.!.!.!.!.!.!.!.!.!.!.!.!.!.!.!.!.!.!.!.!.!.!.!.!.!.!.!.!.!.!.!.!.!.!.!.!.!.!.!.!.!.!.!.!.!.!.!.!.!.!.!.!.!.!.!.!.",
"!.!.!.!.!.!.!.!.!.!.!.!.!.!.!.!.!.!.!.!.!.!.!.!.!.!.!.!.!.!.!.!.!.!.!.!.!.!.!.!.!.!.!.!.!.!.!.!.!.!.!.!.!.!.!.!.!.!.!.!.!.!.!.!.!.!.!.!.!.!.!.!.!.!.!.!.!.!.!.!.!.!.!.!.!.!.!.!.!.!.!.!.!.!.!.!.!.!.!.!.!.!.!.!.!.!.!.!.!.!.!.!.!.!.!.!.!.!.!.!.!.!.!.!.!.!.!.!.!.!.!.!.!.!.!.!.!.!.!.!.!.!.!.!.!.!.!.!.!.!.!.!.!.!.!.!.!.  X X @ & - , 2 6 9 q y i s d k k x N B Z Z D G H L I T W W W W W W W W W / / / / / / _ ' ' [ [ { {  .o.o.o.@.$.&.&.=.=.:.:.,.,.<.<.3.3.3.3.5.5.5.6.6.6.6.6.6.6.6.6.6.6.6.6.6.6.6.9.6.6.6.6.6.6.6.6.3.3.<.<.<.<.<.<.:.:.:.=.=.=.=.=.&.&.&.&.&.@.@.@.@.@.@.@.@.@.@.o.o.o.o.o.o.X.o.X.X.X. . . . .{ { { { { [ [ [ [ [ [ [ ' ' ' ' [ [ [ { {  . .X.X.o.o.o.@.@.@.@.@.@.&.&.&.&.=.=.=.=.:.=.:.=.:.:.:.:.,.:.:.=.=.=.=.=.=.=.&.&.&.&.&.@.&.@.@.$.@.$.&.&.&.=.=.=.=.=.=.=.=.=.=.=.=.=.=.:.=.:.=.:.=.=.=.=.=.=.:.:.:.=.=.=.=.=.=.=.=.=.=.&.&.&.&.@.@.@.@.@.@.@.@.@.@.@.@.o.o.o.o.o.X. . .{ { { { [ [ ' ' _ _ / / / / W W W W W Y U L L G D D Z N x k d s i y e q 9 8 6 6 2 2 2 2 , , , - - - & & + X X   !.!.!.!.!.!.!.!.!.!.!.!.!.!.!.!.!.!.!.!.!.!.!.!.!.!.!.!.!.!.!.!.!.!.!.!.!.!.!.!.!.!.!.!.!.!.!.!.!.!.!.!.!.!.!.!.!.!.!.!.!.!.!.!.!.!.!.!.!.!.!.!.!.!.!.!.!.!.!.!.!.!.!.!.!.!.!.!.!.",
"!.!.!.!.!.!.!.!.!.!.!.!.!.!.!.!.!.!.!.!.!.!.!.!.!.!.!.!.!.!.!.!.!.!.!.!.!.!.!.!.!.!.!.!.!.!.!.!.!.!.!.!.!.!.!.!.!.!.!.!.!.!.!.!.!.!.!.!.!.!.!.!.!.!.!.!.!.!.!.!.!.!.!.!.!.!.!.!.!.!.!.!.!.!.!.!.!.!.!.!.!.!.!.!.!.!.!.!.!.!.!.!.!.!.!.!.!.!.!.!.!.!.!.!.!.!.!.!.!.!.!.!.!.!.!.!.!.!.!.!.!.!.!.!.!.!.!.!.!.!.!.!.!.!.!.!.!.!.  X @ & - , , 2 6 9 q y y s d k z x N M Z D D D L L U T W W W W W W W W ! / / / / _ _ _ _ ' [ [ { {  .o.o.o.@.@.&.&.=.=.:.:.<.<.<.<.3.3.3.3.3.3.3.3.5.3.6.3.5.5.3.5.5.5.6.6.6.6.6.6.6.6.6.5.6.3.3.3.<.<.<.<.,.,.:.:.=.=.=.=.=.=.=.&.&.&.$.@.@.@.@.@.@.@.@.@.@.o.o.o.o.o.o.X.X.X.X.X. . . . .{ { { { { [ [ [ [ ' ' ' _ ' _ _ ' ' ' [ [ { { {  . . .o.o.o.@.@.@.@.@.@.@.@.&.&.=.=.=.=.=.=.=.=.:.:.:.:.:.:.:.=.=.=.=.=.&.&.&.&.@.@.@.@.$.@.@.@.@.$.@.&.&.&.=.=.=.=.=.=.=.=.=.=.=.=.=.=.=.=.=.=.=.=.=.=.=.=.=.=.=.=.=.=.=.=.&.=.&.&.$.@.@.@.@.@.@.@.@.@.@.@.@.o.o.o.o.X.X. . . .{ { { { { [ [ ' ' _ _ / / / / / W W W W R U I L H D D Z M n z k d s y y q 0 9 6 6 6 2 2 , , , , - - & & & @ @ X   !.!.!.!.!.!.!.!.!.!.!.!.!.!.!.!.!.!.!.!.!.!.!.!.!.!.!.!.!.!.!.!.!.!.!.!.!.!.!.!.!.!.!.!.!.!.!.!.!.!.!.!.!.!.!.!.!.!.!.!.!.!.!.!.!.!.!.!.!.!.!.!.!.!.!.!.!.!.!.!.!.!.!.!.!.!.!.!.!.!.",
"!.!.!.!.!.!.!.!.!.!.!.!.!.!.!.!.!.!.!.!.!.!.!.!.!.!.!.!.!.!.!.!.!.!.!.!.!.!.!.!.!.!.!.!.!.!.!.!.!.!.!.!.!.!.!.!.!.!.!.!.!.!.!.!.!.!.!.!.!.!.!.!.!.!.!.!.!.!.!.!.!.!.!.!.!.!.!.!.!.!.!.!.!.!.!.!.!.!.!.!.!.!.!.!.!.!.!.!.!.!.!.!.!.!.!.!.!.!.!.!.!.!.!.!.!.!.!.!.!.!.!.!.!.!.!.!.!.!.!.!.!.!.!.!.!.!.!.!.!.!.!.!.!.!.!.!.!.!.!.  X @ & - , , 2 6 9 q e i s d k x x M Z Z D D G L L U R W W W W W W W W W W / / _ / / _ _ [ [ [ {  .o.o.o.@.@.@.&.=.=.=.:.:.,.,.<.<.<.<.<.<.3.3.3.3.3.3.3.3.3.<.3.3.3.3.3.3.3.3.3.3.3.3.3.3.3.3.3.<.<.,.,.:.:.:.=.=.=.=.=.=.&.&.&.&.&.&.@.@.@.@.@.@.@.o.o.o.o.o.o.o.o.o.o.X.X.X. . . . .{ { { { { { [ [ ' ' ' _ _ _ _ _ _ _ ' _ ' [ [ { { {  . . .X.o.o.o.o.o.o.@.@.@.@.&.&.&.&.=.=.=.=.=.=.=.=.=.=.=.=.=.=.=.=.=.&.&.&.&.@.@.@.@.@.@.@.@.@.@.@.&.&.&.&.&.&.=.&.=.=.=.&.&.&.&.&.&.=.&.&.&.&.&.&.&.&.&.&.&.=.=.&.&.&.&.&.&.&.$.$.@.@.@.@.o.o.o.o.o.o.o.o.o.X.o. . . . .{ { { { { [ [ ' ' ' _ _ / / / / / W W W W W R U I L G D Z B N x k k d s y e q q 9 6 6 2 2 2 , , , , - - & & $ @ X     !.!.!.!.!.!.!.!.!.!.!.!.!.!.!.!.!.!.!.!.!.!.!.!.!.!.!.!.!.!.!.!.!.!.!.!.!.!.!.!.!.!.!.!.!.!.!.!.!.!.!.!.!.!.!.!.!.!.!.!.!.!.!.!.!.!.!.!.!.!.!.!.!.!.!.!.!.!.!.!.!.!.!.!.!.!.!.!.!.!.",
"!.!.!.!.!.!.!.!.!.!.!.!.!.!.!.!.!.!.!.!.!.!.!.!.!.!.!.!.!.!.!.!.!.!.!.!.!.!.!.!.!.!.!.!.!.!.!.!.!.!.!.!.!.!.!.!.!.!.!.!.!.!.!.!.!.!.!.!.!.!.!.!.!.!.!.!.!.!.!.!.!.!.!.!.!.!.!.!.!.!.!.!.!.!.!.!.!.!.!.!.!.!.!.!.!.!.!.!.!.!.!.!.!.!.!.!.!.!.!.!.!.!.!.!.!.!.!.!.!.!.!.!.!.!.!.!.!.!.!.!.!.!.!.!.!.!.!.!.!.!.!.!.!.!.!.!.!.!.!.!.X @ & & - , , 6 6 9 e y s s d k x n M Z Z D D G L I U T R W W W W W W W W W / / / / _ ' ' [ [ { {  . .X.o.@.@.$.&.=.=.=.:.:.:.:.,.<.<.<.<.<.<.<.<.3.3.3.<.<.<.<.<.<.3.<.<.3.3.3.<.3.3.3.3.<.3.<.<.<.,.:.:.:.=.=.=.=.=.&.=.&.&.&.$.$.@.@.$.@.@.@.o.o.o.o.o.o.o.o.o.o.X.X.X.X. . . . . .{ { { { { [ [ ' ' _ _ _ _ _ / _ / / _ _ _ ' ' [ [ { { {  . . . .o.X.o.o.o.@.@.@.@.&.&.&.=.=.=.=.=.=.=.=.=.=.=.=.=.=.=.&.=.&.&.&.@.@.@.@.@.@.@.@.@.@.@.@.@.&.&.&.&.&.&.&.&.=.&.&.&.&.&.&.&.&.&.@.@.@.&.@.&.&.&.&.&.&.@.&.&.@.&.$.@.@.@.@.@.@.o.o.o.o.X.o.o.X.o.o. .X. . .{ { { { { { { [ [ ' ' ' _ _ / / / / / W ! W W W W T U I L G D Z M x x k d d s y e q 0 8 6 6 2 2 2 2 , , , - - & & @ @ X   !.!.!.!.!.!.!.!.!.!.!.!.!.!.!.!.!.!.!.!.!.!.!.!.!.!.!.!.!.!.!.!.!.!.!.!.!.!.!.!.!.!.!.!.!.!.!.!.!.!.!.!.!.!.!.!.!.!.!.!.!.!.!.!.!.!.!.!.!.!.!.!.!.!.!.!.!.!.!.!.!.!.!.!.!.!.!.!.!.!.!.",
"!.!.!.!.!.!.!.!.!.!.!.!.!.!.!.!.!.!.!.!.!.!.!.!.!.!.!.!.!.!.!.!.!.!.!.!.!.!.!.!.!.!.!.!.!.!.!.!.!.!.!.!.!.!.!.!.!.!.!.!.!.!.!.!.!.!.!.!.!.!.!.!.!.!.!.!.!.!.!.!.!.!.!.!.!.!.!.!.!.!.!.!.!.!.!.!.!.!.!.!.!.!.!.!.!.!.!.!.!.!.!.!.!.!.!.!.!.!.!.!.!.!.!.!.!.!.!.!.!.!.!.!.!.!.!.!.!.!.!.!.!.!.!.!.!.!.!.!.!.!.!.!.!.!.!.!.!.!.!.!.  X @ & & - , 2 2 8 q e y s d k z x n B Z Z D G L L I U T R R W W W W W W W / / / / / _ ' ' [ [ { {  .X.X.o.@.@.$.&.&.=.=.=.=.:.:.:.,.,.,.<.<.<.<.<.<.<.<.,.<.,.,.<.<.<.<.<.<.<.<.<.<.<.<.<.<.<.<.:.:.:.:.=.=.=.=.=.&.&.&.&.@.@.@.@.$.$.@.@.@.o.@.@.o.o.o.o.o.X.o.X.o.o.X.X. . . . .{ { { { { [ [ ' ' _ _ _ _ / / / / / / / / _ _ _ ' ' [ [ { { { {  . . .o.o.o.o.o.@.@.@.&.&.&.&.&.&.&.&.=.=.=.=.=.=.=.=.=.&.&.&.&.$.@.@.@.@.@.@.@.@.@.@.@.@.@.&.&.@.&.&.@.&.&.&.&.&.&.@.&.@.&.@.$.@.$.@.$.@.@.@.@.@.@.@.@.@.@.$.@.@.@.@.@.o.o.o.o.o.o.X. .X. . . . . . .{ { { { { { [ [ [ ' ' _ _ _ _ / _ / / / W W W W W W R T U L H D D Z N b k k d s s y e q 9 6 6 6 2 2 2 , , , , - - & & + @ X   !.!.!.!.!.!.!.!.!.!.!.!.!.!.!.!.!.!.!.!.!.!.!.!.!.!.!.!.!.!.!.!.!.!.!.!.!.!.!.!.!.!.!.!.!.!.!.!.!.!.!.!.!.!.!.!.!.!.!.!.!.!.!.!.!.!.!.!.!.!.!.!.!.!.!.!.!.!.!.!.!.!.!.!.!.!.!.!.!.!.!.",
"!.!.!.!.!.!.!.!.!.!.!.!.!.!.!.!.!.!.!.!.!.!.!.!.!.!.!.!.!.!.!.!.!.!.!.!.!.!.!.!.!.!.!.!.!.!.!.!.!.!.!.!.!.!.!.!.!.!.!.!.!.!.!.!.!.!.!.!.!.!.!.!.!.!.!.!.!.!.!.!.!.!.!.!.!.!.!.!.!.!.!.!.!.!.!.!.!.!.!.!.!.!.!.!.!.!.!.!.!.!.!.!.!.!.!.!.!.!.!.!.!.!.!.!.!.!.!.!.!.!.!.!.!.!.!.!.!.!.!.!.!.!.!.!.!.!.!.!.!.!.!.!.!.!.!.!.!.!.!.!.!.  X @ $ & - , 2 6 9 q y s d d k z x M B Z D D G L L I I U U Y T W W W W W W / / / / / _ ' [ [ { { {  .X.X.o.@.@.@.&.&.&.=.=.=.=.:.:.:.:.:.:.,.,.,.,.:.,.:.:.,.,.:.<.<.:.<.,.,.,.,.,.,.,.<.<.<.:.:.:.:.=.=.=.=.=.&.&.&.&.@.@.@.@.@.$.@.@.@.@.o.o.o.o.o.o.o.o.X.o.X.o.o. . . . . . .{ { { { [ [ ' ' _ _ / _ _ / / / / / / / / _ / _ _ _ ' ' [ [ { { { {  . . .o.o.o.o.@.@.@.@.&.&.&.&.&.&.=.=.=.=.=.&.=.&.&.&.&.&.@.@.@.@.@.@.o.o.@.o.@.o.@.@.@.@.@.@.@.@.&.&.&.&.&.@.@.@.$.@.@.@.@.@.@.@.@.@.@.@.@.@.@.@.@.@.@.o.@.o.o.o.o.o.o.o.o.o. . . . . . . .{ { { { { { [ [ [ [ ' ' _ _ _ _ _ _ _ / W W W W W W W W W R Y I L G D Z M n x k d d s i y e 0 9 6 6 6 2 2 2 , , , - - & & $ @ X X   !.!.!.!.!.!.!.!.!.!.!.!.!.!.!.!.!.!.!.!.!.!.!.!.!.!.!.!.!.!.!.!.!.!.!.!.!.!.!.!.!.!.!.!.!.!.!.!.!.!.!.!.!.!.!.!.!.!.!.!.!.!.!.!.!.!.!.!.!.!.!.!.!.!.!.!.!.!.!.!.!.!.!.!.!.!.!.!.!.!.!.",
"!.!.!.!.!.!.!.!.!.!.!.!.!.!.!.!.!.!.!.!.!.!.!.!.!.!.!.!.!.!.!.!.!.!.!.!.!.!.!.!.!.!.!.!.!.!.!.!.!.!.!.!.!.!.!.!.!.!.!.!.!.!.!.!.!.!.!.!.!.!.!.!.!.!.!.!.!.!.!.!.!.!.!.!.!.!.!.!.!.!.!.!.!.!.!.!.!.!.!.!.!.!.!.!.!.!.!.!.!.!.!.!.!.!.!.!.!.!.!.!.!.!.!.!.!.!.!.!.!.!.!.!.!.!.!.!.!.!.!.!.!.!.!.!.!.!.!.!.!.!.!.!.!.!.!.!.!.!.!.!.!.!.  X + @ & - , 2 8 q e y s d k k x x N M Z Z D D G L L L I I U U R W W W W W W ^ / / / _ ' ' [ { {  . . .o.o.@.@.@.&.&.&.=.=.=.=.=.=.=.:.=.:.=.:.=.:.=.=.:.=.:.:.:.:.:.:.:.:.:.:.:.:.:.:.:.:.:.:.=.=.=.=.=.&.&.&.&.&.$.$.@.@.@.@.@.@.o.o.o.o.o.o.o.o.X.X.X.o.o.X. .o. . . . .{ { { { { { [ ' _ _ / _ _ / / / / / / / / / / / / / / _ _ ' _ ' [ [ { { { {  . .X.X.o.o.@.@.@.@.@.&.&.&.&.&.&.&.&.=.=.&.&.&.@.&.@.@.@.@.o.o.o.@.o.@.@.@.o.@.@.@.@.@.@.$.@.@.@.&.@.@.@.@.@.@.@.@.o.@.o.o.@.o.o.o.o.o.o.o.o.o.o.o.o.o.o.o.X.X.X. . . . . .{ { { { { { { { { [ [ [ ' ' ' ' _ _ _ / / / _ / ^ W W W W W W W W W R T U I L D D Z N b k k d s s y e q e 7 6 6 2 2 2 2 2 , , - - & & @ + X   !.!.!.!.!.!.!.!.!.!.!.!.!.!.!.!.!.!.!.!.!.!.!.!.!.!.!.!.!.!.!.!.!.!.!.!.!.!.!.!.!.!.!.!.!.!.!.!.!.!.!.!.!.!.!.!.!.!.!.!.!.!.!.!.!.!.!.!.!.!.!.!.!.!.!.!.!.!.!.!.!.!.!.!.!.!.!.!.!.!.!.!.",
"!.!.!.!.!.!.!.!.!.!.!.!.!.!.!.!.!.!.!.!.!.!.!.!.!.!.!.!.!.!.!.!.!.!.!.!.!.!.!.!.!.!.!.!.!.!.!.!.!.!.!.!.!.!.!.!.!.!.!.!.!.!.!.!.!.!.!.!.!.!.!.!.!.!.!.!.!.!.!.!.!.!.!.!.!.!.!.!.!.!.!.!.!.!.!.!.!.!.!.!.!.!.!.!.!.!.!.!.!.!.!.!.!.!.!.!.!.!.!.!.!.!.!.!.!.!.!.!.!.!.!.!.!.!.!.!.!.!.!.!.!.!.!.!.!.!.!.!.!.!.!.!.!.!.!.!.!.!.!.!.!.!.!.    X @ & - 2 6 0 q y y s d k z x n N N B Z Z D D G G L L L I Y R W W W W W W W / / / _ ' [ [ { { {  .X.o.o.o.@.@.@.&.&.&.=.=.=.=.=.=.=.=.=.=.=.=.=.=.=.=.=.=.=.=.=.=.:.:.=.:.:.=.=.:.:.=.=.=.=.=.=.=.&.&.&.&.$.$.@.@.@.@.@.@.o.o.o.o.o.o.o.o.o.o.o.X.X.X.o.X.o. . . . . .{ { { { [ [ ' ' _ / / / / / / / / / / W / W ^ / / / / / / / _ _ ' [ [ { { { { {  .X.X.o.o.@.@.@.@.@.@.$.&.$.@.&.&.&.&.&.&.&.@.@.@.@.@.@.o.o.o.o.@.o.o.@.o.@.@.@.$.@.$.@.$.@.@.@.@.@.@.@.@.o.o.o.o.o.@.o.o.o.o.o.o.o.o.o.o.o.o.o.o.X.X. . . . . .{ { { { { { { [ [ [ [ ' ' ' _ ' _ _ _ _ _ _ / / / / W / W W W W W W W W W R R Y I L G D Z M n x k d d s i y q 0 9 7 6 2 2 2 2 , , , - - & & & @ X X   !.!.!.!.!.!.!.!.!.!.!.!.!.!.!.!.!.!.!.!.!.!.!.!.!.!.!.!.!.!.!.!.!.!.!.!.!.!.!.!.!.!.!.!.!.!.!.!.!.!.!.!.!.!.!.!.!.!.!.!.!.!.!.!.!.!.!.!.!.!.!.!.!.!.!.!.!.!.!.!.!.!.!.!.!.!.!.!.!.!.!.!.",
"!.!.!.!.!.!.!.!.!.!.!.!.!.!.!.!.!.!.!.!.!.!.!.!.!.!.!.!.!.!.!.!.!.!.!.!.!.!.!.!.!.!.!.!.!.!.!.!.!.!.!.!.!.!.!.!.!.!.!.!.!.!.!.!.!.!.!.!.!.!.!.!.!.!.!.!.!.!.!.!.!.!.!.!.!.!.!.!.!.!.!.!.!.!.!.!.!.!.!.!.!.!.!.!.!.!.!.!.!.!.!.!.!.!.!.!.!.!.!.!.!.!.!.!.!.!.!.!.!.!.!.!.!.!.!.!.!.!.!.!.!.!.!.!.!.!.!.!.!.!.!.!.!.!.!.!.!.!.!.!.!.!.!.!.!.  @ & - , 2 6 0 q e y d d k x b x n N N M B Z D D G G L L I U T R W W W W W W / / _ _ _ ' [ [ { {  . .o.o.o.@.@.@.@.&.&.&.&.=.&.=.&.=.&.&.&.&.&.=.=.=.=.=.=.=.=.=.=.=.=.=.=.=.=.=.=.=.=.=.=.&.=.&.&.&.$.$.@.@.@.@.@.@.@.o.o.o.o.o.o.o.o.o.o.o.X.X.X.X. . . . . . . .{ { { { { [ [ ' _ / / / / / / / W / ^ / / W W W W W / / / _ / _ _ _ ' ' [ [ { { {  . . .X.X.o.@.@.@.@.@.@.@.@.@.@.@.$.@.@.@.@.@.@.@.@.o.o.o.o.o.o.o.o.o.o.o.@.@.@.@.@.$.@.@.@.@.@.@.@.@.o.o.o.o.o.o.o.o.o.o.o.X.X.X.X.X.X.X. . . . . . . .{ { { { { { [ [ [ ' ' ' ' ' ' _ _ _ _ _ _ _ / / / / / / / ! W W W W W W W W W W R T Y U L H D D Z M x k k d s s y e q q 8 6 6 2 2 2 2 , , , - & & & @ @ X   !.!.!.!.!.!.!.!.!.!.!.!.!.!.!.!.!.!.!.!.!.!.!.!.!.!.!.!.!.!.!.!.!.!.!.!.!.!.!.!.!.!.!.!.!.!.!.!.!.!.!.!.!.!.!.!.!.!.!.!.!.!.!.!.!.!.!.!.!.!.!.!.!.!.!.!.!.!.!.!.!.!.!.!.!.!.!.!.!.!.!.!.!.",
"!.!.!.!.!.!.!.!.!.!.!.!.!.!.!.!.!.!.!.!.!.!.!.!.!.!.!.!.!.!.!.!.!.!.!.!.!.!.!.!.!.!.!.!.!.!.!.!.!.!.!.!.!.!.!.!.!.!.!.!.!.!.!.!.!.!.!.!.!.!.!.!.!.!.!.!.!.!.!.!.!.!.!.!.!.!.!.!.!.!.!.!.!.!.!.!.!.!.!.!.!.!.!.!.!.!.!.!.!.!.!.!.!.!.!.!.!.!.!.!.!.!.!.!.!.!.!.!.!.!.!.!.!.!.!.!.!.!.!.!.!.!.!.!.!.!.!.!.!.!.!.!.!.!.!.!.!.!.!.!.!.!.!.!.!.  X @ & - , 2 6 9 q y i s d k k x x x b n N M Z Z D D G L L I U U Y R R W W W ! / / _ _ _ ' [ [ { {  . .X.o.o.@.@.@.@.@.@.&.&.@.&.&.&.&.&.@.&.&.&.&.&.&.&.&.&.&.&.=.=.=.&.&.&.&.=.=.&.&.&.&.&.&.&.$.@.@.@.@.@.o.o.o.o.o.o.o.o.o.o.o.o.o.o.o.o.X.X.X. . . . . . .{ { { { { [ [ [ ' _ _ / / / / W W ^ / W W W W W W W W W W W W / / _ _ _ _ ' ' [ [ [ { { {  . .X.X.o.o.o.@.o.@.@.@.@.@.$.@.@.@.@.@.@.@.@.@.o.o.o.o.o.o.@.o.@.@.@.@.@.@.@.@.@.@.@.@.@.@.@.o.o.o.o.o.o.X.o.o.X.o.o. .X. . . . . . . . .{ { { { { { { [ [ [ ' ' ' _ ' _ _ _ _ / _ / / / / / / / / / / / W W W W W W W W W W W R R Y U U I L G D Z B n x k d d s y y e 0 9 8 6 2 2 , , , , , - - & & $ + X   !.!.!.!.!.!.!.!.!.!.!.!.!.!.!.!.!.!.!.!.!.!.!.!.!.!.!.!.!.!.!.!.!.!.!.!.!.!.!.!.!.!.!.!.!.!.!.!.!.!.!.!.!.!.!.!.!.!.!.!.!.!.!.!.!.!.!.!.!.!.!.!.!.!.!.!.!.!.!.!.!.!.!.!.!.!.!.!.!.!.!.!.!.!.",
"!.!.!.!.!.!.!.!.!.!.!.!.!.!.!.!.!.!.!.!.!.!.!.!.!.!.!.!.!.!.!.!.!.!.!.!.!.!.!.!.!.!.!.!.!.!.!.!.!.!.!.!.!.!.!.!.!.!.!.!.!.!.!.!.!.!.!.!.!.!.!.!.!.!.!.!.!.!.!.!.!.!.!.!.!.!.!.!.!.!.!.!.!.!.!.!.!.!.!.!.!.!.!.!.!.!.!.!.!.!.!.!.!.!.!.!.!.!.!.!.!.!.!.!.!.!.!.!.!.!.!.!.!.!.!.!.!.!.!.!.!.!.!.!.!.!.!.!.!.!.!.!.!.!.!.!.!.!.!.!.!.!.!.!.!.!.  X + & - , 2 6 9 q e y i s d k k z z x x n M M Z D D G H L L I I U Y W W W W W W / / _ _ ' ' [ { {  . .X.o.o.o.@.@.@.@.@.$.@.@.@.$.@.$.@.$.$.$.&.$.&.&.&.&.&.&.&.&.&.&.&.&.&.&.&.&.&.&.@.&.@.@.@.@.@.@.@.o.o.o.o.o.o.o.o.o.o.X.o.X.X.X.X.X. . . . . . . .{ { { { { { [ [ [ ' ' _ _ / / / W W W W W W W W W W W W W W W W W W / / / / / _ _ ' ' [ [ [ { { {  . .X.X.X.o.o.o.o.o.@.@.o.o.o.o.o.o.o.o.o.o.o.o.o.o.o.o.o.@.@.@.@.@.@.@.@.@.@.o.o.o.o.o.o.o.o.X.o.o.X.X.X. . . . . . . . .{  .{ { { { { { [ { [ [ ' ' ' ' _ _ / _ _ / / / / / / / / / W ^ / W W W W W W W W W W W W R R T Y Y U I I L L G D D Z M x x k d s i y e q 9 8 6 6 2 2 , , , - - & & & @ @ X   !.!.!.!.!.!.!.!.!.!.!.!.!.!.!.!.!.!.!.!.!.!.!.!.!.!.!.!.!.!.!.!.!.!.!.!.!.!.!.!.!.!.!.!.!.!.!.!.!.!.!.!.!.!.!.!.!.!.!.!.!.!.!.!.!.!.!.!.!.!.!.!.!.!.!.!.!.!.!.!.!.!.!.!.!.!.!.!.!.!.!.!.!.!.!.",
"!.!.!.!.!.!.!.!.!.!.!.!.!.!.!.!.!.!.!.!.!.!.!.!.!.!.!.!.!.!.!.!.!.!.!.!.!.!.!.!.!.!.!.!.!.!.!.!.!.!.!.!.!.!.!.!.!.!.!.!.!.!.!.!.!.!.!.!.!.!.!.!.!.!.!.!.!.!.!.!.!.!.!.!.!.!.!.!.!.!.!.!.!.!.!.!.!.!.!.!.!.!.!.!.!.!.!.!.!.!.!.!.!.!.!.!.!.!.!.!.!.!.!.!.!.!.!.!.!.!.!.!.!.!.!.!.!.!.!.!.!.!.!.!.!.!.!.!.!.!.!.!.!.!.!.!.!.!.!.!.!.!.!.!.!.!.!.  X + & - , 2 6 8 9 q e e y s d k k k z x x N M B D D D G G L L I I Y R W W W W / / / / _ _ ' [ { {  . .X.o.o.o.o.@.@.@.@.@.@.@.@.@.@.@.@.@.@.@.@.@.$.$.$.@.@.@.$.$.&.@.@.@.@.$.$.$.$.@.@.@.@.@.@.o.o.o.o.o.o.o.X.o.o.X.o.X.X.X.X.X.X. . . . . . . . .{ { { { { { [ [ ' ' ' _ _ / / / W W W W W W W W W W W W W W W W W W W W W W / / / _ _ _ ' ' [ { { { {  . . . .X. .X.X.o.o.o.o.o.o.o.o.o.o.o.o.o.o.o.o.o.o.o.o.o.@.@.@.@.@.@.o.o.o.o.o.o.o.o.o.o.X.o.X.X.X.X.o. . . .{ { { { { { { { { [ [ [ [ ' ' _ ' _ _ _ _ / / / / / ! / W W W W W W W W W W W W W W W W W W W R T Y Y Y U U I I L L H G D D Z M n x k k d s y e q 0 9 6 6 2 2 2 , , - - - & & @ @ X X !.!.!.!.!.!.!.!.!.!.!.!.!.!.!.!.!.!.!.!.!.!.!.!.!.!.!.!.!.!.!.!.!.!.!.!.!.!.!.!.!.!.!.!.!.!.!.!.!.!.!.!.!.!.!.!.!.!.!.!.!.!.!.!.!.!.!.!.!.!.!.!.!.!.!.!.!.!.!.!.!.!.!.!.!.!.!.!.!.!.!.!.!.!.!.!.",
"!.!.!.!.!.!.!.!.!.!.!.!.!.!.!.!.!.!.!.!.!.!.!.!.!.!.!.!.!.!.!.!.!.!.!.!.!.!.!.!.!.!.!.!.!.!.!.!.!.!.!.!.!.!.!.!.!.!.!.!.!.!.!.!.!.!.!.!.!.!.!.!.!.!.!.!.!.!.!.!.!.!.!.!.!.!.!.!.!.!.!.!.!.!.!.!.!.!.!.!.!.!.!.!.!.!.!.!.!.!.!.!.!.!.!.!.!.!.!.!.!.!.!.!.!.!.!.!.!.!.!.!.!.!.!.!.!.!.!.!.!.!.!.!.!.!.!.!.!.!.!.!.!.!.!.!.!.!.!.!.!.!.!.!.!.!.!.!.!.X + & - , 2 2 6 8 9 0 e y s d d d k k z b n M Z D D D D G G L L I Y R W W W W / / / / _ ' ' [ { { {  . .o.o.X.o.o.o.@.o.o.o.o.o.o.o.o.o.o.o.o.@.@.@.@.@.@.@.@.@.@.@.@.@.$.@.@.@.@.@.@.o.o.o.o.o.o.o.X.X.X.X.X.o.o.o.o.X.X.X. . . . . . . .{  . .{ { { { { [ [ [ ' ' ' _ _ / / / / ! W W W W W W W W W W W W W W W W W W W W W W W / / / _ ' _ ' [ [ { { { {  . . . . . . .o.o.o.o.o.o.X.o.X. .X.o.o.o.o.o.o.o.o.o.o.@.o.@.o.o.o.o.o.o.o.X.X.X.o.o.o.o.X.X. . . . . . .{ { { { { { { { [ ' [ ' ' _ _ _ / / / / / / ^ ^ W W W W W W W W W W W W W W W W W W W W R T Y U U I U I I I L L L H G D D Z Z N x z k d s y e q 9 8 6 6 2 2 2 , , - - - & & @ @ X X   !.!.!.!.!.!.!.!.!.!.!.!.!.!.!.!.!.!.!.!.!.!.!.!.!.!.!.!.!.!.!.!.!.!.!.!.!.!.!.!.!.!.!.!.!.!.!.!.!.!.!.!.!.!.!.!.!.!.!.!.!.!.!.!.!.!.!.!.!.!.!.!.!.!.!.!.!.!.!.!.!.!.!.!.!.!.!.!.!.!.!.!.!.!.!.!.",
"!.!.!.!.!.!.!.!.!.!.!.!.!.!.!.!.!.!.!.!.!.!.!.!.!.!.!.!.!.!.!.!.!.!.!.!.!.!.!.!.!.!.!.!.!.!.!.!.!.!.!.!.!.!.!.!.!.!.!.!.!.!.!.!.!.!.!.!.!.!.!.!.!.!.!.!.!.!.!.!.!.!.!.!.!.!.!.!.!.!.!.!.!.!.!.!.!.!.!.!.!.!.!.!.!.!.!.!.!.!.!.!.!.!.!.!.!.!.!.!.!.!.!.!.!.!.!.!.!.!.!.!.!.!.!.!.!.!.!.!.!.!.!.!.!.!.!.!.!.!.!.!.!.!.!.!.!.!.!.!.!.!.!.!.!.!.!.!.!.!.  @ & & - , 2 6 6 6 9 q y y s s d d k x b n M Z Z D D D D H L L I Y R W W W W / / / / _ _ [ { { { {  . . . .o.X.o.X.o.X.X.X.X.X.X.o.X.o.X.o.o.o.o.o.o.o.o.o.@.@.@.@.@.@.o.@.o.@.o.o.o.X.o.o.o.o.X.X. . . . . . .o. . . . . . . . .{ { {  .{ { { { { { { [ [ ' ' _ _ _ / / / / W W W W W W W W W W W W W W W W W R W W W W W W W W / / / _ _ _ [ [ [ [ { { { { { { {  . . . . . . . . . . . .X. .X.X.X.X.X.o.o.o.o.o.o.o.o.o.o.o.o.o.o.X.X.X.o.o.o. . . . . . . .{ { { { { [ [ [ ' ' ' ' _ _ _ / / / / / / W W W W W W W W W W W R R R T T Y T T T R T T T U U I I L L L L L L L L G G G D D Z Z M n x k d s i y q 0 8 6 6 2 2 , , , - - & & & + @ X     !.!.!.!.!.!.!.!.!.!.!.!.!.!.!.!.!.!.!.!.!.!.!.!.!.!.!.!.!.!.!.!.!.!.!.!.!.!.!.!.!.!.!.!.!.!.!.!.!.!.!.!.!.!.!.!.!.!.!.!.!.!.!.!.!.!.!.!.!.!.!.!.!.!.!.!.!.!.!.!.!.!.!.!.!.!.!.!.!.!.!.!.!.!.!.!.!.",
"!.!.!.!.!.!.!.!.!.!.!.!.!.!.!.!.!.!.!.!.!.!.!.!.!.!.!.!.!.!.!.!.!.!.!.!.!.!.!.!.!.!.!.!.!.!.!.!.!.!.!.!.!.!.!.!.!.!.!.!.!.!.!.!.!.!.!.!.!.!.!.!.!.!.!.!.!.!.!.!.!.!.!.!.!.!.!.!.!.!.!.!.!.!.!.!.!.!.!.!.!.!.!.!.!.!.!.!.!.!.!.!.!.!.!.!.!.!.!.!.!.!.!.!.!.!.!.!.!.!.!.!.!.!.!.!.!.!.!.!.!.!.!.!.!.!.!.!.!.!.!.!.!.!.!.!.!.!.!.!.!.!.!.!.!.!.!.!.!.!.!.  X @ & - , , 2 2 6 8 0 q e y s s d k x x N B Z Z Z Z D D H L I U T W W W W W / / / / _ ' [ [ { { { {  . . . . .X. . . . . . . . .X. .X.X. .X.X.X.X.X.X.X.o.o.o.o.o.o.o.o.o.o.o.o.X.X.X.X. .X. . . . . . . . . . . . . . . .{ {  .{ { { { { { { { { [ [ [ ' ' _ _ _ / / W W W W W W W W W W W W W W W W R R T Y T R W W W W W W W / / / / _ _ ' ' [ [ { { { { { { { { { {  . . . . . . . . . . .X.X.o.o.o.o.o.o.o.o.o.o.o.o.o.o.X.X.o.o.X. . . . . . . . .{ { { { { { [ [ [ ' ' ' _ _ / / / / / ^ W W W W W W W R R T T Y U I I I I I L L L I I I I I L L L L L L H G G H G G D D D D D Z B M n x k d d s y e 0 8 6 6 2 2 2 , , - - & & $ @ @ X   !.!.!.!.!.!.!.!.!.!.!.!.!.!.!.!.!.!.!.!.!.!.!.!.!.!.!.!.!.!.!.!.!.!.!.!.!.!.!.!.!.!.!.!.!.!.!.!.!.!.!.!.!.!.!.!.!.!.!.!.!.!.!.!.!.!.!.!.!.!.!.!.!.!.!.!.!.!.!.!.!.!.!.!.!.!.!.!.!.!.!.!.!.!.!.!.!.!.!.",
"!.!.!.!.!.!.!.!.!.!.!.!.!.!.!.!.!.!.!.!.!.!.!.!.!.!.!.!.!.!.!.!.!.!.!.!.!.!.!.!.!.!.!.!.!.!.!.!.!.!.!.!.!.!.!.!.!.!.!.!.!.!.!.!.!.!.!.!.!.!.!.!.!.!.!.!.!.!.!.!.!.!.!.!.!.!.!.!.!.!.!.!.!.!.!.!.!.!.!.!.!.!.!.!.!.!.!.!.!.!.!.!.!.!.!.!.!.!.!.!.!.!.!.!.!.!.!.!.!.!.!.!.!.!.!.!.!.!.!.!.!.!.!.!.!.!.!.!.!.!.!.!.!.!.!.!.!.!.!.!.!.!.!.!.!.!.!.!.!.!.!.!.  X + & - - , 2 2 6 6 8 q e y i s d k x x N M M B Z D D G L I I U T W W W W W / / / _ _ ' [ [ { { { { {  .{  .{ {  .{ { { {  . . . . . . . . . . . . . .X.X.o.X.X.X.X.X.X.X.X. . . . . . . . . .{ { { { { { { { { { { { { { { { { { { { { { { { { [ [ [ ' _ _ _ / / / W W W W W W W W W W W W W W W R T U U U Y T T R W W W W W W / / / / _ _ ' [ ' [ [ { [ [ { [ { { { { { { { { { {  . . . . .X.X.X.X.o.o.o.o.o.o.o.o.o.o.o.o.X.X. . . . . .{ { { { { { { { [ [ [ [ ' ' _ _ _ _ _ / ^ W W W W W W W W R T U I I L L L L G G G G G G D D G G G H H G G G D D D D D D D D D D D D D Z B M n x k k d s y e q 8 6 6 2 2 , , , - - & & @ + @ X   !.!.!.!.!.!.!.!.!.!.!.!.!.!.!.!.!.!.!.!.!.!.!.!.!.!.!.!.!.!.!.!.!.!.!.!.!.!.!.!.!.!.!.!.!.!.!.!.!.!.!.!.!.!.!.!.!.!.!.!.!.!.!.!.!.!.!.!.!.!.!.!.!.!.!.!.!.!.!.!.!.!.!.!.!.!.!.!.!.!.!.!.!.!.!.!.!.!.!.!.",
"!.!.!.!.!.!.!.!.!.!.!.!.!.!.!.!.!.!.!.!.!.!.!.!.!.!.!.!.!.!.!.!.!.!.!.!.!.!.!.!.!.!.!.!.!.!.!.!.!.!.!.!.!.!.!.!.!.!.!.!.!.!.!.!.!.!.!.!.!.!.!.!.!.!.!.!.!.!.!.!.!.!.!.!.!.!.!.!.!.!.!.!.!.!.!.!.!.!.!.!.!.!.!.!.!.!.!.!.!.!.!.!.!.!.!.!.!.!.!.!.!.!.!.!.!.!.!.!.!.!.!.!.!.!.!.!.!.!.!.!.!.!.!.!.!.!.!.!.!.!.!.!.!.!.!.!.!.!.!.!.!.!.!.!.!.!.!.!.!.!.!.!.!.  X @ $ & - , 2 2 2 6 8 q e y s d k k x x N N M Z D D G L L L U U T R W W W W W / / / _ ' [ [ [ { { { { { { { { { { { { { { { { { { { { { { { {  . . . . . .X. . . . . . . . . . .{ { { { { { { { { { { { { { { { { { { { { { { { { { { { { { { [ ' ' _ _ / _ / / ^ W W W W W W W W W W W W W R T Y U I I I I U U Y T W W W W W W / / / / / _ ' ' ' ' ' ' [ ' [ [ [ [ { { { { { { { {  . . . . .X.X.X.o.o.o.o.o.o.o.o.o.X.o.o.X. . . . .{ { { { { { { { [ [ [ [ ' ' ' _ _ / / / ^ W W W W W W W T Y U I L L L G D D D D D D D D D Z Z Z Z D D D D D D D D Z D Z D D D Z Z Z Z Z Z M N x x z k d s y y q 9 6 6 2 2 , , , - - & $ @ @ X   !.!.!.!.!.!.!.!.!.!.!.!.!.!.!.!.!.!.!.!.!.!.!.!.!.!.!.!.!.!.!.!.!.!.!.!.!.!.!.!.!.!.!.!.!.!.!.!.!.!.!.!.!.!.!.!.!.!.!.!.!.!.!.!.!.!.!.!.!.!.!.!.!.!.!.!.!.!.!.!.!.!.!.!.!.!.!.!.!.!.!.!.!.!.!.!.!.!.!.!.!.!.",
"!.!.!.!.!.!.!.!.!.!.!.!.!.!.!.!.!.!.!.!.!.!.!.!.!.!.!.!.!.!.!.!.!.!.!.!.!.!.!.!.!.!.!.!.!.!.!.!.!.!.!.!.!.!.!.!.!.!.!.!.!.!.!.!.!.!.!.!.!.!.!.!.!.!.!.!.!.!.!.!.!.!.!.!.!.!.!.!.!.!.!.!.!.!.!.!.!.!.!.!.!.!.!.!.!.!.!.!.!.!.!.!.!.!.!.!.!.!.!.!.!.!.!.!.!.!.!.!.!.!.!.!.!.!.!.!.!.!.!.!.!.!.!.!.!.!.!.!.!.!.!.!.!.!.!.!.!.!.!.!.!.!.!.!.!.!.!.!.!.!.!.!.!.!.    @ & - , , 2 2 2 6 9 q e i s d k k b n N M Z Z D D G L L I U U U T R W W W W / / / _ _ ' [ [ [ [ [ [ [ [ [ [ [ [ [ [ [ { [ { { { { { { { { { { { { {  .{  . . .{ { { { { { { { { { { { { { [ { [ [ { [ { [ [ [ [ [ [ [ [ [ { { { [ [ [ [ [ [ ' _ _ _ / / / W W W W W W W W W W W R R R T Y U U I L L L L I U U Y R W R W W W W W / / / / _ ' _ _ ' ' ' _ ' ' [ [ [ [ [ [ { { { { { { {  . . .X.X.o.o.o.o.o.X.X.X.X.o.o.o. . . . .{  .{ { { { { [ [ [ [ [ ' ' _ _ / / / / W W W W W R R U I I L L G G D D D Z Z Z V M M M N M N N N N M M B Z Z B B B B Z B B B Z B B M M M N n x x k k d s i y q 9 6 6 2 , , , , - - & & + X X   !.!.!.!.!.!.!.!.!.!.!.!.!.!.!.!.!.!.!.!.!.!.!.!.!.!.!.!.!.!.!.!.!.!.!.!.!.!.!.!.!.!.!.!.!.!.!.!.!.!.!.!.!.!.!.!.!.!.!.!.!.!.!.!.!.!.!.!.!.!.!.!.!.!.!.!.!.!.!.!.!.!.!.!.!.!.!.!.!.!.!.!.!.!.!.!.!.!.!.!.!.!.!.",
"!.!.!.!.!.!.!.!.!.!.!.!.!.!.!.!.!.!.!.!.!.!.!.!.!.!.!.!.!.!.!.!.!.!.!.!.!.!.!.!.!.!.!.!.!.!.!.!.!.!.!.!.!.!.!.!.!.!.!.!.!.!.!.!.!.!.!.!.!.!.!.!.!.!.!.!.!.!.!.!.!.!.!.!.!.!.!.!.!.!.!.!.!.!.!.!.!.!.!.!.!.!.!.!.!.!.!.!.!.!.!.!.!.!.!.!.!.!.!.!.!.!.!.!.!.!.!.!.!.!.!.!.!.!.!.!.!.!.!.!.!.!.!.!.!.!.!.!.!.!.!.!.!.!.!.!.!.!.!.!.!.!.!.!.!.!.!.!.!.!.!.!.!.!.!.  X $ & - , , , 2 6 6 9 q y s d d k x x N M M Z Z D D G L L L L I I U R W W W W / / / _ _ ' ' ' ' [ ' [ ' [ ' ' ' ' [ [ [ [ ' [ [ [ { [ [ { [ [ { { { { { { { { { { { { { { [ [ { { { [ [ [ [ [ [ [ [ [ ' [ ' ' ' ' [ ' [ [ [ [ [ [ [ [ [ [ ' ' _ _ / / / / W W W W W ! W W W R T Y U U U I I L L L L L L L I I U Y Y T R W W W W ! / / / / _ / _ _ _ _ _ _ _ ' _ [ ' ' [ [ [ { { { { { {  . . . .o. . .X.X.o.X.X.X.X.X.X. . . .{ { { { { { [ [ [ [ [ ' ' ' _ _ / / / / W W W W R U I L L G G D D D Z Z B M n x x x b b x x z x z x z x b x n n n x x n n n n n n n n n n n x x z k k d s i y q q 8 6 2 , , , ; - & & & @ X X   !.!.!.!.!.!.!.!.!.!.!.!.!.!.!.!.!.!.!.!.!.!.!.!.!.!.!.!.!.!.!.!.!.!.!.!.!.!.!.!.!.!.!.!.!.!.!.!.!.!.!.!.!.!.!.!.!.!.!.!.!.!.!.!.!.!.!.!.!.!.!.!.!.!.!.!.!.!.!.!.!.!.!.!.!.!.!.!.!.!.!.!.!.!.!.!.!.!.!.!.!.!.!.!.",
"!.!.!.!.!.!.!.!.!.!.!.!.!.!.!.!.!.!.!.!.!.!.!.!.!.!.!.!.!.!.!.!.!.!.!.!.!.!.!.!.!.!.!.!.!.!.!.!.!.!.!.!.!.!.!.!.!.!.!.!.!.!.!.!.!.!.!.!.!.!.!.!.!.!.!.!.!.!.!.!.!.!.!.!.!.!.!.!.!.!.!.!.!.!.!.!.!.!.!.!.!.!.!.!.!.!.!.!.!.!.!.!.!.!.!.!.!.!.!.!.!.!.!.!.!.!.!.!.!.!.!.!.!.!.!.!.!.!.!.!.!.!.!.!.!.!.!.!.!.!.!.!.!.!.!.!.!.!.!.!.!.!.!.!.!.!.!.!.!.!.!.!.!.!.!.!.X + & & - , , , 2 6 8 0 e y d d k z x n N N M Z Z D D G L L L L L I U R W W W W / / / _ _ _ _ _ _ _ _ _ _ ' _ _ ' _ ' _ _ ' ' ' ' ' [ ' ' [ [ [ [ [ [ [ { [ { [ [ [ [ [ [ [ [ ' ' ' ' ' ' ' ' ' ' ' ' ' ' _ _ ' _ _ ' ' ' ' [ [ ' ' ' ' ' ' _ _ _ / / / / ! W W W W W ! R R T Y U I I I L L L G G H L L L L L I U U I U Y R W W W W / / / / / / / _ _ _ / _ _ _ _ ' _ ' ' [ [ [ [ { { {  . . . . . . . .X.X. .X. . . . .{ { { { { { { [ [ [ [ ' ' ' ' _ _ / / / / ^ W W W W T I L G D D D Z Z Z M N n b x k k k k k k d d d d k d d k k k k k k k k z x z z z z z z z z x k k k d d s i y y q 9 6 2 , , - - - & & $ + X X   !.!.!.!.!.!.!.!.!.!.!.!.!.!.!.!.!.!.!.!.!.!.!.!.!.!.!.!.!.!.!.!.!.!.!.!.!.!.!.!.!.!.!.!.!.!.!.!.!.!.!.!.!.!.!.!.!.!.!.!.!.!.!.!.!.!.!.!.!.!.!.!.!.!.!.!.!.!.!.!.!.!.!.!.!.!.!.!.!.!.!.!.!.!.!.!.!.!.!.!.!.!.!.!.!.",
"!.!.!.!.!.!.!.!.!.!.!.!.!.!.!.!.!.!.!.!.!.!.!.!.!.!.!.!.!.!.!.!.!.!.!.!.!.!.!.!.!.!.!.!.!.!.!.!.!.!.!.!.!.!.!.!.!.!.!.!.!.!.!.!.!.!.!.!.!.!.!.!.!.!.!.!.!.!.!.!.!.!.!.!.!.!.!.!.!.!.!.!.!.!.!.!.!.!.!.!.!.!.!.!.!.!.!.!.!.!.!.!.!.!.!.!.!.!.!.!.!.!.!.!.!.!.!.!.!.!.!.!.!.!.!.!.!.!.!.!.!.!.!.!.!.!.!.!.!.!.!.!.!.!.!.!.!.!.!.!.!.!.!.!.!.!.!.!.!.!.!.!.!.!.!.!.  X @ & - - , , , 2 6 9 e y s d d k z b x x x M Z Z D D G H H H L L L U R W W W W / / / / / / / / / _ / _ _ _ _ _ _ / _ / _ _ _ _ _ _ _ _ _ ' _ ' ' _ ' ' ' [ ' ' ' ' ' ' _ ' _ _ _ _ _ _ _ _ _ _ _ _ _ _ _ _ _ _ _ _ ' _ ' _ ' _ _ ' _ ' _ _ _ _ / / / / ! W W W W R R Y Y U I L L L L L H G D D D G G H L L L L L L L I U T W W W W W W W W ^ / / / / / / / / _ _ _ _ ' _ ' [ [ [ { { { {  . . . . . . . . . . . .{ { { { { { { [ [ [ [ ' ' ' ' _ _ _ / / / / W W W W R Y I H D D Z Z M M n x x z k k d d d s s s s s s s s s s s s s d d d d d d d d k d d d d k d k k d d d s s y y q 0 8 6 2 2 , - - & & & @ @ X X   !.!.!.!.!.!.!.!.!.!.!.!.!.!.!.!.!.!.!.!.!.!.!.!.!.!.!.!.!.!.!.!.!.!.!.!.!.!.!.!.!.!.!.!.!.!.!.!.!.!.!.!.!.!.!.!.!.!.!.!.!.!.!.!.!.!.!.!.!.!.!.!.!.!.!.!.!.!.!.!.!.!.!.!.!.!.!.!.!.!.!.!.!.!.!.!.!.!.!.!.!.!.!.!.!.!.",
"!.!.!.!.!.!.!.!.!.!.!.!.!.!.!.!.!.!.!.!.!.!.!.!.!.!.!.!.!.!.!.!.!.!.!.!.!.!.!.!.!.!.!.!.!.!.!.!.!.!.!.!.!.!.!.!.!.!.!.!.!.!.!.!.!.!.!.!.!.!.!.!.!.!.!.!.!.!.!.!.!.!.!.!.!.!.!.!.!.!.!.!.!.!.!.!.!.!.!.!.!.!.!.!.!.!.!.!.!.!.!.!.!.!.!.!.!.!.!.!.!.!.!.!.!.!.!.!.!.!.!.!.!.!.!.!.!.!.!.!.!.!.!.!.!.!.!.!.!.!.!.!.!.!.!.!.!.!.!.!.!.!.!.!.!.!.!.!.!.!.!.!.!.!.!.!.!.  X + & - - , , 2 6 8 0 e i s d k k x x z z x M Z Z D D G G D D H L L U R W W W W ^ / / / / / / / / / / / / _ / _ / / / / / / / / / / / / / / _ _ / _ _ _ _ _ _ _ _ _ _ _ _ _ _ / _ / / / / / / / / / _ / / / _ / _ _ _ _ _ _ _ _ _ _ _ _ _ _ _ / / / / W W W W W R T U U I L L L L L G G D D D D D D D D D D G L L L L I U T R ! W W W W W W W W W W W / / / / / / / _ _ _ ' [ [ { { { { { { {  .{  . . . . . .{ { { { { [ [ [ [ [ ' ' ' ' _ _ _ / / / / W W W W W T U L G D Z B N x b x k k d d s s s y y e e e e e e e e e y y y i i s s s s s s s s s s s s s s s s s s i i y e q 9 6 6 2 2 , , - & & $ @ @ X     !.!.!.!.!.!.!.!.!.!.!.!.!.!.!.!.!.!.!.!.!.!.!.!.!.!.!.!.!.!.!.!.!.!.!.!.!.!.!.!.!.!.!.!.!.!.!.!.!.!.!.!.!.!.!.!.!.!.!.!.!.!.!.!.!.!.!.!.!.!.!.!.!.!.!.!.!.!.!.!.!.!.!.!.!.!.!.!.!.!.!.!.!.!.!.!.!.!.!.!.!.!.!.!.!.!.!.",
"!.!.!.!.!.!.!.!.!.!.!.!.!.!.!.!.!.!.!.!.!.!.!.!.!.!.!.!.!.!.!.!.!.!.!.!.!.!.!.!.!.!.!.!.!.!.!.!.!.!.!.!.!.!.!.!.!.!.!.!.!.!.!.!.!.!.!.!.!.!.!.!.!.!.!.!.!.!.!.!.!.!.!.!.!.!.!.!.!.!.!.!.!.!.!.!.!.!.!.!.!.!.!.!.!.!.!.!.!.!.!.!.!.!.!.!.!.!.!.!.!.!.!.!.!.!.!.!.!.!.!.!.!.!.!.!.!.!.!.!.!.!.!.!.!.!.!.!.!.!.!.!.!.!.!.!.!.!.!.!.!.!.!.!.!.!.!.!.!.!.!.!.!.!.!.!.!.!.X X @ & - - , , 2 6 q e y s d d k k k k k z n N Z D D D D D D D G L I U R W W W W ^ / / / / / / / / / / / / / / / / / / / / / / / / / / / / / / / / / / _ _ _ _ _ / / / / / / / / / / / / / / / / / / / / / / / / _ / / _ / _ / _ _ _ _ / / / / / / W W W W W W T U I L L L H H H H D D D D D D D D D D D D D D D G H L L U Y R R W W W W W W W W W W W W W W / / / / _ _ _ ' ' [ [ { { { { { { { { { { { { { { { [ [ [ [ [ [ ' ' _ _ _ _ _ / / / / / ! W W W R Y I L G D Z N x x k k d d s s i y e e q 0 9 9 8 8 8 6 8 8 9 0 q q e e e y e y y y y y y y y y y y y y y y y y q q 8 6 2 2 2 , , - & & @ + X X   !.!.!.!.!.!.!.!.!.!.!.!.!.!.!.!.!.!.!.!.!.!.!.!.!.!.!.!.!.!.!.!.!.!.!.!.!.!.!.!.!.!.!.!.!.!.!.!.!.!.!.!.!.!.!.!.!.!.!.!.!.!.!.!.!.!.!.!.!.!.!.!.!.!.!.!.!.!.!.!.!.!.!.!.!.!.!.!.!.!.!.!.!.!.!.!.!.!.!.!.!.!.!.!.!.!.!.!.!.",
"!.!.!.!.!.!.!.!.!.!.!.!.!.!.!.!.!.!.!.!.!.!.!.!.!.!.!.!.!.!.!.!.!.!.!.!.!.!.!.!.!.!.!.!.!.!.!.!.!.!.!.!.!.!.!.!.!.!.!.!.!.!.!.!.!.!.!.!.!.!.!.!.!.!.!.!.!.!.!.!.!.!.!.!.!.!.!.!.!.!.!.!.!.!.!.!.!.!.!.!.!.!.!.!.!.!.!.!.!.!.!.!.!.!.!.!.!.!.!.!.!.!.!.!.!.!.!.!.!.!.!.!.!.!.!.!.!.!.!.!.!.!.!.!.!.!.!.!.!.!.!.!.!.!.!.!.!.!.!.!.!.!.!.!.!.!.!.!.!.!.!.!.!.!.!.!.!.!.  X @ & & - , , 2 6 8 q y i s d d d k d k z b N M Z Z Z D D D D D G L I Y R W W W W W W W W W W ! W W W W W W W W W W W W W W W W W W W W W W / ^ / / / / / / / / ! / / / / / / / ^ / W W / W ^ / / / / / / / _ / / / / / / / / / / _ _ / / / / / / W W W W W T U I L L G G D D D D D D D Z Z Z Z Z Z Z D Z Z D D D D G L L I I U Y T T R W W W W W W W W W W W / / / / / _ _ ' [ [ [ [ { { { { { { { { { { { { { [ [ ' ' ' ' ' _ _ _ / / / / / / / W W W W R U L H D D B n x k d d s i y y e q 0 8 6 6 6 2 2 2 2 2 2 2 6 6 6 6 6 8 9 0 9 9 0 q q q q q q q q q q q q q q q 9 8 6 2 2 , , , - - & & @ @ X X   !.!.!.!.!.!.!.!.!.!.!.!.!.!.!.!.!.!.!.!.!.!.!.!.!.!.!.!.!.!.!.!.!.!.!.!.!.!.!.!.!.!.!.!.!.!.!.!.!.!.!.!.!.!.!.!.!.!.!.!.!.!.!.!.!.!.!.!.!.!.!.!.!.!.!.!.!.!.!.!.!.!.!.!.!.!.!.!.!.!.!.!.!.!.!.!.!.!.!.!.!.!.!.!.!.!.!.!.!.!.",
"!.!.!.!.!.!.!.!.!.!.!.!.!.!.!.!.!.!.!.!.!.!.!.!.!.!.!.!.!.!.!.!.!.!.!.!.!.!.!.!.!.!.!.!.!.!.!.!.!.!.!.!.!.!.!.!.!.!.!.!.!.!.!.!.!.!.!.!.!.!.!.!.!.!.!.!.!.!.!.!.!.!.!.!.!.!.!.!.!.!.!.!.!.!.!.!.!.!.!.!.!.!.!.!.!.!.!.!.!.!.!.!.!.!.!.!.!.!.!.!.!.!.!.!.!.!.!.!.!.!.!.!.!.!.!.!.!.!.!.!.!.!.!.!.!.!.!.!.!.!.!.!.!.!.!.!.!.!.!.!.!.!.!.!.!.!.!.!.!.!.!.!.!.!.!.!.!.!.!.  X @ & & - , 2 2 6 0 q y i s d d d d k x z x n B B Z Z Z Z Z D D G L I U T W W W W W W W W W ! W W W W W W W W W W W W W W W W W W W W W W W W W W W W W W W W W W W W W W W W W W W W W W W W W W W W / / / / _ / _ / _ / / / _ _ _ _ _ / / / / ^ W W W W Y U L L G D D D D D D D D D Z Z Z Z B B Z Z Z Z Z Z Z D D D D H L L L I I U Y Y T T T R R W W W W W W / / _ / _ _ ' ' [ [ [ [ [ { { { { [ [ { [ [ ' ' ' _ _ _ _ _ _ / / / / / W / W W W W W R U L G D Z M n z k d s y e q q 9 8 6 6 2 2 2 , , , , , , , , , , 2 2 2 6 6 6 6 6 6 6 8 8 9 8 6 8 8 9 9 9 8 6 6 6 6 2 2 , , , - - & & @ @ X X     !.!.!.!.!.!.!.!.!.!.!.!.!.!.!.!.!.!.!.!.!.!.!.!.!.!.!.!.!.!.!.!.!.!.!.!.!.!.!.!.!.!.!.!.!.!.!.!.!.!.!.!.!.!.!.!.!.!.!.!.!.!.!.!.!.!.!.!.!.!.!.!.!.!.!.!.!.!.!.!.!.!.!.!.!.!.!.!.!.!.!.!.!.!.!.!.!.!.!.!.!.!.!.!.!.!.!.!.!.!.!.",
"!.!.!.!.!.!.!.!.!.!.!.!.!.!.!.!.!.!.!.!.!.!.!.!.!.!.!.!.!.!.!.!.!.!.!.!.!.!.!.!.!.!.!.!.!.!.!.!.!.!.!.!.!.!.!.!.!.!.!.!.!.!.!.!.!.!.!.!.!.!.!.!.!.!.!.!.!.!.!.!.!.!.!.!.!.!.!.!.!.!.!.!.!.!.!.!.!.!.!.!.!.!.!.!.!.!.!.!.!.!.!.!.!.!.!.!.!.!.!.!.!.!.!.!.!.!.!.!.!.!.!.!.!.!.!.!.!.!.!.!.!.!.!.!.!.!.!.!.!.!.!.!.!.!.!.!.!.!.!.!.!.!.!.!.!.!.!.!.!.!.!.!.!.!.!.!.!.!.!.    X X & - - , 2 6 9 q y i s s s d d k k k x x x N M M B Z Z Z D D G L L I U R W W W W W W W W W W W W W W W W W R R R T T T T R R W W W W W W W W W W W W W ! W W W W W W W W W W W W W W W W W W W W W / / ! / / / / / / / / / _ / _ / / / / / W W W W W Y I L H G D D D D D D D D Z Z Z B B M M B B B B Z Z Z Z Z Z D D D G G L L L I I I I U U U T R W W W W W / / _ _ _ _ ' _ ' [ [ { [ [ [ [ [ [ [ [ [ ' ' _ _ _ / / / / / / / / ^ W W W W W W R Y L G D Z M x k d d i e q 9 6 6 2 2 2 , , , - & & & & & & & - - - - , , , , , 2 2 2 2 2 2 6 6 2 6 6 6 6 6 6 2 2 2 , 2 , , - - & & @ + @ X X   !.!.!.!.!.!.!.!.!.!.!.!.!.!.!.!.!.!.!.!.!.!.!.!.!.!.!.!.!.!.!.!.!.!.!.!.!.!.!.!.!.!.!.!.!.!.!.!.!.!.!.!.!.!.!.!.!.!.!.!.!.!.!.!.!.!.!.!.!.!.!.!.!.!.!.!.!.!.!.!.!.!.!.!.!.!.!.!.!.!.!.!.!.!.!.!.!.!.!.!.!.!.!.!.!.!.!.!.!.!.!.!.!.",
"!.!.!.!.!.!.!.!.!.!.!.!.!.!.!.!.!.!.!.!.!.!.!.!.!.!.!.!.!.!.!.!.!.!.!.!.!.!.!.!.!.!.!.!.!.!.!.!.!.!.!.!.!.!.!.!.!.!.!.!.!.!.!.!.!.!.!.!.!.!.!.!.!.!.!.!.!.!.!.!.!.!.!.!.!.!.!.!.!.!.!.!.!.!.!.!.!.!.!.!.!.!.!.!.!.!.!.!.!.!.!.!.!.!.!.!.!.!.!.!.!.!.!.!.!.!.!.!.!.!.!.!.!.!.!.!.!.!.!.!.!.!.!.!.!.!.!.!.!.!.!.!.!.!.!.!.!.!.!.!.!.!.!.!.!.!.!.!.!.!.!.!.!.!.!.!.!.!.!.!.!.  X + & - , 2 6 9 q e y i s s d d d k k k k x x x n N M B Z Z D D G G L L I U U T T R R W W R R R T U U U U U I I I L L L I I I U U T T R W W R W W R R W W W W W W W W W W W W W W W W W W W W W W W W W W / / / / / / / / / / / / / / / / W W W W W R Y I L H D D D D D D Z Z Z Z Z Z B M N N M M M M B B B B B B Z Z D D D D D H L L L L L L I I U T W W W W W / / / / / _ _ ' ' [ ' [ [ [ [ [ ' ' ' ' _ _ _ _ / / / / / / W W W W W W W W R Y I L G D Z N x k d s y e 0 6 6 2 , , , - - - & & @ @ + @ @ + + @ $ & & & - - - - , , , , , 2 2 2 , 2 , , , 2 , , , , - - - & & & @ + @ X     !.!.!.!.!.!.!.!.!.!.!.!.!.!.!.!.!.!.!.!.!.!.!.!.!.!.!.!.!.!.!.!.!.!.!.!.!.!.!.!.!.!.!.!.!.!.!.!.!.!.!.!.!.!.!.!.!.!.!.!.!.!.!.!.!.!.!.!.!.!.!.!.!.!.!.!.!.!.!.!.!.!.!.!.!.!.!.!.!.!.!.!.!.!.!.!.!.!.!.!.!.!.!.!.!.!.!.!.!.!.!.!.!.!.!.",
"!.!.!.!.!.!.!.!.!.!.!.!.!.!.!.!.!.!.!.!.!.!.!.!.!.!.!.!.!.!.!.!.!.!.!.!.!.!.!.!.!.!.!.!.!.!.!.!.!.!.!.!.!.!.!.!.!.!.!.!.!.!.!.!.!.!.!.!.!.!.!.!.!.!.!.!.!.!.!.!.!.!.!.!.!.!.!.!.!.!.!.!.!.!.!.!.!.!.!.!.!.!.!.!.!.!.!.!.!.!.!.!.!.!.!.!.!.!.!.!.!.!.!.!.!.!.!.!.!.!.!.!.!.!.!.!.!.!.!.!.!.!.!.!.!.!.!.!.!.!.!.!.!.!.!.!.!.!.!.!.!.!.!.!.!.!.!.!.!.!.!.!.!.!.!.!.!.!.!.!.!.!.  @ & - , , 6 9 q q e y i s s d d d d k k k z z x x x N M B Z D D D D G L L L I I I I I U I I I L L L L L L G G G G D D G H L L L L I I U U U U U U U Y Y T R R R R W R T T T T T T R R R W W W W W W ! W W / ! / / / / / / / / W / / ^ ^ W W W W W T U L L G D D D D D D Z Z Z Z M M M N n N N N N M M M M M M M M M Z Z Z D D D G G H G G G L L I I U T W W W W / / / / / _ _ _ _ ' ' [ ' ' ' _ ' _ _ _ / / / / / / / W W W W W W W W W R U I L D D Z N x k d s y q 9 6 2 , , - - - & $ @ @ X X X           X X X @ @ @ & & & & & - - - - - - , , , - - - - - - & & & & @ + @ X X     !.!.!.!.!.!.!.!.!.!.!.!.!.!.!.!.!.!.!.!.!.!.!.!.!.!.!.!.!.!.!.!.!.!.!.!.!.!.!.!.!.!.!.!.!.!.!.!.!.!.!.!.!.!.!.!.!.!.!.!.!.!.!.!.!.!.!.!.!.!.!.!.!.!.!.!.!.!.!.!.!.!.!.!.!.!.!.!.!.!.!.!.!.!.!.!.!.!.!.!.!.!.!.!.!.!.!.!.!.!.!.!.!.!.!.!.!.",
"!.!.!.!.!.!.!.!.!.!.!.!.!.!.!.!.!.!.!.!.!.!.!.!.!.!.!.!.!.!.!.!.!.!.!.!.!.!.!.!.!.!.!.!.!.!.!.!.!.!.!.!.!.!.!.!.!.!.!.!.!.!.!.!.!.!.!.!.!.!.!.!.!.!.!.!.!.!.!.!.!.!.!.!.!.!.!.!.!.!.!.!.!.!.!.!.!.!.!.!.!.!.!.!.!.!.!.!.!.!.!.!.!.!.!.!.!.!.!.!.!.!.!.!.!.!.!.!.!.!.!.!.!.!.!.!.!.!.!.!.!.!.!.!.!.!.!.!.!.!.!.!.!.!.!.!.!.!.!.!.!.!.!.!.!.!.!.!.!.!.!.!.!.!.!.!.!.!.!.!.!.!.  @ & - - , 2 6 9 q q e y i s s s d d d d d k k k z z x x n M B Z Z Z D D D G G G H H G G G G G G D D D D D D D D Z D D D D D D D G H L L L L L L L L L I I I U U U U U Y I U I I I U U Y R W W W W W W W W W W W W W W ^ W W ^ W / W W W W W W W R U I L H D D D D Z D Z Z M M M N n n n x n n n n N N N N n n n n N N M M Z D D D D D D D D D G H L L I T W W W W W / / / / / _ _ _ _ _ _ _ _ _ _ _ / / / / / / ^ W W W W W W W W R R Y U I L D Z B n x k s i e 0 6 6 2 , , - & & @ @ X X   !.!.!.!.!.!.!.!.!.!.    X X X @ + @ $ & & & & & & & & & & & & & & & @ + @ X X X X     !.!.!.!.!.!.!.!.!.!.!.!.!.!.!.!.!.!.!.!.!.!.!.!.!.!.!.!.!.!.!.!.!.!.!.!.!.!.!.!.!.!.!.!.!.!.!.!.!.!.!.!.!.!.!.!.!.!.!.!.!.!.!.!.!.!.!.!.!.!.!.!.!.!.!.!.!.!.!.!.!.!.!.!.!.!.!.!.!.!.!.!.!.!.!.!.!.!.!.!.!.!.!.!.!.!.!.!.!.!.!.!.!.!.!.!.!.!.!.",
"!.!.!.!.!.!.!.!.!.!.!.!.!.!.!.!.!.!.!.!.!.!.!.!.!.!.!.!.!.!.!.!.!.!.!.!.!.!.!.!.!.!.!.!.!.!.!.!.!.!.!.!.!.!.!.!.!.!.!.!.!.!.!.!.!.!.!.!.!.!.!.!.!.!.!.!.!.!.!.!.!.!.!.!.!.!.!.!.!.!.!.!.!.!.!.!.!.!.!.!.!.!.!.!.!.!.!.!.!.!.!.!.!.!.!.!.!.!.!.!.!.!.!.!.!.!.!.!.!.!.!.!.!.!.!.!.!.!.!.!.!.!.!.!.!.!.!.!.!.!.!.!.!.!.!.!.!.!.!.!.!.!.!.!.!.!.!.!.!.!.!.!.!.!.!.!.!.!.!.!.!.!.  @ & - , , 2 6 6 8 9 q q e y y i s s s s d d d d k k k k x x n N M Z Z Z Z D D D D D D D D D D D Z Z Z Z Z Z Z Z B B M B B Z Z Z D D D D G G G G G G G L L L L L L L L L L L L L L L L I U T W W W W W W W W W W W W W W W W W W W W W W W W W R Y U L H G D D D Z Z Z Z M M N n n x x x x x b x b x n n x b x b x x x x N M Z Z Z D D D Z Z D D D G H L U R W W W W W / / / / _ _ / _ / _ _ _ / / / / / / / W W W W W W W W R R T U I I L H D Z M x z d s i e 0 6 2 , , - & $ + X X   !.!.!.!.!.!.!.!.!.!.!.!.!.!.!.!.!.    X X X @ @ + @ $ $ @ @ + + + + @ @ X X X           !.!.!.!.!.!.!.!.!.!.!.!.!.!.!.!.!.!.!.!.!.!.!.!.!.!.!.!.!.!.!.!.!.!.!.!.!.!.!.!.!.!.!.!.!.!.!.!.!.!.!.!.!.!.!.!.!.!.!.!.!.!.!.!.!.!.!.!.!.!.!.!.!.!.!.!.!.!.!.!.!.!.!.!.!.!.!.!.!.!.!.!.!.!.!.!.!.!.!.!.!.!.!.!.!.!.!.!.!.!.!.!.!.!.!.!.!.!.!.!.!.",
"!.!.!.!.!.!.!.!.!.!.!.!.!.!.!.!.!.!.!.!.!.!.!.!.!.!.!.!.!.!.!.!.!.!.!.!.!.!.!.!.!.!.!.!.!.!.!.!.!.!.!.!.!.!.!.!.!.!.!.!.!.!.!.!.!.!.!.!.!.!.!.!.!.!.!.!.!.!.!.!.!.!.!.!.!.!.!.!.!.!.!.!.!.!.!.!.!.!.!.!.!.!.!.!.!.!.!.!.!.!.!.!.!.!.!.!.!.!.!.!.!.!.!.!.!.!.!.!.!.!.!.!.!.!.!.!.!.!.!.!.!.!.!.!.!.!.!.!.!.!.!.!.!.!.!.!.!.!.!.!.!.!.!.!.!.!.!.!.!.!.!.!.!.!.!.!.!.!.!.!.!.!.X @ $ & , , , 2 2 6 6 6 8 0 e e y i i i i s s s d d d d k k k z x x N N N B Z B B M B Z Z Z Z B B M M M N N M N n x x x x x n M B Z Z Z Z D D D D D D D D D G G D G G G G G D G G G G H L I U T R W W W W W W W W W W W W W W W W W W W W W W R Y U L L D D D D D Z Z Z M N n n x x z z z z x x x x b b x x x k x x z z x b x n M B Z Z Z B Z Z Z Z D D G L I T R W W W W ^ / / / / / / / _ / / / / / / W W W W W W W W R T Y Y U I L L H D D Z M x k d s y q 8 6 2 , - - & @ @ X   !.!.!.!.!.!.!.!.!.!.!.!.!.!.!.!.!.!.!.!.!.!.        X X X X X X X   X X         !.!.!.!.!.!.!.!.!.!.!.!.!.!.!.!.!.!.!.!.!.!.!.!.!.!.!.!.!.!.!.!.!.!.!.!.!.!.!.!.!.!.!.!.!.!.!.!.!.!.!.!.!.!.!.!.!.!.!.!.!.!.!.!.!.!.!.!.!.!.!.!.!.!.!.!.!.!.!.!.!.!.!.!.!.!.!.!.!.!.!.!.!.!.!.!.!.!.!.!.!.!.!.!.!.!.!.!.!.!.!.!.!.!.!.!.!.!.!.!.!.!.!.!.!.!.!.",
"!.!.!.!.!.!.!.!.!.!.!.!.!.!.!.!.!.!.!.!.!.!.!.!.!.!.!.!.!.!.!.!.!.!.!.!.!.!.!.!.!.!.!.!.!.!.!.!.!.!.!.!.!.!.!.!.!.!.!.!.!.!.!.!.!.!.!.!.!.!.!.!.!.!.!.!.!.!.!.!.!.!.!.!.!.!.!.!.!.!.!.!.!.!.!.!.!.!.!.!.!.!.!.!.!.!.!.!.!.!.!.!.!.!.!.!.!.!.!.!.!.!.!.!.!.!.!.!.!.!.!.!.!.!.!.!.!.!.!.!.!.!.!.!.!.!.!.!.!.!.!.!.!.!.!.!.!.!.!.!.!.!.!.!.!.!.!.!.!.!.!.!.!.!.!.!.!.!.!.!.!.!.  X + & - , , 2 , 2 2 2 6 8 0 q e y y y y y y i s s s s d d d k k x x b x x x x x x n x n n n n n n x x x x z k k k k k k z x x n N N M B B Z Z Z Z Z Z Z D D D D D D D D D D D D D D D G L I I U T R W W W W W W W W W W W W W W W W W W W T Y I L L G D D D D Z Z B M N x x z x z k k k k k k x z x x z k k k k k k k k k z x x n N M N M N N N M Z D D G L I Y R W W W W W W W / / / / W / W ^ W W W W W W W W W W T Y U I L L G G D D D Z N b k d s y q 8 6 , , - & & @ X   !.!.!.!.!.!.!.!.!.!.!.!.!.!.!.!.!.!.!.!.!.!.!.!.!.!.!.!.!.!.!.!.    !.!.!.!.!.!.!.!.!.!.!.!.!.!.!.!.!.!.!.!.!.!.!.!.!.!.!.!.!.!.!.!.!.!.!.!.!.!.!.!.!.!.!.!.!.!.!.!.!.!.!.!.!.!.!.!.!.!.!.!.!.!.!.!.!.!.!.!.!.!.!.!.!.!.!.!.!.!.!.!.!.!.!.!.!.!.!.!.!.!.!.!.!.!.!.!.!.!.!.!.!.!.!.!.!.!.!.!.!.!.!.!.!.!.!.!.!.!.!.!.!.!.!.!.!.!.!.!.!.!.!.!.!.!.!.",
"!.!.!.!.!.!.!.!.!.!.!.!.!.!.!.!.!.!.!.!.!.!.!.!.!.!.!.!.!.!.!.!.!.!.!.!.!.!.!.!.!.!.!.!.!.!.!.!.!.!.!.!.!.!.!.!.!.!.!.!.!.!.!.!.!.!.!.!.!.!.!.!.!.!.!.!.!.!.!.!.!.!.!.!.!.!.!.!.!.!.!.!.!.!.!.!.!.!.!.!.!.!.!.!.!.!.!.!.!.!.!.!.!.!.!.!.!.!.!.!.!.!.!.!.!.!.!.!.!.!.!.!.!.!.!.!.!.!.!.!.!.!.!.!.!.!.!.!.!.!.!.!.!.!.!.!.!.!.!.!.!.!.!.!.!.!.!.!.!.!.!.!.!.!.!.!.!.!.!.!.!.!.  X X $ & - - , , , , 2 2 6 9 0 q q e e y y y y y y i i s s d d d k k z z z z x z z k k z z z x z k k k k d d d d s d d d d k k k z x x x n N N N M M M M B B B Z Z Z Z Z Z Z Z Z Z Z D D G L L I U Y T W W W W W W W W W W W W W W W R T U U I L L G D D D D Z Z B M N x x k k k k k k k k k k k k k k k k k k k k k k k k k k k b x x x x x n n N M Z Z D G L I U T W W W W W W W W W W W W W W W W W W W W W T Y U I L L L G D D D Z Z M n z k d i y q 6 2 2 - - & @ X X   !.!.!.!.!.!.!.!.!.!.!.!.!.!.!.!.!.!.!.!.!.!.!.!.!.!.!.!.!.!.!.!.!.!.!.!.!.!.!.!.!.!.!.!.!.!.!.!.!.!.!.!.!.!.!.!.!.!.!.!.!.!.!.!.!.!.!.!.!.!.!.!.!.!.!.!.!.!.!.!.!.!.!.!.!.!.!.!.!.!.!.!.!.!.!.!.!.!.!.!.!.!.!.!.!.!.!.!.!.!.!.!.!.!.!.!.!.!.!.!.!.!.!.!.!.!.!.!.!.!.!.!.!.!.!.!.!.!.!.!.!.!.!.!.!.!.!.!.!.!.!.!.!.!.!.!.!.!.!.!.!.!.!.!.!.!.!.!.!.!.",
"!.!.!.!.!.!.!.!.!.!.!.!.!.!.!.!.!.!.!.!.!.!.!.!.!.!.!.!.!.!.!.!.!.!.!.!.!.!.!.!.!.!.!.!.!.!.!.!.!.!.!.!.!.!.!.!.!.!.!.!.!.!.!.!.!.!.!.!.!.!.!.!.!.!.!.!.!.!.!.!.!.!.!.!.!.!.!.!.!.!.!.!.!.!.!.!.!.!.!.!.!.!.!.!.!.!.!.!.!.!.!.!.!.!.!.!.!.!.!.!.!.!.!.!.!.!.!.!.!.!.!.!.!.!.!.!.!.!.!.!.!.!.!.!.!.!.!.!.!.!.!.!.!.!.!.!.!.!.!.!.!.!.!.!.!.!.!.!.!.!.!.!.!.!.!.!.!.!.!.!.!.!.!.  X @ & & & - - - , , 2 6 6 8 9 q q e e e y e y y y i y y s s s d d k k k k k k k k k k d k k k d d s s s i y y i i i i s s s d d k k k z z z x b x x x x x n n n N N N N M N M M B Z D D D L L L I U T R W R W R R R R R T T T T Y U I I L L H G D D D Z Z Z B M N x x z k k k d d d d d d k k k k d d d d d d d d d d k k d k k k k z z x z x x n N M Z D D H L I U T W W W W W W W W W W W W W W W W R R Y U I L L G G D D D Z B M N b z d s y e 0 6 2 , - & $ @ X   !.!.!.!.!.!.!.!.!.!.!.!.!.!.!.!.!.!.!.!.!.!.!.!.!.!.!.!.!.!.!.!.!.!.!.!.!.!.!.!.!.!.!.!.!.!.!.!.!.!.!.!.!.!.!.!.!.!.!.!.!.!.!.!.!.!.!.!.!.!.!.!.!.!.!.!.!.!.!.!.!.!.!.!.!.!.!.!.!.!.!.!.!.!.!.!.!.!.!.!.!.!.!.!.!.!.!.!.!.!.!.!.!.!.!.!.!.!.!.!.!.!.!.!.!.!.!.!.!.!.!.!.!.!.!.!.!.!.!.!.!.!.!.!.!.!.!.!.!.!.!.!.!.!.!.!.!.!.!.!.!.!.!.!.!.!.!.!.!.!.!.!.",
"!.!.!.!.!.!.!.!.!.!.!.!.!.!.!.!.!.!.!.!.!.!.!.!.!.!.!.!.!.!.!.!.!.!.!.!.!.!.!.!.!.!.!.!.!.!.!.!.!.!.!.!.!.!.!.!.!.!.!.!.!.!.!.!.!.!.!.!.!.!.!.!.!.!.!.!.!.!.!.!.!.!.!.!.!.!.!.!.!.!.!.!.!.!.!.!.!.!.!.!.!.!.!.!.!.!.!.!.!.!.!.!.!.!.!.!.!.!.!.!.!.!.!.!.!.!.!.!.!.!.!.!.!.!.!.!.!.!.!.!.!.!.!.!.!.!.!.!.!.!.!.!.!.!.!.!.!.!.!.!.!.!.!.!.!.!.!.!.!.!.!.!.!.!.!.!.!.!.!.!.!.!.!.  X + @ $ & & - - , , 2 2 6 6 9 0 q q y e e e e e y y y y i s s s d d d d d d k d d d d d d d d s i y y y e q q e e q e e y y i s s d d d d d k k k k k k z z z x b x x x b x n n N M Z Z D G H L L I Y T T T T Y U Y U U U U U I I L L L L G D D D D D Z B M M n n x z k k d d d d d d d d d d d d d d d s s s s d s d d d d d d d d d k k k k z z x n M Z Z D D G L I U U T R R W R W W R R R R T Y U I I L L L G D D D Z Z B M n x x k d s y q 9 6 2 , & & + X   !.!.!.!.!.!.!.!.!.!.!.!.!.!.!.!.!.!.!.!.!.!.!.!.!.!.!.!.!.!.!.!.!.!.!.!.!.!.!.!.!.!.!.!.!.!.!.!.!.!.!.!.!.!.!.!.!.!.!.!.!.!.!.!.!.!.!.!.!.!.!.!.!.!.!.!.!.!.!.!.!.!.!.!.!.!.!.!.!.!.!.!.!.!.!.!.!.!.!.!.!.!.!.!.!.!.!.!.!.!.!.!.!.!.!.!.!.!.!.!.!.!.!.!.!.!.!.!.!.!.!.!.!.!.!.!.!.!.!.!.!.!.!.!.!.!.!.!.!.!.!.!.!.!.!.!.!.!.!.!.!.!.!.!.!.!.!.!.!.!.!.!.!.!.",
"!.!.!.!.!.!.!.!.!.!.!.!.!.!.!.!.!.!.!.!.!.!.!.!.!.!.!.!.!.!.!.!.!.!.!.!.!.!.!.!.!.!.!.!.!.!.!.!.!.!.!.!.!.!.!.!.!.!.!.!.!.!.!.!.!.!.!.!.!.!.!.!.!.!.!.!.!.!.!.!.!.!.!.!.!.!.!.!.!.!.!.!.!.!.!.!.!.!.!.!.!.!.!.!.!.!.!.!.!.!.!.!.!.!.!.!.!.!.!.!.!.!.!.!.!.!.!.!.!.!.!.!.!.!.!.!.!.!.!.!.!.!.!.!.!.!.!.!.!.!.!.!.!.!.!.!.!.!.!.!.!.!.!.!.!.!.!.!.!.!.!.!.!.!.!.!.!.!.!.!.!.!.!.  X @ @ & & & & - , , , 2 6 6 6 8 0 q q q e e q y e y e y y i i s s s s d d d d d s s s s d s s y e e q q 0 9 8 9 8 8 9 9 0 q q y y i i s s s s s d d d d d d k k k k k k k k z x x n M Z Z D D G L L I U U U U U I I I I I I I L L L H H G D D D D D Z Z M n n x b z k k d d d d s s s s s s s s s s s s s s s s s s i s s s s s s s s d d d d d k k k x n M Z Z D D G L L I U U U U U U U U U I I L L L G G D D D D Z Z M N n b z k d s i y q 6 2 2 , & @ X   !.!.!.!.!.!.!.!.!.!.!.!.!.!.!.!.!.!.!.!.!.!.!.!.!.!.!.!.!.!.!.!.!.!.!.!.!.!.!.!.!.!.!.!.!.!.!.!.!.!.!.!.!.!.!.!.!.!.!.!.!.!.!.!.!.!.!.!.!.!.!.!.!.!.!.!.!.!.!.!.!.!.!.!.!.!.!.!.!.!.!.!.!.!.!.!.!.!.!.!.!.!.!.!.!.!.!.!.!.!.!.!.!.!.!.!.!.!.!.!.!.!.!.!.!.!.!.!.!.!.!.!.!.!.!.!.!.!.!.!.!.!.!.!.!.!.!.!.!.!.!.!.!.!.!.!.!.!.!.!.!.!.!.!.!.!.!.!.!.!.!.!.!.!.!.!.",
"!.!.!.!.!.!.!.!.!.!.!.!.!.!.!.!.!.!.!.!.!.!.!.!.!.!.!.!.!.!.!.!.!.!.!.!.!.!.!.!.!.!.!.!.!.!.!.!.!.!.!.!.!.!.!.!.!.!.!.!.!.!.!.!.!.!.!.!.!.!.!.!.!.!.!.!.!.!.!.!.!.!.!.!.!.!.!.!.!.!.!.!.!.!.!.!.!.!.!.!.!.!.!.!.!.!.!.!.!.!.!.!.!.!.!.!.!.!.!.!.!.!.!.!.!.!.!.!.!.!.!.!.!.!.!.!.!.!.!.!.!.!.!.!.!.!.!.!.!.!.!.!.!.!.!.!.!.!.!.!.!.!.!.!.!.!.!.!.!.!.!.!.!.!.!.!.!.!.!.!.!.!.!.  X @ + & & & - - , , 2 2 2 6 6 6 8 0 q q e q q q e e y y y y y i s s s s s s s s y i i s s y y e q 9 8 6 6 6 6 6 6 6 6 6 6 6 8 9 q q e e e y y y i i s s s s s s d d d d d d k k z x n M Z Z D D G H L L I I I L L L L L L L L G G D D D D D D Z Z Z Z M N n x b z k k d d s s s s s s s s s s s s y i i i y y y y y y y i y y i i i i s s s s s d d d k z x n M B Z D D D G L L L L L L L L L L H G D D D D Z Z Z B N N x x z k d s s y e 0 6 2 , - & @ X   !.!.!.!.!.!.!.!.!.!.!.!.!.!.!.!.!.!.!.!.!.!.!.!.!.!.!.!.!.!.!.!.!.!.!.!.!.!.!.!.!.!.!.!.!.!.!.!.!.!.!.!.!.!.!.!.!.!.!.!.!.!.!.!.!.!.!.!.!.!.!.!.!.!.!.!.!.!.!.!.!.!.!.!.!.!.!.!.!.!.!.!.!.!.!.!.!.!.!.!.!.!.!.!.!.!.!.!.!.!.!.!.!.!.!.!.!.!.!.!.!.!.!.!.!.!.!.!.!.!.!.!.!.!.!.!.!.!.!.!.!.!.!.!.!.!.!.!.!.!.!.!.!.!.!.!.!.!.!.!.!.!.!.!.!.!.!.!.!.!.!.!.!.!.!.!.!.",
"!.!.!.!.!.!.!.!.!.!.!.!.!.!.!.!.!.!.!.!.!.!.!.!.!.!.!.!.!.!.!.!.!.!.!.!.!.!.!.!.!.!.!.!.!.!.!.!.!.!.!.!.!.!.!.!.!.!.!.!.!.!.!.!.!.!.!.!.!.!.!.!.!.!.!.!.!.!.!.!.!.!.!.!.!.!.!.!.!.!.!.!.!.!.!.!.!.!.!.!.!.!.!.!.!.!.!.!.!.!.!.!.!.!.!.!.!.!.!.!.!.!.!.!.!.!.!.!.!.!.!.!.!.!.!.!.!.!.!.!.!.!.!.!.!.!.!.!.!.!.!.!.!.!.!.!.!.!.!.!.!.!.!.!.!.!.!.!.!.!.!.!.!.!.!.!.!.!.!.!.!.!.!.  X @ @ + & & - - - , 2 , 2 2 6 6 8 8 9 e q 0 q q q e e y y y y i i s s s s i i i y y y y y y q q 9 6 6 2 2 2 2 2 , 2 , , 2 2 2 6 6 8 8 9 9 q q q e e e e y y y y i s s s s s d d k k x x N Z Z D D D D G L L L L H G G G H G G D D D D D D Z Z Z Z Z M N x x x x k k k d s s s s s i y y y i i i y y y y y y y y e y e y e y y y y y e y y y y y i s s d d k z x x N M Z Z Z D D D D D D D D D D D D Z Z Z B M N N x b x k k d s i y e q 8 6 2 , - & @ X !.!.!.!.!.!.!.!.!.!.!.!.!.!.!.!.!.!.!.!.!.!.!.!.!.!.!.!.!.!.!.!.!.!.!.!.!.!.!.!.!.!.!.!.!.!.!.!.!.!.!.!.!.!.!.!.!.!.!.!.!.!.!.!.!.!.!.!.!.!.!.!.!.!.!.!.!.!.!.!.!.!.!.!.!.!.!.!.!.!.!.!.!.!.!.!.!.!.!.!.!.!.!.!.!.!.!.!.!.!.!.!.!.!.!.!.!.!.!.!.!.!.!.!.!.!.!.!.!.!.!.!.!.!.!.!.!.!.!.!.!.!.!.!.!.!.!.!.!.!.!.!.!.!.!.!.!.!.!.!.!.!.!.!.!.!.!.!.!.!.!.!.!.!.!.!.!.!.!.",
"!.!.!.!.!.!.!.!.!.!.!.!.!.!.!.!.!.!.!.!.!.!.!.!.!.!.!.!.!.!.!.!.!.!.!.!.!.!.!.!.!.!.!.!.!.!.!.!.!.!.!.!.!.!.!.!.!.!.!.!.!.!.!.!.!.!.!.!.!.!.!.!.!.!.!.!.!.!.!.!.!.!.!.!.!.!.!.!.!.!.!.!.!.!.!.!.!.!.!.!.!.!.!.!.!.!.!.!.!.!.!.!.!.!.!.!.!.!.!.!.!.!.!.!.!.!.!.!.!.!.!.!.!.!.!.!.!.!.!.!.!.!.!.!.!.!.!.!.!.!.!.!.!.!.!.!.!.!.!.!.!.!.!.!.!.!.!.!.!.!.!.!.!.!.!.!.!.!.!.!.!.!.!.  X X X @ $ & & - - , 2 2 2 2 2 6 6 8 8 9 9 0 0 0 q q e e y y y y i i i y y y y y y e y e e e 0 9 6 6 2 , , , , , , , , , , , 2 2 2 2 2 6 6 6 6 8 8 9 9 q q q q e e y y y y i s s d d k k x N M Z Z D D D D D D D D D D D D D D D Z Z Z Z Z Z Z Z B M n x x x z k k k d d s s i i i y y y y y y y y y y y e y e e e e e q q q q q q q q q e e e e y y i s s d d k k z x b n N M B Z Z B Z Z B B B B M M N n x x x z k k d d s s y e 0 8 6 2 2 , - & + X !.!.!.!.!.!.!.!.!.!.!.!.!.!.!.!.!.!.!.!.!.!.!.!.!.!.!.!.!.!.!.!.!.!.!.!.!.!.!.!.!.!.!.!.!.!.!.!.!.!.!.!.!.!.!.!.!.!.!.!.!.!.!.!.!.!.!.!.!.!.!.!.!.!.!.!.!.!.!.!.!.!.!.!.!.!.!.!.!.!.!.!.!.!.!.!.!.!.!.!.!.!.!.!.!.!.!.!.!.!.!.!.!.!.!.!.!.!.!.!.!.!.!.!.!.!.!.!.!.!.!.!.!.!.!.!.!.!.!.!.!.!.!.!.!.!.!.!.!.!.!.!.!.!.!.!.!.!.!.!.!.!.!.!.!.!.!.!.!.!.!.!.!.!.!.!.!.!.!.!.",
"!.!.!.!.!.!.!.!.!.!.!.!.!.!.!.!.!.!.!.!.!.!.!.!.!.!.!.!.!.!.!.!.!.!.!.!.!.!.!.!.!.!.!.!.!.!.!.!.!.!.!.!.!.!.!.!.!.!.!.!.!.!.!.!.!.!.!.!.!.!.!.!.!.!.!.!.!.!.!.!.!.!.!.!.!.!.!.!.!.!.!.!.!.!.!.!.!.!.!.!.!.!.!.!.!.!.!.!.!.!.!.!.!.!.!.!.!.!.!.!.!.!.!.!.!.!.!.!.!.!.!.!.!.!.!.!.!.!.!.!.!.!.!.!.!.!.!.!.!.!.!.!.!.!.!.!.!.!.!.!.!.!.!.!.!.!.!.!.!.!.!.!.!.!.!.!.!.!.!.!.!.!.!.!.  X X + $ & & - - , 2 , , 2 2 2 6 6 6 8 8 8 0 0 9 q q q e y y y y y y y e e e e e q q q q q 8 6 6 2 , , - - - - & & & - - - , , , , , 2 , 2 2 2 2 6 6 6 6 6 8 8 9 e q q e y y y i s d d k x x N M B Z Z Z Z Z D D Z Z Z Z Z Z Z Z Z B B B B M M N n x x x z k k d d s s s i y y y y e e e e e q e e e q q q q e q q q e 9 8 8 8 9 9 8 8 9 9 0 q q e e y y i s s d d d k k k x b b x x x x x b b b b x z k k k k d d s s i y e 0 8 6 2 2 , - & $ @   !.!.!.!.!.!.!.!.!.!.!.!.!.!.!.!.!.!.!.!.!.!.!.!.!.!.!.!.!.!.!.!.!.!.!.!.!.!.!.!.!.!.!.!.!.!.!.!.!.!.!.!.!.!.!.!.!.!.!.!.!.!.!.!.!.!.!.!.!.!.!.!.!.!.!.!.!.!.!.!.!.!.!.!.!.!.!.!.!.!.!.!.!.!.!.!.!.!.!.!.!.!.!.!.!.!.!.!.!.!.!.!.!.!.!.!.!.!.!.!.!.!.!.!.!.!.!.!.!.!.!.!.!.!.!.!.!.!.!.!.!.!.!.!.!.!.!.!.!.!.!.!.!.!.!.!.!.!.!.!.!.!.!.!.!.!.!.!.!.!.!.!.!.!.!.!.!.!.!.!.!.",
"!.!.!.!.!.!.!.!.!.!.!.!.!.!.!.!.!.!.!.!.!.!.!.!.!.!.!.!.!.!.!.!.!.!.!.!.!.!.!.!.!.!.!.!.!.!.!.!.!.!.!.!.!.!.!.!.!.!.!.!.!.!.!.!.!.!.!.!.!.!.!.!.!.!.!.!.!.!.!.!.!.!.!.!.!.!.!.!.!.!.!.!.!.!.!.!.!.!.!.!.!.!.!.!.!.!.!.!.!.!.!.!.!.!.!.!.!.!.!.!.!.!.!.!.!.!.!.!.!.!.!.!.!.!.!.!.!.!.!.!.!.!.!.!.!.!.!.!.!.!.!.!.!.!.!.!.!.!.!.!.!.!.!.!.!.!.!.!.!.!.!.!.!.!.!.!.!.!.!.!.!.!.!.!.!.  X @ @ & & & - , , , , 2 2 2 2 6 6 6 8 8 9 9 8 9 0 0 q e e y y y e q q q q q 0 q 0 0 9 8 6 6 2 , , - - & & & & & & & & & & - - - - - , , , , 2 , , 2 2 2 2 6 6 6 8 9 0 q q e y y i s d k k x b n N N M M B B B M M M M M M M M M M M N N N N x x x x z z k k d d s s s i i y y e e q q q q q 0 q q q q 0 0 0 0 9 8 6 6 6 6 6 6 6 6 6 6 6 6 6 6 9 0 q q e y y y s s s s d d d d d k k k k k k k k d d d s s s s i y y q 0 8 6 2 2 , - & & + X   !.!.!.!.!.!.!.!.!.!.!.!.!.!.!.!.!.!.!.!.!.!.!.!.!.!.!.!.!.!.!.!.!.!.!.!.!.!.!.!.!.!.!.!.!.!.!.!.!.!.!.!.!.!.!.!.!.!.!.!.!.!.!.!.!.!.!.!.!.!.!.!.!.!.!.!.!.!.!.!.!.!.!.!.!.!.!.!.!.!.!.!.!.!.!.!.!.!.!.!.!.!.!.!.!.!.!.!.!.!.!.!.!.!.!.!.!.!.!.!.!.!.!.!.!.!.!.!.!.!.!.!.!.!.!.!.!.!.!.!.!.!.!.!.!.!.!.!.!.!.!.!.!.!.!.!.!.!.!.!.!.!.!.!.!.!.!.!.!.!.!.!.!.!.!.!.!.!.!.!.!.!.",
"!.!.!.!.!.!.!.!.!.!.!.!.!.!.!.!.!.!.!.!.!.!.!.!.!.!.!.!.!.!.!.!.!.!.!.!.!.!.!.!.!.!.!.!.!.!.!.!.!.!.!.!.!.!.!.!.!.!.!.!.!.!.!.!.!.!.!.!.!.!.!.!.!.!.!.!.!.!.!.!.!.!.!.!.!.!.!.!.!.!.!.!.!.!.!.!.!.!.!.!.!.!.!.!.!.!.!.!.!.!.!.!.!.!.!.!.!.!.!.!.!.!.!.!.!.!.!.!.!.!.!.!.!.!.!.!.!.!.!.!.!.!.!.!.!.!.!.!.!.!.!.!.!.!.!.!.!.!.!.!.!.!.!.!.!.!.!.!.!.!.!.!.!.!.!.!.!.!.!.!.!.!.!.!.!.!.!.X X + & & & - ; - , , 2 , 2 2 2 6 6 8 6 6 6 9 8 9 0 q q e e q q q 9 9 8 9 8 8 8 8 6 6 6 2 , , - - & & $ @ + @ + + @ @ $ & & & & & & - & - - - , , , , 2 , 2 6 2 6 6 6 8 9 q q e y i s d d k z x x b x x x x x x x x x x n x x x b x b b b z z k k k k k d s s i y y y y e e q q q 0 q 0 0 0 0 0 0 0 8 8 8 6 6 6 6 2 2 2 2 2 2 2 2 2 2 2 2 2 6 6 6 8 0 q q q e e y y y y i i s s s s s s s s s s s i y y y e q q 0 6 6 2 , , - & $ @ X   !.!.!.!.!.!.!.!.!.!.!.!.!.!.!.!.!.!.!.!.!.!.!.!.!.!.!.!.!.!.!.!.!.!.!.!.!.!.!.!.!.!.!.!.!.!.!.!.!.!.!.!.!.!.!.!.!.!.!.!.!.!.!.!.!.!.!.!.!.!.!.!.!.!.!.!.!.!.!.!.!.!.!.!.!.!.!.!.!.!.!.!.!.!.!.!.!.!.!.!.!.!.!.!.!.!.!.!.!.!.!.!.!.!.!.!.!.!.!.!.!.!.!.!.!.!.!.!.!.!.!.!.!.!.!.!.!.!.!.!.!.!.!.!.!.!.!.!.!.!.!.!.!.!.!.!.!.!.!.!.!.!.!.!.!.!.!.!.!.!.!.!.!.!.!.!.!.!.!.!.!.!.!.!.",
"!.!.!.!.!.!.!.!.!.!.!.!.!.!.!.!.!.!.!.!.!.!.!.!.!.!.!.!.!.!.!.!.!.!.!.!.!.!.!.!.!.!.!.!.!.!.!.!.!.!.!.!.!.!.!.!.!.!.!.!.!.!.!.!.!.!.!.!.!.!.!.!.!.!.!.!.!.!.!.!.!.!.!.!.!.!.!.!.!.!.!.!.!.!.!.!.!.!.!.!.!.!.!.!.!.!.!.!.!.!.!.!.!.!.!.!.!.!.!.!.!.!.!.!.!.!.!.!.!.!.!.!.!.!.!.!.!.!.!.!.!.!.!.!.!.!.!.!.!.!.!.!.!.!.!.!.!.!.!.!.!.!.!.!.!.!.!.!.!.!.!.!.!.!.!.!.!.!.!.!.!.!.!.!.!.!.!.  X X @ & & & & - ; , , 2 2 2 2 6 6 6 6 6 6 6 6 8 9 e 9 e 0 0 9 9 8 6 6 8 6 6 6 6 6 2 2 , , - - & $ @ @ X X X X X X X X @ @ + + @ @ $ & & & & - - - , , , , , , , 2 6 6 6 6 8 0 q q y y s s d k k k k k k k k k z z z z z z z z k k k z k k k k k d d d s s i y y y y e q q 0 9 9 9 9 8 8 8 8 6 8 6 6 6 6 6 6 2 2 2 , , , , , , , , , , , , , 2 2 2 6 6 6 6 6 8 9 0 0 0 q q e e y y y y y e y y e e q q 0 9 8 6 6 2 2 , - & & + X   !.!.!.!.!.!.!.!.!.!.!.!.!.!.!.!.!.!.!.!.!.!.!.!.!.!.!.!.!.!.!.!.!.!.!.!.!.!.!.!.!.!.!.!.!.!.!.!.!.!.!.!.!.!.!.!.!.!.!.!.!.!.!.!.!.!.!.!.!.!.!.!.!.!.!.!.!.!.!.!.!.!.!.!.!.!.!.!.!.!.!.!.!.!.!.!.!.!.!.!.!.!.!.!.!.!.!.!.!.!.!.!.!.!.!.!.!.!.!.!.!.!.!.!.!.!.!.!.!.!.!.!.!.!.!.!.!.!.!.!.!.!.!.!.!.!.!.!.!.!.!.!.!.!.!.!.!.!.!.!.!.!.!.!.!.!.!.!.!.!.!.!.!.!.!.!.!.!.!.!.!.!.!.!.!.!.",
"!.!.!.!.!.!.!.!.!.!.!.!.!.!.!.!.!.!.!.!.!.!.!.!.!.!.!.!.!.!.!.!.!.!.!.!.!.!.!.!.!.!.!.!.!.!.!.!.!.!.!.!.!.!.!.!.!.!.!.!.!.!.!.!.!.!.!.!.!.!.!.!.!.!.!.!.!.!.!.!.!.!.!.!.!.!.!.!.!.!.!.!.!.!.!.!.!.!.!.!.!.!.!.!.!.!.!.!.!.!.!.!.!.!.!.!.!.!.!.!.!.!.!.!.!.!.!.!.!.!.!.!.!.!.!.!.!.!.!.!.!.!.!.!.!.!.!.!.!.!.!.!.!.!.!.!.!.!.!.!.!.!.!.!.!.!.!.!.!.!.!.!.!.!.!.!.!.!.!.!.!.!.!.!.!.!.!.!.  X @ @ $ & & & ; , 2 2 2 2 2 6 6 6 6 6 6 6 6 6 6 6 6 8 8 8 8 6 6 6 6 6 6 6 6 6 2 2 , , - & & & + X X                       X X X @ @ @ + @ & & & & - - - - - , , 2 2 2 2 6 6 6 8 9 q e y i s s s s d d d d k k k k k k k k k k k k k k d d d d d s s i y y e q q q q 0 9 8 6 6 6 6 6 6 6 6 6 6 6 2 2 2 2 2 , , , - - - - - - - - - - - - - , , , , , , 2 2 2 2 6 2 6 6 8 8 8 9 0 q q 0 0 9 9 0 8 8 6 6 2 2 , , , - - & @ X   !.!.!.!.!.!.!.!.!.!.!.!.!.!.!.!.!.!.!.!.!.!.!.!.!.!.!.!.!.!.!.!.!.!.!.!.!.!.!.!.!.!.!.!.!.!.!.!.!.!.!.!.!.!.!.!.!.!.!.!.!.!.!.!.!.!.!.!.!.!.!.!.!.!.!.!.!.!.!.!.!.!.!.!.!.!.!.!.!.!.!.!.!.!.!.!.!.!.!.!.!.!.!.!.!.!.!.!.!.!.!.!.!.!.!.!.!.!.!.!.!.!.!.!.!.!.!.!.!.!.!.!.!.!.!.!.!.!.!.!.!.!.!.!.!.!.!.!.!.!.!.!.!.!.!.!.!.!.!.!.!.!.!.!.!.!.!.!.!.!.!.!.!.!.!.!.!.!.!.!.!.!.!.!.!.!.!.!.",
"!.!.!.!.!.!.!.!.!.!.!.!.!.!.!.!.!.!.!.!.!.!.!.!.!.!.!.!.!.!.!.!.!.!.!.!.!.!.!.!.!.!.!.!.!.!.!.!.!.!.!.!.!.!.!.!.!.!.!.!.!.!.!.!.!.!.!.!.!.!.!.!.!.!.!.!.!.!.!.!.!.!.!.!.!.!.!.!.!.!.!.!.!.!.!.!.!.!.!.!.!.!.!.!.!.!.!.!.!.!.!.!.!.!.!.!.!.!.!.!.!.!.!.!.!.!.!.!.!.!.!.!.!.!.!.!.!.!.!.!.!.!.!.!.!.!.!.!.!.!.!.!.!.!.!.!.!.!.!.!.!.!.!.!.!.!.!.!.!.!.!.!.!.!.!.!.!.!.!.!.!.!.!.!.!.!.!.!.!.  X @ @ & & - ; , , 2 2 6 2 2 6 6 6 6 6 6 6 6 6 6 6 6 6 6 6 6 6 2 2 2 2 2 2 2 2 , , - - & $ + X X   !.!.!.!.!.!.!.!.!.!.!.!.    X X X X X @ @ $ & & & & & & - - , , , , 2 2 2 2 6 6 9 0 e e y y y i i s s s d d d d d d d d d d d d d d d s s s s i y y e q q 0 q 0 9 6 6 6 6 6 6 6 6 2 2 2 2 2 2 , , , , - & & & & & & & & & & & & & & & & & - - - - - - - , , , , 2 2 2 2 2 6 6 6 6 6 2 2 2 2 2 2 , , - - - & & @ @ X !.!.!.!.!.!.!.!.!.!.!.!.!.!.!.!.!.!.!.!.!.!.!.!.!.!.!.!.!.!.!.!.!.!.!.!.!.!.!.!.!.!.!.!.!.!.!.!.!.!.!.!.!.!.!.!.!.!.!.!.!.!.!.!.!.!.!.!.!.!.!.!.!.!.!.!.!.!.!.!.!.!.!.!.!.!.!.!.!.!.!.!.!.!.!.!.!.!.!.!.!.!.!.!.!.!.!.!.!.!.!.!.!.!.!.!.!.!.!.!.!.!.!.!.!.!.!.!.!.!.!.!.!.!.!.!.!.!.!.!.!.!.!.!.!.!.!.!.!.!.!.!.!.!.!.!.!.!.!.!.!.!.!.!.!.!.!.!.!.!.!.!.!.!.!.!.!.!.!.!.!.!.!.!.!.!.!.!.!.!.",
"!.!.!.!.!.!.!.!.!.!.!.!.!.!.!.!.!.!.!.!.!.!.!.!.!.!.!.!.!.!.!.!.!.!.!.!.!.!.!.!.!.!.!.!.!.!.!.!.!.!.!.!.!.!.!.!.!.!.!.!.!.!.!.!.!.!.!.!.!.!.!.!.!.!.!.!.!.!.!.!.!.!.!.!.!.!.!.!.!.!.!.!.!.!.!.!.!.!.!.!.!.!.!.!.!.!.!.!.!.!.!.!.!.!.!.!.!.!.!.!.!.!.!.!.!.!.!.!.!.!.!.!.!.!.!.!.!.!.!.!.!.!.!.!.!.!.!.!.!.!.!.!.!.!.!.!.!.!.!.!.!.!.!.!.!.!.!.!.!.!.!.!.!.!.!.!.!.!.!.!.!.!.!.!.!.!.!.!.!.!.  X @ @ $ & - , , 2 2 6 2 2 2 2 2 6 6 6 6 6 2 2 2 2 2 2 2 2 2 2 2 , 2 2 2 , , , - - & & + X   !.!.!.!.!.!.!.!.!.!.!.!.!.!.!.!.!.!.!.    X X X X @ @ @ @ & & & - - - - , , , 2 , 2 2 6 8 9 q q q e e y y i i s s s s s s s s s s s s s s s s s y y e e q q 9 9 9 8 6 6 6 2 2 2 2 2 2 2 2 2 , , , , - - - & $ @ @ @ @ + @ @ @ @ @ @ @ + @ @ @ @ $ $ & & & & & & & & & - , , , , , , 2 , , , , , , - - & & & $ + X X   !.!.!.!.!.!.!.!.!.!.!.!.!.!.!.!.!.!.!.!.!.!.!.!.!.!.!.!.!.!.!.!.!.!.!.!.!.!.!.!.!.!.!.!.!.!.!.!.!.!.!.!.!.!.!.!.!.!.!.!.!.!.!.!.!.!.!.!.!.!.!.!.!.!.!.!.!.!.!.!.!.!.!.!.!.!.!.!.!.!.!.!.!.!.!.!.!.!.!.!.!.!.!.!.!.!.!.!.!.!.!.!.!.!.!.!.!.!.!.!.!.!.!.!.!.!.!.!.!.!.!.!.!.!.!.!.!.!.!.!.!.!.!.!.!.!.!.!.!.!.!.!.!.!.!.!.!.!.!.!.!.!.!.!.!.!.!.!.!.!.!.!.!.!.!.!.!.!.!.!.!.!.!.!.!.!.!.!.!.!.!.",
"!.!.!.!.!.!.!.!.!.!.!.!.!.!.!.!.!.!.!.!.!.!.!.!.!.!.!.!.!.!.!.!.!.!.!.!.!.!.!.!.!.!.!.!.!.!.!.!.!.!.!.!.!.!.!.!.!.!.!.!.!.!.!.!.!.!.!.!.!.!.!.!.!.!.!.!.!.!.!.!.!.!.!.!.!.!.!.!.!.!.!.!.!.!.!.!.!.!.!.!.!.!.!.!.!.!.!.!.!.!.!.!.!.!.!.!.!.!.!.!.!.!.!.!.!.!.!.!.!.!.!.!.!.!.!.!.!.!.!.!.!.!.!.!.!.!.!.!.!.!.!.!.!.!.!.!.!.!.!.!.!.!.!.!.!.!.!.!.!.!.!.!.!.!.!.!.!.!.!.!.!.!.!.!.!.!.!.!.!.!.!.X X @ @ & - , , 2 , , 2 , 2 , 2 2 6 2 2 2 2 , 2 , 2 2 , 2 , , , , , , , , , - - & & + X   !.!.!.!.!.!.!.!.!.!.!.!.!.!.!.!.!.!.!.!.!.!.!.        X X X + @ $ & & & & - - - - , , 2 2 2 2 6 6 8 8 9 0 q e y y y i i i y y y i y y y i y y y e e q q q 9 8 6 6 6 6 6 2 2 2 2 , 2 , , , , , - - - & & & $ + @ X X X X X X X X X X X X X X X X X X X X X @ X @ @ @ @ @ & & & & & - - - - - - & & & & @ + @ X X   !.!.!.!.!.!.!.!.!.!.!.!.!.!.!.!.!.!.!.!.!.!.!.!.!.!.!.!.!.!.!.!.!.!.!.!.!.!.!.!.!.!.!.!.!.!.!.!.!.!.!.!.!.!.!.!.!.!.!.!.!.!.!.!.!.!.!.!.!.!.!.!.!.!.!.!.!.!.!.!.!.!.!.!.!.!.!.!.!.!.!.!.!.!.!.!.!.!.!.!.!.!.!.!.!.!.!.!.!.!.!.!.!.!.!.!.!.!.!.!.!.!.!.!.!.!.!.!.!.!.!.!.!.!.!.!.!.!.!.!.!.!.!.!.!.!.!.!.!.!.!.!.!.!.!.!.!.!.!.!.!.!.!.!.!.!.!.!.!.!.!.!.!.!.!.!.!.!.!.!.!.!.!.!.!.!.!.!.!.!.!.!.!.!.",
"!.!.!.!.!.!.!.!.!.!.!.!.!.!.!.!.!.!.!.!.!.!.!.!.!.!.!.!.!.!.!.!.!.!.!.!.!.!.!.!.!.!.!.!.!.!.!.!.!.!.!.!.!.!.!.!.!.!.!.!.!.!.!.!.!.!.!.!.!.!.!.!.!.!.!.!.!.!.!.!.!.!.!.!.!.!.!.!.!.!.!.!.!.!.!.!.!.!.!.!.!.!.!.!.!.!.!.!.!.!.!.!.!.!.!.!.!.!.!.!.!.!.!.!.!.!.!.!.!.!.!.!.!.!.!.!.!.!.!.!.!.!.!.!.!.!.!.!.!.!.!.!.!.!.!.!.!.!.!.!.!.!.!.!.!.!.!.!.!.!.!.!.!.!.!.!.!.!.!.!.!.!.!.!.!.!.!.!.!.!.!.  X X + & - , , , , 2 , , , , 2 2 , 2 2 , 2 2 , , , 2 , , , - - , - - - - - - & & @ X X   !.!.!.!.!.!.!.!.!.!.!.!.!.!.!.!.!.!.!.!.!.!.!.!.!.!.!.!.    X X X @ @ $ & & & & & - - , , , , 2 2 2 2 6 6 6 9 q q q e e e e e e e e e e e q q q q 0 0 8 8 6 6 6 6 6 6 2 , , , , , , , , - - - & & & $ @ + X X                           !.!.!.!.!.!.!.      !.        X X X + @ @ $ $ $ $ $ @ + @ @ @ X     !.!.!.!.!.!.!.!.!.!.!.!.!.!.!.!.!.!.!.!.!.!.!.!.!.!.!.!.!.!.!.!.!.!.!.!.!.!.!.!.!.!.!.!.!.!.!.!.!.!.!.!.!.!.!.!.!.!.!.!.!.!.!.!.!.!.!.!.!.!.!.!.!.!.!.!.!.!.!.!.!.!.!.!.!.!.!.!.!.!.!.!.!.!.!.!.!.!.!.!.!.!.!.!.!.!.!.!.!.!.!.!.!.!.!.!.!.!.!.!.!.!.!.!.!.!.!.!.!.!.!.!.!.!.!.!.!.!.!.!.!.!.!.!.!.!.!.!.!.!.!.!.!.!.!.!.!.!.!.!.!.!.!.!.!.!.!.!.!.!.!.!.!.!.!.!.!.!.!.!.!.!.!.!.!.!.!.!.!.!.!.!.!.!.!.!.!.",
"!.!.!.!.!.!.!.!.!.!.!.!.!.!.!.!.!.!.!.!.!.!.!.!.!.!.!.!.!.!.!.!.!.!.!.!.!.!.!.!.!.!.!.!.!.!.!.!.!.!.!.!.!.!.!.!.!.!.!.!.!.!.!.!.!.!.!.!.!.!.!.!.!.!.!.!.!.!.!.!.!.!.!.!.!.!.!.!.!.!.!.!.!.!.!.!.!.!.!.!.!.!.!.!.!.!.!.!.!.!.!.!.!.!.!.!.!.!.!.!.!.!.!.!.!.!.!.!.!.!.!.!.!.!.!.!.!.!.!.!.!.!.!.!.!.!.!.!.!.!.!.!.!.!.!.!.!.!.!.!.!.!.!.!.!.!.!.!.!.!.!.!.!.!.!.!.!.!.!.!.!.!.!.!.!.!.!.!.!.!.!.!.  X X @ & - - , 2 2 , , , , , , , 2 , , , , , , , , , - - - - - - - & & & & & & @ X   !.!.!.!.!.!.!.!.!.!.!.!.!.!.!.!.!.!.!.!.!.!.!.!.!.!.!.!.!.!.!.!.    X X X @ + @ + $ & & & & - - - , , , 2 2 2 6 6 8 9 9 0 q 0 q 9 9 9 9 8 0 9 9 8 6 6 6 6 6 2 2 2 2 2 2 , , , - - - - - - & & & & $ @ @ X X     !.!.!.!.!.!.!.!.!.!.!.!.!.!.!.!.!.!.!.!.!.!.!.!.!.!.!.!.!.!.    X X X X X X X X X     !.!.!.!.!.!.!.!.!.!.!.!.!.!.!.!.!.!.!.!.!.!.!.!.!.!.!.!.!.!.!.!.!.!.!.!.!.!.!.!.!.!.!.!.!.!.!.!.!.!.!.!.!.!.!.!.!.!.!.!.!.!.!.!.!.!.!.!.!.!.!.!.!.!.!.!.!.!.!.!.!.!.!.!.!.!.!.!.!.!.!.!.!.!.!.!.!.!.!.!.!.!.!.!.!.!.!.!.!.!.!.!.!.!.!.!.!.!.!.!.!.!.!.!.!.!.!.!.!.!.!.!.!.!.!.!.!.!.!.!.!.!.!.!.!.!.!.!.!.!.!.!.!.!.!.!.!.!.!.!.!.!.!.!.!.!.!.!.!.!.!.!.!.!.!.!.!.!.!.!.!.!.!.!.!.!.!.!.!.!.!.!.!.!.!.!.!.!.!.!.!.",
"!.!.!.!.!.!.!.!.!.!.!.!.!.!.!.!.!.!.!.!.!.!.!.!.!.!.!.!.!.!.!.!.!.!.!.!.!.!.!.!.!.!.!.!.!.!.!.!.!.!.!.!.!.!.!.!.!.!.!.!.!.!.!.!.!.!.!.!.!.!.!.!.!.!.!.!.!.!.!.!.!.!.!.!.!.!.!.!.!.!.!.!.!.!.!.!.!.!.!.!.!.!.!.!.!.!.!.!.!.!.!.!.!.!.!.!.!.!.!.!.!.!.!.!.!.!.!.!.!.!.!.!.!.!.!.!.!.!.!.!.!.!.!.!.!.!.!.!.!.!.!.!.!.!.!.!.!.!.!.!.!.!.!.!.!.!.!.!.!.!.!.!.!.!.!.!.!.!.!.!.!.!.!.!.!.!.!.!.!.!.!.!.!.    X $ & & - , , - - , - , - , , , , , , , , - - - - - & - & & & & & & $ @ + X   !.!.!.!.!.!.!.!.!.!.!.!.!.!.!.!.!.!.!.!.!.!.!.!.!.!.!.!.!.!.!.!.!.!.!.!.      X X X X @ @ + @ $ & & & - - - , , 2 2 6 6 6 6 6 6 6 6 6 6 6 6 6 6 6 6 6 2 2 2 2 , , , , , , - - - & & & & & & $ @ @ @ @ X     !.!.!.!.!.!.!.!.!.!.!.!.!.!.!.!.!.!.!.!.!.!.!.!.!.!.!.!.!.!.!.!.!.!.!.!.!.!.!.!.!.!.!.!.!.!.!.!.!.!.!.!.!.!.!.!.!.!.!.!.!.!.!.!.!.!.!.!.!.!.!.!.!.!.!.!.!.!.!.!.!.!.!.!.!.!.!.!.!.!.!.!.!.!.!.!.!.!.!.!.!.!.!.!.!.!.!.!.!.!.!.!.!.!.!.!.!.!.!.!.!.!.!.!.!.!.!.!.!.!.!.!.!.!.!.!.!.!.!.!.!.!.!.!.!.!.!.!.!.!.!.!.!.!.!.!.!.!.!.!.!.!.!.!.!.!.!.!.!.!.!.!.!.!.!.!.!.!.!.!.!.!.!.!.!.!.!.!.!.!.!.!.!.!.!.!.!.!.!.!.!.!.!.!.!.!.!.!.!.!.!.!.!.!.!.!.!.!.!.!.!.!.!.!.!.!.!.!.!.!.!.!.!.!.!.!.!.!.!.!.!.!.!.!.!.!.!.",
"!.!.!.!.!.!.!.!.!.!.!.!.!.!.!.!.!.!.!.!.!.!.!.!.!.!.!.!.!.!.!.!.!.!.!.!.!.!.!.!.!.!.!.!.!.!.!.!.!.!.!.!.!.!.!.!.!.!.!.!.!.!.!.!.!.!.!.!.!.!.!.!.!.!.!.!.!.!.!.!.!.!.!.!.!.!.!.!.!.!.!.!.!.!.!.!.!.!.!.!.!.!.!.!.!.!.!.!.!.!.!.!.!.!.!.!.!.!.!.!.!.!.!.!.!.!.!.!.!.!.!.!.!.!.!.!.!.!.!.!.!.!.!.!.!.!.!.!.!.!.!.!.!.!.!.!.!.!.!.!.!.!.!.!.!.!.!.!.!.!.!.!.!.!.!.!.!.!.!.!.!.!.!.!.!.!.!.!.!.!.!.!.!.!.!.  X + & & - - - - - - - - - - - - - - - - - - & & & & & & & $ @ @ @ + @ X X !.!.!.!.!.!.!.!.!.!.!.!.!.!.!.!.!.!.!.!.!.!.!.!.!.!.!.!.!.!.!.!.!.!.!.!.!.!.!.!.!.!.!.    X X X X X @ @ $ & & - - , , , 2 2 2 2 6 2 2 2 2 2 , 2 2 2 2 , , , , , , - - - - - & & & & $ @ @ @ + @ X X X X   !.!.!.!.!.!.!.!.!.!.!.!.!.!.!.!.!.!.!.!.!.!.!.!.!.!.!.!.!.!.!.!.!.!.!.!.!.!.!.!.!.!.!.!.!.!.!.!.!.!.!.!.!.!.!.!.!.!.!.!.!.!.!.!.!.!.!.!.!.!.!.!.!.!.!.!.!.!.!.!.!.!.!.!.!.!.!.!.!.!.!.!.!.!.!.!.!.!.!.!.!.!.!.!.!.!.!.!.!.!.!.!.!.!.!.!.!.!.!.!.!.!.!.!.!.!.!.!.!.!.!.!.!.!.!.!.!.!.!.!.!.!.!.!.!.!.!.!.!.!.!.!.!.!.!.!.!.!.!.!.!.!.!.!.!.!.!.!.!.!.!.!.!.!.!.!.!.!.!.!.!.!.!.!.!.!.!.!.!.!.!.!.!.!.!.!.!.!.!.!.!.!.!.!.!.!.!.!.!.!.!.!.!.!.!.!.!.!.!.!.!.!.!.!.!.!.!.!.!.!.!.!.!.!.!.!.!.!.!.!.!.!.!.!.!.!.!.!.!.",
"!.!.!.!.!.!.!.!.!.!.!.!.!.!.!.!.!.!.!.!.!.!.!.!.!.!.!.!.!.!.!.!.!.!.!.!.!.!.!.!.!.!.!.!.!.!.!.!.!.!.!.!.!.!.!.!.!.!.!.!.!.!.!.!.!.!.!.!.!.!.!.!.!.!.!.!.!.!.!.!.!.!.!.!.!.!.!.!.!.!.!.!.!.!.!.!.!.!.!.!.!.!.!.!.!.!.!.!.!.!.!.!.!.!.!.!.!.!.!.!.!.!.!.!.!.!.!.!.!.!.!.!.!.!.!.!.!.!.!.!.!.!.!.!.!.!.!.!.!.!.!.!.!.!.!.!.!.!.!.!.!.!.!.!.!.!.!.!.!.!.!.!.!.!.!.!.!.!.!.!.!.!.!.!.!.!.!.!.!.!.!.!.!.!.!.!.    @ @ & & - - - - - - - - - - - - - - & & & & & $ & & $ @ + @ @ X X     !.!.!.!.!.!.!.!.!.!.!.!.!.!.!.!.!.!.!.!.!.!.!.!.!.!.!.!.!.!.!.!.!.!.!.!.!.!.!.!.!.!.!.!.!.!.!.!.      X X @ + & & & - - - , , , , , , , , , , , , , , - - - - - - & & & & $ $ @ + @ X X X X X X       !.!.!.!.!.!.!.!.!.!.!.!.!.!.!.!.!.!.!.!.!.!.!.!.!.!.!.!.!.!.!.!.!.!.!.!.!.!.!.!.!.!.!.!.!.!.!.!.!.!.!.!.!.!.!.!.!.!.!.!.!.!.!.!.!.!.!.!.!.!.!.!.!.!.!.!.!.!.!.!.!.!.!.!.!.!.!.!.!.!.!.!.!.!.!.!.!.!.!.!.!.!.!.!.!.!.!.!.!.!.!.!.!.!.!.!.!.!.!.!.!.!.!.!.!.!.!.!.!.!.!.!.!.!.!.!.!.!.!.!.!.!.!.!.!.!.!.!.!.!.!.!.!.!.!.!.!.!.!.!.!.!.!.!.!.!.!.!.!.!.!.!.!.!.!.!.!.!.!.!.!.!.!.!.!.!.!.!.!.!.!.!.!.!.!.!.!.!.!.!.!.!.!.!.!.!.!.!.!.!.!.!.!.!.!.!.!.!.!.!.!.!.!.!.!.!.!.!.!.!.!.!.!.!.!.!.!.!.!.!.!.!.!.!.!.!.!.!.!.!.!.",
"!.!.!.!.!.!.!.!.!.!.!.!.!.!.!.!.!.!.!.!.!.!.!.!.!.!.!.!.!.!.!.!.!.!.!.!.!.!.!.!.!.!.!.!.!.!.!.!.!.!.!.!.!.!.!.!.!.!.!.!.!.!.!.!.!.!.!.!.!.!.!.!.!.!.!.!.!.!.!.!.!.!.!.!.!.!.!.!.!.!.!.!.!.!.!.!.!.!.!.!.!.!.!.!.!.!.!.!.!.!.!.!.!.!.!.!.!.!.!.!.!.!.!.!.!.!.!.!.!.!.!.!.!.!.!.!.!.!.!.!.!.!.!.!.!.!.!.!.!.!.!.!.!.!.!.!.!.!.!.!.!.!.!.!.!.!.!.!.!.!.!.!.!.!.!.!.!.!.!.!.!.!.!.!.!.!.!.!.!.!.!.!.!.!.!.!.!.!.  X @ @ & & & & - - & & & & & & & & & $ & & @ @ @ @ @ @ X X X X   !.!.!.!.!.!.!.!.!.!.!.!.!.!.!.!.!.!.!.!.!.!.!.!.!.!.!.!.!.!.!.!.!.!.!.!.!.!.!.!.!.!.!.!.!.!.!.!.!.!.!.!.!.!.  X X @ @ @ $ & - - - - - - - - - - - & - - - & & & & & @ @ + @ @ @ X X X           !.!.!.!.!.!.!.!.!.!.!.!.!.!.!.!.!.!.!.!.!.!.!.!.!.!.!.!.!.!.!.!.!.!.!.!.!.!.!.!.!.!.!.!.!.!.!.!.!.!.!.!.!.!.!.!.!.!.!.!.!.!.!.!.!.!.!.!.!.!.!.!.!.!.!.!.!.!.!.!.!.!.!.!.!.!.!.!.!.!.!.!.!.!.!.!.!.!.!.!.!.!.!.!.!.!.!.!.!.!.!.!.!.!.!.!.!.!.!.!.!.!.!.!.!.!.!.!.!.!.!.!.!.!.!.!.!.!.!.!.!.!.!.!.!.!.!.!.!.!.!.!.!.!.!.!.!.!.!.!.!.!.!.!.!.!.!.!.!.!.!.!.!.!.!.!.!.!.!.!.!.!.!.!.!.!.!.!.!.!.!.!.!.!.!.!.!.!.!.!.!.!.!.!.!.!.!.!.!.!.!.!.!.!.!.!.!.!.!.!.!.!.!.!.!.!.!.!.!.!.!.!.!.!.!.!.!.!.!.!.!.!.!.!.!.!.!.!.!.!.!.!.!.!.!.!.",
"!.!.!.!.!.!.!.!.!.!.!.!.!.!.!.!.!.!.!.!.!.!.!.!.!.!.!.!.!.!.!.!.!.!.!.!.!.!.!.!.!.!.!.!.!.!.!.!.!.!.!.!.!.!.!.!.!.!.!.!.!.!.!.!.!.!.!.!.!.!.!.!.!.!.!.!.!.!.!.!.!.!.!.!.!.!.!.!.!.!.!.!.!.!.!.!.!.!.!.!.!.!.!.!.!.!.!.!.!.!.!.!.!.!.!.!.!.!.!.!.!.!.!.!.!.!.!.!.!.!.!.!.!.!.!.!.!.!.!.!.!.!.!.!.!.!.!.!.!.!.!.!.!.!.!.!.!.!.!.!.!.!.!.!.!.!.!.!.!.!.!.!.!.!.!.!.!.!.!.!.!.!.!.!.!.!.!.!.!.!.!.!.!.!.!.!.!.!.!.    X @ @ & & & & & & & & & & & $ @ + + @ @ @ + + @ X X X     !.!.!.!.!.!.!.!.!.!.!.!.!.!.!.!.!.!.!.!.!.!.!.!.!.!.!.!.!.!.!.!.!.!.!.!.!.!.!.!.!.!.!.!.!.!.!.!.!.!.!.!.!.!.!.!.!.    X X @ @ $ & & & & & & & & & & $ & & $ $ @ @ @ @ X X X           !.!.!.!.!.!.!.!.!.!.!.!.!.!.!.!.!.!.!.!.!.!.!.!.!.!.!.!.!.!.!.!.!.!.!.!.!.!.!.!.!.!.!.!.!.!.!.!.!.!.!.!.!.!.!.!.!.!.!.!.!.!.!.!.!.!.!.!.!.!.!.!.!.!.!.!.!.!.!.!.!.!.!.!.!.!.!.!.!.!.!.!.!.!.!.!.!.!.!.!.!.!.!.!.!.!.!.!.!.!.!.!.!.!.!.!.!.!.!.!.!.!.!.!.!.!.!.!.!.!.!.!.!.!.!.!.!.!.!.!.!.!.!.!.!.!.!.!.!.!.!.!.!.!.!.!.!.!.!.!.!.!.!.!.!.!.!.!.!.!.!.!.!.!.!.!.!.!.!.!.!.!.!.!.!.!.!.!.!.!.!.!.!.!.!.!.!.!.!.!.!.!.!.!.!.!.!.!.!.!.!.!.!.!.!.!.!.!.!.!.!.!.!.!.!.!.!.!.!.!.!.!.!.!.!.!.!.!.!.!.!.!.!.!.!.!.!.!.!.!.!.!.!.!.!.!.!.!.!.!.!.!.",
"!.!.!.!.!.!.!.!.!.!.!.!.!.!.!.!.!.!.!.!.!.!.!.!.!.!.!.!.!.!.!.!.!.!.!.!.!.!.!.!.!.!.!.!.!.!.!.!.!.!.!.!.!.!.!.!.!.!.!.!.!.!.!.!.!.!.!.!.!.!.!.!.!.!.!.!.!.!.!.!.!.!.!.!.!.!.!.!.!.!.!.!.!.!.!.!.!.!.!.!.!.!.!.!.!.!.!.!.!.!.!.!.!.!.!.!.!.!.!.!.!.!.!.!.!.!.!.!.!.!.!.!.!.!.!.!.!.!.!.!.!.!.!.!.!.!.!.!.!.!.!.!.!.!.!.!.!.!.!.!.!.!.!.!.!.!.!.!.!.!.!.!.!.!.!.!.!.!.!.!.!.!.!.!.!.!.!.!.!.!.!.!.!.!.!.!.!.!.!.!.!.  X @ + @ $ & @ @ @ @ @ + @ + @ X X X X X @ @ X X X     !.!.!.!.!.!.!.!.!.!.!.!.!.!.!.!.!.!.!.!.!.!.!.!.!.!.!.!.!.!.!.!.!.!.!.!.!.!.!.!.!.!.!.!.!.!.!.!.!.!.!.!.!.!.!.!.!.!.!.!.!.    X @ + + @ $ @ + @ + @ X X X @ X X X X     !.  !.!.!.!.!.!.!.!.!.!.!.!.!.!.!.!.!.!.!.!.!.!.!.!.!.!.!.!.!.!.!.!.!.!.!.!.!.!.!.!.!.!.!.!.!.!.!.!.!.!.!.!.!.!.!.!.!.!.!.!.!.!.!.!.!.!.!.!.!.!.!.!.!.!.!.!.!.!.!.!.!.!.!.!.!.!.!.!.!.!.!.!.!.!.!.!.!.!.!.!.!.!.!.!.!.!.!.!.!.!.!.!.!.!.!.!.!.!.!.!.!.!.!.!.!.!.!.!.!.!.!.!.!.!.!.!.!.!.!.!.!.!.!.!.!.!.!.!.!.!.!.!.!.!.!.!.!.!.!.!.!.!.!.!.!.!.!.!.!.!.!.!.!.!.!.!.!.!.!.!.!.!.!.!.!.!.!.!.!.!.!.!.!.!.!.!.!.!.!.!.!.!.!.!.!.!.!.!.!.!.!.!.!.!.!.!.!.!.!.!.!.!.!.!.!.!.!.!.!.!.!.!.!.!.!.!.!.!.!.!.!.!.!.!.!.!.!.!.!.!.!.!.!.!.!.!.!.!.!.!.!.!.!.!.!.!.!.!.",
"!.!.!.!.!.!.!.!.!.!.!.!.!.!.!.!.!.!.!.!.!.!.!.!.!.!.!.!.!.!.!.!.!.!.!.!.!.!.!.!.!.!.!.!.!.!.!.!.!.!.!.!.!.!.!.!.!.!.!.!.!.!.!.!.!.!.!.!.!.!.!.!.!.!.!.!.!.!.!.!.!.!.!.!.!.!.!.!.!.!.!.!.!.!.!.!.!.!.!.!.!.!.!.!.!.!.!.!.!.!.!.!.!.!.!.!.!.!.!.!.!.!.!.!.!.!.!.!.!.!.!.!.!.!.!.!.!.!.!.!.!.!.!.!.!.!.!.!.!.!.!.!.!.!.!.!.!.!.!.!.!.!.!.!.!.!.!.!.!.!.!.!.!.!.!.!.!.!.!.!.!.!.!.!.!.!.!.!.!.!.!.!.!.!.!.!.!.!.!.!.!.!.!.  X X X X X X X X X X X X X X X X X X X X X     !.!.!.!.!.!.!.!.!.!.!.!.!.!.!.!.!.!.!.!.!.!.!.!.!.!.!.!.!.!.!.!.!.!.!.!.!.!.!.!.!.!.!.!.!.!.!.!.!.!.!.!.!.!.!.!.!.!.!.!.!.!.!.!.!.    X X X X X X X             !.!.!.!.!.!.!.!.!.!.!.!.!.!.!.!.!.!.!.!.!.!.!.!.!.!.!.!.!.!.!.!.!.!.!.!.!.!.!.!.!.!.!.!.!.!.!.!.!.!.!.!.!.!.!.!.!.!.!.!.!.!.!.!.!.!.!.!.!.!.!.!.!.!.!.!.!.!.!.!.!.!.!.!.!.!.!.!.!.!.!.!.!.!.!.!.!.!.!.!.!.!.!.!.!.!.!.!.!.!.!.!.!.!.!.!.!.!.!.!.!.!.!.!.!.!.!.!.!.!.!.!.!.!.!.!.!.!.!.!.!.!.!.!.!.!.!.!.!.!.!.!.!.!.!.!.!.!.!.!.!.!.!.!.!.!.!.!.!.!.!.!.!.!.!.!.!.!.!.!.!.!.!.!.!.!.!.!.!.!.!.!.!.!.!.!.!.!.!.!.!.!.!.!.!.!.!.!.!.!.!.!.!.!.!.!.!.!.!.!.!.!.!.!.!.!.!.!.!.!.!.!.!.!.!.!.!.!.!.!.!.!.!.!.!.!.!.!.!.!.!.!.!.!.!.!.!.!.!.!.!.!.!.!.!.!.!.!.!.!.!.!.!.!.!.!.",
"!.!.!.!.!.!.!.!.!.!.!.!.!.!.!.!.!.!.!.!.!.!.!.!.!.!.!.!.!.!.!.!.!.!.!.!.!.!.!.!.!.!.!.!.!.!.!.!.!.!.!.!.!.!.!.!.!.!.!.!.!.!.!.!.!.!.!.!.!.!.!.!.!.!.!.!.!.!.!.!.!.!.!.!.!.!.!.!.!.!.!.!.!.!.!.!.!.!.!.!.!.!.!.!.!.!.!.!.!.!.!.!.!.!.!.!.!.!.!.!.!.!.!.!.!.!.!.!.!.!.!.!.!.!.!.!.!.!.!.!.!.!.!.!.!.!.!.!.!.!.!.!.!.!.!.!.!.!.!.!.!.!.!.!.!.!.!.!.!.!.!.!.!.!.!.!.!.!.!.!.!.!.!.!.!.!.!.!.!.!.!.!.!.!.!.!.!.!.!.!.!.!.!.!.!.!.            X X X X X X X   X X X       !.!.!.!.!.!.!.!.!.!.!.!.!.!.!.!.!.!.!.!.!.!.!.!.!.!.!.!.!.!.!.!.!.!.!.!.!.!.!.!.!.!.!.!.!.!.!.!.!.!.!.!.!.!.!.!.!.!.!.!.!.!.!.!.!.!.!.!.!.!.!.!.  !.!.!.!.!.!.!.!.!.!.!.!.!.!.!.!.!.!.!.!.!.!.!.!.!.!.!.!.!.!.!.!.!.!.!.!.!.!.!.!.!.!.!.!.!.!.!.!.!.!.!.!.!.!.!.!.!.!.!.!.!.!.!.!.!.!.!.!.!.!.!.!.!.!.!.!.!.!.!.!.!.!.!.!.!.!.!.!.!.!.!.!.!.!.!.!.!.!.!.!.!.!.!.!.!.!.!.!.!.!.!.!.!.!.!.!.!.!.!.!.!.!.!.!.!.!.!.!.!.!.!.!.!.!.!.!.!.!.!.!.!.!.!.!.!.!.!.!.!.!.!.!.!.!.!.!.!.!.!.!.!.!.!.!.!.!.!.!.!.!.!.!.!.!.!.!.!.!.!.!.!.!.!.!.!.!.!.!.!.!.!.!.!.!.!.!.!.!.!.!.!.!.!.!.!.!.!.!.!.!.!.!.!.!.!.!.!.!.!.!.!.!.!.!.!.!.!.!.!.!.!.!.!.!.!.!.!.!.!.!.!.!.!.!.!.!.!.!.!.!.!.!.!.!.!.!.!.!.!.!.!.!.!.!.!.!.!.!.!.!.!.!.!.!.!.!.!.!.!.!.!.!.!.!.",
"!.!.!.!.!.!.!.!.!.!.!.!.!.!.!.!.!.!.!.!.!.!.!.!.!.!.!.!.!.!.!.!.!.!.!.!.!.!.!.!.!.!.!.!.!.!.!.!.!.!.!.!.!.!.!.!.!.!.!.!.!.!.!.!.!.!.!.!.!.!.!.!.!.!.!.!.!.!.!.!.!.!.!.!.!.!.!.!.!.!.!.!.!.!.!.!.!.!.!.!.!.!.!.!.!.!.!.!.!.!.!.!.!.!.!.!.!.!.!.!.!.!.!.!.!.!.!.!.!.!.!.!.!.!.!.!.!.!.!.!.!.!.!.!.!.!.!.!.!.!.!.!.!.!.!.!.!.!.!.!.!.!.!.!.!.!.!.!.!.!.!.!.!.!.!.!.!.!.!.!.!.!.!.!.!.!.!.!.!.!.!.!.!.!.!.!.!.!.!.!.!.!.!.!.!.!.!.!.!.!.!.!.      X   X             !.!.!.!.!.!.!.!.!.!.!.!.!.!.!.!.!.!.!.!.!.!.!.!.!.!.!.!.!.!.!.!.!.!.!.!.!.!.!.!.!.!.!.!.!.!.!.!.!.!.!.!.!.!.!.!.!.!.!.!.!.!.!.!.!.!.!.!.!.!.!.!.!.!.!.!.!.!.!.!.!.!.!.!.!.!.!.!.!.!.!.!.!.!.!.!.!.!.!.!.!.!.!.!.!.!.!.!.!.!.!.!.!.!.!.!.!.!.!.!.!.!.!.!.!.!.!.!.!.!.!.!.!.!.!.!.!.!.!.!.!.!.!.!.!.!.!.!.!.!.!.!.!.!.!.!.!.!.!.!.!.!.!.!.!.!.!.!.!.!.!.!.!.!.!.!.!.!.!.!.!.!.!.!.!.!.!.!.!.!.!.!.!.!.!.!.!.!.!.!.!.!.!.!.!.!.!.!.!.!.!.!.!.!.!.!.!.!.!.!.!.!.!.!.!.!.!.!.!.!.!.!.!.!.!.!.!.!.!.!.!.!.!.!.!.!.!.!.!.!.!.!.!.!.!.!.!.!.!.!.!.!.!.!.!.!.!.!.!.!.!.!.!.!.!.!.!.!.!.!.!.!.!.!.!.!.!.!.!.!.!.!.!.!.!.!.!.!.!.!.!.!.!.!.!.!.!.!.!.!.!.!.!.!.!.!.!.!.!.!.!.!.!.!.!.!.!.!.!.!.!.!.!.!.!.!.!.!.!.!.!.!.!.!.!.!.!.!.!.!.!.!.!.!.!.!.!.!.!.",
"!.!.!.!.!.!.!.!.!.!.!.!.!.!.!.!.!.!.!.!.!.!.!.!.!.!.!.!.!.!.!.!.!.!.!.!.!.!.!.!.!.!.!.!.!.!.!.!.!.!.!.!.!.!.!.!.!.!.!.!.!.!.!.!.!.!.!.!.!.!.!.!.!.!.!.!.!.!.!.!.!.!.!.!.!.!.!.!.!.!.!.!.!.!.!.!.!.!.!.!.!.!.!.!.!.!.!.!.!.!.!.!.!.!.!.!.!.!.!.!.!.!.!.!.!.!.!.!.!.!.!.!.!.!.!.!.!.!.!.!.!.!.!.!.!.!.!.!.!.!.!.!.!.!.!.!.!.!.!.!.!.!.!.!.!.!.!.!.!.!.!.!.!.!.!.!.!.!.!.!.!.!.!.!.!.!.!.!.!.!.!.!.!.!.!.!.!.!.!.!.!.!.!.!.!.!.!.!.!.!.!.!.!.!.!.!.          !.!.!.!.!.!.!.!.!.!.!.!.!.!.!.!.!.!.!.!.!.!.!.!.!.!.!.!.!.!.!.!.!.!.!.!.!.!.!.!.!.!.!.!.!.!.!.!.!.!.!.!.!.!.!.!.!.!.!.!.!.!.!.!.!.!.!.!.!.!.!.!.!.!.!.!.!.!.!.!.!.!.!.!.!.!.!.!.!.!.!.!.!.!.!.!.!.!.!.!.!.!.!.!.!.!.!.!.!.!.!.!.!.!.!.!.!.!.!.!.!.!.!.!.!.!.!.!.!.!.!.!.!.!.!.!.!.!.!.!.!.!.!.!.!.!.!.!.!.!.!.!.!.!.!.!.!.!.!.!.!.!.!.!.!.!.!.!.!.!.!.!.!.!.!.!.!.!.!.!.!.!.!.!.!.!.!.!.!.!.!.!.!.!.!.!.!.!.!.!.!.!.!.!.!.!.!.!.!.!.!.!.!.!.!.!.!.!.!.!.!.!.!.!.!.!.!.!.!.!.!.!.!.!.!.!.!.!.!.!.!.!.!.!.!.!.!.!.!.!.!.!.!.!.!.!.!.!.!.!.!.!.!.!.!.!.!.!.!.!.!.!.!.!.!.!.!.!.!.!.!.!.!.!.!.!.!.!.!.!.!.!.!.!.!.!.!.!.!.!.!.!.!.!.!.!.!.!.!.!.!.!.!.!.!.!.!.!.!.!.!.!.!.!.!.!.!.!.!.!.!.!.!.!.!.!.!.!.!.!.!.!.!.!.!.!.!.!.!.!.!.!.!.!.!.!.!.!.!.!.!.!.",
"!.!.!.!.!.!.!.!.!.!.!.!.!.!.!.!.!.!.!.!.!.!.!.!.!.!.!.!.!.!.!.!.!.!.!.!.!.!.!.!.!.!.!.!.!.!.!.!.!.!.!.!.!.!.!.!.!.!.!.!.!.!.!.!.!.!.!.!.!.!.!.!.!.!.!.!.!.!.!.!.!.!.!.!.!.!.!.!.!.!.!.!.!.!.!.!.!.!.!.!.!.!.!.!.!.!.!.!.!.!.!.!.!.!.!.!.!.!.!.!.!.!.!.!.!.!.!.!.!.!.!.!.!.!.!.!.!.!.!.!.!.!.!.!.!.!.!.!.!.!.!.!.!.!.!.!.!.!.!.!.!.!.!.!.!.!.!.!.!.!.!.!.!.!.!.!.!.!.!.!.!.!.!.!.!.!.!.!.!.!.!.!.!.!.!.!.!.!.!.!.!.!.!.!.!.!.!.!.!.!.!.!.!.!.!.!.!.!.!.!.!.!.!.!.!.!.!.!.!.!.!.!.!.!.!.!.!.!.!.!.!.!.!.!.!.!.!.!.!.!.!.!.!.!.!.!.!.!.!.!.!.!.!.!.!.!.!.!.!.!.!.!.!.!.!.!.!.!.!.!.!.!.!.!.!.!.!.!.!.!.!.!.!.!.!.!.!.!.!.!.!.!.!.!.!.!.!.!.!.!.!.!.!.!.!.!.!.!.!.!.!.!.!.!.!.!.!.!.!.!.!.!.!.!.!.!.!.!.!.!.!.!.!.!.!.!.!.!.!.!.!.!.!.!.!.!.!.!.!.!.!.!.!.!.!.!.!.!.!.!.!.!.!.!.!.!.!.!.!.!.!.!.!.!.!.!.!.!.!.!.!.!.!.!.!.!.!.!.!.!.!.!.!.!.!.!.!.!.!.!.!.!.!.!.!.!.!.!.!.!.!.!.!.!.!.!.!.!.!.!.!.!.!.!.!.!.!.!.!.!.!.!.!.!.!.!.!.!.!.!.!.!.!.!.!.!.!.!.!.!.!.!.!.!.!.!.!.!.!.!.!.!.!.!.!.!.!.!.!.!.!.!.!.!.!.!.!.!.!.!.!.!.!.!.!.!.!.!.!.!.!.!.!.!.!.!.!.!.!.!.!.!.!.!.!.!.!.!.!.!.!.!.!.!.!.!.!.!.!.!.!.!.!.!.!.!.!.!.!.!.!.!.!.!.!.!.!.!.!.!.!.!.!.!.!.!.!.!.!.!.!.!.!.!.!.!.!.!.!.!.!.!.!.!.!.!.!.!.!.!.!.!.!.",
"!.!.!.!.!.!.!.!.!.!.!.!.!.!.!.!.!.!.!.!.!.!.!.!.!.!.!.!.!.!.!.!.!.!.!.!.!.!.!.!.!.!.!.!.!.!.!.!.!.!.!.!.!.!.!.!.!.!.!.!.!.!.!.!.!.!.!.!.!.!.!.!.!.!.!.!.!.!.!.!.!.!.!.!.!.!.!.!.!.!.!.!.!.!.!.!.!.!.!.!.!.!.!.!.!.!.!.!.!.!.!.!.!.!.!.!.!.!.!.!.!.!.!.!.!.!.!.!.!.!.!.!.!.!.!.!.!.!.!.!.!.!.!.!.!.!.!.!.!.!.!.!.!.!.!.!.!.!.!.!.!.!.!.!.!.!.!.!.!.!.!.!.!.!.!.!.!.!.!.!.!.!.!.!.!.!.!.!.!.!.!.!.!.!.!.!.!.!.!.!.!.!.!.!.!.!.!.!.!.!.!.!.!.!.!.!.!.!.!.!.!.!.!.!.!.!.!.!.!.!.!.!.!.!.!.!.!.!.!.!.!.!.!.!.!.!.!.!.!.!.!.!.!.!.!.!.!.!.!.!.!.!.!.!.!.!.!.!.!.!.!.!.!.!.!.!.!.!.!.!.!.!.!.!.!.!.!.!.!.!.!.!.!.!.!.!.!.!.!.!.!.!.!.!.!.!.!.!.!.!.!.!.!.!.!.!.!.!.!.!.!.!.!.!.!.!.!.!.!.!.!.!.!.!.!.!.!.!.!.!.!.!.!.!.!.!.!.!.!.!.!.!.!.!.!.!.!.!.!.!.!.!.!.!.!.!.!.!.!.!.!.!.!.!.!.!.!.!.!.!.!.!.!.!.!.!.!.!.!.!.!.!.!.!.!.!.!.!.!.!.!.!.!.!.!.!.!.!.!.!.!.!.!.!.!.!.!.!.!.!.!.!.!.!.!.!.!.!.!.!.!.!.!.!.!.!.!.!.!.!.!.!.!.!.!.!.!.!.!.!.!.!.!.!.!.!.!.!.!.!.!.!.!.!.!.!.!.!.!.!.!.!.!.!.!.!.!.!.!.!.!.!.!.!.!.!.!.!.!.!.!.!.!.!.!.!.!.!.!.!.!.!.!.!.!.!.!.!.!.!.!.!.!.!.!.!.!.!.!.!.!.!.!.!.!.!.!.!.!.!.!.!.!.!.!.!.!.!.!.!.!.!.!.!.!.!.!.!.!.!.!.!.!.!.!.!.!.!.!.!.!.!.!.!.!.!.!.!.!.!.!.!.!.!.!.!.!.!.!.!.!.!.!.",
"!.!.!.!.!.!.!.!.!.!.!.!.!.!.!.!.!.!.!.!.!.!.!.!.!.!.!.!.!.!.!.!.!.!.!.!.!.!.!.!.!.!.!.!.!.!.!.!.!.!.!.!.!.!.!.!.!.!.!.!.!.!.!.!.!.!.!.!.!.!.!.!.!.!.!.!.!.!.!.!.!.!.!.!.!.!.!.!.!.!.!.!.!.!.!.!.!.!.!.!.!.!.!.!.!.!.!.!.!.!.!.!.!.!.!.!.!.!.!.!.!.!.!.!.!.!.!.!.!.!.!.!.!.!.!.!.!.!.!.!.!.!.!.!.!.!.!.!.!.!.!.!.!.!.!.!.!.!.!.!.!.!.!.!.!.!.!.!.!.!.!.!.!.!.!.!.!.!.!.!.!.!.!.!.!.!.!.!.!.!.!.!.!.!.!.!.!.!.!.!.!.!.!.!.!.!.!.!.!.!.!.!.!.!.!.!.!.!.!.!.!.!.!.!.!.!.!.!.!.!.!.!.!.!.!.!.!.!.!.!.!.!.!.!.!.!.!.!.!.!.!.!.!.!.!.!.!.!.!.!.!.!.!.!.!.!.!.!.!.!.!.!.!.!.!.!.!.!.!.!.!.!.!.!.!.!.!.!.!.!.!.!.!.!.!.!.!.!.!.!.!.!.!.!.!.!.!.!.!.!.!.!.!.!.!.!.!.!.!.!.!.!.!.!.!.!.!.!.!.!.!.!.!.!.!.!.!.!.!.!.!.!.!.!.!.!.!.!.!.!.!.!.!.!.!.!.!.!.!.!.!.!.!.!.!.!.!.!.!.!.!.!.!.!.!.!.!.!.!.!.!.!.!.!.!.!.!.!.!.!.!.!.!.!.!.!.!.!.!.!.!.!.!.!.!.!.!.!.!.!.!.!.!.!.!.!.!.!.!.!.!.!.!.!.!.!.!.!.!.!.!.!.!.!.!.!.!.!.!.!.!.!.!.!.!.!.!.!.!.!.!.!.!.!.!.!.!.!.!.!.!.!.!.!.!.!.!.!.!.!.!.!.!.!.!.!.!.!.!.!.!.!.!.!.!.!.!.!.!.!.!.!.!.!.!.!.!.!.!.!.!.!.!.!.!.!.!.!.!.!.!.!.!.!.!.!.!.!.!.!.!.!.!.!.!.!.!.!.!.!.!.!.!.!.!.!.!.!.!.!.!.!.!.!.!.!.!.!.!.!.!.!.!.!.!.!.!.!.!.!.!.!.!.!.!.!.!.!.!.!.!.!.!.!.!.!.!.!.!.!.!.!.!.",
"!.!.!.!.!.!.!.!.!.!.!.!.!.!.!.!.!.!.!.!.!.!.!.!.!.!.!.!.!.!.!.!.!.!.!.!.!.!.!.!.!.!.!.!.!.!.!.!.!.!.!.!.!.!.!.!.!.!.!.!.!.!.!.!.!.!.!.!.!.!.!.!.!.!.!.!.!.!.!.!.!.!.!.!.!.!.!.!.!.!.!.!.!.!.!.!.!.!.!.!.!.!.!.!.!.!.!.!.!.!.!.!.!.!.!.!.!.!.!.!.!.!.!.!.!.!.!.!.!.!.!.!.!.!.!.!.!.!.!.!.!.!.!.!.!.!.!.!.!.!.!.!.!.!.!.!.!.!.!.!.!.!.!.!.!.!.!.!.!.!.!.!.!.!.!.!.!.!.!.!.!.!.!.!.!.!.!.!.!.!.!.!.!.!.!.!.!.!.!.!.!.!.!.!.!.!.!.!.!.!.!.!.!.!.!.!.!.!.!.!.!.!.!.!.!.!.!.!.!.!.!.!.!.!.!.!.!.!.!.!.!.!.!.!.!.!.!.!.!.!.!.!.!.!.!.!.!.!.!.!.!.!.!.!.!.!.!.!.!.!.!.!.!.!.!.!.!.!.!.!.!.!.!.!.!.!.!.!.!.!.!.!.!.!.!.!.!.!.!.!.!.!.!.!.!.!.!.!.!.!.!.!.!.!.!.!.!.!.!.!.!.!.!.!.!.!.!.!.!.!.!.!.!.!.!.!.!.!.!.!.!.!.!.!.!.!.!.!.!.!.!.!.!.!.!.!.!.!.!.!.!.!.!.!.!.!.!.!.!.!.!.!.!.!.!.!.!.!.!.!.!.!.!.!.!.!.!.!.!.!.!.!.!.!.!.!.!.!.!.!.!.!.!.!.!.!.!.!.!.!.!.!.!.!.!.!.!.!.!.!.!.!.!.!.!.!.!.!.!.!.!.!.!.!.!.!.!.!.!.!.!.!.!.!.!.!.!.!.!.!.!.!.!.!.!.!.!.!.!.!.!.!.!.!.!.!.!.!.!.!.!.!.!.!.!.!.!.!.!.!.!.!.!.!.!.!.!.!.!.!.!.!.!.!.!.!.!.!.!.!.!.!.!.!.!.!.!.!.!.!.!.!.!.!.!.!.!.!.!.!.!.!.!.!.!.!.!.!.!.!.!.!.!.!.!.!.!.!.!.!.!.!.!.!.!.!.!.!.!.!.!.!.!.!.!.!.!.!.!.!.!.!.!.!.!.!.!.!.!.!.!.!.!.!.!.!.!.!.!.!.!.!.!.",
"!.!.!.!.!.!.!.!.!.!.!.!.!.!.!.!.!.!.!.!.!.!.!.!.!.!.!.!.!.!.!.!.!.!.!.!.!.!.!.!.!.!.!.!.!.!.!.!.!.!.!.!.!.!.!.!.!.!.!.!.!.!.!.!.!.!.!.!.!.!.!.!.!.!.!.!.!.!.!.!.!.!.!.!.!.!.!.!.!.!.!.!.!.!.!.!.!.!.!.!.!.!.!.!.!.!.!.!.!.!.!.!.!.!.!.!.!.!.!.!.!.!.!.!.!.!.!.!.!.!.!.!.!.!.!.!.!.!.!.!.!.!.!.!.!.!.!.!.!.!.!.!.!.!.!.!.!.!.!.!.!.!.!.!.!.!.!.!.!.!.!.!.!.!.!.!.!.!.!.!.!.!.!.!.!.!.!.!.!.!.!.!.!.!.!.!.!.!.!.!.!.!.!.!.!.!.!.!.!.!.!.!.!.!.!.!.!.!.!.!.!.!.!.!.!.!.!.!.!.!.!.!.!.!.!.!.!.!.!.!.!.!.!.!.!.!.!.!.!.!.!.!.!.!.!.!.!.!.!.!.!.!.!.!.!.!.!.!.!.!.!.!.!.!.!.!.!.!.!.!.!.!.!.!.!.!.!.!.!.!.!.!.!.!.!.!.!.!.!.!.!.!.!.!.!.!.!.!.!.!.!.!.!.!.!.!.!.!.!.!.!.!.!.!.!.!.!.!.!.!.!.!.!.!.!.!.!.!.!.!.!.!.!.!.!.!.!.!.!.!.!.!.!.!.!.!.!.!.!.!.!.!.!.!.!.!.!.!.!.!.!.!.!.!.!.!.!.!.!.!.!.!.!.!.!.!.!.!.!.!.!.!.!.!.!.!.!.!.!.!.!.!.!.!.!.!.!.!.!.!.!.!.!.!.!.!.!.!.!.!.!.!.!.!.!.!.!.!.!.!.!.!.!.!.!.!.!.!.!.!.!.!.!.!.!.!.!.!.!.!.!.!.!.!.!.!.!.!.!.!.!.!.!.!.!.!.!.!.!.!.!.!.!.!.!.!.!.!.!.!.!.!.!.!.!.!.!.!.!.!.!.!.!.!.!.!.!.!.!.!.!.!.!.!.!.!.!.!.!.!.!.!.!.!.!.!.!.!.!.!.!.!.!.!.!.!.!.!.!.!.!.!.!.!.!.!.!.!.!.!.!.!.!.!.!.!.!.!.!.!.!.!.!.!.!.!.!.!.!.!.!.!.!.!.!.!.!.!.!.!.!.!.!.!.!.!.!.!.!.!.!.!.!.",
"!.!.!.!.!.!.!.!.!.!.!.!.!.!.!.!.!.!.!.!.!.!.!.!.!.!.!.!.!.!.!.!.!.!.!.!.!.!.!.!.!.!.!.!.!.!.!.!.!.!.!.!.!.!.!.!.!.!.!.!.!.!.!.!.!.!.!.!.!.!.!.!.!.!.!.!.!.!.!.!.!.!.!.!.!.!.!.!.!.!.!.!.!.!.!.!.!.!.!.!.!.!.!.!.!.!.!.!.!.!.!.!.!.!.!.!.!.!.!.!.!.!.!.!.!.!.!.!.!.!.!.!.!.!.!.!.!.!.!.!.!.!.!.!.!.!.!.!.!.!.!.!.!.!.!.!.!.!.!.!.!.!.!.!.!.!.!.!.!.!.!.!.!.!.!.!.!.!.!.!.!.!.!.!.!.!.!.!.!.!.!.!.!.!.!.!.!.!.!.!.!.!.!.!.!.!.!.!.!.!.!.!.!.!.!.!.!.!.!.!.!.!.!.!.!.!.!.!.!.!.!.!.!.!.!.!.!.!.!.!.!.!.!.!.!.!.!.!.!.!.!.!.!.!.!.!.!.!.!.!.!.!.!.!.!.!.!.!.!.!.!.!.!.!.!.!.!.!.!.!.!.!.!.!.!.!.!.!.!.!.!.!.!.!.!.!.!.!.!.!.!.!.!.!.!.!.!.!.!.!.!.!.!.!.!.!.!.!.!.!.!.!.!.!.!.!.!.!.!.!.!.!.!.!.!.!.!.!.!.!.!.!.!.!.!.!.!.!.!.!.!.!.!.!.!.!.!.!.!.!.!.!.!.!.!.!.!.!.!.!.!.!.!.!.!.!.!.!.!.!.!.!.!.!.!.!.!.!.!.!.!.!.!.!.!.!.!.!.!.!.!.!.!.!.!.!.!.!.!.!.!.!.!.!.!.!.!.!.!.!.!.!.!.!.!.!.!.!.!.!.!.!.!.!.!.!.!.!.!.!.!.!.!.!.!.!.!.!.!.!.!.!.!.!.!.!.!.!.!.!.!.!.!.!.!.!.!.!.!.!.!.!.!.!.!.!.!.!.!.!.!.!.!.!.!.!.!.!.!.!.!.!.!.!.!.!.!.!.!.!.!.!.!.!.!.!.!.!.!.!.!.!.!.!.!.!.!.!.!.!.!.!.!.!.!.!.!.!.!.!.!.!.!.!.!.!.!.!.!.!.!.!.!.!.!.!.!.!.!.!.!.!.!.!.!.!.!.!.!.!.!.!.!.!.!.!.!.!.!.!.!.!.!.!.!.!.!.!.!.!.!.!.!.",
"!.!.!.!.!.!.!.!.!.!.!.!.!.!.!.!.!.!.!.!.!.!.!.!.!.!.!.!.!.!.!.!.!.!.!.!.!.!.!.!.!.!.!.!.!.!.!.!.!.!.!.!.!.!.!.!.!.!.!.!.!.!.!.!.!.!.!.!.!.!.!.!.!.!.!.!.!.!.!.!.!.!.!.!.!.!.!.!.!.!.!.!.!.!.!.!.!.!.!.!.!.!.!.!.!.!.!.!.!.!.!.!.!.!.!.!.!.!.!.!.!.!.!.!.!.!.!.!.!.!.!.!.!.!.!.!.!.!.!.!.!.!.!.!.!.!.!.!.!.!.!.!.!.!.!.!.!.!.!.!.!.!.!.!.!.!.!.!.!.!.!.!.!.!.!.!.!.!.!.!.!.!.!.!.!.!.!.!.!.!.!.!.!.!.!.!.!.!.!.!.!.!.!.!.!.!.!.!.!.!.!.!.!.!.!.!.!.!.!.!.!.!.!.!.!.!.!.!.!.!.!.!.!.!.!.!.!.!.!.!.!.!.!.!.!.!.!.!.!.!.!.!.!.!.!.!.!.!.!.!.!.!.!.!.!.!.!.!.!.!.!.!.!.!.!.!.!.!.!.!.!.!.!.!.!.!.!.!.!.!.!.!.!.!.!.!.!.!.!.!.!.!.!.!.!.!.!.!.!.!.!.!.!.!.!.!.!.!.!.!.!.!.!.!.!.!.!.!.!.!.!.!.!.!.!.!.!.!.!.!.!.!.!.!.!.!.!.!.!.!.!.!.!.!.!.!.!.!.!.!.!.!.!.!.!.!.!.!.!.!.!.!.!.!.!.!.!.!.!.!.!.!.!.!.!.!.!.!.!.!.!.!.!.!.!.!.!.!.!.!.!.!.!.!.!.!.!.!.!.!.!.!.!.!.!.!.!.!.!.!.!.!.!.!.!.!.!.!.!.!.!.!.!.!.!.!.!.!.!.!.!.!.!.!.!.!.!.!.!.!.!.!.!.!.!.!.!.!.!.!.!.!.!.!.!.!.!.!.!.!.!.!.!.!.!.!.!.!.!.!.!.!.!.!.!.!.!.!.!.!.!.!.!.!.!.!.!.!.!.!.!.!.!.!.!.!.!.!.!.!.!.!.!.!.!.!.!.!.!.!.!.!.!.!.!.!.!.!.!.!.!.!.!.!.!.!.!.!.!.!.!.!.!.!.!.!.!.!.!.!.!.!.!.!.!.!.!.!.!.!.!.!.!.!.!.!.!.!.!.!.!.!.!.!.!.!.!.!.!.!.!.!.!.",
"!.!.!.!.!.!.!.!.!.!.!.!.!.!.!.!.!.!.!.!.!.!.!.!.!.!.!.!.!.!.!.!.!.!.!.!.!.!.!.!.!.!.!.!.!.!.!.!.!.!.!.!.!.!.!.!.!.!.!.!.!.!.!.!.!.!.!.!.!.!.!.!.!.!.!.!.!.!.!.!.!.!.!.!.!.!.!.!.!.!.!.!.!.!.!.!.!.!.!.!.!.!.!.!.!.!.!.!.!.!.!.!.!.!.!.!.!.!.!.!.!.!.!.!.!.!.!.!.!.!.!.!.!.!.!.!.!.!.!.!.!.!.!.!.!.!.!.!.!.!.!.!.!.!.!.!.!.!.!.!.!.!.!.!.!.!.!.!.!.!.!.!.!.!.!.!.!.!.!.!.!.!.!.!.!.!.!.!.!.!.!.!.!.!.!.!.!.!.!.!.!.!.!.!.!.!.!.!.!.!.!.!.!.!.!.!.!.!.!.!.!.!.!.!.!.!.!.!.!.!.!.!.!.!.!.!.!.!.!.!.!.!.!.!.!.!.!.!.!.!.!.!.!.!.!.!.!.!.!.!.!.!.!.!.!.!.!.!.!.!.!.!.!.!.!.!.!.!.!.!.!.!.!.!.!.!.!.!.!.!.!.!.!.!.!.!.!.!.!.!.!.!.!.!.!.!.!.!.!.!.!.!.!.!.!.!.!.!.!.!.!.!.!.!.!.!.!.!.!.!.!.!.!.!.!.!.!.!.!.!.!.!.!.!.!.!.!.!.!.!.!.!.!.!.!.!.!.!.!.!.!.!.!.!.!.!.!.!.!.!.!.!.!.!.!.!.!.!.!.!.!.!.!.!.!.!.!.!.!.!.!.!.!.!.!.!.!.!.!.!.!.!.!.!.!.!.!.!.!.!.!.!.!.!.!.!.!.!.!.!.!.!.!.!.!.!.!.!.!.!.!.!.!.!.!.!.!.!.!.!.!.!.!.!.!.!.!.!.!.!.!.!.!.!.!.!.!.!.!.!.!.!.!.!.!.!.!.!.!.!.!.!.!.!.!.!.!.!.!.!.!.!.!.!.!.!.!.!.!.!.!.!.!.!.!.!.!.!.!.!.!.!.!.!.!.!.!.!.!.!.!.!.!.!.!.!.!.!.!.!.!.!.!.!.!.!.!.!.!.!.!.!.!.!.!.!.!.!.!.!.!.!.!.!.!.!.!.!.!.!.!.!.!.!.!.!.!.!.!.!.!.!.!.!.!.!.!.!.!.!.!.!.!.!.!.!.!.!.!.!.!.!.!.",
"!.!.!.!.!.!.!.!.!.!.!.!.!.!.!.!.!.!.!.!.!.!.!.!.!.!.!.!.!.!.!.!.!.!.!.!.!.!.!.!.!.!.!.!.!.!.!.!.!.!.!.!.!.!.!.!.!.!.!.!.!.!.!.!.!.!.!.!.!.!.!.!.!.!.!.!.!.!.!.!.!.!.!.!.!.!.!.!.!.!.!.!.!.!.!.!.!.!.!.!.!.!.!.!.!.!.!.!.!.!.!.!.!.!.!.!.!.!.!.!.!.!.!.!.!.!.!.!.!.!.!.!.!.!.!.!.!.!.!.!.!.!.!.!.!.!.!.!.!.!.!.!.!.!.!.!.!.!.!.!.!.!.!.!.!.!.!.!.!.!.!.!.!.!.!.!.!.!.!.!.!.!.!.!.!.!.!.!.!.!.!.!.!.!.!.!.!.!.!.!.!.!.!.!.!.!.!.!.!.!.!.!.!.!.!.!.!.!.!.!.!.!.!.!.!.!.!.!.!.!.!.!.!.!.!.!.!.!.!.!.!.!.!.!.!.!.!.!.!.!.!.!.!.!.!.!.!.!.!.!.!.!.!.!.!.!.!.!.!.!.!.!.!.!.!.!.!.!.!.!.!.!.!.!.!.!.!.!.!.!.!.!.!.!.!.!.!.!.!.!.!.!.!.!.!.!.!.!.!.!.!.!.!.!.!.!.!.!.!.!.!.!.!.!.!.!.!.!.!.!.!.!.!.!.!.!.!.!.!.!.!.!.!.!.!.!.!.!.!.!.!.!.!.!.!.!.!.!.!.!.!.!.!.!.!.!.!.!.!.!.!.!.!.!.!.!.!.!.!.!.!.!.!.!.!.!.!.!.!.!.!.!.!.!.!.!.!.!.!.!.!.!.!.!.!.!.!.!.!.!.!.!.!.!.!.!.!.!.!.!.!.!.!.!.!.!.!.!.!.!.!.!.!.!.!.!.!.!.!.!.!.!.!.!.!.!.!.!.!.!.!.!.!.!.!.!.!.!.!.!.!.!.!.!.!.!.!.!.!.!.!.!.!.!.!.!.!.!.!.!.!.!.!.!.!.!.!.!.!.!.!.!.!.!.!.!.!.!.!.!.!.!.!.!.!.!.!.!.!.!.!.!.!.!.!.!.!.!.!.!.!.!.!.!.!.!.!.!.!.!.!.!.!.!.!.!.!.!.!.!.!.!.!.!.!.!.!.!.!.!.!.!.!.!.!.!.!.!.!.!.!.!.!.!.!.!.!.!.!.!.!.!.!.!.!.!.!.!.!.!.!.!.!.",
"!.!.!.!.!.!.!.!.!.!.!.!.!.!.!.!.!.!.!.!.!.!.!.!.!.!.!.!.!.!.!.!.!.!.!.!.!.!.!.!.!.!.!.!.!.!.!.!.!.!.!.!.!.!.!.!.!.!.!.!.!.!.!.!.!.!.!.!.!.!.!.!.!.!.!.!.!.!.!.!.!.!.!.!.!.!.!.!.!.!.!.!.!.!.!.!.!.!.!.!.!.!.!.!.!.!.!.!.!.!.!.!.!.!.!.!.!.!.!.!.!.!.!.!.!.!.!.!.!.!.!.!.!.!.!.!.!.!.!.!.!.!.!.!.!.!.!.!.!.!.!.!.!.!.!.!.!.!.!.!.!.!.!.!.!.!.!.!.!.!.!.!.!.!.!.!.!.!.!.!.!.!.!.!.!.!.!.!.!.!.!.!.!.!.!.!.!.!.!.!.!.!.!.!.!.!.!.!.!.!.!.!.!.!.!.!.!.!.!.!.!.!.!.!.!.!.!.!.!.!.!.!.!.!.!.!.!.!.!.!.!.!.!.!.!.!.!.!.!.!.!.!.!.!.!.!.!.!.!.!.!.!.!.!.!.!.!.!.!.!.!.!.!.!.!.!.!.!.!.!.!.!.!.!.!.!.!.!.!.!.!.!.!.!.!.!.!.!.!.!.!.!.!.!.!.!.!.!.!.!.!.!.!.!.!.!.!.!.!.!.!.!.!.!.!.!.!.!.!.!.!.!.!.!.!.!.!.!.!.!.!.!.!.!.!.!.!.!.!.!.!.!.!.!.!.!.!.!.!.!.!.!.!.!.!.!.!.!.!.!.!.!.!.!.!.!.!.!.!.!.!.!.!.!.!.!.!.!.!.!.!.!.!.!.!.!.!.!.!.!.!.!.!.!.!.!.!.!.!.!.!.!.!.!.!.!.!.!.!.!.!.!.!.!.!.!.!.!.!.!.!.!.!.!.!.!.!.!.!.!.!.!.!.!.!.!.!.!.!.!.!.!.!.!.!.!.!.!.!.!.!.!.!.!.!.!.!.!.!.!.!.!.!.!.!.!.!.!.!.!.!.!.!.!.!.!.!.!.!.!.!.!.!.!.!.!.!.!.!.!.!.!.!.!.!.!.!.!.!.!.!.!.!.!.!.!.!.!.!.!.!.!.!.!.!.!.!.!.!.!.!.!.!.!.!.!.!.!.!.!.!.!.!.!.!.!.!.!.!.!.!.!.!.!.!.!.!.!.!.!.!.!.!.!.!.!.!.!.!.!.!.!.!.!.!.!.!.!.!.!.!.!.!.",
"!.!.!.!.!.!.!.!.!.!.!.!.!.!.!.!.!.!.!.!.!.!.!.!.!.!.!.!.!.!.!.!.!.!.!.!.!.!.!.!.!.!.!.!.!.!.!.!.!.!.!.!.!.!.!.!.!.!.!.!.!.!.!.!.!.!.!.!.!.!.!.!.!.!.!.!.!.!.!.!.!.!.!.!.!.!.!.!.!.!.!.!.!.!.!.!.!.!.!.!.!.!.!.!.!.!.!.!.!.!.!.!.!.!.!.!.!.!.!.!.!.!.!.!.!.!.!.!.!.!.!.!.!.!.!.!.!.!.!.!.!.!.!.!.!.!.!.!.!.!.!.!.!.!.!.!.!.!.!.!.!.!.!.!.!.!.!.!.!.!.!.!.!.!.!.!.!.!.!.!.!.!.!.!.!.!.!.!.!.!.!.!.!.!.!.!.!.!.!.!.!.!.!.!.!.!.!.!.!.!.!.!.!.!.!.!.!.!.!.!.!.!.!.!.!.!.!.!.!.!.!.!.!.!.!.!.!.!.!.!.!.!.!.!.!.!.!.!.!.!.!.!.!.!.!.!.!.!.!.!.!.!.!.!.!.!.!.!.!.!.!.!.!.!.!.!.!.!.!.!.!.!.!.!.!.!.!.!.!.!.!.!.!.!.!.!.!.!.!.!.!.!.!.!.!.!.!.!.!.!.!.!.!.!.!.!.!.!.!.!.!.!.!.!.!.!.!.!.!.!.!.!.!.!.!.!.!.!.!.!.!.!.!.!.!.!.!.!.!.!.!.!.!.!.!.!.!.!.!.!.!.!.!.!.!.!.!.!.!.!.!.!.!.!.!.!.!.!.!.!.!.!.!.!.!.!.!.!.!.!.!.!.!.!.!.!.!.!.!.!.!.!.!.!.!.!.!.!.!.!.!.!.!.!.!.!.!.!.!.!.!.!.!.!.!.!.!.!.!.!.!.!.!.!.!.!.!.!.!.!.!.!.!.!.!.!.!.!.!.!.!.!.!.!.!.!.!.!.!.!.!.!.!.!.!.!.!.!.!.!.!.!.!.!.!.!.!.!.!.!.!.!.!.!.!.!.!.!.!.!.!.!.!.!.!.!.!.!.!.!.!.!.!.!.!.!.!.!.!.!.!.!.!.!.!.!.!.!.!.!.!.!.!.!.!.!.!.!.!.!.!.!.!.!.!.!.!.!.!.!.!.!.!.!.!.!.!.!.!.!.!.!.!.!.!.!.!.!.!.!.!.!.!.!.!.!.!.!.!.!.!.!.!.!.!.!.!.!.!.!.!.!.!.",
"!.!.!.!.!.!.!.!.!.!.!.!.!.!.!.!.!.!.!.!.!.!.!.!.!.!.!.!.!.!.!.!.!.!.!.!.!.!.!.!.!.!.!.!.!.!.!.!.!.!.!.!.!.!.!.!.!.!.!.!.!.!.!.!.!.!.!.!.!.!.!.!.!.!.!.!.!.!.!.!.!.!.!.!.!.!.!.!.!.!.!.!.!.!.!.!.!.!.!.!.!.!.!.!.!.!.!.!.!.!.!.!.!.!.!.!.!.!.!.!.!.!.!.!.!.!.!.!.!.!.!.!.!.!.!.!.!.!.!.!.!.!.!.!.!.!.!.!.!.!.!.!.!.!.!.!.!.!.!.!.!.!.!.!.!.!.!.!.!.!.!.!.!.!.!.!.!.!.!.!.!.!.!.!.!.!.!.!.!.!.!.!.!.!.!.!.!.!.!.!.!.!.!.!.!.!.!.!.!.!.!.!.!.!.!.!.!.!.!.!.!.!.!.!.!.!.!.!.!.!.!.!.!.!.!.!.!.!.!.!.!.!.!.!.!.!.!.!.!.!.!.!.!.!.!.!.!.!.!.!.!.!.!.!.!.!.!.!.!.!.!.!.!.!.!.!.!.!.!.!.!.!.!.!.!.!.!.!.!.!.!.!.!.!.!.!.!.!.!.!.!.!.!.!.!.!.!.!.!.!.!.!.!.!.!.!.!.!.!.!.!.!.!.!.!.!.!.!.!.!.!.!.!.!.!.!.!.!.!.!.!.!.!.!.!.!.!.!.!.!.!.!.!.!.!.!.!.!.!.!.!.!.!.!.!.!.!.!.!.!.!.!.!.!.!.!.!.!.!.!.!.!.!.!.!.!.!.!.!.!.!.!.!.!.!.!.!.!.!.!.!.!.!.!.!.!.!.!.!.!.!.!.!.!.!.!.!.!.!.!.!.!.!.!.!.!.!.!.!.!.!.!.!.!.!.!.!.!.!.!.!.!.!.!.!.!.!.!.!.!.!.!.!.!.!.!.!.!.!.!.!.!.!.!.!.!.!.!.!.!.!.!.!.!.!.!.!.!.!.!.!.!.!.!.!.!.!.!.!.!.!.!.!.!.!.!.!.!.!.!.!.!.!.!.!.!.!.!.!.!.!.!.!.!.!.!.!.!.!.!.!.!.!.!.!.!.!.!.!.!.!.!.!.!.!.!.!.!.!.!.!.!.!.!.!.!.!.!.!.!.!.!.!.!.!.!.!.!.!.!.!.!.!.!.!.!.!.!.!.!.!.!.!.!.!.!.!.!.!.!.!.!.!.",
"!.!.!.!.!.!.!.!.!.!.!.!.!.!.!.!.!.!.!.!.!.!.!.!.!.!.!.!.!.!.!.!.!.!.!.!.!.!.!.!.!.!.!.!.!.!.!.!.!.!.!.!.!.!.!.!.!.!.!.!.!.!.!.!.!.!.!.!.!.!.!.!.!.!.!.!.!.!.!.!.!.!.!.!.!.!.!.!.!.!.!.!.!.!.!.!.!.!.!.!.!.!.!.!.!.!.!.!.!.!.!.!.!.!.!.!.!.!.!.!.!.!.!.!.!.!.!.!.!.!.!.!.!.!.!.!.!.!.!.!.!.!.!.!.!.!.!.!.!.!.!.!.!.!.!.!.!.!.!.!.!.!.!.!.!.!.!.!.!.!.!.!.!.!.!.!.!.!.!.!.!.!.!.!.!.!.!.!.!.!.!.!.!.!.!.!.!.!.!.!.!.!.!.!.!.!.!.!.!.!.!.!.!.!.!.!.!.!.!.!.!.!.!.!.!.!.!.!.!.!.!.!.!.!.!.!.!.!.!.!.!.!.!.!.!.!.!.!.!.!.!.!.!.!.!.!.!.!.!.!.!.!.!.!.!.!.!.!.!.!.!.!.!.!.!.!.!.!.!.!.!.!.!.!.!.!.!.!.!.!.!.!.!.!.!.!.!.!.!.!.!.!.!.!.!.!.!.!.!.!.!.!.!.!.!.!.!.!.!.!.!.!.!.!.!.!.!.!.!.!.!.!.!.!.!.!.!.!.!.!.!.!.!.!.!.!.!.!.!.!.!.!.!.!.!.!.!.!.!.!.!.!.!.!.!.!.!.!.!.!.!.!.!.!.!.!.!.!.!.!.!.!.!.!.!.!.!.!.!.!.!.!.!.!.!.!.!.!.!.!.!.!.!.!.!.!.!.!.!.!.!.!.!.!.!.!.!.!.!.!.!.!.!.!.!.!.!.!.!.!.!.!.!.!.!.!.!.!.!.!.!.!.!.!.!.!.!.!.!.!.!.!.!.!.!.!.!.!.!.!.!.!.!.!.!.!.!.!.!.!.!.!.!.!.!.!.!.!.!.!.!.!.!.!.!.!.!.!.!.!.!.!.!.!.!.!.!.!.!.!.!.!.!.!.!.!.!.!.!.!.!.!.!.!.!.!.!.!.!.!.!.!.!.!.!.!.!.!.!.!.!.!.!.!.!.!.!.!.!.!.!.!.!.!.!.!.!.!.!.!.!.!.!.!.!.!.!.!.!.!.!.!.!.!.!.!.!.!.!.!.!.!.!.!.!.!.!.!.!.!.!.!.!.",
"!.!.!.!.!.!.!.!.!.!.!.!.!.!.!.!.!.!.!.!.!.!.!.!.!.!.!.!.!.!.!.!.!.!.!.!.!.!.!.!.!.!.!.!.!.!.!.!.!.!.!.!.!.!.!.!.!.!.!.!.!.!.!.!.!.!.!.!.!.!.!.!.!.!.!.!.!.!.!.!.!.!.!.!.!.!.!.!.!.!.!.!.!.!.!.!.!.!.!.!.!.!.!.!.!.!.!.!.!.!.!.!.!.!.!.!.!.!.!.!.!.!.!.!.!.!.!.!.!.!.!.!.!.!.!.!.!.!.!.!.!.!.!.!.!.!.!.!.!.!.!.!.!.!.!.!.!.!.!.!.!.!.!.!.!.!.!.!.!.!.!.!.!.!.!.!.!.!.!.!.!.!.!.!.!.!.!.!.!.!.!.!.!.!.!.!.!.!.!.!.!.!.!.!.!.!.!.!.!.!.!.!.!.!.!.!.!.!.!.!.!.!.!.!.!.!.!.!.!.!.!.!.!.!.!.!.!.!.!.!.!.!.!.!.!.!.!.!.!.!.!.!.!.!.!.!.!.!.!.!.!.!.!.!.!.!.!.!.!.!.!.!.!.!.!.!.!.!.!.!.!.!.!.!.!.!.!.!.!.!.!.!.!.!.!.!.!.!.!.!.!.!.!.!.!.!.!.!.!.!.!.!.!.!.!.!.!.!.!.!.!.!.!.!.!.!.!.!.!.!.!.!.!.!.!.!.!.!.!.!.!.!.!.!.!.!.!.!.!.!.!.!.!.!.!.!.!.!.!.!.!.!.!.!.!.!.!.!.!.!.!.!.!.!.!.!.!.!.!.!.!.!.!.!.!.!.!.!.!.!.!.!.!.!.!.!.!.!.!.!.!.!.!.!.!.!.!.!.!.!.!.!.!.!.!.!.!.!.!.!.!.!.!.!.!.!.!.!.!.!.!.!.!.!.!.!.!.!.!.!.!.!.!.!.!.!.!.!.!.!.!.!.!.!.!.!.!.!.!.!.!.!.!.!.!.!.!.!.!.!.!.!.!.!.!.!.!.!.!.!.!.!.!.!.!.!.!.!.!.!.!.!.!.!.!.!.!.!.!.!.!.!.!.!.!.!.!.!.!.!.!.!.!.!.!.!.!.!.!.!.!.!.!.!.!.!.!.!.!.!.!.!.!.!.!.!.!.!.!.!.!.!.!.!.!.!.!.!.!.!.!.!.!.!.!.!.!.!.!.!.!.!.!.!.!.!.!.!.!.!.!.!.!.!.!.!.!.!.!.!.!.!.!.",
"!.!.!.!.!.!.!.!.!.!.!.!.!.!.!.!.!.!.!.!.!.!.!.!.!.!.!.!.!.!.!.!.!.!.!.!.!.!.!.!.!.!.!.!.!.!.!.!.!.!.!.!.!.!.!.!.!.!.!.!.!.!.!.!.!.!.!.!.!.!.!.!.!.!.!.!.!.!.!.!.!.!.!.!.!.!.!.!.!.!.!.!.!.!.!.!.!.!.!.!.!.!.!.!.!.!.!.!.!.!.!.!.!.!.!.!.!.!.!.!.!.!.!.!.!.!.!.!.!.!.!.!.!.!.!.!.!.!.!.!.!.!.!.!.!.!.!.!.!.!.!.!.!.!.!.!.!.!.!.!.!.!.!.!.!.!.!.!.!.!.!.!.!.!.!.!.!.!.!.!.!.!.!.!.!.!.!.!.!.!.!.!.!.!.!.!.!.!.!.!.!.!.!.!.!.!.!.!.!.!.!.!.!.!.!.!.!.!.!.!.!.!.!.!.!.!.!.!.!.!.!.!.!.!.!.!.!.!.!.!.!.!.!.!.!.!.!.!.!.!.!.!.!.!.!.!.!.!.!.!.!.!.!.!.!.!.!.!.!.!.!.!.!.!.!.!.!.!.!.!.!.!.!.!.!.!.!.!.!.!.!.!.!.!.!.!.!.!.!.!.!.!.!.!.!.!.!.!.!.!.!.!.!.!.!.!.!.!.!.!.!.!.!.!.!.!.!.!.!.!.!.!.!.!.!.!.!.!.!.!.!.!.!.!.!.!.!.!.!.!.!.!.!.!.!.!.!.!.!.!.!.!.!.!.!.!.!.!.!.!.!.!.!.!.!.!.!.!.!.!.!.!.!.!.!.!.!.!.!.!.!.!.!.!.!.!.!.!.!.!.!.!.!.!.!.!.!.!.!.!.!.!.!.!.!.!.!.!.!.!.!.!.!.!.!.!.!.!.!.!.!.!.!.!.!.!.!.!.!.!.!.!.!.!.!.!.!.!.!.!.!.!.!.!.!.!.!.!.!.!.!.!.!.!.!.!.!.!.!.!.!.!.!.!.!.!.!.!.!.!.!.!.!.!.!.!.!.!.!.!.!.!.!.!.!.!.!.!.!.!.!.!.!.!.!.!.!.!.!.!.!.!.!.!.!.!.!.!.!.!.!.!.!.!.!.!.!.!.!.!.!.!.!.!.!.!.!.!.!.!.!.!.!.!.!.!.!.!.!.!.!.!.!.!.!.!.!.!.!.!.!.!.!.!.!.!.!.!.!.!.!.!.!.!.!.!.!.!.!.!.!.!.!.",
"!.!.!.!.!.!.!.!.!.!.!.!.!.!.!.!.!.!.!.!.!.!.!.!.!.!.!.!.!.!.!.!.!.!.!.!.!.!.!.!.!.!.!.!.!.!.!.!.!.!.!.!.!.!.!.!.!.!.!.!.!.!.!.!.!.!.!.!.!.!.!.!.!.!.!.!.!.!.!.!.!.!.!.!.!.!.!.!.!.!.!.!.!.!.!.!.!.!.!.!.!.!.!.!.!.!.!.!.!.!.!.!.!.!.!.!.!.!.!.!.!.!.!.!.!.!.!.!.!.!.!.!.!.!.!.!.!.!.!.!.!.!.!.!.!.!.!.!.!.!.!.!.!.!.!.!.!.!.!.!.!.!.!.!.!.!.!.!.!.!.!.!.!.!.!.!.!.!.!.!.!.!.!.!.!.!.!.!.!.!.!.!.!.!.!.!.!.!.!.!.!.!.!.!.!.!.!.!.!.!.!.!.!.!.!.!.!.!.!.!.!.!.!.!.!.!.!.!.!.!.!.!.!.!.!.!.!.!.!.!.!.!.!.!.!.!.!.!.!.!.!.!.!.!.!.!.!.!.!.!.!.!.!.!.!.!.!.!.!.!.!.!.!.!.!.!.!.!.!.!.!.!.!.!.!.!.!.!.!.!.!.!.!.!.!.!.!.!.!.!.!.!.!.!.!.!.!.!.!.!.!.!.!.!.!.!.!.!.!.!.!.!.!.!.!.!.!.!.!.!.!.!.!.!.!.!.!.!.!.!.!.!.!.!.!.!.!.!.!.!.!.!.!.!.!.!.!.!.!.!.!.!.!.!.!.!.!.!.!.!.!.!.!.!.!.!.!.!.!.!.!.!.!.!.!.!.!.!.!.!.!.!.!.!.!.!.!.!.!.!.!.!.!.!.!.!.!.!.!.!.!.!.!.!.!.!.!.!.!.!.!.!.!.!.!.!.!.!.!.!.!.!.!.!.!.!.!.!.!.!.!.!.!.!.!.!.!.!.!.!.!.!.!.!.!.!.!.!.!.!.!.!.!.!.!.!.!.!.!.!.!.!.!.!.!.!.!.!.!.!.!.!.!.!.!.!.!.!.!.!.!.!.!.!.!.!.!.!.!.!.!.!.!.!.!.!.!.!.!.!.!.!.!.!.!.!.!.!.!.!.!.!.!.!.!.!.!.!.!.!.!.!.!.!.!.!.!.!.!.!.!.!.!.!.!.!.!.!.!.!.!.!.!.!.!.!.!.!.!.!.!.!.!.!.!.!.!.!.!.!.!.!.!.!.!.!.!.!.!.!.!.!.!.",
"!.!.!.!.!.!.!.!.!.!.!.!.!.!.!.!.!.!.!.!.!.!.!.!.!.!.!.!.!.!.!.!.!.!.!.!.!.!.!.!.!.!.!.!.!.!.!.!.!.!.!.!.!.!.!.!.!.!.!.!.!.!.!.!.!.!.!.!.!.!.!.!.!.!.!.!.!.!.!.!.!.!.!.!.!.!.!.!.!.!.!.!.!.!.!.!.!.!.!.!.!.!.!.!.!.!.!.!.!.!.!.!.!.!.!.!.!.!.!.!.!.!.!.!.!.!.!.!.!.!.!.!.!.!.!.!.!.!.!.!.!.!.!.!.!.!.!.!.!.!.!.!.!.!.!.!.!.!.!.!.!.!.!.!.!.!.!.!.!.!.!.!.!.!.!.!.!.!.!.!.!.!.!.!.!.!.!.!.!.!.!.!.!.!.!.!.!.!.!.!.!.!.!.!.!.!.!.!.!.!.!.!.!.!.!.!.!.!.!.!.!.!.!.!.!.!.!.!.!.!.!.!.!.!.!.!.!.!.!.!.!.!.!.!.!.!.!.!.!.!.!.!.!.!.!.!.!.!.!.!.!.!.!.!.!.!.!.!.!.!.!.!.!.!.!.!.!.!.!.!.!.!.!.!.!.!.!.!.!.!.!.!.!.!.!.!.!.!.!.!.!.!.!.!.!.!.!.!.!.!.!.!.!.!.!.!.!.!.!.!.!.!.!.!.!.!.!.!.!.!.!.!.!.!.!.!.!.!.!.!.!.!.!.!.!.!.!.!.!.!.!.!.!.!.!.!.!.!.!.!.!.!.!.!.!.!.!.!.!.!.!.!.!.!.!.!.!.!.!.!.!.!.!.!.!.!.!.!.!.!.!.!.!.!.!.!.!.!.!.!.!.!.!.!.!.!.!.!.!.!.!.!.!.!.!.!.!.!.!.!.!.!.!.!.!.!.!.!.!.!.!.!.!.!.!.!.!.!.!.!.!.!.!.!.!.!.!.!.!.!.!.!.!.!.!.!.!.!.!.!.!.!.!.!.!.!.!.!.!.!.!.!.!.!.!.!.!.!.!.!.!.!.!.!.!.!.!.!.!.!.!.!.!.!.!.!.!.!.!.!.!.!.!.!.!.!.!.!.!.!.!.!.!.!.!.!.!.!.!.!.!.!.!.!.!.!.!.!.!.!.!.!.!.!.!.!.!.!.!.!.!.!.!.!.!.!.!.!.!.!.!.!.!.!.!.!.!.!.!.!.!.!.!.!.!.!.!.!.!.!.!.!.!.!.!.!.!.!.!.!.!.!.!.",
"!.!.!.!.!.!.!.!.!.!.!.!.!.!.!.!.!.!.!.!.!.!.!.!.!.!.!.!.!.!.!.!.!.!.!.!.!.!.!.!.!.!.!.!.!.!.!.!.!.!.!.!.!.!.!.!.!.!.!.!.!.!.!.!.!.!.!.!.!.!.!.!.!.!.!.!.!.!.!.!.!.!.!.!.!.!.!.!.!.!.!.!.!.!.!.!.!.!.!.!.!.!.!.!.!.!.!.!.!.!.!.!.!.!.!.!.!.!.!.!.!.!.!.!.!.!.!.!.!.!.!.!.!.!.!.!.!.!.!.!.!.!.!.!.!.!.!.!.!.!.!.!.!.!.!.!.!.!.!.!.!.!.!.!.!.!.!.!.!.!.!.!.!.!.!.!.!.!.!.!.!.!.!.!.!.!.!.!.!.!.!.!.!.!.!.!.!.!.!.!.!.!.!.!.!.!.!.!.!.!.!.!.!.!.!.!.!.!.!.!.!.!.!.!.!.!.!.!.!.!.!.!.!.!.!.!.!.!.!.!.!.!.!.!.!.!.!.!.!.!.!.!.!.!.!.!.!.!.!.!.!.!.!.!.!.!.!.!.!.!.!.!.!.!.!.!.!.!.!.!.!.!.!.!.!.!.!.!.!.!.!.!.!.!.!.!.!.!.!.!.!.!.!.!.!.!.!.!.!.!.!.!.!.!.!.!.!.!.!.!.!.!.!.!.!.!.!.!.!.!.!.!.!.!.!.!.!.!.!.!.!.!.!.!.!.!.!.!.!.!.!.!.!.!.!.!.!.!.!.!.!.!.!.!.!.!.!.!.!.!.!.!.!.!.!.!.!.!.!.!.!.!.!.!.!.!.!.!.!.!.!.!.!.!.!.!.!.!.!.!.!.!.!.!.!.!.!.!.!.!.!.!.!.!.!.!.!.!.!.!.!.!.!.!.!.!.!.!.!.!.!.!.!.!.!.!.!.!.!.!.!.!.!.!.!.!.!.!.!.!.!.!.!.!.!.!.!.!.!.!.!.!.!.!.!.!.!.!.!.!.!.!.!.!.!.!.!.!.!.!.!.!.!.!.!.!.!.!.!.!.!.!.!.!.!.!.!.!.!.!.!.!.!.!.!.!.!.!.!.!.!.!.!.!.!.!.!.!.!.!.!.!.!.!.!.!.!.!.!.!.!.!.!.!.!.!.!.!.!.!.!.!.!.!.!.!.!.!.!.!.!.!.!.!.!.!.!.!.!.!.!.!.!.!.!.!.!.!.!.!.!.!.!.!.!.!.!.!.!.!.!.!.!.",
"!.!.!.!.!.!.!.!.!.!.!.!.!.!.!.!.!.!.!.!.!.!.!.!.!.!.!.!.!.!.!.!.!.!.!.!.!.!.!.!.!.!.!.!.!.!.!.!.!.!.!.!.!.!.!.!.!.!.!.!.!.!.!.!.!.!.!.!.!.!.!.!.!.!.!.!.!.!.!.!.!.!.!.!.!.!.!.!.!.!.!.!.!.!.!.!.!.!.!.!.!.!.!.!.!.!.!.!.!.!.!.!.!.!.!.!.!.!.!.!.!.!.!.!.!.!.!.!.!.!.!.!.!.!.!.!.!.!.!.!.!.!.!.!.!.!.!.!.!.!.!.!.!.!.!.!.!.!.!.!.!.!.!.!.!.!.!.!.!.!.!.!.!.!.!.!.!.!.!.!.!.!.!.!.!.!.!.!.!.!.!.!.!.!.!.!.!.!.!.!.!.!.!.!.!.!.!.!.!.!.!.!.!.!.!.!.!.!.!.!.!.!.!.!.!.!.!.!.!.!.!.!.!.!.!.!.!.!.!.!.!.!.!.!.!.!.!.!.!.!.!.!.!.!.!.!.!.!.!.!.!.!.!.!.!.!.!.!.!.!.!.!.!.!.!.!.!.!.!.!.!.!.!.!.!.!.!.!.!.!.!.!.!.!.!.!.!.!.!.!.!.!.!.!.!.!.!.!.!.!.!.!.!.!.!.!.!.!.!.!.!.!.!.!.!.!.!.!.!.!.!.!.!.!.!.!.!.!.!.!.!.!.!.!.!.!.!.!.!.!.!.!.!.!.!.!.!.!.!.!.!.!.!.!.!.!.!.!.!.!.!.!.!.!.!.!.!.!.!.!.!.!.!.!.!.!.!.!.!.!.!.!.!.!.!.!.!.!.!.!.!.!.!.!.!.!.!.!.!.!.!.!.!.!.!.!.!.!.!.!.!.!.!.!.!.!.!.!.!.!.!.!.!.!.!.!.!.!.!.!.!.!.!.!.!.!.!.!.!.!.!.!.!.!.!.!.!.!.!.!.!.!.!.!.!.!.!.!.!.!.!.!.!.!.!.!.!.!.!.!.!.!.!.!.!.!.!.!.!.!.!.!.!.!.!.!.!.!.!.!.!.!.!.!.!.!.!.!.!.!.!.!.!.!.!.!.!.!.!.!.!.!.!.!.!.!.!.!.!.!.!.!.!.!.!.!.!.!.!.!.!.!.!.!.!.!.!.!.!.!.!.!.!.!.!.!.!.!.!.!.!.!.!.!.!.!.!.!.!.!.!.!.!.!.!.!.!.!.!.!.!.!.!.",
"!.!.!.!.!.!.!.!.!.!.!.!.!.!.!.!.!.!.!.!.!.!.!.!.!.!.!.!.!.!.!.!.!.!.!.!.!.!.!.!.!.!.!.!.!.!.!.!.!.!.!.!.!.!.!.!.!.!.!.!.!.!.!.!.!.!.!.!.!.!.!.!.!.!.!.!.!.!.!.!.!.!.!.!.!.!.!.!.!.!.!.!.!.!.!.!.!.!.!.!.!.!.!.!.!.!.!.!.!.!.!.!.!.!.!.!.!.!.!.!.!.!.!.!.!.!.!.!.!.!.!.!.!.!.!.!.!.!.!.!.!.!.!.!.!.!.!.!.!.!.!.!.!.!.!.!.!.!.!.!.!.!.!.!.!.!.!.!.!.!.!.!.!.!.!.!.!.!.!.!.!.!.!.!.!.!.!.!.!.!.!.!.!.!.!.!.!.!.!.!.!.!.!.!.!.!.!.!.!.!.!.!.!.!.!.!.!.!.!.!.!.!.!.!.!.!.!.!.!.!.!.!.!.!.!.!.!.!.!.!.!.!.!.!.!.!.!.!.!.!.!.!.!.!.!.!.!.!.!.!.!.!.!.!.!.!.!.!.!.!.!.!.!.!.!.!.!.!.!.!.!.!.!.!.!.!.!.!.!.!.!.!.!.!.!.!.!.!.!.!.!.!.!.!.!.!.!.!.!.!.!.!.!.!.!.!.!.!.!.!.!.!.!.!.!.!.!.!.!.!.!.!.!.!.!.!.!.!.!.!.!.!.!.!.!.!.!.!.!.!.!.!.!.!.!.!.!.!.!.!.!.!.!.!.!.!.!.!.!.!.!.!.!.!.!.!.!.!.!.!.!.!.!.!.!.!.!.!.!.!.!.!.!.!.!.!.!.!.!.!.!.!.!.!.!.!.!.!.!.!.!.!.!.!.!.!.!.!.!.!.!.!.!.!.!.!.!.!.!.!.!.!.!.!.!.!.!.!.!.!.!.!.!.!.!.!.!.!.!.!.!.!.!.!.!.!.!.!.!.!.!.!.!.!.!.!.!.!.!.!.!.!.!.!.!.!.!.!.!.!.!.!.!.!.!.!.!.!.!.!.!.!.!.!.!.!.!.!.!.!.!.!.!.!.!.!.!.!.!.!.!.!.!.!.!.!.!.!.!.!.!.!.!.!.!.!.!.!.!.!.!.!.!.!.!.!.!.!.!.!.!.!.!.!.!.!.!.!.!.!.!.!.!.!.!.!.!.!.!.!.!.!.!.!.!.!.!.!.!.!.!.!.!.!.!.!.!.!.!.!.!.!.!.",
"!.!.!.!.!.!.!.!.!.!.!.!.!.!.!.!.!.!.!.!.!.!.!.!.!.!.!.!.!.!.!.!.!.!.!.!.!.!.!.!.!.!.!.!.!.!.!.!.!.!.!.!.!.!.!.!.!.!.!.!.!.!.!.!.!.!.!.!.!.!.!.!.!.!.!.!.!.!.!.!.!.!.!.!.!.!.!.!.!.!.!.!.!.!.!.!.!.!.!.!.!.!.!.!.!.!.!.!.!.!.!.!.!.!.!.!.!.!.!.!.!.!.!.!.!.!.!.!.!.!.!.!.!.!.!.!.!.!.!.!.!.!.!.!.!.!.!.!.!.!.!.!.!.!.!.!.!.!.!.!.!.!.!.!.!.!.!.!.!.!.!.!.!.!.!.!.!.!.!.!.!.!.!.!.!.!.!.!.!.!.!.!.!.!.!.!.!.!.!.!.!.!.!.!.!.!.!.!.!.!.!.!.!.!.!.!.!.!.!.!.!.!.!.!.!.!.!.!.!.!.!.!.!.!.!.!.!.!.!.!.!.!.!.!.!.!.!.!.!.!.!.!.!.!.!.!.!.!.!.!.!.!.!.!.!.!.!.!.!.!.!.!.!.!.!.!.!.!.!.!.!.!.!.!.!.!.!.!.!.!.!.!.!.!.!.!.!.!.!.!.!.!.!.!.!.!.!.!.!.!.!.!.!.!.!.!.!.!.!.!.!.!.!.!.!.!.!.!.!.!.!.!.!.!.!.!.!.!.!.!.!.!.!.!.!.!.!.!.!.!.!.!.!.!.!.!.!.!.!.!.!.!.!.!.!.!.!.!.!.!.!.!.!.!.!.!.!.!.!.!.!.!.!.!.!.!.!.!.!.!.!.!.!.!.!.!.!.!.!.!.!.!.!.!.!.!.!.!.!.!.!.!.!.!.!.!.!.!.!.!.!.!.!.!.!.!.!.!.!.!.!.!.!.!.!.!.!.!.!.!.!.!.!.!.!.!.!.!.!.!.!.!.!.!.!.!.!.!.!.!.!.!.!.!.!.!.!.!.!.!.!.!.!.!.!.!.!.!.!.!.!.!.!.!.!.!.!.!.!.!.!.!.!.!.!.!.!.!.!.!.!.!.!.!.!.!.!.!.!.!.!.!.!.!.!.!.!.!.!.!.!.!.!.!.!.!.!.!.!.!.!.!.!.!.!.!.!.!.!.!.!.!.!.!.!.!.!.!.!.!.!.!.!.!.!.!.!.!.!.!.!.!.!.!.!.!.!.!.!.!.!.!.!.!.!.!.!.!.!.!.!.!.!.",
"!.!.!.!.!.!.!.!.!.!.!.!.!.!.!.!.!.!.!.!.!.!.!.!.!.!.!.!.!.!.!.!.!.!.!.!.!.!.!.!.!.!.!.!.!.!.!.!.!.!.!.!.!.!.!.!.!.!.!.!.!.!.!.!.!.!.!.!.!.!.!.!.!.!.!.!.!.!.!.!.!.!.!.!.!.!.!.!.!.!.!.!.!.!.!.!.!.!.!.!.!.!.!.!.!.!.!.!.!.!.!.!.!.!.!.!.!.!.!.!.!.!.!.!.!.!.!.!.!.!.!.!.!.!.!.!.!.!.!.!.!.!.!.!.!.!.!.!.!.!.!.!.!.!.!.!.!.!.!.!.!.!.!.!.!.!.!.!.!.!.!.!.!.!.!.!.!.!.!.!.!.!.!.!.!.!.!.!.!.!.!.!.!.!.!.!.!.!.!.!.!.!.!.!.!.!.!.!.!.!.!.!.!.!.!.!.!.!.!.!.!.!.!.!.!.!.!.!.!.!.!.!.!.!.!.!.!.!.!.!.!.!.!.!.!.!.!.!.!.!.!.!.!.!.!.!.!.!.!.!.!.!.!.!.!.!.!.!.!.!.!.!.!.!.!.!.!.!.!.!.!.!.!.!.!.!.!.!.!.!.!.!.!.!.!.!.!.!.!.!.!.!.!.!.!.!.!.!.!.!.!.!.!.!.!.!.!.!.!.!.!.!.!.!.!.!.!.!.!.!.!.!.!.!.!.!.!.!.!.!.!.!.!.!.!.!.!.!.!.!.!.!.!.!.!.!.!.!.!.!.!.!.!.!.!.!.!.!.!.!.!.!.!.!.!.!.!.!.!.!.!.!.!.!.!.!.!.!.!.!.!.!.!.!.!.!.!.!.!.!.!.!.!.!.!.!.!.!.!.!.!.!.!.!.!.!.!.!.!.!.!.!.!.!.!.!.!.!.!.!.!.!.!.!.!.!.!.!.!.!.!.!.!.!.!.!.!.!.!.!.!.!.!.!.!.!.!.!.!.!.!.!.!.!.!.!.!.!.!.!.!.!.!.!.!.!.!.!.!.!.!.!.!.!.!.!.!.!.!.!.!.!.!.!.!.!.!.!.!.!.!.!.!.!.!.!.!.!.!.!.!.!.!.!.!.!.!.!.!.!.!.!.!.!.!.!.!.!.!.!.!.!.!.!.!.!.!.!.!.!.!.!.!.!.!.!.!.!.!.!.!.!.!.!.!.!.!.!.!.!.!.!.!.!.!.!.!.!.!.!.!.!.!.!.!.!.!.!.!.!.!.!.!.",
"!.!.!.!.!.!.!.!.!.!.!.!.!.!.!.!.!.!.!.!.!.!.!.!.!.!.!.!.!.!.!.!.!.!.!.!.!.!.!.!.!.!.!.!.!.!.!.!.!.!.!.!.!.!.!.!.!.!.!.!.!.!.!.!.!.!.!.!.!.!.!.!.!.!.!.!.!.!.!.!.!.!.!.!.!.!.!.!.!.!.!.!.!.!.!.!.!.!.!.!.!.!.!.!.!.!.!.!.!.!.!.!.!.!.!.!.!.!.!.!.!.!.!.!.!.!.!.!.!.!.!.!.!.!.!.!.!.!.!.!.!.!.!.!.!.!.!.!.!.!.!.!.!.!.!.!.!.!.!.!.!.!.!.!.!.!.!.!.!.!.!.!.!.!.!.!.!.!.!.!.!.!.!.!.!.!.!.!.!.!.!.!.!.!.!.!.!.!.!.!.!.!.!.!.!.!.!.!.!.!.!.!.!.!.!.!.!.!.!.!.!.!.!.!.!.!.!.!.!.!.!.!.!.!.!.!.!.!.!.!.!.!.!.!.!.!.!.!.!.!.!.!.!.!.!.!.!.!.!.!.!.!.!.!.!.!.!.!.!.!.!.!.!.!.!.!.!.!.!.!.!.!.!.!.!.!.!.!.!.!.!.!.!.!.!.!.!.!.!.!.!.!.!.!.!.!.!.!.!.!.!.!.!.!.!.!.!.!.!.!.!.!.!.!.!.!.!.!.!.!.!.!.!.!.!.!.!.!.!.!.!.!.!.!.!.!.!.!.!.!.!.!.!.!.!.!.!.!.!.!.!.!.!.!.!.!.!.!.!.!.!.!.!.!.!.!.!.!.!.!.!.!.!.!.!.!.!.!.!.!.!.!.!.!.!.!.!.!.!.!.!.!.!.!.!.!.!.!.!.!.!.!.!.!.!.!.!.!.!.!.!.!.!.!.!.!.!.!.!.!.!.!.!.!.!.!.!.!.!.!.!.!.!.!.!.!.!.!.!.!.!.!.!.!.!.!.!.!.!.!.!.!.!.!.!.!.!.!.!.!.!.!.!.!.!.!.!.!.!.!.!.!.!.!.!.!.!.!.!.!.!.!.!.!.!.!.!.!.!.!.!.!.!.!.!.!.!.!.!.!.!.!.!.!.!.!.!.!.!.!.!.!.!.!.!.!.!.!.!.!.!.!.!.!.!.!.!.!.!.!.!.!.!.!.!.!.!.!.!.!.!.!.!.!.!.!.!.!.!.!.!.!.!.!.!.!.!.!.!.!.!.!.!.!.!.!.!.!.!.!.!.!.!.",
"!.!.!.!.!.!.!.!.!.!.!.!.!.!.!.!.!.!.!.!.!.!.!.!.!.!.!.!.!.!.!.!.!.!.!.!.!.!.!.!.!.!.!.!.!.!.!.!.!.!.!.!.!.!.!.!.!.!.!.!.!.!.!.!.!.!.!.!.!.!.!.!.!.!.!.!.!.!.!.!.!.!.!.!.!.!.!.!.!.!.!.!.!.!.!.!.!.!.!.!.!.!.!.!.!.!.!.!.!.!.!.!.!.!.!.!.!.!.!.!.!.!.!.!.!.!.!.!.!.!.!.!.!.!.!.!.!.!.!.!.!.!.!.!.!.!.!.!.!.!.!.!.!.!.!.!.!.!.!.!.!.!.!.!.!.!.!.!.!.!.!.!.!.!.!.!.!.!.!.!.!.!.!.!.!.!.!.!.!.!.!.!.!.!.!.!.!.!.!.!.!.!.!.!.!.!.!.!.!.!.!.!.!.!.!.!.!.!.!.!.!.!.!.!.!.!.!.!.!.!.!.!.!.!.!.!.!.!.!.!.!.!.!.!.!.!.!.!.!.!.!.!.!.!.!.!.!.!.!.!.!.!.!.!.!.!.!.!.!.!.!.!.!.!.!.!.!.!.!.!.!.!.!.!.!.!.!.!.!.!.!.!.!.!.!.!.!.!.!.!.!.!.!.!.!.!.!.!.!.!.!.!.!.!.!.!.!.!.!.!.!.!.!.!.!.!.!.!.!.!.!.!.!.!.!.!.!.!.!.!.!.!.!.!.!.!.!.!.!.!.!.!.!.!.!.!.!.!.!.!.!.!.!.!.!.!.!.!.!.!.!.!.!.!.!.!.!.!.!.!.!.!.!.!.!.!.!.!.!.!.!.!.!.!.!.!.!.!.!.!.!.!.!.!.!.!.!.!.!.!.!.!.!.!.!.!.!.!.!.!.!.!.!.!.!.!.!.!.!.!.!.!.!.!.!.!.!.!.!.!.!.!.!.!.!.!.!.!.!.!.!.!.!.!.!.!.!.!.!.!.!.!.!.!.!.!.!.!.!.!.!.!.!.!.!.!.!.!.!.!.!.!.!.!.!.!.!.!.!.!.!.!.!.!.!.!.!.!.!.!.!.!.!.!.!.!.!.!.!.!.!.!.!.!.!.!.!.!.!.!.!.!.!.!.!.!.!.!.!.!.!.!.!.!.!.!.!.!.!.!.!.!.!.!.!.!.!.!.!.!.!.!.!.!.!.!.!.!.!.!.!.!.!.!.!.!.!.!.!.!.!.!.!.!.!.!.!.!.!.!.!.!.!.",
"!.!.!.!.!.!.!.!.!.!.!.!.!.!.!.!.!.!.!.!.!.!.!.!.!.!.!.!.!.!.!.!.!.!.!.!.!.!.!.!.!.!.!.!.!.!.!.!.!.!.!.!.!.!.!.!.!.!.!.!.!.!.!.!.!.!.!.!.!.!.!.!.!.!.!.!.!.!.!.!.!.!.!.!.!.!.!.!.!.!.!.!.!.!.!.!.!.!.!.!.!.!.!.!.!.!.!.!.!.!.!.!.!.!.!.!.!.!.!.!.!.!.!.!.!.!.!.!.!.!.!.!.!.!.!.!.!.!.!.!.!.!.!.!.!.!.!.!.!.!.!.!.!.!.!.!.!.!.!.!.!.!.!.!.!.!.!.!.!.!.!.!.!.!.!.!.!.!.!.!.!.!.!.!.!.!.!.!.!.!.!.!.!.!.!.!.!.!.!.!.!.!.!.!.!.!.!.!.!.!.!.!.!.!.!.!.!.!.!.!.!.!.!.!.!.!.!.!.!.!.!.!.!.!.!.!.!.!.!.!.!.!.!.!.!.!.!.!.!.!.!.!.!.!.!.!.!.!.!.!.!.!.!.!.!.!.!.!.!.!.!.!.!.!.!.!.!.!.!.!.!.!.!.!.!.!.!.!.!.!.!.!.!.!.!.!.!.!.!.!.!.!.!.!.!.!.!.!.!.!.!.!.!.!.!.!.!.!.!.!.!.!.!.!.!.!.!.!.!.!.!.!.!.!.!.!.!.!.!.!.!.!.!.!.!.!.!.!.!.!.!.!.!.!.!.!.!.!.!.!.!.!.!.!.!.!.!.!.!.!.!.!.!.!.!.!.!.!.!.!.!.!.!.!.!.!.!.!.!.!.!.!.!.!.!.!.!.!.!.!.!.!.!.!.!.!.!.!.!.!.!.!.!.!.!.!.!.!.!.!.!.!.!.!.!.!.!.!.!.!.!.!.!.!.!.!.!.!.!.!.!.!.!.!.!.!.!.!.!.!.!.!.!.!.!.!.!.!.!.!.!.!.!.!.!.!.!.!.!.!.!.!.!.!.!.!.!.!.!.!.!.!.!.!.!.!.!.!.!.!.!.!.!.!.!.!.!.!.!.!.!.!.!.!.!.!.!.!.!.!.!.!.!.!.!.!.!.!.!.!.!.!.!.!.!.!.!.!.!.!.!.!.!.!.!.!.!.!.!.!.!.!.!.!.!.!.!.!.!.!.!.!.!.!.!.!.!.!.!.!.!.!.!.!.!.!.!.!.!.!.!.!.!.!.!.!.!.!.!.!.!.!.!.",
"!.!.!.!.!.!.!.!.!.!.!.!.!.!.!.!.!.!.!.!.!.!.!.!.!.!.!.!.!.!.!.!.!.!.!.!.!.!.!.!.!.!.!.!.!.!.!.!.!.!.!.!.!.!.!.!.!.!.!.!.!.!.!.!.!.!.!.!.!.!.!.!.!.!.!.!.!.!.!.!.!.!.!.!.!.!.!.!.!.!.!.!.!.!.!.!.!.!.!.!.!.!.!.!.!.!.!.!.!.!.!.!.!.!.!.!.!.!.!.!.!.!.!.!.!.!.!.!.!.!.!.!.!.!.!.!.!.!.!.!.!.!.!.!.!.!.!.!.!.!.!.!.!.!.!.!.!.!.!.!.!.!.!.!.!.!.!.!.!.!.!.!.!.!.!.!.!.!.!.!.!.!.!.!.!.!.!.!.!.!.!.!.!.!.!.!.!.!.!.!.!.!.!.!.!.!.!.!.!.!.!.!.!.!.!.!.!.!.!.!.!.!.!.!.!.!.!.!.!.!.!.!.!.!.!.!.!.!.!.!.!.!.!.!.!.!.!.!.!.!.!.!.!.!.!.!.!.!.!.!.!.!.!.!.!.!.!.!.!.!.!.!.!.!.!.!.!.!.!.!.!.!.!.!.!.!.!.!.!.!.!.!.!.!.!.!.!.!.!.!.!.!.!.!.!.!.!.!.!.!.!.!.!.!.!.!.!.!.!.!.!.!.!.!.!.!.!.!.!.!.!.!.!.!.!.!.!.!.!.!.!.!.!.!.!.!.!.!.!.!.!.!.!.!.!.!.!.!.!.!.!.!.!.!.!.!.!.!.!.!.!.!.!.!.!.!.!.!.!.!.!.!.!.!.!.!.!.!.!.!.!.!.!.!.!.!.!.!.!.!.!.!.!.!.!.!.!.!.!.!.!.!.!.!.!.!.!.!.!.!.!.!.!.!.!.!.!.!.!.!.!.!.!.!.!.!.!.!.!.!.!.!.!.!.!.!.!.!.!.!.!.!.!.!.!.!.!.!.!.!.!.!.!.!.!.!.!.!.!.!.!.!.!.!.!.!.!.!.!.!.!.!.!.!.!.!.!.!.!.!.!.!.!.!.!.!.!.!.!.!.!.!.!.!.!.!.!.!.!.!.!.!.!.!.!.!.!.!.!.!.!.!.!.!.!.!.!.!.!.!.!.!.!.!.!.!.!.!.!.!.!.!.!.!.!.!.!.!.!.!.!.!.!.!.!.!.!.!.!.!.!.!.!.!.!.!.!.!.!.!.!.!.!.!.!.!.!.!.!.!.!.!.!.",
"!.!.!.!.!.!.!.!.!.!.!.!.!.!.!.!.!.!.!.!.!.!.!.!.!.!.!.!.!.!.!.!.!.!.!.!.!.!.!.!.!.!.!.!.!.!.!.!.!.!.!.!.!.!.!.!.!.!.!.!.!.!.!.!.!.!.!.!.!.!.!.!.!.!.!.!.!.!.!.!.!.!.!.!.!.!.!.!.!.!.!.!.!.!.!.!.!.!.!.!.!.!.!.!.!.!.!.!.!.!.!.!.!.!.!.!.!.!.!.!.!.!.!.!.!.!.!.!.!.!.!.!.!.!.!.!.!.!.!.!.!.!.!.!.!.!.!.!.!.!.!.!.!.!.!.!.!.!.!.!.!.!.!.!.!.!.!.!.!.!.!.!.!.!.!.!.!.!.!.!.!.!.!.!.!.!.!.!.!.!.!.!.!.!.!.!.!.!.!.!.!.!.!.!.!.!.!.!.!.!.!.!.!.!.!.!.!.!.!.!.!.!.!.!.!.!.!.!.!.!.!.!.!.!.!.!.!.!.!.!.!.!.!.!.!.!.!.!.!.!.!.!.!.!.!.!.!.!.!.!.!.!.!.!.!.!.!.!.!.!.!.!.!.!.!.!.!.!.!.!.!.!.!.!.!.!.!.!.!.!.!.!.!.!.!.!.!.!.!.!.!.!.!.!.!.!.!.!.!.!.!.!.!.!.!.!.!.!.!.!.!.!.!.!.!.!.!.!.!.!.!.!.!.!.!.!.!.!.!.!.!.!.!.!.!.!.!.!.!.!.!.!.!.!.!.!.!.!.!.!.!.!.!.!.!.!.!.!.!.!.!.!.!.!.!.!.!.!.!.!.!.!.!.!.!.!.!.!.!.!.!.!.!.!.!.!.!.!.!.!.!.!.!.!.!.!.!.!.!.!.!.!.!.!.!.!.!.!.!.!.!.!.!.!.!.!.!.!.!.!.!.!.!.!.!.!.!.!.!.!.!.!.!.!.!.!.!.!.!.!.!.!.!.!.!.!.!.!.!.!.!.!.!.!.!.!.!.!.!.!.!.!.!.!.!.!.!.!.!.!.!.!.!.!.!.!.!.!.!.!.!.!.!.!.!.!.!.!.!.!.!.!.!.!.!.!.!.!.!.!.!.!.!.!.!.!.!.!.!.!.!.!.!.!.!.!.!.!.!.!.!.!.!.!.!.!.!.!.!.!.!.!.!.!.!.!.!.!.!.!.!.!.!.!.!.!.!.!.!.!.!.!.!.!.!.!.!.!.!.!.!.!.!.!.!.!.!.!.!.!.!.!.!.",
"!.!.!.!.!.!.!.!.!.!.!.!.!.!.!.!.!.!.!.!.!.!.!.!.!.!.!.!.!.!.!.!.!.!.!.!.!.!.!.!.!.!.!.!.!.!.!.!.!.!.!.!.!.!.!.!.!.!.!.!.!.!.!.!.!.!.!.!.!.!.!.!.!.!.!.!.!.!.!.!.!.!.!.!.!.!.!.!.!.!.!.!.!.!.!.!.!.!.!.!.!.!.!.!.!.!.!.!.!.!.!.!.!.!.!.!.!.!.!.!.!.!.!.!.!.!.!.!.!.!.!.!.!.!.!.!.!.!.!.!.!.!.!.!.!.!.!.!.!.!.!.!.!.!.!.!.!.!.!.!.!.!.!.!.!.!.!.!.!.!.!.!.!.!.!.!.!.!.!.!.!.!.!.!.!.!.!.!.!.!.!.!.!.!.!.!.!.!.!.!.!.!.!.!.!.!.!.!.!.!.!.!.!.!.!.!.!.!.!.!.!.!.!.!.!.!.!.!.!.!.!.!.!.!.!.!.!.!.!.!.!.!.!.!.!.!.!.!.!.!.!.!.!.!.!.!.!.!.!.!.!.!.!.!.!.!.!.!.!.!.!.!.!.!.!.!.!.!.!.!.!.!.!.!.!.!.!.!.!.!.!.!.!.!.!.!.!.!.!.!.!.!.!.!.!.!.!.!.!.!.!.!.!.!.!.!.!.!.!.!.!.!.!.!.!.!.!.!.!.!.!.!.!.!.!.!.!.!.!.!.!.!.!.!.!.!.!.!.!.!.!.!.!.!.!.!.!.!.!.!.!.!.!.!.!.!.!.!.!.!.!.!.!.!.!.!.!.!.!.!.!.!.!.!.!.!.!.!.!.!.!.!.!.!.!.!.!.!.!.!.!.!.!.!.!.!.!.!.!.!.!.!.!.!.!.!.!.!.!.!.!.!.!.!.!.!.!.!.!.!.!.!.!.!.!.!.!.!.!.!.!.!.!.!.!.!.!.!.!.!.!.!.!.!.!.!.!.!.!.!.!.!.!.!.!.!.!.!.!.!.!.!.!.!.!.!.!.!.!.!.!.!.!.!.!.!.!.!.!.!.!.!.!.!.!.!.!.!.!.!.!.!.!.!.!.!.!.!.!.!.!.!.!.!.!.!.!.!.!.!.!.!.!.!.!.!.!.!.!.!.!.!.!.!.!.!.!.!.!.!.!.!.!.!.!.!.!.!.!.!.!.!.!.!.!.!.!.!.!.!.!.!.!.!.!.!.!.!.!.!.!.!.!.!.!.!.!.!.!.!.!.!.!.",
"!.!.!.!.!.!.!.!.!.!.!.!.!.!.!.!.!.!.!.!.!.!.!.!.!.!.!.!.!.!.!.!.!.!.!.!.!.!.!.!.!.!.!.!.!.!.!.!.!.!.!.!.!.!.!.!.!.!.!.!.!.!.!.!.!.!.!.!.!.!.!.!.!.!.!.!.!.!.!.!.!.!.!.!.!.!.!.!.!.!.!.!.!.!.!.!.!.!.!.!.!.!.!.!.!.!.!.!.!.!.!.!.!.!.!.!.!.!.!.!.!.!.!.!.!.!.!.!.!.!.!.!.!.!.!.!.!.!.!.!.!.!.!.!.!.!.!.!.!.!.!.!.!.!.!.!.!.!.!.!.!.!.!.!.!.!.!.!.!.!.!.!.!.!.!.!.!.!.!.!.!.!.!.!.!.!.!.!.!.!.!.!.!.!.!.!.!.!.!.!.!.!.!.!.!.!.!.!.!.!.!.!.!.!.!.!.!.!.!.!.!.!.!.!.!.!.!.!.!.!.!.!.!.!.!.!.!.!.!.!.!.!.!.!.!.!.!.!.!.!.!.!.!.!.!.!.!.!.!.!.!.!.!.!.!.!.!.!.!.!.!.!.!.!.!.!.!.!.!.!.!.!.!.!.!.!.!.!.!.!.!.!.!.!.!.!.!.!.!.!.!.!.!.!.!.!.!.!.!.!.!.!.!.!.!.!.!.!.!.!.!.!.!.!.!.!.!.!.!.!.!.!.!.!.!.!.!.!.!.!.!.!.!.!.!.!.!.!.!.!.!.!.!.!.!.!.!.!.!.!.!.!.!.!.!.!.!.!.!.!.!.!.!.!.!.!.!.!.!.!.!.!.!.!.!.!.!.!.!.!.!.!.!.!.!.!.!.!.!.!.!.!.!.!.!.!.!.!.!.!.!.!.!.!.!.!.!.!.!.!.!.!.!.!.!.!.!.!.!.!.!.!.!.!.!.!.!.!.!.!.!.!.!.!.!.!.!.!.!.!.!.!.!.!.!.!.!.!.!.!.!.!.!.!.!.!.!.!.!.!.!.!.!.!.!.!.!.!.!.!.!.!.!.!.!.!.!.!.!.!.!.!.!.!.!.!.!.!.!.!.!.!.!.!.!.!.!.!.!.!.!.!.!.!.!.!.!.!.!.!.!.!.!.!.!.!.!.!.!.!.!.!.!.!.!.!.!.!.!.!.!.!.!.!.!.!.!.!.!.!.!.!.!.!.!.!.!.!.!.!.!.!.!.!.!.!.!.!.!.!.!.!.!.!.!.!.!.!.!.!.!.!.!.",
"!.!.!.!.!.!.!.!.!.!.!.!.!.!.!.!.!.!.!.!.!.!.!.!.!.!.!.!.!.!.!.!.!.!.!.!.!.!.!.!.!.!.!.!.!.!.!.!.!.!.!.!.!.!.!.!.!.!.!.!.!.!.!.!.!.!.!.!.!.!.!.!.!.!.!.!.!.!.!.!.!.!.!.!.!.!.!.!.!.!.!.!.!.!.!.!.!.!.!.!.!.!.!.!.!.!.!.!.!.!.!.!.!.!.!.!.!.!.!.!.!.!.!.!.!.!.!.!.!.!.!.!.!.!.!.!.!.!.!.!.!.!.!.!.!.!.!.!.!.!.!.!.!.!.!.!.!.!.!.!.!.!.!.!.!.!.!.!.!.!.!.!.!.!.!.!.!.!.!.!.!.!.!.!.!.!.!.!.!.!.!.!.!.!.!.!.!.!.!.!.!.!.!.!.!.!.!.!.!.!.!.!.!.!.!.!.!.!.!.!.!.!.!.!.!.!.!.!.!.!.!.!.!.!.!.!.!.!.!.!.!.!.!.!.!.!.!.!.!.!.!.!.!.!.!.!.!.!.!.!.!.!.!.!.!.!.!.!.!.!.!.!.!.!.!.!.!.!.!.!.!.!.!.!.!.!.!.!.!.!.!.!.!.!.!.!.!.!.!.!.!.!.!.!.!.!.!.!.!.!.!.!.!.!.!.!.!.!.!.!.!.!.!.!.!.!.!.!.!.!.!.!.!.!.!.!.!.!.!.!.!.!.!.!.!.!.!.!.!.!.!.!.!.!.!.!.!.!.!.!.!.!.!.!.!.!.!.!.!.!.!.!.!.!.!.!.!.!.!.!.!.!.!.!.!.!.!.!.!.!.!.!.!.!.!.!.!.!.!.!.!.!.!.!.!.!.!.!.!.!.!.!.!.!.!.!.!.!.!.!.!.!.!.!.!.!.!.!.!.!.!.!.!.!.!.!.!.!.!.!.!.!.!.!.!.!.!.!.!.!.!.!.!.!.!.!.!.!.!.!.!.!.!.!.!.!.!.!.!.!.!.!.!.!.!.!.!.!.!.!.!.!.!.!.!.!.!.!.!.!.!.!.!.!.!.!.!.!.!.!.!.!.!.!.!.!.!.!.!.!.!.!.!.!.!.!.!.!.!.!.!.!.!.!.!.!.!.!.!.!.!.!.!.!.!.!.!.!.!.!.!.!.!.!.!.!.!.!.!.!.!.!.!.!.!.!.!.!.!.!.!.!.!.!.!.!.!.!.!.!.!.!.!.!.!.!.!.!.!.!.!.!.!.",
"!.!.!.!.!.!.!.!.!.!.!.!.!.!.!.!.!.!.!.!.!.!.!.!.!.!.!.!.!.!.!.!.!.!.!.!.!.!.!.!.!.!.!.!.!.!.!.!.!.!.!.!.!.!.!.!.!.!.!.!.!.!.!.!.!.!.!.!.!.!.!.!.!.!.!.!.!.!.!.!.!.!.!.!.!.!.!.!.!.!.!.!.!.!.!.!.!.!.!.!.!.!.!.!.!.!.!.!.!.!.!.!.!.!.!.!.!.!.!.!.!.!.!.!.!.!.!.!.!.!.!.!.!.!.!.!.!.!.!.!.!.!.!.!.!.!.!.!.!.!.!.!.!.!.!.!.!.!.!.!.!.!.!.!.!.!.!.!.!.!.!.!.!.!.!.!.!.!.!.!.!.!.!.!.!.!.!.!.!.!.!.!.!.!.!.!.!.!.!.!.!.!.!.!.!.!.!.!.!.!.!.!.!.!.!.!.!.!.!.!.!.!.!.!.!.!.!.!.!.!.!.!.!.!.!.!.!.!.!.!.!.!.!.!.!.!.!.!.!.!.!.!.!.!.!.!.!.!.!.!.!.!.!.!.!.!.!.!.!.!.!.!.!.!.!.!.!.!.!.!.!.!.!.!.!.!.!.!.!.!.!.!.!.!.!.!.!.!.!.!.!.!.!.!.!.!.!.!.!.!.!.!.!.!.!.!.!.!.!.!.!.!.!.!.!.!.!.!.!.!.!.!.!.!.!.!.!.!.!.!.!.!.!.!.!.!.!.!.!.!.!.!.!.!.!.!.!.!.!.!.!.!.!.!.!.!.!.!.!.!.!.!.!.!.!.!.!.!.!.!.!.!.!.!.!.!.!.!.!.!.!.!.!.!.!.!.!.!.!.!.!.!.!.!.!.!.!.!.!.!.!.!.!.!.!.!.!.!.!.!.!.!.!.!.!.!.!.!.!.!.!.!.!.!.!.!.!.!.!.!.!.!.!.!.!.!.!.!.!.!.!.!.!.!.!.!.!.!.!.!.!.!.!.!.!.!.!.!.!.!.!.!.!.!.!.!.!.!.!.!.!.!.!.!.!.!.!.!.!.!.!.!.!.!.!.!.!.!.!.!.!.!.!.!.!.!.!.!.!.!.!.!.!.!.!.!.!.!.!.!.!.!.!.!.!.!.!.!.!.!.!.!.!.!.!.!.!.!.!.!.!.!.!.!.!.!.!.!.!.!.!.!.!.!.!.!.!.!.!.!.!.!.!.!.!.!.!.!.!.!.!.!.!.!.!.!.!.!.!.!.!.!.!.",
"!.!.!.!.!.!.!.!.!.!.!.!.!.!.!.!.!.!.!.!.!.!.!.!.!.!.!.!.!.!.!.!.!.!.!.!.!.!.!.!.!.!.!.!.!.!.!.!.!.!.!.!.!.!.!.!.!.!.!.!.!.!.!.!.!.!.!.!.!.!.!.!.!.!.!.!.!.!.!.!.!.!.!.!.!.!.!.!.!.!.!.!.!.!.!.!.!.!.!.!.!.!.!.!.!.!.!.!.!.!.!.!.!.!.!.!.!.!.!.!.!.!.!.!.!.!.!.!.!.!.!.!.!.!.!.!.!.!.!.!.!.!.!.!.!.!.!.!.!.!.!.!.!.!.!.!.!.!.!.!.!.!.!.!.!.!.!.!.!.!.!.!.!.!.!.!.!.!.!.!.!.!.!.!.!.!.!.!.!.!.!.!.!.!.!.!.!.!.!.!.!.!.!.!.!.!.!.!.!.!.!.!.!.!.!.!.!.!.!.!.!.!.!.!.!.!.!.!.!.!.!.!.!.!.!.!.!.!.!.!.!.!.!.!.!.!.!.!.!.!.!.!.!.!.!.!.!.!.!.!.!.!.!.!.!.!.!.!.!.!.!.!.!.!.!.!.!.!.!.!.!.!.!.!.!.!.!.!.!.!.!.!.!.!.!.!.!.!.!.!.!.!.!.!.!.!.!.!.!.!.!.!.!.!.!.!.!.!.!.!.!.!.!.!.!.!.!.!.!.!.!.!.!.!.!.!.!.!.!.!.!.!.!.!.!.!.!.!.!.!.!.!.!.!.!.!.!.!.!.!.!.!.!.!.!.!.!.!.!.!.!.!.!.!.!.!.!.!.!.!.!.!.!.!.!.!.!.!.!.!.!.!.!.!.!.!.!.!.!.!.!.!.!.!.!.!.!.!.!.!.!.!.!.!.!.!.!.!.!.!.!.!.!.!.!.!.!.!.!.!.!.!.!.!.!.!.!.!.!.!.!.!.!.!.!.!.!.!.!.!.!.!.!.!.!.!.!.!.!.!.!.!.!.!.!.!.!.!.!.!.!.!.!.!.!.!.!.!.!.!.!.!.!.!.!.!.!.!.!.!.!.!.!.!.!.!.!.!.!.!.!.!.!.!.!.!.!.!.!.!.!.!.!.!.!.!.!.!.!.!.!.!.!.!.!.!.!.!.!.!.!.!.!.!.!.!.!.!.!.!.!.!.!.!.!.!.!.!.!.!.!.!.!.!.!.!.!.!.!.!.!.!.!.!.!.!.!.!.!.!.!.!.!.!.!.!.!.!.!.!.!.!.!.",
"!.!.!.!.!.!.!.!.!.!.!.!.!.!.!.!.!.!.!.!.!.!.!.!.!.!.!.!.!.!.!.!.!.!.!.!.!.!.!.!.!.!.!.!.!.!.!.!.!.!.!.!.!.!.!.!.!.!.!.!.!.!.!.!.!.!.!.!.!.!.!.!.!.!.!.!.!.!.!.!.!.!.!.!.!.!.!.!.!.!.!.!.!.!.!.!.!.!.!.!.!.!.!.!.!.!.!.!.!.!.!.!.!.!.!.!.!.!.!.!.!.!.!.!.!.!.!.!.!.!.!.!.!.!.!.!.!.!.!.!.!.!.!.!.!.!.!.!.!.!.!.!.!.!.!.!.!.!.!.!.!.!.!.!.!.!.!.!.!.!.!.!.!.!.!.!.!.!.!.!.!.!.!.!.!.!.!.!.!.!.!.!.!.!.!.!.!.!.!.!.!.!.!.!.!.!.!.!.!.!.!.!.!.!.!.!.!.!.!.!.!.!.!.!.!.!.!.!.!.!.!.!.!.!.!.!.!.!.!.!.!.!.!.!.!.!.!.!.!.!.!.!.!.!.!.!.!.!.!.!.!.!.!.!.!.!.!.!.!.!.!.!.!.!.!.!.!.!.!.!.!.!.!.!.!.!.!.!.!.!.!.!.!.!.!.!.!.!.!.!.!.!.!.!.!.!.!.!.!.!.!.!.!.!.!.!.!.!.!.!.!.!.!.!.!.!.!.!.!.!.!.!.!.!.!.!.!.!.!.!.!.!.!.!.!.!.!.!.!.!.!.!.!.!.!.!.!.!.!.!.!.!.!.!.!.!.!.!.!.!.!.!.!.!.!.!.!.!.!.!.!.!.!.!.!.!.!.!.!.!.!.!.!.!.!.!.!.!.!.!.!.!.!.!.!.!.!.!.!.!.!.!.!.!.!.!.!.!.!.!.!.!.!.!.!.!.!.!.!.!.!.!.!.!.!.!.!.!.!.!.!.!.!.!.!.!.!.!.!.!.!.!.!.!.!.!.!.!.!.!.!.!.!.!.!.!.!.!.!.!.!.!.!.!.!.!.!.!.!.!.!.!.!.!.!.!.!.!.!.!.!.!.!.!.!.!.!.!.!.!.!.!.!.!.!.!.!.!.!.!.!.!.!.!.!.!.!.!.!.!.!.!.!.!.!.!.!.!.!.!.!.!.!.!.!.!.!.!.!.!.!.!.!.!.!.!.!.!.!.!.!.!.!.!.!.!.!.!.!.!.!.!.!.!.!.!.!.!.!.!.!.!.!.!.!.!.!.!.!.!.!.!.!.",
"!.!.!.!.!.!.!.!.!.!.!.!.!.!.!.!.!.!.!.!.!.!.!.!.!.!.!.!.!.!.!.!.!.!.!.!.!.!.!.!.!.!.!.!.!.!.!.!.!.!.!.!.!.!.!.!.!.!.!.!.!.!.!.!.!.!.!.!.!.!.!.!.!.!.!.!.!.!.!.!.!.!.!.!.!.!.!.!.!.!.!.!.!.!.!.!.!.!.!.!.!.!.!.!.!.!.!.!.!.!.!.!.!.!.!.!.!.!.!.!.!.!.!.!.!.!.!.!.!.!.!.!.!.!.!.!.!.!.!.!.!.!.!.!.!.!.!.!.!.!.!.!.!.!.!.!.!.!.!.!.!.!.!.!.!.!.!.!.!.!.!.!.!.!.!.!.!.!.!.!.!.!.!.!.!.!.!.!.!.!.!.!.!.!.!.!.!.!.!.!.!.!.!.!.!.!.!.!.!.!.!.!.!.!.!.!.!.!.!.!.!.!.!.!.!.!.!.!.!.!.!.!.!.!.!.!.!.!.!.!.!.!.!.!.!.!.!.!.!.!.!.!.!.!.!.!.!.!.!.!.!.!.!.!.!.!.!.!.!.!.!.!.!.!.!.!.!.!.!.!.!.!.!.!.!.!.!.!.!.!.!.!.!.!.!.!.!.!.!.!.!.!.!.!.!.!.!.!.!.!.!.!.!.!.!.!.!.!.!.!.!.!.!.!.!.!.!.!.!.!.!.!.!.!.!.!.!.!.!.!.!.!.!.!.!.!.!.!.!.!.!.!.!.!.!.!.!.!.!.!.!.!.!.!.!.!.!.!.!.!.!.!.!.!.!.!.!.!.!.!.!.!.!.!.!.!.!.!.!.!.!.!.!.!.!.!.!.!.!.!.!.!.!.!.!.!.!.!.!.!.!.!.!.!.!.!.!.!.!.!.!.!.!.!.!.!.!.!.!.!.!.!.!.!.!.!.!.!.!.!.!.!.!.!.!.!.!.!.!.!.!.!.!.!.!.!.!.!.!.!.!.!.!.!.!.!.!.!.!.!.!.!.!.!.!.!.!.!.!.!.!.!.!.!.!.!.!.!.!.!.!.!.!.!.!.!.!.!.!.!.!.!.!.!.!.!.!.!.!.!.!.!.!.!.!.!.!.!.!.!.!.!.!.!.!.!.!.!.!.!.!.!.!.!.!.!.!.!.!.!.!.!.!.!.!.!.!.!.!.!.!.!.!.!.!.!.!.!.!.!.!.!.!.!.!.!.!.!.!.!.!.!.!.!.!.!.!.!.!.!.!.!.!.",
"!.!.!.!.!.!.!.!.!.!.!.!.!.!.!.!.!.!.!.!.!.!.!.!.!.!.!.!.!.!.!.!.!.!.!.!.!.!.!.!.!.!.!.!.!.!.!.!.!.!.!.!.!.!.!.!.!.!.!.!.!.!.!.!.!.!.!.!.!.!.!.!.!.!.!.!.!.!.!.!.!.!.!.!.!.!.!.!.!.!.!.!.!.!.!.!.!.!.!.!.!.!.!.!.!.!.!.!.!.!.!.!.!.!.!.!.!.!.!.!.!.!.!.!.!.!.!.!.!.!.!.!.!.!.!.!.!.!.!.!.!.!.!.!.!.!.!.!.!.!.!.!.!.!.!.!.!.!.!.!.!.!.!.!.!.!.!.!.!.!.!.!.!.!.!.!.!.!.!.!.!.!.!.!.!.!.!.!.!.!.!.!.!.!.!.!.!.!.!.!.!.!.!.!.!.!.!.!.!.!.!.!.!.!.!.!.!.!.!.!.!.!.!.!.!.!.!.!.!.!.!.!.!.!.!.!.!.!.!.!.!.!.!.!.!.!.!.!.!.!.!.!.!.!.!.!.!.!.!.!.!.!.!.!.!.!.!.!.!.!.!.!.!.!.!.!.!.!.!.!.!.!.!.!.!.!.!.!.!.!.!.!.!.!.!.!.!.!.!.!.!.!.!.!.!.!.!.!.!.!.!.!.!.!.!.!.!.!.!.!.!.!.!.!.!.!.!.!.!.!.!.!.!.!.!.!.!.!.!.!.!.!.!.!.!.!.!.!.!.!.!.!.!.!.!.!.!.!.!.!.!.!.!.!.!.!.!.!.!.!.!.!.!.!.!.!.!.!.!.!.!.!.!.!.!.!.!.!.!.!.!.!.!.!.!.!.!.!.!.!.!.!.!.!.!.!.!.!.!.!.!.!.!.!.!.!.!.!.!.!.!.!.!.!.!.!.!.!.!.!.!.!.!.!.!.!.!.!.!.!.!.!.!.!.!.!.!.!.!.!.!.!.!.!.!.!.!.!.!.!.!.!.!.!.!.!.!.!.!.!.!.!.!.!.!.!.!.!.!.!.!.!.!.!.!.!.!.!.!.!.!.!.!.!.!.!.!.!.!.!.!.!.!.!.!.!.!.!.!.!.!.!.!.!.!.!.!.!.!.!.!.!.!.!.!.!.!.!.!.!.!.!.!.!.!.!.!.!.!.!.!.!.!.!.!.!.!.!.!.!.!.!.!.!.!.!.!.!.!.!.!.!.!.!.!.!.!.!.!.!.!.!.!.!.!.!.!.!.!.!.!.!.!.",
"!.!.!.!.!.!.!.!.!.!.!.!.!.!.!.!.!.!.!.!.!.!.!.!.!.!.!.!.!.!.!.!.!.!.!.!.!.!.!.!.!.!.!.!.!.!.!.!.!.!.!.!.!.!.!.!.!.!.!.!.!.!.!.!.!.!.!.!.!.!.!.!.!.!.!.!.!.!.!.!.!.!.!.!.!.!.!.!.!.!.!.!.!.!.!.!.!.!.!.!.!.!.!.!.!.!.!.!.!.!.!.!.!.!.!.!.!.!.!.!.!.!.!.!.!.!.!.!.!.!.!.!.!.!.!.!.!.!.!.!.!.!.!.!.!.!.!.!.!.!.!.!.!.!.!.!.!.!.!.!.!.!.!.!.!.!.!.!.!.!.!.!.!.!.!.!.!.!.!.!.!.!.!.!.!.!.!.!.!.!.!.!.!.!.!.!.!.!.!.!.!.!.!.!.!.!.!.!.!.!.!.!.!.!.!.!.!.!.!.!.!.!.!.!.!.!.!.!.!.!.!.!.!.!.!.!.!.!.!.!.!.!.!.!.!.!.!.!.!.!.!.!.!.!.!.!.!.!.!.!.!.!.!.!.!.!.!.!.!.!.!.!.!.!.!.!.!.!.!.!.!.!.!.!.!.!.!.!.!.!.!.!.!.!.!.!.!.!.!.!.!.!.!.!.!.!.!.!.!.!.!.!.!.!.!.!.!.!.!.!.!.!.!.!.!.!.!.!.!.!.!.!.!.!.!.!.!.!.!.!.!.!.!.!.!.!.!.!.!.!.!.!.!.!.!.!.!.!.!.!.!.!.!.!.!.!.!.!.!.!.!.!.!.!.!.!.!.!.!.!.!.!.!.!.!.!.!.!.!.!.!.!.!.!.!.!.!.!.!.!.!.!.!.!.!.!.!.!.!.!.!.!.!.!.!.!.!.!.!.!.!.!.!.!.!.!.!.!.!.!.!.!.!.!.!.!.!.!.!.!.!.!.!.!.!.!.!.!.!.!.!.!.!.!.!.!.!.!.!.!.!.!.!.!.!.!.!.!.!.!.!.!.!.!.!.!.!.!.!.!.!.!.!.!.!.!.!.!.!.!.!.!.!.!.!.!.!.!.!.!.!.!.!.!.!.!.!.!.!.!.!.!.!.!.!.!.!.!.!.!.!.!.!.!.!.!.!.!.!.!.!.!.!.!.!.!.!.!.!.!.!.!.!.!.!.!.!.!.!.!.!.!.!.!.!.!.!.!.!.!.!.!.!.!.!.!.!.!.!.!.!.!.!.!.!.!.!.!.!.!.!.!.!.",
"!.!.!.!.!.!.!.!.!.!.!.!.!.!.!.!.!.!.!.!.!.!.!.!.!.!.!.!.!.!.!.!.!.!.!.!.!.!.!.!.!.!.!.!.!.!.!.!.!.!.!.!.!.!.!.!.!.!.!.!.!.!.!.!.!.!.!.!.!.!.!.!.!.!.!.!.!.!.!.!.!.!.!.!.!.!.!.!.!.!.!.!.!.!.!.!.!.!.!.!.!.!.!.!.!.!.!.!.!.!.!.!.!.!.!.!.!.!.!.!.!.!.!.!.!.!.!.!.!.!.!.!.!.!.!.!.!.!.!.!.!.!.!.!.!.!.!.!.!.!.!.!.!.!.!.!.!.!.!.!.!.!.!.!.!.!.!.!.!.!.!.!.!.!.!.!.!.!.!.!.!.!.!.!.!.!.!.!.!.!.!.!.!.!.!.!.!.!.!.!.!.!.!.!.!.!.!.!.!.!.!.!.!.!.!.!.!.!.!.!.!.!.!.!.!.!.!.!.!.!.!.!.!.!.!.!.!.!.!.!.!.!.!.!.!.!.!.!.!.!.!.!.!.!.!.!.!.!.!.!.!.!.!.!.!.!.!.!.!.!.!.!.!.!.!.!.!.!.!.!.!.!.!.!.!.!.!.!.!.!.!.!.!.!.!.!.!.!.!.!.!.!.!.!.!.!.!.!.!.!.!.!.!.!.!.!.!.!.!.!.!.!.!.!.!.!.!.!.!.!.!.!.!.!.!.!.!.!.!.!.!.!.!.!.!.!.!.!.!.!.!.!.!.!.!.!.!.!.!.!.!.!.!.!.!.!.!.!.!.!.!.!.!.!.!.!.!.!.!.!.!.!.!.!.!.!.!.!.!.!.!.!.!.!.!.!.!.!.!.!.!.!.!.!.!.!.!.!.!.!.!.!.!.!.!.!.!.!.!.!.!.!.!.!.!.!.!.!.!.!.!.!.!.!.!.!.!.!.!.!.!.!.!.!.!.!.!.!.!.!.!.!.!.!.!.!.!.!.!.!.!.!.!.!.!.!.!.!.!.!.!.!.!.!.!.!.!.!.!.!.!.!.!.!.!.!.!.!.!.!.!.!.!.!.!.!.!.!.!.!.!.!.!.!.!.!.!.!.!.!.!.!.!.!.!.!.!.!.!.!.!.!.!.!.!.!.!.!.!.!.!.!.!.!.!.!.!.!.!.!.!.!.!.!.!.!.!.!.!.!.!.!.!.!.!.!.!.!.!.!.!.!.!.!.!.!.!.!.!.!.!.!.!.!.!.!.!.!.!.!.!.!.!.",
"!.!.!.!.!.!.!.!.!.!.!.!.!.!.!.!.!.!.!.!.!.!.!.!.!.!.!.!.!.!.!.!.!.!.!.!.!.!.!.!.!.!.!.!.!.!.!.!.!.!.!.!.!.!.!.!.!.!.!.!.!.!.!.!.!.!.!.!.!.!.!.!.!.!.!.!.!.!.!.!.!.!.!.!.!.!.!.!.!.!.!.!.!.!.!.!.!.!.!.!.!.!.!.!.!.!.!.!.!.!.!.!.!.!.!.!.!.!.!.!.!.!.!.!.!.!.!.!.!.!.!.!.!.!.!.!.!.!.!.!.!.!.!.!.!.!.!.!.!.!.!.!.!.!.!.!.!.!.!.!.!.!.!.!.!.!.!.!.!.!.!.!.!.!.!.!.!.!.!.!.!.!.!.!.!.!.!.!.!.!.!.!.!.!.!.!.!.!.!.!.!.!.!.!.!.!.!.!.!.!.!.!.!.!.!.!.!.!.!.!.!.!.!.!.!.!.!.!.!.!.!.!.!.!.!.!.!.!.!.!.!.!.!.!.!.!.!.!.!.!.!.!.!.!.!.!.!.!.!.!.!.!.!.!.!.!.!.!.!.!.!.!.!.!.!.!.!.!.!.!.!.!.!.!.!.!.!.!.!.!.!.!.!.!.!.!.!.!.!.!.!.!.!.!.!.!.!.!.!.!.!.!.!.!.!.!.!.!.!.!.!.!.!.!.!.!.!.!.!.!.!.!.!.!.!.!.!.!.!.!.!.!.!.!.!.!.!.!.!.!.!.!.!.!.!.!.!.!.!.!.!.!.!.!.!.!.!.!.!.!.!.!.!.!.!.!.!.!.!.!.!.!.!.!.!.!.!.!.!.!.!.!.!.!.!.!.!.!.!.!.!.!.!.!.!.!.!.!.!.!.!.!.!.!.!.!.!.!.!.!.!.!.!.!.!.!.!.!.!.!.!.!.!.!.!.!.!.!.!.!.!.!.!.!.!.!.!.!.!.!.!.!.!.!.!.!.!.!.!.!.!.!.!.!.!.!.!.!.!.!.!.!.!.!.!.!.!.!.!.!.!.!.!.!.!.!.!.!.!.!.!.!.!.!.!.!.!.!.!.!.!.!.!.!.!.!.!.!.!.!.!.!.!.!.!.!.!.!.!.!.!.!.!.!.!.!.!.!.!.!.!.!.!.!.!.!.!.!.!.!.!.!.!.!.!.!.!.!.!.!.!.!.!.!.!.!.!.!.!.!.!.!.!.!.!.!.!.!.!.!.!.!.!.!.!.!.!.!.!.!.!.!.!.",
"!.!.!.!.!.!.!.!.!.!.!.!.!.!.!.!.!.!.!.!.!.!.!.!.!.!.!.!.!.!.!.!.!.!.!.!.!.!.!.!.!.!.!.!.!.!.!.!.!.!.!.!.!.!.!.!.!.!.!.!.!.!.!.!.!.!.!.!.!.!.!.!.!.!.!.!.!.!.!.!.!.!.!.!.!.!.!.!.!.!.!.!.!.!.!.!.!.!.!.!.!.!.!.!.!.!.!.!.!.!.!.!.!.!.!.!.!.!.!.!.!.!.!.!.!.!.!.!.!.!.!.!.!.!.!.!.!.!.!.!.!.!.!.!.!.!.!.!.!.!.!.!.!.!.!.!.!.!.!.!.!.!.!.!.!.!.!.!.!.!.!.!.!.!.!.!.!.!.!.!.!.!.!.!.!.!.!.!.!.!.!.!.!.!.!.!.!.!.!.!.!.!.!.!.!.!.!.!.!.!.!.!.!.!.!.!.!.!.!.!.!.!.!.!.!.!.!.!.!.!.!.!.!.!.!.!.!.!.!.!.!.!.!.!.!.!.!.!.!.!.!.!.!.!.!.!.!.!.!.!.!.!.!.!.!.!.!.!.!.!.!.!.!.!.!.!.!.!.!.!.!.!.!.!.!.!.!.!.!.!.!.!.!.!.!.!.!.!.!.!.!.!.!.!.!.!.!.!.!.!.!.!.!.!.!.!.!.!.!.!.!.!.!.!.!.!.!.!.!.!.!.!.!.!.!.!.!.!.!.!.!.!.!.!.!.!.!.!.!.!.!.!.!.!.!.!.!.!.!.!.!.!.!.!.!.!.!.!.!.!.!.!.!.!.!.!.!.!.!.!.!.!.!.!.!.!.!.!.!.!.!.!.!.!.!.!.!.!.!.!.!.!.!.!.!.!.!.!.!.!.!.!.!.!.!.!.!.!.!.!.!.!.!.!.!.!.!.!.!.!.!.!.!.!.!.!.!.!.!.!.!.!.!.!.!.!.!.!.!.!.!.!.!.!.!.!.!.!.!.!.!.!.!.!.!.!.!.!.!.!.!.!.!.!.!.!.!.!.!.!.!.!.!.!.!.!.!.!.!.!.!.!.!.!.!.!.!.!.!.!.!.!.!.!.!.!.!.!.!.!.!.!.!.!.!.!.!.!.!.!.!.!.!.!.!.!.!.!.!.!.!.!.!.!.!.!.!.!.!.!.!.!.!.!.!.!.!.!.!.!.!.!.!.!.!.!.!.!.!.!.!.!.!.!.!.!.!.!.!.!.!.!.!.!.!.!.!.!.!.!.!.!.!.",
"!.!.!.!.!.!.!.!.!.!.!.!.!.!.!.!.!.!.!.!.!.!.!.!.!.!.!.!.!.!.!.!.!.!.!.!.!.!.!.!.!.!.!.!.!.!.!.!.!.!.!.!.!.!.!.!.!.!.!.!.!.!.!.!.!.!.!.!.!.!.!.!.!.!.!.!.!.!.!.!.!.!.!.!.!.!.!.!.!.!.!.!.!.!.!.!.!.!.!.!.!.!.!.!.!.!.!.!.!.!.!.!.!.!.!.!.!.!.!.!.!.!.!.!.!.!.!.!.!.!.!.!.!.!.!.!.!.!.!.!.!.!.!.!.!.!.!.!.!.!.!.!.!.!.!.!.!.!.!.!.!.!.!.!.!.!.!.!.!.!.!.!.!.!.!.!.!.!.!.!.!.!.!.!.!.!.!.!.!.!.!.!.!.!.!.!.!.!.!.!.!.!.!.!.!.!.!.!.!.!.!.!.!.!.!.!.!.!.!.!.!.!.!.!.!.!.!.!.!.!.!.!.!.!.!.!.!.!.!.!.!.!.!.!.!.!.!.!.!.!.!.!.!.!.!.!.!.!.!.!.!.!.!.!.!.!.!.!.!.!.!.!.!.!.!.!.!.!.!.!.!.!.!.!.!.!.!.!.!.!.!.!.!.!.!.!.!.!.!.!.!.!.!.!.!.!.!.!.!.!.!.!.!.!.!.!.!.!.!.!.!.!.!.!.!.!.!.!.!.!.!.!.!.!.!.!.!.!.!.!.!.!.!.!.!.!.!.!.!.!.!.!.!.!.!.!.!.!.!.!.!.!.!.!.!.!.!.!.!.!.!.!.!.!.!.!.!.!.!.!.!.!.!.!.!.!.!.!.!.!.!.!.!.!.!.!.!.!.!.!.!.!.!.!.!.!.!.!.!.!.!.!.!.!.!.!.!.!.!.!.!.!.!.!.!.!.!.!.!.!.!.!.!.!.!.!.!.!.!.!.!.!.!.!.!.!.!.!.!.!.!.!.!.!.!.!.!.!.!.!.!.!.!.!.!.!.!.!.!.!.!.!.!.!.!.!.!.!.!.!.!.!.!.!.!.!.!.!.!.!.!.!.!.!.!.!.!.!.!.!.!.!.!.!.!.!.!.!.!.!.!.!.!.!.!.!.!.!.!.!.!.!.!.!.!.!.!.!.!.!.!.!.!.!.!.!.!.!.!.!.!.!.!.!.!.!.!.!.!.!.!.!.!.!.!.!.!.!.!.!.!.!.!.!.!.!.!.!.!.!.!.!.!.!.!.!.!.!.!.!.!.!.!.",
"!.!.!.!.!.!.!.!.!.!.!.!.!.!.!.!.!.!.!.!.!.!.!.!.!.!.!.!.!.!.!.!.!.!.!.!.!.!.!.!.!.!.!.!.!.!.!.!.!.!.!.!.!.!.!.!.!.!.!.!.!.!.!.!.!.!.!.!.!.!.!.!.!.!.!.!.!.!.!.!.!.!.!.!.!.!.!.!.!.!.!.!.!.!.!.!.!.!.!.!.!.!.!.!.!.!.!.!.!.!.!.!.!.!.!.!.!.!.!.!.!.!.!.!.!.!.!.!.!.!.!.!.!.!.!.!.!.!.!.!.!.!.!.!.!.!.!.!.!.!.!.!.!.!.!.!.!.!.!.!.!.!.!.!.!.!.!.!.!.!.!.!.!.!.!.!.!.!.!.!.!.!.!.!.!.!.!.!.!.!.!.!.!.!.!.!.!.!.!.!.!.!.!.!.!.!.!.!.!.!.!.!.!.!.!.!.!.!.!.!.!.!.!.!.!.!.!.!.!.!.!.!.!.!.!.!.!.!.!.!.!.!.!.!.!.!.!.!.!.!.!.!.!.!.!.!.!.!.!.!.!.!.!.!.!.!.!.!.!.!.!.!.!.!.!.!.!.!.!.!.!.!.!.!.!.!.!.!.!.!.!.!.!.!.!.!.!.!.!.!.!.!.!.!.!.!.!.!.!.!.!.!.!.!.!.!.!.!.!.!.!.!.!.!.!.!.!.!.!.!.!.!.!.!.!.!.!.!.!.!.!.!.!.!.!.!.!.!.!.!.!.!.!.!.!.!.!.!.!.!.!.!.!.!.!.!.!.!.!.!.!.!.!.!.!.!.!.!.!.!.!.!.!.!.!.!.!.!.!.!.!.!.!.!.!.!.!.!.!.!.!.!.!.!.!.!.!.!.!.!.!.!.!.!.!.!.!.!.!.!.!.!.!.!.!.!.!.!.!.!.!.!.!.!.!.!.!.!.!.!.!.!.!.!.!.!.!.!.!.!.!.!.!.!.!.!.!.!.!.!.!.!.!.!.!.!.!.!.!.!.!.!.!.!.!.!.!.!.!.!.!.!.!.!.!.!.!.!.!.!.!.!.!.!.!.!.!.!.!.!.!.!.!.!.!.!.!.!.!.!.!.!.!.!.!.!.!.!.!.!.!.!.!.!.!.!.!.!.!.!.!.!.!.!.!.!.!.!.!.!.!.!.!.!.!.!.!.!.!.!.!.!.!.!.!.!.!.!.!.!.!.!.!.!.!.!.!.!.!.!.!.!.!.!.!.!.!.!.!.!.!.!.!.",
"!.!.!.!.!.!.!.!.!.!.!.!.!.!.!.!.!.!.!.!.!.!.!.!.!.!.!.!.!.!.!.!.!.!.!.!.!.!.!.!.!.!.!.!.!.!.!.!.!.!.!.!.!.!.!.!.!.!.!.!.!.!.!.!.!.!.!.!.!.!.!.!.!.!.!.!.!.!.!.!.!.!.!.!.!.!.!.!.!.!.!.!.!.!.!.!.!.!.!.!.!.!.!.!.!.!.!.!.!.!.!.!.!.!.!.!.!.!.!.!.!.!.!.!.!.!.!.!.!.!.!.!.!.!.!.!.!.!.!.!.!.!.!.!.!.!.!.!.!.!.!.!.!.!.!.!.!.!.!.!.!.!.!.!.!.!.!.!.!.!.!.!.!.!.!.!.!.!.!.!.!.!.!.!.!.!.!.!.!.!.!.!.!.!.!.!.!.!.!.!.!.!.!.!.!.!.!.!.!.!.!.!.!.!.!.!.!.!.!.!.!.!.!.!.!.!.!.!.!.!.!.!.!.!.!.!.!.!.!.!.!.!.!.!.!.!.!.!.!.!.!.!.!.!.!.!.!.!.!.!.!.!.!.!.!.!.!.!.!.!.!.!.!.!.!.!.!.!.!.!.!.!.!.!.!.!.!.!.!.!.!.!.!.!.!.!.!.!.!.!.!.!.!.!.!.!.!.!.!.!.!.!.!.!.!.!.!.!.!.!.!.!.!.!.!.!.!.!.!.!.!.!.!.!.!.!.!.!.!.!.!.!.!.!.!.!.!.!.!.!.!.!.!.!.!.!.!.!.!.!.!.!.!.!.!.!.!.!.!.!.!.!.!.!.!.!.!.!.!.!.!.!.!.!.!.!.!.!.!.!.!.!.!.!.!.!.!.!.!.!.!.!.!.!.!.!.!.!.!.!.!.!.!.!.!.!.!.!.!.!.!.!.!.!.!.!.!.!.!.!.!.!.!.!.!.!.!.!.!.!.!.!.!.!.!.!.!.!.!.!.!.!.!.!.!.!.!.!.!.!.!.!.!.!.!.!.!.!.!.!.!.!.!.!.!.!.!.!.!.!.!.!.!.!.!.!.!.!.!.!.!.!.!.!.!.!.!.!.!.!.!.!.!.!.!.!.!.!.!.!.!.!.!.!.!.!.!.!.!.!.!.!.!.!.!.!.!.!.!.!.!.!.!.!.!.!.!.!.!.!.!.!.!.!.!.!.!.!.!.!.!.!.!.!.!.!.!.!.!.!.!.!.!.!.!.!.!.!.!.!.!.!.!.!.!.!.!.!.!.!.!.!.!.",
"!.!.!.!.!.!.!.!.!.!.!.!.!.!.!.!.!.!.!.!.!.!.!.!.!.!.!.!.!.!.!.!.!.!.!.!.!.!.!.!.!.!.!.!.!.!.!.!.!.!.!.!.!.!.!.!.!.!.!.!.!.!.!.!.!.!.!.!.!.!.!.!.!.!.!.!.!.!.!.!.!.!.!.!.!.!.!.!.!.!.!.!.!.!.!.!.!.!.!.!.!.!.!.!.!.!.!.!.!.!.!.!.!.!.!.!.!.!.!.!.!.!.!.!.!.!.!.!.!.!.!.!.!.!.!.!.!.!.!.!.!.!.!.!.!.!.!.!.!.!.!.!.!.!.!.!.!.!.!.!.!.!.!.!.!.!.!.!.!.!.!.!.!.!.!.!.!.!.!.!.!.!.!.!.!.!.!.!.!.!.!.!.!.!.!.!.!.!.!.!.!.!.!.!.!.!.!.!.!.!.!.!.!.!.!.!.!.!.!.!.!.!.!.!.!.!.!.!.!.!.!.!.!.!.!.!.!.!.!.!.!.!.!.!.!.!.!.!.!.!.!.!.!.!.!.!.!.!.!.!.!.!.!.!.!.!.!.!.!.!.!.!.!.!.!.!.!.!.!.!.!.!.!.!.!.!.!.!.!.!.!.!.!.!.!.!.!.!.!.!.!.!.!.!.!.!.!.!.!.!.!.!.!.!.!.!.!.!.!.!.!.!.!.!.!.!.!.!.!.!.!.!.!.!.!.!.!.!.!.!.!.!.!.!.!.!.!.!.!.!.!.!.!.!.!.!.!.!.!.!.!.!.!.!.!.!.!.!.!.!.!.!.!.!.!.!.!.!.!.!.!.!.!.!.!.!.!.!.!.!.!.!.!.!.!.!.!.!.!.!.!.!.!.!.!.!.!.!.!.!.!.!.!.!.!.!.!.!.!.!.!.!.!.!.!.!.!.!.!.!.!.!.!.!.!.!.!.!.!.!.!.!.!.!.!.!.!.!.!.!.!.!.!.!.!.!.!.!.!.!.!.!.!.!.!.!.!.!.!.!.!.!.!.!.!.!.!.!.!.!.!.!.!.!.!.!.!.!.!.!.!.!.!.!.!.!.!.!.!.!.!.!.!.!.!.!.!.!.!.!.!.!.!.!.!.!.!.!.!.!.!.!.!.!.!.!.!.!.!.!.!.!.!.!.!.!.!.!.!.!.!.!.!.!.!.!.!.!.!.!.!.!.!.!.!.!.!.!.!.!.!.!.!.!.!.!.!.!.!.!.!.!.!.!.!.!.!.!.!.!.!.!.!.",
"!.!.!.!.!.!.!.!.!.!.!.!.!.!.!.!.!.!.!.!.!.!.!.!.!.!.!.!.!.!.!.!.!.!.!.!.!.!.!.!.!.!.!.!.!.!.!.!.!.!.!.!.!.!.!.!.!.!.!.!.!.!.!.!.!.!.!.!.!.!.!.!.!.!.!.!.!.!.!.!.!.!.!.!.!.!.!.!.!.!.!.!.!.!.!.!.!.!.!.!.!.!.!.!.!.!.!.!.!.!.!.!.!.!.!.!.!.!.!.!.!.!.!.!.!.!.!.!.!.!.!.!.!.!.!.!.!.!.!.!.!.!.!.!.!.!.!.!.!.!.!.!.!.!.!.!.!.!.!.!.!.!.!.!.!.!.!.!.!.!.!.!.!.!.!.!.!.!.!.!.!.!.!.!.!.!.!.!.!.!.!.!.!.!.!.!.!.!.!.!.!.!.!.!.!.!.!.!.!.!.!.!.!.!.!.!.!.!.!.!.!.!.!.!.!.!.!.!.!.!.!.!.!.!.!.!.!.!.!.!.!.!.!.!.!.!.!.!.!.!.!.!.!.!.!.!.!.!.!.!.!.!.!.!.!.!.!.!.!.!.!.!.!.!.!.!.!.!.!.!.!.!.!.!.!.!.!.!.!.!.!.!.!.!.!.!.!.!.!.!.!.!.!.!.!.!.!.!.!.!.!.!.!.!.!.!.!.!.!.!.!.!.!.!.!.!.!.!.!.!.!.!.!.!.!.!.!.!.!.!.!.!.!.!.!.!.!.!.!.!.!.!.!.!.!.!.!.!.!.!.!.!.!.!.!.!.!.!.!.!.!.!.!.!.!.!.!.!.!.!.!.!.!.!.!.!.!.!.!.!.!.!.!.!.!.!.!.!.!.!.!.!.!.!.!.!.!.!.!.!.!.!.!.!.!.!.!.!.!.!.!.!.!.!.!.!.!.!.!.!.!.!.!.!.!.!.!.!.!.!.!.!.!.!.!.!.!.!.!.!.!.!.!.!.!.!.!.!.!.!.!.!.!.!.!.!.!.!.!.!.!.!.!.!.!.!.!.!.!.!.!.!.!.!.!.!.!.!.!.!.!.!.!.!.!.!.!.!.!.!.!.!.!.!.!.!.!.!.!.!.!.!.!.!.!.!.!.!.!.!.!.!.!.!.!.!.!.!.!.!.!.!.!.!.!.!.!.!.!.!.!.!.!.!.!.!.!.!.!.!.!.!.!.!.!.!.!.!.!.!.!.!.!.!.!.!.!.!.!.!.!.!.!.!.!.!.!.!.!.!.!.!.!.",
"!.!.!.!.!.!.!.!.!.!.!.!.!.!.!.!.!.!.!.!.!.!.!.!.!.!.!.!.!.!.!.!.!.!.!.!.!.!.!.!.!.!.!.!.!.!.!.!.!.!.!.!.!.!.!.!.!.!.!.!.!.!.!.!.!.!.!.!.!.!.!.!.!.!.!.!.!.!.!.!.!.!.!.!.!.!.!.!.!.!.!.!.!.!.!.!.!.!.!.!.!.!.!.!.!.!.!.!.!.!.!.!.!.!.!.!.!.!.!.!.!.!.!.!.!.!.!.!.!.!.!.!.!.!.!.!.!.!.!.!.!.!.!.!.!.!.!.!.!.!.!.!.!.!.!.!.!.!.!.!.!.!.!.!.!.!.!.!.!.!.!.!.!.!.!.!.!.!.!.!.!.!.!.!.!.!.!.!.!.!.!.!.!.!.!.!.!.!.!.!.!.!.!.!.!.!.!.!.!.!.!.!.!.!.!.!.!.!.!.!.!.!.!.!.!.!.!.!.!.!.!.!.!.!.!.!.!.!.!.!.!.!.!.!.!.!.!.!.!.!.!.!.!.!.!.!.!.!.!.!.!.!.!.!.!.!.!.!.!.!.!.!.!.!.!.!.!.!.!.!.!.!.!.!.!.!.!.!.!.!.!.!.!.!.!.!.!.!.!.!.!.!.!.!.!.!.!.!.!.!.!.!.!.!.!.!.!.!.!.!.!.!.!.!.!.!.!.!.!.!.!.!.!.!.!.!.!.!.!.!.!.!.!.!.!.!.!.!.!.!.!.!.!.!.!.!.!.!.!.!.!.!.!.!.!.!.!.!.!.!.!.!.!.!.!.!.!.!.!.!.!.!.!.!.!.!.!.!.!.!.!.!.!.!.!.!.!.!.!.!.!.!.!.!.!.!.!.!.!.!.!.!.!.!.!.!.!.!.!.!.!.!.!.!.!.!.!.!.!.!.!.!.!.!.!.!.!.!.!.!.!.!.!.!.!.!.!.!.!.!.!.!.!.!.!.!.!.!.!.!.!.!.!.!.!.!.!.!.!.!.!.!.!.!.!.!.!.!.!.!.!.!.!.!.!.!.!.!.!.!.!.!.!.!.!.!.!.!.!.!.!.!.!.!.!.!.!.!.!.!.!.!.!.!.!.!.!.!.!.!.!.!.!.!.!.!.!.!.!.!.!.!.!.!.!.!.!.!.!.!.!.!.!.!.!.!.!.!.!.!.!.!.!.!.!.!.!.!.!.!.!.!.!.!.!.!.!.!.!.!.!.!.!.!.!.!.!.!.!.!.!.!.!.",
"!.!.!.!.!.!.!.!.!.!.!.!.!.!.!.!.!.!.!.!.!.!.!.!.!.!.!.!.!.!.!.!.!.!.!.!.!.!.!.!.!.!.!.!.!.!.!.!.!.!.!.!.!.!.!.!.!.!.!.!.!.!.!.!.!.!.!.!.!.!.!.!.!.!.!.!.!.!.!.!.!.!.!.!.!.!.!.!.!.!.!.!.!.!.!.!.!.!.!.!.!.!.!.!.!.!.!.!.!.!.!.!.!.!.!.!.!.!.!.!.!.!.!.!.!.!.!.!.!.!.!.!.!.!.!.!.!.!.!.!.!.!.!.!.!.!.!.!.!.!.!.!.!.!.!.!.!.!.!.!.!.!.!.!.!.!.!.!.!.!.!.!.!.!.!.!.!.!.!.!.!.!.!.!.!.!.!.!.!.!.!.!.!.!.!.!.!.!.!.!.!.!.!.!.!.!.!.!.!.!.!.!.!.!.!.!.!.!.!.!.!.!.!.!.!.!.!.!.!.!.!.!.!.!.!.!.!.!.!.!.!.!.!.!.!.!.!.!.!.!.!.!.!.!.!.!.!.!.!.!.!.!.!.!.!.!.!.!.!.!.!.!.!.!.!.!.!.!.!.!.!.!.!.!.!.!.!.!.!.!.!.!.!.!.!.!.!.!.!.!.!.!.!.!.!.!.!.!.!.!.!.!.!.!.!.!.!.!.!.!.!.!.!.!.!.!.!.!.!.!.!.!.!.!.!.!.!.!.!.!.!.!.!.!.!.!.!.!.!.!.!.!.!.!.!.!.!.!.!.!.!.!.!.!.!.!.!.!.!.!.!.!.!.!.!.!.!.!.!.!.!.!.!.!.!.!.!.!.!.!.!.!.!.!.!.!.!.!.!.!.!.!.!.!.!.!.!.!.!.!.!.!.!.!.!.!.!.!.!.!.!.!.!.!.!.!.!.!.!.!.!.!.!.!.!.!.!.!.!.!.!.!.!.!.!.!.!.!.!.!.!.!.!.!.!.!.!.!.!.!.!.!.!.!.!.!.!.!.!.!.!.!.!.!.!.!.!.!.!.!.!.!.!.!.!.!.!.!.!.!.!.!.!.!.!.!.!.!.!.!.!.!.!.!.!.!.!.!.!.!.!.!.!.!.!.!.!.!.!.!.!.!.!.!.!.!.!.!.!.!.!.!.!.!.!.!.!.!.!.!.!.!.!.!.!.!.!.!.!.!.!.!.!.!.!.!.!.!.!.!.!.!.!.!.!.!.!.!.!.!.!.!.!.!.!.!.!.!.!.!.!.!.!.",
"!.!.!.!.!.!.!.!.!.!.!.!.!.!.!.!.!.!.!.!.!.!.!.!.!.!.!.!.!.!.!.!.!.!.!.!.!.!.!.!.!.!.!.!.!.!.!.!.!.!.!.!.!.!.!.!.!.!.!.!.!.!.!.!.!.!.!.!.!.!.!.!.!.!.!.!.!.!.!.!.!.!.!.!.!.!.!.!.!.!.!.!.!.!.!.!.!.!.!.!.!.!.!.!.!.!.!.!.!.!.!.!.!.!.!.!.!.!.!.!.!.!.!.!.!.!.!.!.!.!.!.!.!.!.!.!.!.!.!.!.!.!.!.!.!.!.!.!.!.!.!.!.!.!.!.!.!.!.!.!.!.!.!.!.!.!.!.!.!.!.!.!.!.!.!.!.!.!.!.!.!.!.!.!.!.!.!.!.!.!.!.!.!.!.!.!.!.!.!.!.!.!.!.!.!.!.!.!.!.!.!.!.!.!.!.!.!.!.!.!.!.!.!.!.!.!.!.!.!.!.!.!.!.!.!.!.!.!.!.!.!.!.!.!.!.!.!.!.!.!.!.!.!.!.!.!.!.!.!.!.!.!.!.!.!.!.!.!.!.!.!.!.!.!.!.!.!.!.!.!.!.!.!.!.!.!.!.!.!.!.!.!.!.!.!.!.!.!.!.!.!.!.!.!.!.!.!.!.!.!.!.!.!.!.!.!.!.!.!.!.!.!.!.!.!.!.!.!.!.!.!.!.!.!.!.!.!.!.!.!.!.!.!.!.!.!.!.!.!.!.!.!.!.!.!.!.!.!.!.!.!.!.!.!.!.!.!.!.!.!.!.!.!.!.!.!.!.!.!.!.!.!.!.!.!.!.!.!.!.!.!.!.!.!.!.!.!.!.!.!.!.!.!.!.!.!.!.!.!.!.!.!.!.!.!.!.!.!.!.!.!.!.!.!.!.!.!.!.!.!.!.!.!.!.!.!.!.!.!.!.!.!.!.!.!.!.!.!.!.!.!.!.!.!.!.!.!.!.!.!.!.!.!.!.!.!.!.!.!.!.!.!.!.!.!.!.!.!.!.!.!.!.!.!.!.!.!.!.!.!.!.!.!.!.!.!.!.!.!.!.!.!.!.!.!.!.!.!.!.!.!.!.!.!.!.!.!.!.!.!.!.!.!.!.!.!.!.!.!.!.!.!.!.!.!.!.!.!.!.!.!.!.!.!.!.!.!.!.!.!.!.!.!.!.!.!.!.!.!.!.!.!.!.!.!.!.!.!.!.!.!.!.!.!.!.!.!.!.!.!.!.!.!.",
"!.!.!.!.!.!.!.!.!.!.!.!.!.!.!.!.!.!.!.!.!.!.!.!.!.!.!.!.!.!.!.!.!.!.!.!.!.!.!.!.!.!.!.!.!.!.!.!.!.!.!.!.!.!.!.!.!.!.!.!.!.!.!.!.!.!.!.!.!.!.!.!.!.!.!.!.!.!.!.!.!.!.!.!.!.!.!.!.!.!.!.!.!.!.!.!.!.!.!.!.!.!.!.!.!.!.!.!.!.!.!.!.!.!.!.!.!.!.!.!.!.!.!.!.!.!.!.!.!.!.!.!.!.!.!.!.!.!.!.!.!.!.!.!.!.!.!.!.!.!.!.!.!.!.!.!.!.!.!.!.!.!.!.!.!.!.!.!.!.!.!.!.!.!.!.!.!.!.!.!.!.!.!.!.!.!.!.!.!.!.!.!.!.!.!.!.!.!.!.!.!.!.!.!.!.!.!.!.!.!.!.!.!.!.!.!.!.!.!.!.!.!.!.!.!.!.!.!.!.!.!.!.!.!.!.!.!.!.!.!.!.!.!.!.!.!.!.!.!.!.!.!.!.!.!.!.!.!.!.!.!.!.!.!.!.!.!.!.!.!.!.!.!.!.!.!.!.!.!.!.!.!.!.!.!.!.!.!.!.!.!.!.!.!.!.!.!.!.!.!.!.!.!.!.!.!.!.!.!.!.!.!.!.!.!.!.!.!.!.!.!.!.!.!.!.!.!.!.!.!.!.!.!.!.!.!.!.!.!.!.!.!.!.!.!.!.!.!.!.!.!.!.!.!.!.!.!.!.!.!.!.!.!.!.!.!.!.!.!.!.!.!.!.!.!.!.!.!.!.!.!.!.!.!.!.!.!.!.!.!.!.!.!.!.!.!.!.!.!.!.!.!.!.!.!.!.!.!.!.!.!.!.!.!.!.!.!.!.!.!.!.!.!.!.!.!.!.!.!.!.!.!.!.!.!.!.!.!.!.!.!.!.!.!.!.!.!.!.!.!.!.!.!.!.!.!.!.!.!.!.!.!.!.!.!.!.!.!.!.!.!.!.!.!.!.!.!.!.!.!.!.!.!.!.!.!.!.!.!.!.!.!.!.!.!.!.!.!.!.!.!.!.!.!.!.!.!.!.!.!.!.!.!.!.!.!.!.!.!.!.!.!.!.!.!.!.!.!.!.!.!.!.!.!.!.!.!.!.!.!.!.!.!.!.!.!.!.!.!.!.!.!.!.!.!.!.!.!.!.!.!.!.!.!.!.!.!.!.!.!.!.!.!.!.!.!.!.!.!.!.!.!.!.",
"!.!.!.!.!.!.!.!.!.!.!.!.!.!.!.!.!.!.!.!.!.!.!.!.!.!.!.!.!.!.!.!.!.!.!.!.!.!.!.!.!.!.!.!.!.!.!.!.!.!.!.!.!.!.!.!.!.!.!.!.!.!.!.!.!.!.!.!.!.!.!.!.!.!.!.!.!.!.!.!.!.!.!.!.!.!.!.!.!.!.!.!.!.!.!.!.!.!.!.!.!.!.!.!.!.!.!.!.!.!.!.!.!.!.!.!.!.!.!.!.!.!.!.!.!.!.!.!.!.!.!.!.!.!.!.!.!.!.!.!.!.!.!.!.!.!.!.!.!.!.!.!.!.!.!.!.!.!.!.!.!.!.!.!.!.!.!.!.!.!.!.!.!.!.!.!.!.!.!.!.!.!.!.!.!.!.!.!.!.!.!.!.!.!.!.!.!.!.!.!.!.!.!.!.!.!.!.!.!.!.!.!.!.!.!.!.!.!.!.!.!.!.!.!.!.!.!.!.!.!.!.!.!.!.!.!.!.!.!.!.!.!.!.!.!.!.!.!.!.!.!.!.!.!.!.!.!.!.!.!.!.!.!.!.!.!.!.!.!.!.!.!.!.!.!.!.!.!.!.!.!.!.!.!.!.!.!.!.!.!.!.!.!.!.!.!.!.!.!.!.!.!.!.!.!.!.!.!.!.!.!.!.!.!.!.!.!.!.!.!.!.!.!.!.!.!.!.!.!.!.!.!.!.!.!.!.!.!.!.!.!.!.!.!.!.!.!.!.!.!.!.!.!.!.!.!.!.!.!.!.!.!.!.!.!.!.!.!.!.!.!.!.!.!.!.!.!.!.!.!.!.!.!.!.!.!.!.!.!.!.!.!.!.!.!.!.!.!.!.!.!.!.!.!.!.!.!.!.!.!.!.!.!.!.!.!.!.!.!.!.!.!.!.!.!.!.!.!.!.!.!.!.!.!.!.!.!.!.!.!.!.!.!.!.!.!.!.!.!.!.!.!.!.!.!.!.!.!.!.!.!.!.!.!.!.!.!.!.!.!.!.!.!.!.!.!.!.!.!.!.!.!.!.!.!.!.!.!.!.!.!.!.!.!.!.!.!.!.!.!.!.!.!.!.!.!.!.!.!.!.!.!.!.!.!.!.!.!.!.!.!.!.!.!.!.!.!.!.!.!.!.!.!.!.!.!.!.!.!.!.!.!.!.!.!.!.!.!.!.!.!.!.!.!.!.!.!.!.!.!.!.!.!.!.!.!.!.!.!.!.!.!.!.!.!.!.!.!.!.!.!.!.!.",
"!.!.!.!.!.!.!.!.!.!.!.!.!.!.!.!.!.!.!.!.!.!.!.!.!.!.!.!.!.!.!.!.!.!.!.!.!.!.!.!.!.!.!.!.!.!.!.!.!.!.!.!.!.!.!.!.!.!.!.!.!.!.!.!.!.!.!.!.!.!.!.!.!.!.!.!.!.!.!.!.!.!.!.!.!.!.!.!.!.!.!.!.!.!.!.!.!.!.!.!.!.!.!.!.!.!.!.!.!.!.!.!.!.!.!.!.!.!.!.!.!.!.!.!.!.!.!.!.!.!.!.!.!.!.!.!.!.!.!.!.!.!.!.!.!.!.!.!.!.!.!.!.!.!.!.!.!.!.!.!.!.!.!.!.!.!.!.!.!.!.!.!.!.!.!.!.!.!.!.!.!.!.!.!.!.!.!.!.!.!.!.!.!.!.!.!.!.!.!.!.!.!.!.!.!.!.!.!.!.!.!.!.!.!.!.!.!.!.!.!.!.!.!.!.!.!.!.!.!.!.!.!.!.!.!.!.!.!.!.!.!.!.!.!.!.!.!.!.!.!.!.!.!.!.!.!.!.!.!.!.!.!.!.!.!.!.!.!.!.!.!.!.!.!.!.!.!.!.!.!.!.!.!.!.!.!.!.!.!.!.!.!.!.!.!.!.!.!.!.!.!.!.!.!.!.!.!.!.!.!.!.!.!.!.!.!.!.!.!.!.!.!.!.!.!.!.!.!.!.!.!.!.!.!.!.!.!.!.!.!.!.!.!.!.!.!.!.!.!.!.!.!.!.!.!.!.!.!.!.!.!.!.!.!.!.!.!.!.!.!.!.!.!.!.!.!.!.!.!.!.!.!.!.!.!.!.!.!.!.!.!.!.!.!.!.!.!.!.!.!.!.!.!.!.!.!.!.!.!.!.!.!.!.!.!.!.!.!.!.!.!.!.!.!.!.!.!.!.!.!.!.!.!.!.!.!.!.!.!.!.!.!.!.!.!.!.!.!.!.!.!.!.!.!.!.!.!.!.!.!.!.!.!.!.!.!.!.!.!.!.!.!.!.!.!.!.!.!.!.!.!.!.!.!.!.!.!.!.!.!.!.!.!.!.!.!.!.!.!.!.!.!.!.!.!.!.!.!.!.!.!.!.!.!.!.!.!.!.!.!.!.!.!.!.!.!.!.!.!.!.!.!.!.!.!.!.!.!.!.!.!.!.!.!.!.!.!.!.!.!.!.!.!.!.!.!.!.!.!.!.!.!.!.!.!.!.!.!.!.!.!.!.!.!.!.!.!.!.!.!.!.!.!.",
"!.!.!.!.!.!.!.!.!.!.!.!.!.!.!.!.!.!.!.!.!.!.!.!.!.!.!.!.!.!.!.!.!.!.!.!.!.!.!.!.!.!.!.!.!.!.!.!.!.!.!.!.!.!.!.!.!.!.!.!.!.!.!.!.!.!.!.!.!.!.!.!.!.!.!.!.!.!.!.!.!.!.!.!.!.!.!.!.!.!.!.!.!.!.!.!.!.!.!.!.!.!.!.!.!.!.!.!.!.!.!.!.!.!.!.!.!.!.!.!.!.!.!.!.!.!.!.!.!.!.!.!.!.!.!.!.!.!.!.!.!.!.!.!.!.!.!.!.!.!.!.!.!.!.!.!.!.!.!.!.!.!.!.!.!.!.!.!.!.!.!.!.!.!.!.!.!.!.!.!.!.!.!.!.!.!.!.!.!.!.!.!.!.!.!.!.!.!.!.!.!.!.!.!.!.!.!.!.!.!.!.!.!.!.!.!.!.!.!.!.!.!.!.!.!.!.!.!.!.!.!.!.!.!.!.!.!.!.!.!.!.!.!.!.!.!.!.!.!.!.!.!.!.!.!.!.!.!.!.!.!.!.!.!.!.!.!.!.!.!.!.!.!.!.!.!.!.!.!.!.!.!.!.!.!.!.!.!.!.!.!.!.!.!.!.!.!.!.!.!.!.!.!.!.!.!.!.!.!.!.!.!.!.!.!.!.!.!.!.!.!.!.!.!.!.!.!.!.!.!.!.!.!.!.!.!.!.!.!.!.!.!.!.!.!.!.!.!.!.!.!.!.!.!.!.!.!.!.!.!.!.!.!.!.!.!.!.!.!.!.!.!.!.!.!.!.!.!.!.!.!.!.!.!.!.!.!.!.!.!.!.!.!.!.!.!.!.!.!.!.!.!.!.!.!.!.!.!.!.!.!.!.!.!.!.!.!.!.!.!.!.!.!.!.!.!.!.!.!.!.!.!.!.!.!.!.!.!.!.!.!.!.!.!.!.!.!.!.!.!.!.!.!.!.!.!.!.!.!.!.!.!.!.!.!.!.!.!.!.!.!.!.!.!.!.!.!.!.!.!.!.!.!.!.!.!.!.!.!.!.!.!.!.!.!.!.!.!.!.!.!.!.!.!.!.!.!.!.!.!.!.!.!.!.!.!.!.!.!.!.!.!.!.!.!.!.!.!.!.!.!.!.!.!.!.!.!.!.!.!.!.!.!.!.!.!.!.!.!.!.!.!.!.!.!.!.!.!.!.!.!.!.!.!.!.!.!.!.!.!.!.!.!.!.!.!.!.!.!.!.!.!.!.",
"!.!.!.!.!.!.!.!.!.!.!.!.!.!.!.!.!.!.!.!.!.!.!.!.!.!.!.!.!.!.!.!.!.!.!.!.!.!.!.!.!.!.!.!.!.!.!.!.!.!.!.!.!.!.!.!.!.!.!.!.!.!.!.!.!.!.!.!.!.!.!.!.!.!.!.!.!.!.!.!.!.!.!.!.!.!.!.!.!.!.!.!.!.!.!.!.!.!.!.!.!.!.!.!.!.!.!.!.!.!.!.!.!.!.!.!.!.!.!.!.!.!.!.!.!.!.!.!.!.!.!.!.!.!.!.!.!.!.!.!.!.!.!.!.!.!.!.!.!.!.!.!.!.!.!.!.!.!.!.!.!.!.!.!.!.!.!.!.!.!.!.!.!.!.!.!.!.!.!.!.!.!.!.!.!.!.!.!.!.!.!.!.!.!.!.!.!.!.!.!.!.!.!.!.!.!.!.!.!.!.!.!.!.!.!.!.!.!.!.!.!.!.!.!.!.!.!.!.!.!.!.!.!.!.!.!.!.!.!.!.!.!.!.!.!.!.!.!.!.!.!.!.!.!.!.!.!.!.!.!.!.!.!.!.!.!.!.!.!.!.!.!.!.!.!.!.!.!.!.!.!.!.!.!.!.!.!.!.!.!.!.!.!.!.!.!.!.!.!.!.!.!.!.!.!.!.!.!.!.!.!.!.!.!.!.!.!.!.!.!.!.!.!.!.!.!.!.!.!.!.!.!.!.!.!.!.!.!.!.!.!.!.!.!.!.!.!.!.!.!.!.!.!.!.!.!.!.!.!.!.!.!.!.!.!.!.!.!.!.!.!.!.!.!.!.!.!.!.!.!.!.!.!.!.!.!.!.!.!.!.!.!.!.!.!.!.!.!.!.!.!.!.!.!.!.!.!.!.!.!.!.!.!.!.!.!.!.!.!.!.!.!.!.!.!.!.!.!.!.!.!.!.!.!.!.!.!.!.!.!.!.!.!.!.!.!.!.!.!.!.!.!.!.!.!.!.!.!.!.!.!.!.!.!.!.!.!.!.!.!.!.!.!.!.!.!.!.!.!.!.!.!.!.!.!.!.!.!.!.!.!.!.!.!.!.!.!.!.!.!.!.!.!.!.!.!.!.!.!.!.!.!.!.!.!.!.!.!.!.!.!.!.!.!.!.!.!.!.!.!.!.!.!.!.!.!.!.!.!.!.!.!.!.!.!.!.!.!.!.!.!.!.!.!.!.!.!.!.!.!.!.!.!.!.!.!.!.!.!.!.!.!.!.!.!.!.!.!.!.!.!.!.!.",
"!.!.!.!.!.!.!.!.!.!.!.!.!.!.!.!.!.!.!.!.!.!.!.!.!.!.!.!.!.!.!.!.!.!.!.!.!.!.!.!.!.!.!.!.!.!.!.!.!.!.!.!.!.!.!.!.!.!.!.!.!.!.!.!.!.!.!.!.!.!.!.!.!.!.!.!.!.!.!.!.!.!.!.!.!.!.!.!.!.!.!.!.!.!.!.!.!.!.!.!.!.!.!.!.!.!.!.!.!.!.!.!.!.!.!.!.!.!.!.!.!.!.!.!.!.!.!.!.!.!.!.!.!.!.!.!.!.!.!.!.!.!.!.!.!.!.!.!.!.!.!.!.!.!.!.!.!.!.!.!.!.!.!.!.!.!.!.!.!.!.!.!.!.!.!.!.!.!.!.!.!.!.!.!.!.!.!.!.!.!.!.!.!.!.!.!.!.!.!.!.!.!.!.!.!.!.!.!.!.!.!.!.!.!.!.!.!.!.!.!.!.!.!.!.!.!.!.!.!.!.!.!.!.!.!.!.!.!.!.!.!.!.!.!.!.!.!.!.!.!.!.!.!.!.!.!.!.!.!.!.!.!.!.!.!.!.!.!.!.!.!.!.!.!.!.!.!.!.!.!.!.!.!.!.!.!.!.!.!.!.!.!.!.!.!.!.!.!.!.!.!.!.!.!.!.!.!.!.!.!.!.!.!.!.!.!.!.!.!.!.!.!.!.!.!.!.!.!.!.!.!.!.!.!.!.!.!.!.!.!.!.!.!.!.!.!.!.!.!.!.!.!.!.!.!.!.!.!.!.!.!.!.!.!.!.!.!.!.!.!.!.!.!.!.!.!.!.!.!.!.!.!.!.!.!.!.!.!.!.!.!.!.!.!.!.!.!.!.!.!.!.!.!.!.!.!.!.!.!.!.!.!.!.!.!.!.!.!.!.!.!.!.!.!.!.!.!.!.!.!.!.!.!.!.!.!.!.!.!.!.!.!.!.!.!.!.!.!.!.!.!.!.!.!.!.!.!.!.!.!.!.!.!.!.!.!.!.!.!.!.!.!.!.!.!.!.!.!.!.!.!.!.!.!.!.!.!.!.!.!.!.!.!.!.!.!.!.!.!.!.!.!.!.!.!.!.!.!.!.!.!.!.!.!.!.!.!.!.!.!.!.!.!.!.!.!.!.!.!.!.!.!.!.!.!.!.!.!.!.!.!.!.!.!.!.!.!.!.!.!.!.!.!.!.!.!.!.!.!.!.!.!.!.!.!.!.!.!.!.!.!.!.!.!.!.!.!.!.!.!.!.!.!.",
"!.!.!.!.!.!.!.!.!.!.!.!.!.!.!.!.!.!.!.!.!.!.!.!.!.!.!.!.!.!.!.!.!.!.!.!.!.!.!.!.!.!.!.!.!.!.!.!.!.!.!.!.!.!.!.!.!.!.!.!.!.!.!.!.!.!.!.!.!.!.!.!.!.!.!.!.!.!.!.!.!.!.!.!.!.!.!.!.!.!.!.!.!.!.!.!.!.!.!.!.!.!.!.!.!.!.!.!.!.!.!.!.!.!.!.!.!.!.!.!.!.!.!.!.!.!.!.!.!.!.!.!.!.!.!.!.!.!.!.!.!.!.!.!.!.!.!.!.!.!.!.!.!.!.!.!.!.!.!.!.!.!.!.!.!.!.!.!.!.!.!.!.!.!.!.!.!.!.!.!.!.!.!.!.!.!.!.!.!.!.!.!.!.!.!.!.!.!.!.!.!.!.!.!.!.!.!.!.!.!.!.!.!.!.!.!.!.!.!.!.!.!.!.!.!.!.!.!.!.!.!.!.!.!.!.!.!.!.!.!.!.!.!.!.!.!.!.!.!.!.!.!.!.!.!.!.!.!.!.!.!.!.!.!.!.!.!.!.!.!.!.!.!.!.!.!.!.!.!.!.!.!.!.!.!.!.!.!.!.!.!.!.!.!.!.!.!.!.!.!.!.!.!.!.!.!.!.!.!.!.!.!.!.!.!.!.!.!.!.!.!.!.!.!.!.!.!.!.!.!.!.!.!.!.!.!.!.!.!.!.!.!.!.!.!.!.!.!.!.!.!.!.!.!.!.!.!.!.!.!.!.!.!.!.!.!.!.!.!.!.!.!.!.!.!.!.!.!.!.!.!.!.!.!.!.!.!.!.!.!.!.!.!.!.!.!.!.!.!.!.!.!.!.!.!.!.!.!.!.!.!.!.!.!.!.!.!.!.!.!.!.!.!.!.!.!.!.!.!.!.!.!.!.!.!.!.!.!.!.!.!.!.!.!.!.!.!.!.!.!.!.!.!.!.!.!.!.!.!.!.!.!.!.!.!.!.!.!.!.!.!.!.!.!.!.!.!.!.!.!.!.!.!.!.!.!.!.!.!.!.!.!.!.!.!.!.!.!.!.!.!.!.!.!.!.!.!.!.!.!.!.!.!.!.!.!.!.!.!.!.!.!.!.!.!.!.!.!.!.!.!.!.!.!.!.!.!.!.!.!.!.!.!.!.!.!.!.!.!.!.!.!.!.!.!.!.!.!.!.!.!.!.!.!.!.!.!.!.!.!.!.!.!.!.!.!.!.!.!.!.!.!.!.",
"!.!.!.!.!.!.!.!.!.!.!.!.!.!.!.!.!.!.!.!.!.!.!.!.!.!.!.!.!.!.!.!.!.!.!.!.!.!.!.!.!.!.!.!.!.!.!.!.!.!.!.!.!.!.!.!.!.!.!.!.!.!.!.!.!.!.!.!.!.!.!.!.!.!.!.!.!.!.!.!.!.!.!.!.!.!.!.!.!.!.!.!.!.!.!.!.!.!.!.!.!.!.!.!.!.!.!.!.!.!.!.!.!.!.!.!.!.!.!.!.!.!.!.!.!.!.!.!.!.!.!.!.!.!.!.!.!.!.!.!.!.!.!.!.!.!.!.!.!.!.!.!.!.!.!.!.!.!.!.!.!.!.!.!.!.!.!.!.!.!.!.!.!.!.!.!.!.!.!.!.!.!.!.!.!.!.!.!.!.!.!.!.!.!.!.!.!.!.!.!.!.!.!.!.!.!.!.!.!.!.!.!.!.!.!.!.!.!.!.!.!.!.!.!.!.!.!.!.!.!.!.!.!.!.!.!.!.!.!.!.!.!.!.!.!.!.!.!.!.!.!.!.!.!.!.!.!.!.!.!.!.!.!.!.!.!.!.!.!.!.!.!.!.!.!.!.!.!.!.!.!.!.!.!.!.!.!.!.!.!.!.!.!.!.!.!.!.!.!.!.!.!.!.!.!.!.!.!.!.!.!.!.!.!.!.!.!.!.!.!.!.!.!.!.!.!.!.!.!.!.!.!.!.!.!.!.!.!.!.!.!.!.!.!.!.!.!.!.!.!.!.!.!.!.!.!.!.!.!.!.!.!.!.!.!.!.!.!.!.!.!.!.!.!.!.!.!.!.!.!.!.!.!.!.!.!.!.!.!.!.!.!.!.!.!.!.!.!.!.!.!.!.!.!.!.!.!.!.!.!.!.!.!.!.!.!.!.!.!.!.!.!.!.!.!.!.!.!.!.!.!.!.!.!.!.!.!.!.!.!.!.!.!.!.!.!.!.!.!.!.!.!.!.!.!.!.!.!.!.!.!.!.!.!.!.!.!.!.!.!.!.!.!.!.!.!.!.!.!.!.!.!.!.!.!.!.!.!.!.!.!.!.!.!.!.!.!.!.!.!.!.!.!.!.!.!.!.!.!.!.!.!.!.!.!.!.!.!.!.!.!.!.!.!.!.!.!.!.!.!.!.!.!.!.!.!.!.!.!.!.!.!.!.!.!.!.!.!.!.!.!.!.!.!.!.!.!.!.!.!.!.!.!.!.!.!.!.!.!.!.!.!.!.!.!.!.!.!.!.!.!.!.!.",
"!.!.!.!.!.!.!.!.!.!.!.!.!.!.!.!.!.!.!.!.!.!.!.!.!.!.!.!.!.!.!.!.!.!.!.!.!.!.!.!.!.!.!.!.!.!.!.!.!.!.!.!.!.!.!.!.!.!.!.!.!.!.!.!.!.!.!.!.!.!.!.!.!.!.!.!.!.!.!.!.!.!.!.!.!.!.!.!.!.!.!.!.!.!.!.!.!.!.!.!.!.!.!.!.!.!.!.!.!.!.!.!.!.!.!.!.!.!.!.!.!.!.!.!.!.!.!.!.!.!.!.!.!.!.!.!.!.!.!.!.!.!.!.!.!.!.!.!.!.!.!.!.!.!.!.!.!.!.!.!.!.!.!.!.!.!.!.!.!.!.!.!.!.!.!.!.!.!.!.!.!.!.!.!.!.!.!.!.!.!.!.!.!.!.!.!.!.!.!.!.!.!.!.!.!.!.!.!.!.!.!.!.!.!.!.!.!.!.!.!.!.!.!.!.!.!.!.!.!.!.!.!.!.!.!.!.!.!.!.!.!.!.!.!.!.!.!.!.!.!.!.!.!.!.!.!.!.!.!.!.!.!.!.!.!.!.!.!.!.!.!.!.!.!.!.!.!.!.!.!.!.!.!.!.!.!.!.!.!.!.!.!.!.!.!.!.!.!.!.!.!.!.!.!.!.!.!.!.!.!.!.!.!.!.!.!.!.!.!.!.!.!.!.!.!.!.!.!.!.!.!.!.!.!.!.!.!.!.!.!.!.!.!.!.!.!.!.!.!.!.!.!.!.!.!.!.!.!.!.!.!.!.!.!.!.!.!.!.!.!.!.!.!.!.!.!.!.!.!.!.!.!.!.!.!.!.!.!.!.!.!.!.!.!.!.!.!.!.!.!.!.!.!.!.!.!.!.!.!.!.!.!.!.!.!.!.!.!.!.!.!.!.!.!.!.!.!.!.!.!.!.!.!.!.!.!.!.!.!.!.!.!.!.!.!.!.!.!.!.!.!.!.!.!.!.!.!.!.!.!.!.!.!.!.!.!.!.!.!.!.!.!.!.!.!.!.!.!.!.!.!.!.!.!.!.!.!.!.!.!.!.!.!.!.!.!.!.!.!.!.!.!.!.!.!.!.!.!.!.!.!.!.!.!.!.!.!.!.!.!.!.!.!.!.!.!.!.!.!.!.!.!.!.!.!.!.!.!.!.!.!.!.!.!.!.!.!.!.!.!.!.!.!.!.!.!.!.!.!.!.!.!.!.!.!.!.!.!.!.!.!.!.!.!.!.!.!.!.!.!.!.!.!.",
"!.!.!.!.!.!.!.!.!.!.!.!.!.!.!.!.!.!.!.!.!.!.!.!.!.!.!.!.!.!.!.!.!.!.!.!.!.!.!.!.!.!.!.!.!.!.!.!.!.!.!.!.!.!.!.!.!.!.!.!.!.!.!.!.!.!.!.!.!.!.!.!.!.!.!.!.!.!.!.!.!.!.!.!.!.!.!.!.!.!.!.!.!.!.!.!.!.!.!.!.!.!.!.!.!.!.!.!.!.!.!.!.!.!.!.!.!.!.!.!.!.!.!.!.!.!.!.!.!.!.!.!.!.!.!.!.!.!.!.!.!.!.!.!.!.!.!.!.!.!.!.!.!.!.!.!.!.!.!.!.!.!.!.!.!.!.!.!.!.!.!.!.!.!.!.!.!.!.!.!.!.!.!.!.!.!.!.!.!.!.!.!.!.!.!.!.!.!.!.!.!.!.!.!.!.!.!.!.!.!.!.!.!.!.!.!.!.!.!.!.!.!.!.!.!.!.!.!.!.!.!.!.!.!.!.!.!.!.!.!.!.!.!.!.!.!.!.!.!.!.!.!.!.!.!.!.!.!.!.!.!.!.!.!.!.!.!.!.!.!.!.!.!.!.!.!.!.!.!.!.!.!.!.!.!.!.!.!.!.!.!.!.!.!.!.!.!.!.!.!.!.!.!.!.!.!.!.!.!.!.!.!.!.!.!.!.!.!.!.!.!.!.!.!.!.!.!.!.!.!.!.!.!.!.!.!.!.!.!.!.!.!.!.!.!.!.!.!.!.!.!.!.!.!.!.!.!.!.!.!.!.!.!.!.!.!.!.!.!.!.!.!.!.!.!.!.!.!.!.!.!.!.!.!.!.!.!.!.!.!.!.!.!.!.!.!.!.!.!.!.!.!.!.!.!.!.!.!.!.!.!.!.!.!.!.!.!.!.!.!.!.!.!.!.!.!.!.!.!.!.!.!.!.!.!.!.!.!.!.!.!.!.!.!.!.!.!.!.!.!.!.!.!.!.!.!.!.!.!.!.!.!.!.!.!.!.!.!.!.!.!.!.!.!.!.!.!.!.!.!.!.!.!.!.!.!.!.!.!.!.!.!.!.!.!.!.!.!.!.!.!.!.!.!.!.!.!.!.!.!.!.!.!.!.!.!.!.!.!.!.!.!.!.!.!.!.!.!.!.!.!.!.!.!.!.!.!.!.!.!.!.!.!.!.!.!.!.!.!.!.!.!.!.!.!.!.!.!.!.!.!.!.!.!.!.!.!.!.!.!.!.!.!.!.!.!.!.!.!.!.!.!.!.",
"!.!.!.!.!.!.!.!.!.!.!.!.!.!.!.!.!.!.!.!.!.!.!.!.!.!.!.!.!.!.!.!.!.!.!.!.!.!.!.!.!.!.!.!.!.!.!.!.!.!.!.!.!.!.!.!.!.!.!.!.!.!.!.!.!.!.!.!.!.!.!.!.!.!.!.!.!.!.!.!.!.!.!.!.!.!.!.!.!.!.!.!.!.!.!.!.!.!.!.!.!.!.!.!.!.!.!.!.!.!.!.!.!.!.!.!.!.!.!.!.!.!.!.!.!.!.!.!.!.!.!.!.!.!.!.!.!.!.!.!.!.!.!.!.!.!.!.!.!.!.!.!.!.!.!.!.!.!.!.!.!.!.!.!.!.!.!.!.!.!.!.!.!.!.!.!.!.!.!.!.!.!.!.!.!.!.!.!.!.!.!.!.!.!.!.!.!.!.!.!.!.!.!.!.!.!.!.!.!.!.!.!.!.!.!.!.!.!.!.!.!.!.!.!.!.!.!.!.!.!.!.!.!.!.!.!.!.!.!.!.!.!.!.!.!.!.!.!.!.!.!.!.!.!.!.!.!.!.!.!.!.!.!.!.!.!.!.!.!.!.!.!.!.!.!.!.!.!.!.!.!.!.!.!.!.!.!.!.!.!.!.!.!.!.!.!.!.!.!.!.!.!.!.!.!.!.!.!.!.!.!.!.!.!.!.!.!.!.!.!.!.!.!.!.!.!.!.!.!.!.!.!.!.!.!.!.!.!.!.!.!.!.!.!.!.!.!.!.!.!.!.!.!.!.!.!.!.!.!.!.!.!.!.!.!.!.!.!.!.!.!.!.!.!.!.!.!.!.!.!.!.!.!.!.!.!.!.!.!.!.!.!.!.!.!.!.!.!.!.!.!.!.!.!.!.!.!.!.!.!.!.!.!.!.!.!.!.!.!.!.!.!.!.!.!.!.!.!.!.!.!.!.!.!.!.!.!.!.!.!.!.!.!.!.!.!.!.!.!.!.!.!.!.!.!.!.!.!.!.!.!.!.!.!.!.!.!.!.!.!.!.!.!.!.!.!.!.!.!.!.!.!.!.!.!.!.!.!.!.!.!.!.!.!.!.!.!.!.!.!.!.!.!.!.!.!.!.!.!.!.!.!.!.!.!.!.!.!.!.!.!.!.!.!.!.!.!.!.!.!.!.!.!.!.!.!.!.!.!.!.!.!.!.!.!.!.!.!.!.!.!.!.!.!.!.!.!.!.!.!.!.!.!.!.!.!.!.!.!.!.!.!.!.!.!.!.!.!.!.!.!.!.!.",
"!.!.!.!.!.!.!.!.!.!.!.!.!.!.!.!.!.!.!.!.!.!.!.!.!.!.!.!.!.!.!.!.!.!.!.!.!.!.!.!.!.!.!.!.!.!.!.!.!.!.!.!.!.!.!.!.!.!.!.!.!.!.!.!.!.!.!.!.!.!.!.!.!.!.!.!.!.!.!.!.!.!.!.!.!.!.!.!.!.!.!.!.!.!.!.!.!.!.!.!.!.!.!.!.!.!.!.!.!.!.!.!.!.!.!.!.!.!.!.!.!.!.!.!.!.!.!.!.!.!.!.!.!.!.!.!.!.!.!.!.!.!.!.!.!.!.!.!.!.!.!.!.!.!.!.!.!.!.!.!.!.!.!.!.!.!.!.!.!.!.!.!.!.!.!.!.!.!.!.!.!.!.!.!.!.!.!.!.!.!.!.!.!.!.!.!.!.!.!.!.!.!.!.!.!.!.!.!.!.!.!.!.!.!.!.!.!.!.!.!.!.!.!.!.!.!.!.!.!.!.!.!.!.!.!.!.!.!.!.!.!.!.!.!.!.!.!.!.!.!.!.!.!.!.!.!.!.!.!.!.!.!.!.!.!.!.!.!.!.!.!.!.!.!.!.!.!.!.!.!.!.!.!.!.!.!.!.!.!.!.!.!.!.!.!.!.!.!.!.!.!.!.!.!.!.!.!.!.!.!.!.!.!.!.!.!.!.!.!.!.!.!.!.!.!.!.!.!.!.!.!.!.!.!.!.!.!.!.!.!.!.!.!.!.!.!.!.!.!.!.!.!.!.!.!.!.!.!.!.!.!.!.!.!.!.!.!.!.!.!.!.!.!.!.!.!.!.!.!.!.!.!.!.!.!.!.!.!.!.!.!.!.!.!.!.!.!.!.!.!.!.!.!.!.!.!.!.!.!.!.!.!.!.!.!.!.!.!.!.!.!.!.!.!.!.!.!.!.!.!.!.!.!.!.!.!.!.!.!.!.!.!.!.!.!.!.!.!.!.!.!.!.!.!.!.!.!.!.!.!.!.!.!.!.!.!.!.!.!.!.!.!.!.!.!.!.!.!.!.!.!.!.!.!.!.!.!.!.!.!.!.!.!.!.!.!.!.!.!.!.!.!.!.!.!.!.!.!.!.!.!.!.!.!.!.!.!.!.!.!.!.!.!.!.!.!.!.!.!.!.!.!.!.!.!.!.!.!.!.!.!.!.!.!.!.!.!.!.!.!.!.!.!.!.!.!.!.!.!.!.!.!.!.!.!.!.!.!.!.!.!.!.!.!.!.!.!.!.!.!.!.!.!.",
"!.!.!.!.!.!.!.!.!.!.!.!.!.!.!.!.!.!.!.!.!.!.!.!.!.!.!.!.!.!.!.!.!.!.!.!.!.!.!.!.!.!.!.!.!.!.!.!.!.!.!.!.!.!.!.!.!.!.!.!.!.!.!.!.!.!.!.!.!.!.!.!.!.!.!.!.!.!.!.!.!.!.!.!.!.!.!.!.!.!.!.!.!.!.!.!.!.!.!.!.!.!.!.!.!.!.!.!.!.!.!.!.!.!.!.!.!.!.!.!.!.!.!.!.!.!.!.!.!.!.!.!.!.!.!.!.!.!.!.!.!.!.!.!.!.!.!.!.!.!.!.!.!.!.!.!.!.!.!.!.!.!.!.!.!.!.!.!.!.!.!.!.!.!.!.!.!.!.!.!.!.!.!.!.!.!.!.!.!.!.!.!.!.!.!.!.!.!.!.!.!.!.!.!.!.!.!.!.!.!.!.!.!.!.!.!.!.!.!.!.!.!.!.!.!.!.!.!.!.!.!.!.!.!.!.!.!.!.!.!.!.!.!.!.!.!.!.!.!.!.!.!.!.!.!.!.!.!.!.!.!.!.!.!.!.!.!.!.!.!.!.!.!.!.!.!.!.!.!.!.!.!.!.!.!.!.!.!.!.!.!.!.!.!.!.!.!.!.!.!.!.!.!.!.!.!.!.!.!.!.!.!.!.!.!.!.!.!.!.!.!.!.!.!.!.!.!.!.!.!.!.!.!.!.!.!.!.!.!.!.!.!.!.!.!.!.!.!.!.!.!.!.!.!.!.!.!.!.!.!.!.!.!.!.!.!.!.!.!.!.!.!.!.!.!.!.!.!.!.!.!.!.!.!.!.!.!.!.!.!.!.!.!.!.!.!.!.!.!.!.!.!.!.!.!.!.!.!.!.!.!.!.!.!.!.!.!.!.!.!.!.!.!.!.!.!.!.!.!.!.!.!.!.!.!.!.!.!.!.!.!.!.!.!.!.!.!.!.!.!.!.!.!.!.!.!.!.!.!.!.!.!.!.!.!.!.!.!.!.!.!.!.!.!.!.!.!.!.!.!.!.!.!.!.!.!.!.!.!.!.!.!.!.!.!.!.!.!.!.!.!.!.!.!.!.!.!.!.!.!.!.!.!.!.!.!.!.!.!.!.!.!.!.!.!.!.!.!.!.!.!.!.!.!.!.!.!.!.!.!.!.!.!.!.!.!.!.!.!.!.!.!.!.!.!.!.!.!.!.!.!.!.!.!.!.!.!.!.!.!.!.!.!.!.!.!.!.!.!.!.!.!.!.",
"!.!.!.!.!.!.!.!.!.!.!.!.!.!.!.!.!.!.!.!.!.!.!.!.!.!.!.!.!.!.!.!.!.!.!.!.!.!.!.!.!.!.!.!.!.!.!.!.!.!.!.!.!.!.!.!.!.!.!.!.!.!.!.!.!.!.!.!.!.!.!.!.!.!.!.!.!.!.!.!.!.!.!.!.!.!.!.!.!.!.!.!.!.!.!.!.!.!.!.!.!.!.!.!.!.!.!.!.!.!.!.!.!.!.!.!.!.!.!.!.!.!.!.!.!.!.!.!.!.!.!.!.!.!.!.!.!.!.!.!.!.!.!.!.!.!.!.!.!.!.!.!.!.!.!.!.!.!.!.!.!.!.!.!.!.!.!.!.!.!.!.!.!.!.!.!.!.!.!.!.!.!.!.!.!.!.!.!.!.!.!.!.!.!.!.!.!.!.!.!.!.!.!.!.!.!.!.!.!.!.!.!.!.!.!.!.!.!.!.!.!.!.!.!.!.!.!.!.!.!.!.!.!.!.!.!.!.!.!.!.!.!.!.!.!.!.!.!.!.!.!.!.!.!.!.!.!.!.!.!.!.!.!.!.!.!.!.!.!.!.!.!.!.!.!.!.!.!.!.!.!.!.!.!.!.!.!.!.!.!.!.!.!.!.!.!.!.!.!.!.!.!.!.!.!.!.!.!.!.!.!.!.!.!.!.!.!.!.!.!.!.!.!.!.!.!.!.!.!.!.!.!.!.!.!.!.!.!.!.!.!.!.!.!.!.!.!.!.!.!.!.!.!.!.!.!.!.!.!.!.!.!.!.!.!.!.!.!.!.!.!.!.!.!.!.!.!.!.!.!.!.!.!.!.!.!.!.!.!.!.!.!.!.!.!.!.!.!.!.!.!.!.!.!.!.!.!.!.!.!.!.!.!.!.!.!.!.!.!.!.!.!.!.!.!.!.!.!.!.!.!.!.!.!.!.!.!.!.!.!.!.!.!.!.!.!.!.!.!.!.!.!.!.!.!.!.!.!.!.!.!.!.!.!.!.!.!.!.!.!.!.!.!.!.!.!.!.!.!.!.!.!.!.!.!.!.!.!.!.!.!.!.!.!.!.!.!.!.!.!.!.!.!.!.!.!.!.!.!.!.!.!.!.!.!.!.!.!.!.!.!.!.!.!.!.!.!.!.!.!.!.!.!.!.!.!.!.!.!.!.!.!.!.!.!.!.!.!.!.!.!.!.!.!.!.!.!.!.!.!.!.!.!.!.!.!.!.!.!.!.!.!.!.!.!.!.!.!.!.!.!.!.!.",
"!.!.!.!.!.!.!.!.!.!.!.!.!.!.!.!.!.!.!.!.!.!.!.!.!.!.!.!.!.!.!.!.!.!.!.!.!.!.!.!.!.!.!.!.!.!.!.!.!.!.!.!.!.!.!.!.!.!.!.!.!.!.!.!.!.!.!.!.!.!.!.!.!.!.!.!.!.!.!.!.!.!.!.!.!.!.!.!.!.!.!.!.!.!.!.!.!.!.!.!.!.!.!.!.!.!.!.!.!.!.!.!.!.!.!.!.!.!.!.!.!.!.!.!.!.!.!.!.!.!.!.!.!.!.!.!.!.!.!.!.!.!.!.!.!.!.!.!.!.!.!.!.!.!.!.!.!.!.!.!.!.!.!.!.!.!.!.!.!.!.!.!.!.!.!.!.!.!.!.!.!.!.!.!.!.!.!.!.!.!.!.!.!.!.!.!.!.!.!.!.!.!.!.!.!.!.!.!.!.!.!.!.!.!.!.!.!.!.!.!.!.!.!.!.!.!.!.!.!.!.!.!.!.!.!.!.!.!.!.!.!.!.!.!.!.!.!.!.!.!.!.!.!.!.!.!.!.!.!.!.!.!.!.!.!.!.!.!.!.!.!.!.!.!.!.!.!.!.!.!.!.!.!.!.!.!.!.!.!.!.!.!.!.!.!.!.!.!.!.!.!.!.!.!.!.!.!.!.!.!.!.!.!.!.!.!.!.!.!.!.!.!.!.!.!.!.!.!.!.!.!.!.!.!.!.!.!.!.!.!.!.!.!.!.!.!.!.!.!.!.!.!.!.!.!.!.!.!.!.!.!.!.!.!.!.!.!.!.!.!.!.!.!.!.!.!.!.!.!.!.!.!.!.!.!.!.!.!.!.!.!.!.!.!.!.!.!.!.!.!.!.!.!.!.!.!.!.!.!.!.!.!.!.!.!.!.!.!.!.!.!.!.!.!.!.!.!.!.!.!.!.!.!.!.!.!.!.!.!.!.!.!.!.!.!.!.!.!.!.!.!.!.!.!.!.!.!.!.!.!.!.!.!.!.!.!.!.!.!.!.!.!.!.!.!.!.!.!.!.!.!.!.!.!.!.!.!.!.!.!.!.!.!.!.!.!.!.!.!.!.!.!.!.!.!.!.!.!.!.!.!.!.!.!.!.!.!.!.!.!.!.!.!.!.!.!.!.!.!.!.!.!.!.!.!.!.!.!.!.!.!.!.!.!.!.!.!.!.!.!.!.!.!.!.!.!.!.!.!.!.!.!.!.!.!.!.!.!.!.!.!.!.!.!.!.!.!.!.!.!.!.!.!.",
"!.!.!.!.!.!.!.!.!.!.!.!.!.!.!.!.!.!.!.!.!.!.!.!.!.!.!.!.!.!.!.!.!.!.!.!.!.!.!.!.!.!.!.!.!.!.!.!.!.!.!.!.!.!.!.!.!.!.!.!.!.!.!.!.!.!.!.!.!.!.!.!.!.!.!.!.!.!.!.!.!.!.!.!.!.!.!.!.!.!.!.!.!.!.!.!.!.!.!.!.!.!.!.!.!.!.!.!.!.!.!.!.!.!.!.!.!.!.!.!.!.!.!.!.!.!.!.!.!.!.!.!.!.!.!.!.!.!.!.!.!.!.!.!.!.!.!.!.!.!.!.!.!.!.!.!.!.!.!.!.!.!.!.!.!.!.!.!.!.!.!.!.!.!.!.!.!.!.!.!.!.!.!.!.!.!.!.!.!.!.!.!.!.!.!.!.!.!.!.!.!.!.!.!.!.!.!.!.!.!.!.!.!.!.!.!.!.!.!.!.!.!.!.!.!.!.!.!.!.!.!.!.!.!.!.!.!.!.!.!.!.!.!.!.!.!.!.!.!.!.!.!.!.!.!.!.!.!.!.!.!.!.!.!.!.!.!.!.!.!.!.!.!.!.!.!.!.!.!.!.!.!.!.!.!.!.!.!.!.!.!.!.!.!.!.!.!.!.!.!.!.!.!.!.!.!.!.!.!.!.!.!.!.!.!.!.!.!.!.!.!.!.!.!.!.!.!.!.!.!.!.!.!.!.!.!.!.!.!.!.!.!.!.!.!.!.!.!.!.!.!.!.!.!.!.!.!.!.!.!.!.!.!.!.!.!.!.!.!.!.!.!.!.!.!.!.!.!.!.!.!.!.!.!.!.!.!.!.!.!.!.!.!.!.!.!.!.!.!.!.!.!.!.!.!.!.!.!.!.!.!.!.!.!.!.!.!.!.!.!.!.!.!.!.!.!.!.!.!.!.!.!.!.!.!.!.!.!.!.!.!.!.!.!.!.!.!.!.!.!.!.!.!.!.!.!.!.!.!.!.!.!.!.!.!.!.!.!.!.!.!.!.!.!.!.!.!.!.!.!.!.!.!.!.!.!.!.!.!.!.!.!.!.!.!.!.!.!.!.!.!.!.!.!.!.!.!.!.!.!.!.!.!.!.!.!.!.!.!.!.!.!.!.!.!.!.!.!.!.!.!.!.!.!.!.!.!.!.!.!.!.!.!.!.!.!.!.!.!.!.!.!.!.!.!.!.!.!.!.!.!.!.!.!.!.!.!.!.!.!.!.!.!.!.!.!.!.!.!.!.!.!.!.",
"!.!.!.!.!.!.!.!.!.!.!.!.!.!.!.!.!.!.!.!.!.!.!.!.!.!.!.!.!.!.!.!.!.!.!.!.!.!.!.!.!.!.!.!.!.!.!.!.!.!.!.!.!.!.!.!.!.!.!.!.!.!.!.!.!.!.!.!.!.!.!.!.!.!.!.!.!.!.!.!.!.!.!.!.!.!.!.!.!.!.!.!.!.!.!.!.!.!.!.!.!.!.!.!.!.!.!.!.!.!.!.!.!.!.!.!.!.!.!.!.!.!.!.!.!.!.!.!.!.!.!.!.!.!.!.!.!.!.!.!.!.!.!.!.!.!.!.!.!.!.!.!.!.!.!.!.!.!.!.!.!.!.!.!.!.!.!.!.!.!.!.!.!.!.!.!.!.!.!.!.!.!.!.!.!.!.!.!.!.!.!.!.!.!.!.!.!.!.!.!.!.!.!.!.!.!.!.!.!.!.!.!.!.!.!.!.!.!.!.!.!.!.!.!.!.!.!.!.!.!.!.!.!.!.!.!.!.!.!.!.!.!.!.!.!.!.!.!.!.!.!.!.!.!.!.!.!.!.!.!.!.!.!.!.!.!.!.!.!.!.!.!.!.!.!.!.!.!.!.!.!.!.!.!.!.!.!.!.!.!.!.!.!.!.!.!.!.!.!.!.!.!.!.!.!.!.!.!.!.!.!.!.!.!.!.!.!.!.!.!.!.!.!.!.!.!.!.!.!.!.!.!.!.!.!.!.!.!.!.!.!.!.!.!.!.!.!.!.!.!.!.!.!.!.!.!.!.!.!.!.!.!.!.!.!.!.!.!.!.!.!.!.!.!.!.!.!.!.!.!.!.!.!.!.!.!.!.!.!.!.!.!.!.!.!.!.!.!.!.!.!.!.!.!.!.!.!.!.!.!.!.!.!.!.!.!.!.!.!.!.!.!.!.!.!.!.!.!.!.!.!.!.!.!.!.!.!.!.!.!.!.!.!.!.!.!.!.!.!.!.!.!.!.!.!.!.!.!.!.!.!.!.!.!.!.!.!.!.!.!.!.!.!.!.!.!.!.!.!.!.!.!.!.!.!.!.!.!.!.!.!.!.!.!.!.!.!.!.!.!.!.!.!.!.!.!.!.!.!.!.!.!.!.!.!.!.!.!.!.!.!.!.!.!.!.!.!.!.!.!.!.!.!.!.!.!.!.!.!.!.!.!.!.!.!.!.!.!.!.!.!.!.!.!.!.!.!.!.!.!.!.!.!.!.!.!.!.!.!.!.!.!.!.!.!.!.!.!.!.!.!.!.!.",
"!.!.!.!.!.!.!.!.!.!.!.!.!.!.!.!.!.!.!.!.!.!.!.!.!.!.!.!.!.!.!.!.!.!.!.!.!.!.!.!.!.!.!.!.!.!.!.!.!.!.!.!.!.!.!.!.!.!.!.!.!.!.!.!.!.!.!.!.!.!.!.!.!.!.!.!.!.!.!.!.!.!.!.!.!.!.!.!.!.!.!.!.!.!.!.!.!.!.!.!.!.!.!.!.!.!.!.!.!.!.!.!.!.!.!.!.!.!.!.!.!.!.!.!.!.!.!.!.!.!.!.!.!.!.!.!.!.!.!.!.!.!.!.!.!.!.!.!.!.!.!.!.!.!.!.!.!.!.!.!.!.!.!.!.!.!.!.!.!.!.!.!.!.!.!.!.!.!.!.!.!.!.!.!.!.!.!.!.!.!.!.!.!.!.!.!.!.!.!.!.!.!.!.!.!.!.!.!.!.!.!.!.!.!.!.!.!.!.!.!.!.!.!.!.!.!.!.!.!.!.!.!.!.!.!.!.!.!.!.!.!.!.!.!.!.!.!.!.!.!.!.!.!.!.!.!.!.!.!.!.!.!.!.!.!.!.!.!.!.!.!.!.!.!.!.!.!.!.!.!.!.!.!.!.!.!.!.!.!.!.!.!.!.!.!.!.!.!.!.!.!.!.!.!.!.!.!.!.!.!.!.!.!.!.!.!.!.!.!.!.!.!.!.!.!.!.!.!.!.!.!.!.!.!.!.!.!.!.!.!.!.!.!.!.!.!.!.!.!.!.!.!.!.!.!.!.!.!.!.!.!.!.!.!.!.!.!.!.!.!.!.!.!.!.!.!.!.!.!.!.!.!.!.!.!.!.!.!.!.!.!.!.!.!.!.!.!.!.!.!.!.!.!.!.!.!.!.!.!.!.!.!.!.!.!.!.!.!.!.!.!.!.!.!.!.!.!.!.!.!.!.!.!.!.!.!.!.!.!.!.!.!.!.!.!.!.!.!.!.!.!.!.!.!.!.!.!.!.!.!.!.!.!.!.!.!.!.!.!.!.!.!.!.!.!.!.!.!.!.!.!.!.!.!.!.!.!.!.!.!.!.!.!.!.!.!.!.!.!.!.!.!.!.!.!.!.!.!.!.!.!.!.!.!.!.!.!.!.!.!.!.!.!.!.!.!.!.!.!.!.!.!.!.!.!.!.!.!.!.!.!.!.!.!.!.!.!.!.!.!.!.!.!.!.!.!.!.!.!.!.!.!.!.!.!.!.!.!.!.!.!.!.!.!.!.!.!.!.!.!.!.!.!.",
"!.!.!.!.!.!.!.!.!.!.!.!.!.!.!.!.!.!.!.!.!.!.!.!.!.!.!.!.!.!.!.!.!.!.!.!.!.!.!.!.!.!.!.!.!.!.!.!.!.!.!.!.!.!.!.!.!.!.!.!.!.!.!.!.!.!.!.!.!.!.!.!.!.!.!.!.!.!.!.!.!.!.!.!.!.!.!.!.!.!.!.!.!.!.!.!.!.!.!.!.!.!.!.!.!.!.!.!.!.!.!.!.!.!.!.!.!.!.!.!.!.!.!.!.!.!.!.!.!.!.!.!.!.!.!.!.!.!.!.!.!.!.!.!.!.!.!.!.!.!.!.!.!.!.!.!.!.!.!.!.!.!.!.!.!.!.!.!.!.!.!.!.!.!.!.!.!.!.!.!.!.!.!.!.!.!.!.!.!.!.!.!.!.!.!.!.!.!.!.!.!.!.!.!.!.!.!.!.!.!.!.!.!.!.!.!.!.!.!.!.!.!.!.!.!.!.!.!.!.!.!.!.!.!.!.!.!.!.!.!.!.!.!.!.!.!.!.!.!.!.!.!.!.!.!.!.!.!.!.!.!.!.!.!.!.!.!.!.!.!.!.!.!.!.!.!.!.!.!.!.!.!.!.!.!.!.!.!.!.!.!.!.!.!.!.!.!.!.!.!.!.!.!.!.!.!.!.!.!.!.!.!.!.!.!.!.!.!.!.!.!.!.!.!.!.!.!.!.!.!.!.!.!.!.!.!.!.!.!.!.!.!.!.!.!.!.!.!.!.!.!.!.!.!.!.!.!.!.!.!.!.!.!.!.!.!.!.!.!.!.!.!.!.!.!.!.!.!.!.!.!.!.!.!.!.!.!.!.!.!.!.!.!.!.!.!.!.!.!.!.!.!.!.!.!.!.!.!.!.!.!.!.!.!.!.!.!.!.!.!.!.!.!.!.!.!.!.!.!.!.!.!.!.!.!.!.!.!.!.!.!.!.!.!.!.!.!.!.!.!.!.!.!.!.!.!.!.!.!.!.!.!.!.!.!.!.!.!.!.!.!.!.!.!.!.!.!.!.!.!.!.!.!.!.!.!.!.!.!.!.!.!.!.!.!.!.!.!.!.!.!.!.!.!.!.!.!.!.!.!.!.!.!.!.!.!.!.!.!.!.!.!.!.!.!.!.!.!.!.!.!.!.!.!.!.!.!.!.!.!.!.!.!.!.!.!.!.!.!.!.!.!.!.!.!.!.!.!.!.!.!.!.!.!.!.!.!.!.!.!.!.!.!.!.!.!.!.!.!.!.!.!.!.",
"!.!.!.!.!.!.!.!.!.!.!.!.!.!.!.!.!.!.!.!.!.!.!.!.!.!.!.!.!.!.!.!.!.!.!.!.!.!.!.!.!.!.!.!.!.!.!.!.!.!.!.!.!.!.!.!.!.!.!.!.!.!.!.!.!.!.!.!.!.!.!.!.!.!.!.!.!.!.!.!.!.!.!.!.!.!.!.!.!.!.!.!.!.!.!.!.!.!.!.!.!.!.!.!.!.!.!.!.!.!.!.!.!.!.!.!.!.!.!.!.!.!.!.!.!.!.!.!.!.!.!.!.!.!.!.!.!.!.!.!.!.!.!.!.!.!.!.!.!.!.!.!.!.!.!.!.!.!.!.!.!.!.!.!.!.!.!.!.!.!.!.!.!.!.!.!.!.!.!.!.!.!.!.!.!.!.!.!.!.!.!.!.!.!.!.!.!.!.!.!.!.!.!.!.!.!.!.!.!.!.!.!.!.!.!.!.!.!.!.!.!.!.!.!.!.!.!.!.!.!.!.!.!.!.!.!.!.!.!.!.!.!.!.!.!.!.!.!.!.!.!.!.!.!.!.!.!.!.!.!.!.!.!.!.!.!.!.!.!.!.!.!.!.!.!.!.!.!.!.!.!.!.!.!.!.!.!.!.!.!.!.!.!.!.!.!.!.!.!.!.!.!.!.!.!.!.!.!.!.!.!.!.!.!.!.!.!.!.!.!.!.!.!.!.!.!.!.!.!.!.!.!.!.!.!.!.!.!.!.!.!.!.!.!.!.!.!.!.!.!.!.!.!.!.!.!.!.!.!.!.!.!.!.!.!.!.!.!.!.!.!.!.!.!.!.!.!.!.!.!.!.!.!.!.!.!.!.!.!.!.!.!.!.!.!.!.!.!.!.!.!.!.!.!.!.!.!.!.!.!.!.!.!.!.!.!.!.!.!.!.!.!.!.!.!.!.!.!.!.!.!.!.!.!.!.!.!.!.!.!.!.!.!.!.!.!.!.!.!.!.!.!.!.!.!.!.!.!.!.!.!.!.!.!.!.!.!.!.!.!.!.!.!.!.!.!.!.!.!.!.!.!.!.!.!.!.!.!.!.!.!.!.!.!.!.!.!.!.!.!.!.!.!.!.!.!.!.!.!.!.!.!.!.!.!.!.!.!.!.!.!.!.!.!.!.!.!.!.!.!.!.!.!.!.!.!.!.!.!.!.!.!.!.!.!.!.!.!.!.!.!.!.!.!.!.!.!.!.!.!.!.!.!.!.!.!.!.!.!.!.!.!.!.!.!.!.!.!.!.!.!.!.!."
};
