/* XPM */
static const char *mi_explosion01[] = {
/* columns rows colors chars-per-pixel */
"634 585 173 2 ",
"   c #6D311E",
".  c #6E311F",
"X  c #70321F",
"o  c #71321F",
"O  c #72321F",
"+  c #74331F",
"@  c #733320",
"#  c #763320",
"$  c #773420",
"%  c #793520",
"&  c #7B3520",
"*  c #7C3621",
"=  c #7E3721",
"-  c #7F3721",
";  c #823821",
":  c #833821",
">  c #813822",
",  c #853921",
"<  c #853A23",
"1  c #863A22",
"2  c #883A22",
"3  c #893A22",
"4  c #883A23",
"5  c #8B3B23",
"6  c #8C3B23",
"7  c #8F3D23",
"8  c #8E3B24",
"9  c #903D23",
"0  c #913D23",
"q  c #933D24",
"w  c #913F24",
"e  c #953E24",
"r  c #963F24",
"t  c #983F24",
"y  c #994025",
"u  c #9B4125",
"i  c #9A4026",
"p  c #9D4125",
"a  c #9E4225",
"s  c #9F4226",
"d  c #A14326",
"f  c #A24326",
"g  c #A34326",
"h  c #A54427",
"j  c #A64426",
"k  c #A74527",
"l  c #A84427",
"z  c #A94627",
"x  c #AD4627",
"c  c #AC4728",
"v  c #AF4728",
"b  c #B04828",
"n  c #B24828",
"m  c #B44929",
"M  c #B54A28",
"N  c #B64B29",
"B  c #B84B29",
"V  c #B94B29",
"C  c #BA4B2A",
"Z  c #BC4A29",
"A  c #BC4C2A",
"S  c #BF4D2A",
"D  c #BE4C2B",
"F  c #BF4E2A",
"G  c #C14C2A",
"H  c #C14E2B",
"J  c #C34E2A",
"K  c #C44F2B",
"L  c #C6502B",
"P  c #C7502C",
"I  c #C9502B",
"U  c #C8512B",
"Y  c #CB512C",
"T  c #CA512D",
"R  c #CA522C",
"E  c #CB522C",
"W  c #CC532C",
"Q  c #CC552C",
"!  c #CD572D",
"~  c #CE582D",
"^  c #CE592D",
"/  c #CE5A2D",
"(  c #CF5C2D",
")  c #D05D2D",
"_  c #D15F2D",
"`  c #D1602D",
"'  c #D1612D",
"]  c #D2622D",
"[  c #D2632D",
"{  c #D3652D",
"}  c #D3662D",
"|  c #D4682D",
" . c #D4692D",
".. c #D56A2D",
"X. c #D56B2D",
"o. c #D66C2D",
"O. c #D66D2D",
"+. c #D76F2D",
"@. c #D8702D",
"#. c #D8712D",
"$. c #D8722D",
"%. c #D9732D",
"&. c #D9732E",
"*. c #D9742D",
"=. c #DA762D",
"-. c #DB772D",
";. c #DB782D",
":. c #DC7A2D",
">. c #DC7B2D",
",. c #DD7D2D",
"<. c #DD7E2D",
"1. c #DE802D",
"2. c #DF812D",
"3. c #DF822D",
"4. c #E0842D",
"5. c #E0852D",
"6. c #E1862D",
"7. c #E1872D",
"8. c #E2882D",
"9. c #E2892D",
"0. c #E38A2D",
"q. c #E38C2D",
"w. c #E48D2D",
"e. c #E48E2D",
"r. c #E58F2D",
"t. c #E5912D",
"y. c #E6922D",
"u. c #E6932D",
"i. c #E7942D",
"p. c #E7962D",
"a. c #E8972D",
"s. c #E8982D",
"d. c #E99A2D",
"f. c #EA9B2D",
"g. c #EA9D2D",
"h. c #EB9E2D",
"j. c #ECA02D",
"k. c #ECA12E",
"l. c #EDA22E",
"z. c #EDA42E",
"x. c #EEA52E",
"c. c #EFA72E",
"v. c #EFA92E",
"b. c #F0AA2E",
"n. c #F0AB2E",
"m. c #F1AD2E",
"M. c #F2AF2E",
"N. c #F2B02E",
"B. c #F3B12E",
"V. c #F4B32E",
"C. c #F4B52E",
"Z. c #F5B62E",
"A. c #F6B82E",
"S. c #F6BA2E",
"D. c #F7BB2E",
"F. c #F8BD2E",
"G. c #F9BF2E",
"H. c #F9C12E",
"J. c #FAC22E",
"K. c #FAC32E",
"L. c #FBC52E",
"P. c #FCC62E",
"I. c #FCC72E",
"U. c #FDC82E",
"Y. c #FDC92E",
"T. c #FDCA2E",
"R. c #FDCB2E",
"E. c #FECB2E",
"W. c #FECC2E",
"Q. c #FFCE2E",
"!. c #FFCF2E",
"~. c #FFCF2F",
"^. c None",
/* pixels */
"^.^.^.^.^.^.^.^.^.^.^.^.^.^.^.^.^.^.^.^.^.^.^.^.^.^.^.^.^.^.^.^.^.^.^.^.^.^.^.^.^.^.^.^.^.^.^.^.^.^.^.^.^.^.^.^.^.^.^.^.^.^.^.^.^.^.^.^.^.^.^.^.^.^.^.^.^.^.^.^.^.^.^.^.^.^.^.^.^.^.^.^.^.^.^.^.^.^.^.^.^.^.^.^.^.^.^.^.^.^.^.^.^.^.^.^.^.^.^.^.^.^.^.^.^.^.^.^.^.^.^.^.^.^.^.^.^.^.^.^.^.^.^.^.^.^.^.^.^.^.^.^.^.^.^.^.^.^.^.^.^.^.^.^.^.^.^.^.^.^.^.^.^.^.^.^.^.^.^.^.^.^.^.^.^.^.^.^.^.^.^.^.^.^.^.^.^.^.^.^.^.^.^.^.^.^.^.^.^.^.^.^.^.^.^.^.^.^.^.^.^.^.^.^.^.^.^.^.^.^.^.^.^.^.^.^.^.^.^.^.^.^.^.^.^.^.^.^.^.^.^.^.^.^.^.^.^.^.^.^.^.^.^.^.^.^.^.^.^.^.^.^.^.^.^.^.^.^.^.^.^.^.^.^.^.^.^.^.^.^.^.^.^.^.^.^.^.^.^.^.^.^.^.^.^.^.^.^.^.^.^.^.^.^.^.^.^.^.^.^.^.^.^.^.^.^.^.^.^.^.^.^.^.^.^.^.^.^.^.^.^.^.^.^.^.^.^.^.^.^.^.^.^.^.^.^.^.^.^.^.^.^.^.^.^.^.^.^.^.^.^.^.^.^.^.^.^.^.^.^.^.^.^.^.^.^.^.^.^.^.^.^.^.^.^.^.^.^.^.^.^.^.^.^.^.^.^.^.^.^.^.^.^.^.^.^.^.^.^.^.^.^.^.^.^.^.^.^.^.^.^.^.^.^.^.^.^.^.^.^.^.^.^.^.^.^.^.^.^.^.^.^.^.^.^.^.^.^.^.^.^.^.^.^.^.^.^.^.^.^.^.^.^.^.^.^.^.^.^.^.^.^.^.^.^.^.^.^.^.^.^.^.^.^.^.^.^.^.^.^.^.^.^.^.^.^.^.^.^.^.^.^.^.^.^.^.^.^.^.^.^.^.^.^.^.^.^.^.^.^.^.^.^.^.^.^.^.^.^.^.^.^.^.^.^.^.^.^.^.^.^.^.^.^.^.^.^.^.^.^.^.^.^.^.^.^.^.^.^.^.^.^.^.^.^.^.^.^.^.^.^.^.^.^.^.^.^.^.^.^.^.^.^.^.^.^.^.^.^.^.^.^.^.^.^.^.^.^.^.^.^.^.^.^.^.^.^.^.^.^.^.^.^.^.^.^.^.^.^.^.^.^.^.^.",
"^.^.^.^.^.^.^.^.^.^.^.^.^.^.^.^.^.^.^.^.^.^.^.^.^.^.^.^.^.^.^.^.^.^.^.^.^.^.^.^.^.^.^.^.^.^.^.^.^.^.^.^.^.^.^.^.^.^.^.^.^.^.^.^.^.^.^.^.^.^.^.^.^.^.^.^.^.^.^.^.^.^.^.^.^.^.^.^.^.^.^.^.^.^.^.^.^.^.^.^.^.^.^.^.^.^.^.^.^.^.^.^.^.^.^.^.^.^.^.^.^.^.^.^.^.^.^.^.^.^.^.^.^.^.^.^.^.^.^.^.^.^.^.^.^.^.^.^.^.^.^.^.^.^.^.^.^.^.^.^.^.^.^.^.^.^.^.^.^.^.^.^.^.^.^.^.^.^.^.^.^.^.^.^.^.^.^.^.^.^.^.^.^.^.^.^.^.^.^.^.^.^.^.^.^.^.^.^.^.^.^.^.^.^.^.^.^.^.^.^.^.^.^.^.^.^.^.^.^.^.^.^.^.^.^.^.^.^.^.^.^.^.^.^.^.^.^.^.^.^.^.^.^.^.^.^.^.^.^.^.^.^.^.^.^.^.^.^.^.^.^.^.^.^.^.^.^.^.^.^.^.^.^.^.^.^.^.^.^.^.^.^.^.^.^.^.^.^.^.^.^.^.^.^.^.^.^.^.^.^.^.^.^.^.^.^.^.^.^.^.^.^.^.^.^.^.^.^.^.^.^.^.^.^.^.^.^.^.^.^.^.^.^.^.^.^.^.^.^.^.^.^.^.^.^.^.^.^.^.^.^.^.^.^.^.^.^.^.^.^.^.^.^.^.^.^.^.^.^.^.^.^.^.^.^.^.^.^.^.^.^.^.^.^.^.^.^.^.^.^.^.^.^.^.^.^.^.^.^.^.^.^.^.^.^.^.^.^.^.^.^.^.^.^.^.^.^.^.^.^.^.^.^.^.^.^.^.^.^.^.^.^.^.^.^.^.^.^.^.^.^.^.^.^.^.^.^.^.^.^.^.^.^.^.^.^.^.^.^.^.^.^.^.^.^.^.^.^.^.^.^.^.^.^.^.^.^.^.^.^.^.^.^.^.^.^.^.^.^.^.^.^.^.^.^.^.^.^.^.^.^.^.^.^.^.^.^.^.^.^.^.^.^.^.^.^.^.^.^.^.^.^.^.^.^.^.^.^.^.^.^.^.^.^.^.^.^.^.^.^.^.^.^.^.^.^.^.^.^.^.^.^.^.^.^.^.^.^.^.^.^.^.^.^.^.^.^.^.^.^.^.^.^.^.^.^.^.^.^.^.^.^.^.^.^.^.^.^.^.^.^.^.^.^.^.^.^.^.^.^.^.^.^.^.^.^.^.^.^.^.^.^.^.^.^.^.^.^.^.^.^.^.^.^.",
"^.^.^.^.^.^.^.^.^.^.^.^.^.^.^.^.^.^.^.^.^.^.^.^.^.^.^.^.^.^.^.^.^.^.^.^.^.^.^.^.^.^.^.^.^.^.^.^.^.^.^.^.^.^.^.^.^.^.^.^.^.^.^.^.^.^.^.^.^.^.^.^.^.^.^.^.^.^.^.^.^.^.^.^.^.^.^.^.^.^.^.^.^.^.^.^.^.^.^.^.^.^.^.^.^.^.^.^.^.^.^.^.^.^.^.^.^.^.^.^.^.^.^.^.^.^.^.^.^.^.^.^.^.^.^.^.^.^.^.^.^.^.^.^.^.^.^.^.^.^.^.^.^.^.^.^.^.^.^.^.^.^.^.^.^.^.^.^.^.^.^.^.^.^.^.^.^.^.^.^.^.^.^.^.^.^.^.^.^.^.^.^.^.^.^.^.^.^.^.^.^.^.^.^.^.^.^.^.^.^.^.^.^.^.^.^.^.^.^.^.^.^.^.^.^.^.^.^.^.^.^.^.^.^.^.^.^.^.^.^.^.^.^.^.^.^.^.^.^.^.^.^.^.^.^.^.^.^.^.^.^.^.^.^.^.^.^.^.^.^.^.^.^.^.^.^.^.^.^.^.^.^.^.^.^.^.^.^.^.^.^.^.^.^.^.^.^.^.^.^.^.^.^.^.^.^.^.^.^.^.^.^.^.^.^.^.^.^.^.^.^.^.^.^.^.^.^.^.^.^.^.^.^.^.^.^.^.^.^.^.^.^.^.^.^.^.^.^.^.^.^.^.^.^.^.^.^.^.^.^.^.^.^.^.^.^.^.^.^.^.^.^.^.^.^.^.^.^.^.^.^.^.^.^.^.^.^.^.^.^.^.^.^.^.^.^.^.^.^.^.^.^.^.^.^.^.^.^.^.^.^.^.^.^.^.^.^.^.^.^.^.^.^.^.^.^.^.^.^.^.^.^.^.^.^.^.^.^.^.^.^.^.^.^.^.^.^.^.^.^.^.^.^.^.^.^.^.^.^.^.^.^.^.^.^.^.^.^.^.^.^.^.^.^.^.^.^.^.^.^.^.^.^.^.^.^.^.^.^.^.^.^.^.^.^.^.^.^.^.^.^.^.^.^.^.^.^.^.^.^.^.^.^.^.^.^.^.^.^.^.^.^.^.^.^.^.^.^.^.^.^.^.^.^.^.^.^.^.^.^.^.^.^.^.^.^.^.^.^.^.^.^.^.^.^.^.^.^.^.^.^.^.^.^.^.^.^.^.^.^.^.^.^.^.^.^.^.^.^.^.^.^.^.^.^.^.^.^.^.^.^.^.^.^.^.^.^.^.^.^.^.^.^.^.^.^.^.^.^.^.^.^.^.^.^.^.^.^.^.^.^.^.^.^.^.^.^.^.^.^.^.^.^.^.",
"^.^.^.^.^.^.^.^.^.^.^.^.^.^.^.^.^.^.^.^.^.^.^.^.^.^.^.^.^.^.^.^.^.^.^.^.^.^.^.^.^.^.^.^.^.^.^.^.^.^.^.^.^.^.^.^.^.^.^.^.^.^.^.^.^.^.^.^.^.^.^.^.^.^.^.^.^.^.^.^.^.^.^.^.^.^.^.^.^.^.^.^.^.^.^.^.^.^.^.^.^.^.^.^.^.^.^.^.^.^.^.^.^.^.^.^.^.^.^.^.^.^.^.^.^.^.^.^.^.^.^.^.^.^.^.^.^.^.^.^.^.^.^.^.^.^.^.^.^.^.^.^.^.^.^.^.^.^.^.^.^.^.^.^.^.^.^.^.^.^.^.^.^.^.^.^.^.^.^.^.^.^.^.^.^.^.^.^.^.^.^.^.^.^.^.^.^.^.^.^.^.^.^.^.^.^.^.^.^.^.^.^.^.^.^.^.^.^.^.^.^.^.^.^.^.^.^.^.^.^.^.^.^.^.^.^.^.^.^.^.^.^.^.^.^.^.^.^.^.^.^.^.^.^.^.^.^.^.^.^.^.^.^.^.^.^.^.^.^.^.^.^.^.^.^.^.^.^.^.^.^.^.^.^.^.^.^.^.^.^.^.^.^.^.^.^.^.^.^.^.^.^.^.^.^.^.^.^.^.^.^.^.^.^.^.^.^.^.^.^.^.^.^.^.^.^.^.^.^.^.^.^.^.^.^.^.^.^.^.^.^.^.^.^.^.^.^.^.^.^.^.^.^.^.^.^.^.^.^.^.^.^.^.^.^.^.^.^.^.^.^.^.^.^.^.^.^.^.^.^.^.^.^.^.^.^.^.^.^.^.^.^.^.^.^.^.^.^.^.^.^.^.^.^.^.^.^.^.^.^.^.^.^.^.^.^.^.^.^.^.^.^.^.^.^.^.^.^.^.^.^.^.^.^.^.^.^.^.^.^.^.^.^.^.^.^.^.^.^.^.^.^.^.^.^.^.^.^.^.^.^.^.^.^.^.^.^.^.^.^.^.^.^.^.^.^.^.^.^.^.^.^.^.^.^.^.^.^.^.^.^.^.^.^.^.^.^.^.^.^.^.^.^.^.^.^.^.^.^.^.^.^.^.^.^.^.^.^.^.^.^.^.^.^.^.^.^.^.^.^.^.^.^.^.^.^.^.^.^.^.^.^.^.^.^.^.^.^.^.^.^.^.^.^.^.^.^.^.^.^.^.^.^.^.^.^.^.^.^.^.^.^.^.^.^.^.^.^.^.^.^.^.^.^.^.^.^.^.^.^.^.^.^.^.^.^.^.^.^.^.^.^.^.^.^.^.^.^.^.^.^.^.^.^.^.^.^.^.^.^.^.^.^.^.^.^.^.^.^.^.^.^.^.^.",
"^.^.^.^.^.^.^.^.^.^.^.^.^.^.^.^.^.^.^.^.^.^.^.^.^.^.^.^.^.^.^.^.^.^.^.^.^.^.^.^.^.^.^.^.^.^.^.^.^.^.^.^.^.^.^.^.^.^.^.^.^.^.^.^.^.^.^.^.^.^.^.^.^.^.^.^.^.^.^.^.^.^.^.^.^.^.^.^.^.^.^.^.^.^.^.^.^.^.^.^.^.^.^.^.^.^.^.^.^.^.^.^.^.^.^.^.^.^.^.^.^.^.^.^.^.^.^.^.^.^.^.^.^.^.^.^.^.^.^.^.^.^.^.^.^.^.^.^.^.^.^.^.^.^.^.^.^.^.^.^.^.^.^.^.^.^.^.^.^.^.^.^.^.^.^.^.^.^.^.^.^.^.^.^.^.^.^.^.^.^.^.^.^.^.^.^.^.^.^.^.^.^.^.^.^.^.^.^.^.^.^.^.^.^.^.^.^.^.^.^.^.^.^.^.^.^.^.^.^.^.^.^.^.^.^.^.^.^.^.^.^.^.^.^.^.^.^.^.^.^.^.^.^.^.^.^.^.^.^.^.^.^.^.^.^.^.^.^.^.^.^.^.^.^.^.^.^.^.^.^.^.^.^.^.^.^.^.^.^.^.^.^.^.^.^.^.^.^.^.^.^.^.^.^.^.^.^.^.^.^.^.^.^.^.^.^.^.^.^.^.^.^.^.^.^.^.^.^.^.^.^.^.^.^.^.^.^.^.^.^.^.^.^.^.^.^.^.^.^.^.^.^.^.^.^.^.^.^.^.^.^.^.^.^.^.^.^.^.^.^.^.^.^.^.^.^.^.^.^.^.^.^.^.^.^.^.^.^.^.^.^.^.^.^.^.^.^.^.^.^.^.^.^.^.^.^.^.^.^.^.^.^.^.^.^.^.^.^.^.^.^.^.^.^.^.^.^.^.^.^.^.^.^.^.^.^.^.^.^.^.^.^.^.^.^.^.^.^.^.^.^.^.^.^.^.^.^.^.^.^.^.^.^.^.^.^.^.^.^.^.^.^.^.^.^.^.^.^.^.^.^.^.^.^.^.^.^.^.^.^.^.^.^.^.^.^.^.^.^.^.^.^.^.^.^.^.^.^.^.^.^.^.^.^.^.^.^.^.^.^.^.^.^.^.^.^.^.^.^.^.^.^.^.^.^.^.^.^.^.^.^.^.^.^.^.^.^.^.^.^.^.^.^.^.^.^.^.^.^.^.^.^.^.^.^.^.^.^.^.^.^.^.^.^.^.^.^.^.^.^.^.^.^.^.^.^.^.^.^.^.^.^.^.^.^.^.^.^.^.^.^.^.^.^.^.^.^.^.^.^.^.^.^.^.^.^.^.^.^.^.^.^.^.^.^.^.^.^.^.^.^.^.^.^.",
"^.^.^.^.^.^.^.^.^.^.^.^.^.^.^.^.^.^.^.^.^.^.^.^.^.^.^.^.^.^.^.^.^.^.^.^.^.^.^.^.^.^.^.^.^.^.^.^.^.^.^.^.^.^.^.^.^.^.^.^.^.^.^.^.^.^.^.^.^.^.^.^.^.^.^.^.^.^.^.^.^.^.^.^.^.^.^.^.^.^.^.^.^.^.^.^.^.^.^.^.^.^.^.^.^.^.^.^.^.^.^.^.^.^.^.^.^.^.^.^.^.^.^.^.^.^.^.^.^.^.^.^.^.^.^.^.^.^.^.^.^.^.^.^.^.^.^.^.^.^.^.^.^.^.^.^.^.^.^.^.^.^.^.^.^.^.^.^.^.^.^.^.^.^.^.^.^.^.^.^.^.^.^.^.^.^.^.^.^.^.^.^.^.^.^.^.^.^.^.^.^.^.^.^.^.^.^.^.^.^.^.^.^.^.^.^.^.^.^.^.^.^.^.^.^.^.^.^.^.^.^.^.^.^.^.^.^.^.^.^.^.^.^.^.^.^.^.^.^.^.^.^.^.^.^.^.^.^.^.^.^.^.^.^.^.^.^.^.^.^.^.^.^.^.^.^.^.^.^.^.^.^.^.^.^.^.^.^.^.^.^.^.^.^.^.^.^.^.^.^.^.^.^.^.^.^.^.^.^.^.^.^.^.^.^.^.^.^.^.^.^.^.^.^.^.^.^.^.^.^.^.^.^.^.^.^.^.^.^.^.^.^.^.^.^.^.^.^.^.^.^.^.^.^.^.^.^.^.^.^.^.^.^.^.^.^.^.^.^.^.^.^.^.^.^.^.^.^.^.^.^.^.^.^.^.^.^.^.^.^.^.^.^.^.^.^.^.^.^.^.^.^.^.^.^.^.^.^.^.^.^.^.^.^.^.^.^.^.^.^.^.^.^.^.^.^.^.^.^.^.^.^.^.^.^.^.^.^.^.^.^.^.^.^.^.^.^.^.^.^.^.^.^.^.^.^.^.^.^.^.^.^.^.^.^.^.^.^.^.^.^.^.^.^.^.^.^.^.^.^.^.^.^.^.^.^.^.^.^.^.^.^.^.^.^.^.^.^.^.^.^.^.^.^.^.^.^.^.^.^.^.^.^.^.^.^.^.^.^.^.^.^.^.^.^.^.^.^.^.^.^.^.^.^.^.^.^.^.^.^.^.^.^.^.^.^.^.^.^.^.^.^.^.^.^.^.^.^.^.^.^.^.^.^.^.^.^.^.^.^.^.^.^.^.^.^.^.^.^.^.^.^.^.^.^.^.^.^.^.^.^.^.^.^.^.^.^.^.^.^.^.^.^.^.^.^.^.^.^.^.^.^.^.^.^.^.^.^.^.^.^.^.^.^.^.^.^.^.^.^.^.^.^.^.",
"^.^.^.^.^.^.^.^.^.^.^.^.^.^.^.^.^.^.^.^.^.^.^.^.^.^.^.^.^.^.^.^.^.^.^.^.^.^.^.^.^.^.^.^.^.^.^.^.^.^.^.^.^.^.^.^.^.^.^.^.^.^.^.^.^.^.^.^.^.^.^.^.^.^.^.^.^.^.^.^.^.^.^.^.^.^.^.^.^.^.^.^.^.^.^.^.^.^.^.^.^.^.^.^.^.^.^.^.^.^.^.^.^.^.^.^.^.^.^.^.^.^.^.^.^.^.^.^.^.^.^.^.^.^.^.^.^.^.^.^.^.^.^.^.^.^.^.^.^.^.^.^.^.^.^.^.^.^.^.^.^.^.^.^.^.^.^.^.^.^.^.^.^.^.^.^.^.^.^.^.^.^.^.^.^.^.^.^.^.^.^.^.^.^.^.^.^.^.^.^.^.^.^.^.^.^.^.^.^.^.^.^.^.^.^.^.^.^.^.^.^.^.^.^.^.^.^.^.^.^.^.^.^.^.^.^.^.^.^.^.^.^.^.^.^.^.^.^.^.^.^.^.^.^.^.^.^.^.^.^.^.^.^.^.^.^.^.^.^.^.^.^.^.^.^.^.^.^.^.^.^.^.^.^.^.^.^.^.^.^.^.^.^.^.^.^.^.^.^.^.^.^.^.^.^.^.^.^.^.^.^.^.^.^.^.^.^.^.^.^.^.^.^.^.^.^.^.^.^.^.^.^.^.^.^.^.^.^.^.^.^.^.^.^.^.^.^.^.^.^.^.^.^.^.^.^.^.^.^.^.^.^.^.^.^.^.^.^.^.^.^.^.^.^.^.^.^.^.^.^.^.^.^.^.^.^.^.^.^.^.^.^.^.^.^.^.^.^.^.^.^.^.^.^.^.^.^.^.^.^.^.^.^.^.^.^.^.^.^.^.^.^.^.^.^.^.^.^.^.^.^.^.^.^.^.^.^.^.^.^.^.^.^.^.^.^.^.^.^.^.^.^.^.^.^.^.^.^.^.^.^.^.^.^.^.^.^.^.^.^.^.^.^.^.^.^.^.^.^.^.^.^.^.^.^.^.^.^.^.^.^.^.^.^.^.^.^.^.^.^.^.^.^.^.^.^.^.^.^.^.^.^.^.^.^.^.^.^.^.^.^.^.^.^.^.^.^.^.^.^.^.^.^.^.^.^.^.^.^.^.^.^.^.^.^.^.^.^.^.^.^.^.^.^.^.^.^.^.^.^.^.^.^.^.^.^.^.^.^.^.^.^.^.^.^.^.^.^.^.^.^.^.^.^.^.^.^.^.^.^.^.^.^.^.^.^.^.^.^.^.^.^.^.^.^.^.^.^.^.^.^.^.^.^.^.^.^.^.^.^.^.^.^.^.^.^.^.^.^.^.^.^.^.^.",
"^.^.^.^.^.^.^.^.^.^.^.^.^.^.^.^.^.^.^.^.^.^.^.^.^.^.^.^.^.^.^.^.^.^.^.^.^.^.^.^.^.^.^.^.^.^.^.^.^.^.^.^.^.^.^.^.^.^.^.^.^.^.^.^.^.^.^.^.^.^.^.^.^.^.^.^.^.^.^.^.^.^.^.^.^.^.^.^.^.^.^.^.^.^.^.^.^.^.^.^.^.^.^.^.^.^.^.^.^.^.^.^.^.^.^.^.^.^.^.^.^.^.^.^.^.^.^.^.^.^.^.^.^.^.^.^.^.^.^.^.^.^.^.^.^.^.^.^.^.^.^.^.^.^.^.^.^.^.^.^.^.^.^.^.^.^.^.^.^.^.^.^.^.^.^.^.^.^.^.^.^.^.^.^.^.^.^.^.^.^.^.^.^.^.^.^.^.^.^.^.^.^.^.^.^.^.^.^.^.^.^.^.^.^.^.^.^.^.^.^.^.^.^.^.^.^.^.^.^.^.^.^.^.^.^.^.^.^.^.^.^.^.^.^.^.^.^.^.^.^.^.^.^.^.^.^.^.^.^.^.^.^.^.^.^.^.^.^.^.^.^.^.^.^.^.^.^.^.^.^.^.^.^.^.^.^.^.^.^.^.^.^.^.^.^.^.^.^.^.^.^.^.^.^.^.^.^.^.^.^.^.^.^.^.^.^.^.^.^.^.^.^.^.^.^.^.^.^.^.^.^.^.^.^.^.^.^.^.^.^.^.^.^.^.^.^.^.^.^.^.^.^.^.^.^.^.^.^.^.^.^.^.^.^.^.^.^.^.^.^.^.^.^.^.^.^.^.^.^.^.^.^.^.^.^.^.^.^.^.^.^.^.^.^.^.^.^.^.^.^.^.^.^.^.^.^.^.^.^.^.^.^.^.^.^.^.^.^.^.^.^.^.^.^.^.^.^.^.^.^.^.^.^.^.^.^.^.^.^.^.^.^.^.^.^.^.^.^.^.^.^.^.^.^.^.^.^.^.^.^.^.^.^.^.^.^.^.^.^.^.^.^.^.^.^.^.^.^.^.^.^.^.^.^.^.^.^.^.^.^.^.^.^.^.^.^.^.^.^.^.^.^.^.^.^.^.^.^.^.^.^.^.^.^.^.^.^.^.^.^.^.^.^.^.^.^.^.^.^.^.^.^.^.^.^.^.^.^.^.^.^.^.^.^.^.^.^.^.^.^.^.^.^.^.^.^.^.^.^.^.^.^.^.^.^.^.^.^.^.^.^.^.^.^.^.^.^.^.^.^.^.^.^.^.^.^.^.^.^.^.^.^.^.^.^.^.^.^.^.^.^.^.^.^.^.^.^.^.^.^.^.^.^.^.^.^.^.^.^.^.^.^.^.^.^.^.^.^.^.^.^.^.^.^.",
"^.^.^.^.^.^.^.^.^.^.^.^.^.^.^.^.^.^.^.^.^.^.^.^.^.^.^.^.^.^.^.^.^.^.^.^.^.^.^.^.^.^.^.^.^.^.^.^.^.^.^.^.^.^.^.^.^.^.^.^.^.^.^.^.^.^.^.^.^.^.^.^.^.^.^.^.^.^.^.^.^.^.^.^.^.^.^.^.^.^.^.^.^.^.^.^.^.^.^.^.^.^.^.^.^.^.^.^.^.^.^.^.^.^.^.^.^.^.^.^.^.^.^.^.^.^.^.^.^.^.^.^.^.^.^.^.^.^.^.^.^.^.^.^.^.^.^.^.^.^.^.^.^.^.^.^.^.^.^.^.^.^.^.^.^.^.^.^.^.^.^.^.^.^.^.^.^.^.^.^.^.^.^.^.^.^.^.^.^.^.^.^.^.^.^.^.^.^.^.^.^.^.^.^.^.^.^.^.^.^.^.^.^.^.^.^.^.^.^.^.^.^.^.^.^.^.^.^.^.^.^.^.^.^.^.^.^.^.^.^.^.^.^.^.^.^.^.^.^.^.^.^.^.^.^.^.^.^.^.^.^.^.^.^.^.^.^.^.^.^.^.^.^.^.^.^.^.^.^.^.^.^.^.^.^.^.^.^.^.^.^.^.^.^.^.^.^.^.^.^.^.^.^.^.^.^.^.^.^.^.^.^.^.^.^.^.^.^.^.^.^.^.^.^.^.^.^.^.^.^.^.^.^.^.^.^.^.^.^.^.^.^.^.^.^.^.^.^.^.^.^.^.^.^.^.^.^.^.^.^.^.^.^.^.^.^.^.^.^.^.^.^.^.^.^.^.^.^.^.^.^.^.^.^.^.^.^.^.^.^.^.^.^.^.^.^.^.^.^.^.^.^.^.^.^.^.^.^.^.^.^.^.^.^.^.^.^.^.^.^.^.^.^.^.^.^.^.^.^.^.^.^.^.^.^.^.^.^.^.^.^.^.^.^.^.^.^.^.^.^.^.^.^.^.^.^.^.^.^.^.^.^.^.^.^.^.^.^.^.^.^.^.^.^.^.^.^.^.^.^.^.^.^.^.^.^.^.^.^.^.^.^.^.^.^.^.^.^.^.^.^.^.^.^.^.^.^.^.^.^.^.^.^.^.^.^.^.^.^.^.^.^.^.^.^.^.^.^.^.^.^.^.^.^.^.^.^.^.^.^.^.^.^.^.^.^.^.^.^.^.^.^.^.^.^.^.^.^.^.^.^.^.^.^.^.^.^.^.^.^.^.^.^.^.^.^.^.^.^.^.^.^.^.^.^.^.^.^.^.^.^.^.^.^.^.^.^.^.^.^.^.^.^.^.^.^.^.^.^.^.^.^.^.^.^.^.^.^.^.^.^.^.^.^.^.^.^.^.^.^.^.^.^.^.",
"^.^.^.^.^.^.^.^.^.^.^.^.^.^.^.^.^.^.^.^.^.^.^.^.^.^.^.^.^.^.^.^.^.^.^.^.^.^.^.^.^.^.^.^.^.^.^.^.^.^.^.^.^.^.^.^.^.^.^.^.^.^.^.^.^.^.^.^.^.^.^.^.^.^.^.^.^.^.^.^.^.^.^.^.^.^.^.^.^.^.^.^.^.^.^.^.^.^.^.^.^.^.^.^.^.^.^.^.^.^.^.^.^.^.^.^.^.^.^.^.^.^.^.^.^.^.^.^.^.^.^.^.^.^.^.^.^.^.^.^.^.^.^.^.^.^.^.^.^.^.^.^.^.^.^.^.^.^.^.^.^.^.^.^.^.^.^.^.^.^.^.^.^.^.^.^.^.^.^.^.^.^.^.^.^.^.^.^.^.^.^.^.^.^.^.^.^.^.^.^.^.^.^.^.^.^.^.^.^.^.^.^.^.^.^.^.^.^.^.^.^.^.^.^.^.^.^.^.^.^.^.^.^.^.^.^.^.^.^.^.^.^.^.^.^.^.^.^.^.^.^.^.^.^.^.^.^.^.^.^.^.^.^.^.^.^.^.^.^.^.^.^.^.^.^.^.^.^.^.^.^.^.^.^.^.^.^.^.^.^.^.^.^.^.^.^.^.^.^.^.^.^.^.^.^.^.^.^.^.^.^.^.^.^.^.^.^.^.^.^.^.^.^.^.^.^.^.^.^.^.^.^.^.^.^.^.^.^.^.^.^.^.^.^.^.^.^.^.^.^.^.^.^.^.^.^.^.^.^.^.^.^.^.^.^.^.^.^.^.^.^.^.^.^.^.^.^.^.^.^.^.^.^.^.^.^.^.^.^.^.^.^.^.^.^.^.^.^.^.^.^.^.^.^.^.^.^.^.^.^.^.^.^.^.^.^.^.^.^.^.^.^.^.^.^.^.^.^.^.^.^.^.^.^.^.^.^.^.^.^.^.^.^.^.^.^.^.^.^.^.^.^.^.^.^.^.^.^.^.^.^.^.^.^.^.^.^.^.^.^.^.^.^.^.^.^.^.^.^.^.^.^.^.^.^.^.^.^.^.^.^.^.^.^.^.^.^.^.^.^.^.^.^.^.^.^.^.^.^.^.^.^.^.^.^.^.^.^.^.^.^.^.^.^.^.^.^.^.^.^.^.^.^.^.^.^.^.^.^.^.^.^.^.^.^.^.^.^.^.^.^.^.^.^.^.^.^.^.^.^.^.^.^.^.^.^.^.^.^.^.^.^.^.^.^.^.^.^.^.^.^.^.^.^.^.^.^.^.^.^.^.^.^.^.^.^.^.^.^.^.^.^.^.^.^.^.^.^.^.^.^.^.^.^.^.^.^.^.^.^.^.^.^.^.^.^.^.^.^.^.^.^.^.^.",
"^.^.^.^.^.^.^.^.^.^.^.^.^.^.^.^.^.^.^.^.^.^.^.^.^.^.^.^.^.^.^.^.^.^.^.^.^.^.^.^.^.^.^.^.^.^.^.^.^.^.^.^.^.^.^.^.^.^.^.^.^.^.^.^.^.^.^.^.^.^.^.^.^.^.^.^.^.^.^.^.^.^.^.^.^.^.^.^.^.^.^.^.^.^.^.^.^.^.^.^.^.^.^.^.^.^.^.^.^.^.^.^.^.^.^.^.^.^.^.^.^.^.^.^.^.^.^.^.^.^.^.^.^.^.^.^.^.^.^.^.^.^.^.^.^.^.^.^.^.^.^.^.^.^.^.^.^.^.^.^.^.^.^.^.^.^.^.^.^.^.^.^.^.^.^.^.^.^.^.^.^.^.^.^.^.^.^.^.^.^.^.^.^.^.^.^.^.^.^.^.^.^.^.^.^.^.^.^.^.^.^.^.^.^.^.^.^.^.^.^.^.^.^.^.^.^.^.^.^.^.^.^.^.^.^.^.^.^.^.^.^.^.^.^.^.^.^.^.^.^.^.^.^.^.^.^.^.^.^.^.^.^.^.^.^.^.^.^.^.^.^.^.^.^.^.^.^.^.^.^.^.^.^.^.^.^.^.^.^.^.^.^.^.^.^.^.^.^.^.^.^.^.^.^.^.^.^.^.^.^.^.^.^.^.^.^.^.^.^.^.^.^.^.^.^.^.^.^.^.^.^.^.^.^.^.^.^.^.^.^.^.^.^.^.^.^.^.^.^.^.^.^.^.^.^.^.^.^.^.^.^.^.^.^.^.^.^.^.^.^.^.^.^.^.^.^.^.^.^.^.^.^.^.^.^.^.^.^.^.^.^.^.^.^.^.^.^.^.^.^.^.^.^.^.^.^.^.^.^.^.^.^.^.^.^.^.^.^.^.^.^.^.^.^.^.^.^.^.^.^.^.^.^.^.^.^.^.^.^.^.^.^.^.^.^.^.^.^.^.^.^.^.^.^.^.^.^.^.^.^.^.^.^.^.^.^.^.^.^.^.^.^.^.^.^.^.^.^.^.^.^.^.^.^.^.^.^.^.^.^.^.^.^.^.^.^.^.^.^.^.^.^.^.^.^.^.^.^.^.^.^.^.^.^.^.^.^.^.^.^.^.^.^.^.^.^.^.^.^.^.^.^.^.^.^.^.^.^.^.^.^.^.^.^.^.^.^.^.^.^.^.^.^.^.^.^.^.^.^.^.^.^.^.^.^.^.^.^.^.^.^.^.^.^.^.^.^.^.^.^.^.^.^.^.^.^.^.^.^.^.^.^.^.^.^.^.^.^.^.^.^.^.^.^.^.^.^.^.^.^.^.^.^.^.^.^.^.^.^.^.^.^.^.^.^.^.^.^.^.^.^.^.^.^.",
"^.^.^.^.^.^.^.^.^.^.^.^.^.^.^.^.^.^.^.^.^.^.^.^.^.^.^.^.^.^.^.^.^.^.^.^.^.^.^.^.^.^.^.^.^.^.^.^.^.^.^.^.^.^.^.^.^.^.^.^.^.^.^.^.^.^.^.^.^.^.^.^.^.^.^.^.^.^.^.^.^.^.^.^.^.^.^.^.^.^.^.^.^.^.^.^.^.^.^.^.^.^.^.^.^.^.^.^.^.^.^.^.^.^.^.^.^.^.^.^.^.^.^.^.^.^.^.^.^.^.^.^.^.^.^.^.^.^.^.^.^.^.^.^.^.^.^.^.^.^.^.^.^.^.^.^.^.^.^.^.^.^.^.^.^.^.^.^.^.^.^.^.^.^.^.^.^.^.^.^.^.^.^.^.^.^.^.^.^.^.^.^.^.^.^.^.^.^.^.^.^.^.^.^.^.^.^.^.^.^.^.^.^.^.^.^.^.^.^.^.^.^.^.^.^.^.^.^.^.^.^.^.^.^.^.^.^.^.^.^.^.^.^.^.^.^.^.^.^.^.^.^.^.^.^.^.^.^.^.^.^.^.^.^.^.^.^.^.^.^.^.^.^.^.^.^.^.^.^.^.^.^.^.^.^.^.^.^.^.^.^.^.^.^.^.^.^.^.^.^.^.^.^.^.^.^.^.^.^.^.^.^.^.^.^.^.^.^.^.^.^.^.^.^.^.^.^.^.^.^.^.^.^.^.^.^.^.^.^.^.^.^.^.^.^.^.^.^.^.^.^.^.^.^.^.^.^.^.^.^.^.^.^.^.^.^.^.^.^.^.^.^.^.^.^.^.^.^.^.^.^.^.^.^.^.^.^.^.^.^.^.^.^.^.^.^.^.^.^.^.^.^.^.^.^.^.^.^.^.^.^.^.^.^.^.^.^.^.^.^.^.^.^.^.^.^.^.^.^.^.^.^.^.^.^.^.^.^.^.^.^.^.^.^.^.^.^.^.^.^.^.^.^.^.^.^.^.^.^.^.^.^.^.^.^.^.^.^.^.^.^.^.^.^.^.^.^.^.^.^.^.^.^.^.^.^.^.^.^.^.^.^.^.^.^.^.^.^.^.^.^.^.^.^.^.^.^.^.^.^.^.^.^.^.^.^.^.^.^.^.^.^.^.^.^.^.^.^.^.^.^.^.^.^.^.^.^.^.^.^.^.^.^.^.^.^.^.^.^.^.^.^.^.^.^.^.^.^.^.^.^.^.^.^.^.^.^.^.^.^.^.^.^.^.^.^.^.^.^.^.^.^.^.^.^.^.^.^.^.^.^.^.^.^.^.^.^.^.^.^.^.^.^.^.^.^.^.^.^.^.^.^.^.^.^.^.^.^.^.^.^.^.^.^.^.^.^.^.^.^.^.^.^.^.",
"^.^.^.^.^.^.^.^.^.^.^.^.^.^.^.^.^.^.^.^.^.^.^.^.^.^.^.^.^.^.^.^.^.^.^.^.^.^.^.^.^.^.^.^.^.^.^.^.^.^.^.^.^.^.^.^.^.^.^.^.^.^.^.^.^.^.^.^.^.^.^.^.^.^.^.^.^.^.^.^.^.^.^.^.^.^.^.^.^.^.^.^.^.^.^.^.^.^.^.^.^.^.^.^.^.^.^.^.^.^.^.^.^.^.^.^.^.^.^.^.^.^.^.^.^.^.^.^.^.^.^.^.^.^.^.^.^.^.^.^.^.^.^.^.^.^.^.^.^.^.^.^.^.^.^.^.^.^.^.^.^.^.^.^.^.^.^.^.^.^.^.^.^.^.^.^.^.^.^.^.^.^.^.^.^.^.^.^.^.^.^.^.^.^.^.^.^.^.^.^.^.^.^.^.^.^.^.^.^.^.^.^.^.^.^.^.^.^.^.^.^.^.^.^.^.^.^.^.^.^.^.^.^.^.^.^.^.^.^.^.^.^.^.^.^.^.^.^.^.^.^.^.^.^.^.^.^.^.^.^.^.^.^.^.^.^.^.^.^.^.^.^.^.^.^.^.^.^.^.^.^.^.^.^.^.^.^.^.^.^.^.^.^.^.^.^.^.^.^.^.^.^.^.^.^.^.^.^.^.^.^.^.^.^.^.^.^.^.^.^.^.^.^.^.^.^.^.^.^.^.^.^.^.^.^.^.^.^.^.^.^.^.^.^.^.^.^.^.^.^.^.^.^.^.^.^.^.^.^.^.^.^.^.^.^.^.^.^.^.^.^.^.^.^.^.^.^.^.^.^.^.^.^.^.^.^.^.^.^.^.^.^.^.^.^.^.^.^.^.^.^.^.^.^.^.^.^.^.^.^.^.^.^.^.^.^.^.^.^.^.^.^.^.^.^.^.^.^.^.^.^.^.^.^.^.^.^.^.^.^.^.^.^.^.^.^.^.^.^.^.^.^.^.^.^.^.^.^.^.^.^.^.^.^.^.^.^.^.^.^.^.^.^.^.^.^.^.^.^.^.^.^.^.^.^.^.^.^.^.^.^.^.^.^.^.^.^.^.^.^.^.^.^.^.^.^.^.^.^.^.^.^.^.^.^.^.^.^.^.^.^.^.^.^.^.^.^.^.^.^.^.^.^.^.^.^.^.^.^.^.^.^.^.^.^.^.^.^.^.^.^.^.^.^.^.^.^.^.^.^.^.^.^.^.^.^.^.^.^.^.^.^.^.^.^.^.^.^.^.^.^.^.^.^.^.^.^.^.^.^.^.^.^.^.^.^.^.^.^.^.^.^.^.^.^.^.^.^.^.^.^.^.^.^.^.^.^.^.^.^.^.^.^.^.^.^.^.^.^.^.^.^.^.^.",
"^.^.^.^.^.^.^.^.^.^.^.^.^.^.^.^.^.^.^.^.^.^.^.^.^.^.^.^.^.^.^.^.^.^.^.^.^.^.^.^.^.^.^.^.^.^.^.^.^.^.^.^.^.^.^.^.^.^.^.^.^.^.^.^.^.^.^.^.^.^.^.^.^.^.^.^.^.^.^.^.^.^.^.^.^.^.^.^.^.^.^.^.^.^.^.^.^.^.^.^.^.^.^.^.^.^.^.^.^.^.^.^.^.^.^.^.^.^.^.^.^.^.^.^.^.^.^.^.^.^.^.^.^.^.^.^.^.^.^.^.^.^.^.^.^.^.^.^.^.^.^.^.^.^.^.^.^.^.^.^.^.^.^.^.^.^.^.^.^.^.^.^.^.^.^.^.^.^.^.^.^.^.^.^.^.^.^.^.^.^.^.^.^.^.^.^.^.^.^.^.^.^.^.^.^.^.^.^.^.^.^.^.^.^.^.^.^.^.^.^.^.^.^.^.^.^.^.^.^.^.^.^.^.^.^.^.^.^.^.^.^.^.^.^.^.^.^.^.^.^.^.^.^.^.^.^.^.^.^.^.^.^.^.^.^.^.^.^.^.^.^.^.^.^.^.^.^.^.^.^.^.^.^.^.^.^.^.^.^.^.^.^.^.^.^.^.^.^.^.^.^.^.^.^.^.^.^.^.^.^.^.^.^.^.^.^.^.^.^.^.^.^.^.^.^.^.^.^.^.^.^.^.^.^.^.^.^.^.^.^.^.^.^.^.^.^.^.^.^.^.^.^.^.^.^.^.^.^.^.^.^.^.^.^.^.^.^.^.^.^.^.^.^.^.^.^.^.^.^.^.^.^.^.^.^.^.^.^.^.^.^.^.^.^.^.^.^.^.^.^.^.^.^.^.^.^.^.^.^.^.^.^.^.^.^.^.^.^.^.^.^.^.^.^.^.^.^.^.^.^.^.^.^.^.^.^.^.^.^.^.^.^.^.^.^.^.^.^.^.^.^.^.^.^.^.^.^.^.^.^.^.^.^.^.^.^.^.^.^.^.^.^.^.^.^.^.^.^.^.^.^.^.^.^.^.^.^.^.^.^.^.^.^.^.^.^.^.^.^.^.^.^.^.^.^.^.^.^.^.^.^.^.^.^.^.^.^.^.^.^.^.^.^.^.^.^.^.^.^.^.^.^.^.^.^.^.^.^.^.^.^.^.^.^.^.^.^.^.^.^.^.^.^.^.^.^.^.^.^.^.^.^.^.^.^.^.^.^.^.^.^.^.^.^.^.^.^.^.^.^.^.^.^.^.^.^.^.^.^.^.^.^.^.^.^.^.^.^.^.^.^.^.^.^.^.^.^.^.^.^.^.^.^.^.^.^.^.^.^.^.^.^.^.^.^.^.^.^.^.^.^.^.^.^.",
"^.^.^.^.^.^.^.^.^.^.^.^.^.^.^.^.^.^.^.^.^.^.^.^.^.^.^.^.^.^.^.^.^.^.^.^.^.^.^.^.^.^.^.^.^.^.^.^.^.^.^.^.^.^.^.^.^.^.^.^.^.^.^.^.^.^.^.^.^.^.^.^.^.^.^.^.^.^.^.^.^.^.^.^.^.^.^.^.^.^.^.^.^.^.^.^.^.^.^.^.^.^.^.^.^.^.^.^.^.^.^.^.^.^.^.^.^.^.^.^.^.^.^.^.^.^.^.^.^.^.^.^.^.^.^.^.^.^.^.^.^.^.^.^.^.^.^.^.^.^.^.^.^.^.^.^.^.^.^.^.^.^.^.^.^.^.^.^.^.^.^.^.^.^.^.^.^.^.^.^.^.^.^.^.^.^.^.^.^.^.^.^.^.^.^.^.^.^.^.^.^.^.^.^.^.^.^.^.^.^.^.^.^.^.^.^.^.^.^.^.^.^.^.^.^.^.^.^.^.^.^.^.^.^.^.^.^.^.^.^.^.^.^.^.^.^.^.^.^.^.^.^.^.^.^.^.^.^.^.^.^.^.^.^.^.^.^.^.^.^.^.^.^.^.^.^.^.^.^.^.^.^.^.^.^.^.^.^.^.^.^.^.^.^.^.^.^.^.^.^.^.^.^.^.^.^.^.^.^.^.^.^.^.^.^.^.^.^.^.^.^.^.^.^.^.^.^.^.^.^.^.^.^.^.^.^.^.^.^.^.^.^.^.^.^.^.^.^.^.^.^.^.^.^.^.^.^.^.^.^.^.^.^.^.^.^.^.^.^.^.^.^.^.^.^.^.^.^.^.^.^.^.^.^.^.^.^.^.^.^.^.^.^.^.^.^.^.^.^.^.^.^.^.^.^.^.^.^.^.^.^.^.^.^.^.^.^.^.^.^.^.^.^.^.^.^.^.^.^.^.^.^.^.^.^.^.^.^.^.^.^.^.^.^.^.^.^.^.^.^.^.^.^.^.^.^.^.^.^.^.^.^.^.^.^.^.^.^.^.^.^.^.^.^.^.^.^.^.^.^.^.^.^.^.^.^.^.^.^.^.^.^.^.^.^.^.^.^.^.^.^.^.^.^.^.^.^.^.^.^.^.^.^.^.^.^.^.^.^.^.^.^.^.^.^.^.^.^.^.^.^.^.^.^.^.^.^.^.^.^.^.^.^.^.^.^.^.^.^.^.^.^.^.^.^.^.^.^.^.^.^.^.^.^.^.^.^.^.^.^.^.^.^.^.^.^.^.^.^.^.^.^.^.^.^.^.^.^.^.^.^.^.^.^.^.^.^.^.^.^.^.^.^.^.^.^.^.^.^.^.^.^.^.^.^.^.^.^.^.^.^.^.^.^.^.^.^.^.^.^.^.^.^.^.",
"^.^.^.^.^.^.^.^.^.^.^.^.^.^.^.^.^.^.^.^.^.^.^.^.^.^.^.^.^.^.^.^.^.^.^.^.^.^.^.^.^.^.^.^.^.^.^.^.^.^.^.^.^.^.^.^.^.^.^.^.^.^.^.^.^.^.^.^.^.^.^.^.^.^.^.^.^.^.^.^.^.^.^.^.^.^.^.^.^.^.^.^.^.^.^.^.^.^.^.^.^.^.^.^.^.^.^.^.^.^.^.^.^.^.^.^.^.^.^.^.^.^.^.^.^.^.^.^.^.^.^.^.^.^.^.^.^.^.^.^.^.^.^.^.^.^.^.^.^.^.^.^.^.^.^.^.^.^.^.^.^.^.^.^.^.^.^.^.^.^.^.^.^.^.^.^.^.^.^.^.^.^.^.^.^.^.^.^.^.^.^.^.^.^.^.^.^.^.^.^.^.^.^.^.^.^.^.^.^.^.^.^.^.^.^.^.^.^.^.^.^.^.^.^.^.^.^.^.^.^.^.^.^.^.^.^.^.^.^.^.^.^.^.^.^.^.^.^.^.^.^.^.^.^.^.^.^.^.^.^.^.^.^.^.^.^.^.^.^.^.^.^.^.^.^.^.^.^.^.^.^.^.^.^.^.^.^.^.^.^.^.^.^.^.^.^.^.^.^.^.^.^.^.^.^.^.^.^.^.^.^.^.^.^.^.^.^.^.^.^.^.^.^.^.^.^.^.^.^.^.^.^.^.^.^.^.^.^.^.^.^.^.^.^.^.^.^.^.^.^.^.^.^.^.^.^.^.^.^.^.^.^.^.^.^.^.^.^.^.^.^.^.^.^.^.^.^.^.^.^.^.^.^.^.^.^.^.^.^.^.^.^.^.^.^.^.^.^.^.^.^.^.^.^.^.^.^.^.^.^.^.^.^.^.^.^.^.^.^.^.^.^.^.^.^.^.^.^.^.^.^.^.^.^.^.^.^.^.^.^.^.^.^.^.^.^.^.^.^.^.^.^.^.^.^.^.^.^.^.^.^.^.^.^.^.^.^.^.^.^.^.^.^.^.^.^.^.^.^.^.^.^.^.^.^.^.^.^.^.^.^.^.^.^.^.^.^.^.^.^.^.^.^.^.^.^.^.^.^.^.^.^.^.^.^.^.^.^.^.^.^.^.^.^.^.^.^.^.^.^.^.^.^.^.^.^.^.^.^.^.^.^.^.^.^.^.^.^.^.^.^.^.^.^.^.^.^.^.^.^.^.^.^.^.^.^.^.^.^.^.^.^.^.^.^.^.^.^.^.^.^.^.^.^.^.^.^.^.^.^.^.^.^.^.^.^.^.^.^.^.^.^.^.^.^.^.^.^.^.^.^.^.^.^.^.^.^.^.^.^.^.^.^.^.^.^.^.^.^.^.^.^.^.^.",
"^.^.^.^.^.^.^.^.^.^.^.^.^.^.^.^.^.^.^.^.^.^.^.^.^.^.^.^.^.^.^.^.^.^.^.^.^.^.^.^.^.^.^.^.^.^.^.^.^.^.^.^.^.^.^.^.^.^.^.^.^.^.^.^.^.^.^.^.^.^.^.^.^.^.^.^.^.^.^.^.^.^.^.^.^.^.^.^.^.^.^.^.^.^.^.^.^.^.^.^.^.^.^.^.^.^.^.^.^.^.^.^.^.^.^.^.^.^.^.^.^.^.^.^.^.^.^.^.^.^.^.^.^.^.^.^.^.^.^.^.^.^.^.^.^.^.^.^.^.^.^.^.^.^.^.^.^.^.^.^.^.^.^.^.^.^.^.^.^.^.^.^.^.^.^.^.^.^.^.^.^.^.^.^.^.^.^.^.^.^.^.^.^.^.^.^.^.^.^.^.^.^.^.^.^.^.^.^.^.^.^.^.^.^.^.^.^.^.^.^.^.^.^.^.^.^.^.^.^.^.^.^.^.^.^.^.^.^.^.^.^.^.^.^.^.^.^.^.^.^.^.^.^.^.^.^.^.^.^.^.^.^.^.^.^.^.^.^.^.^.^.^.^.^.^.^.^.^.^.^.^.^.^.^.^.^.^.^.^.^.^.^.^.^.^.^.^.^.^.^.^.^.^.^.^.^.^.^.^.^.^.^.^.^.^.^.^.^.^.^.^.^.^.^.^.^.^.^.^.^.^.^.^.^.^.^.^.^.^.^.^.^.^.^.^.^.^.^.^.^.^.^.^.^.^.^.^.^.^.^.^.^.^.^.^.^.^.^.^.^.^.^.^.^.^.^.^.^.^.^.^.^.^.^.^.^.^.^.^.^.^.^.^.^.^.^.^.^.^.^.^.^.^.^.^.^.^.^.^.^.^.^.^.^.^.^.^.^.^.^.^.^.^.^.^.^.^.^.^.^.^.^.^.^.^.^.^.^.^.^.^.^.^.^.^.^.^.^.^.^.^.^.^.^.^.^.^.^.^.^.^.^.^.^.^.^.^.^.^.^.^.^.^.^.^.^.^.^.^.^.^.^.^.^.^.^.^.^.^.^.^.^.^.^.^.^.^.^.^.^.^.^.^.^.^.^.^.^.^.^.^.^.^.^.^.^.^.^.^.^.^.^.^.^.^.^.^.^.^.^.^.^.^.^.^.^.^.^.^.^.^.^.^.^.^.^.^.^.^.^.^.^.^.^.^.^.^.^.^.^.^.^.^.^.^.^.^.^.^.^.^.^.^.^.^.^.^.^.^.^.^.^.^.^.^.^.^.^.^.^.^.^.^.^.^.^.^.^.^.^.^.^.^.^.^.^.^.^.^.^.^.^.^.^.^.^.^.^.^.^.^.^.^.^.^.^.^.^.^.^.^.^.^.^.",
"^.^.^.^.^.^.^.^.^.^.^.^.^.^.^.^.^.^.^.^.^.^.^.^.^.^.^.^.^.^.^.^.^.^.^.^.^.^.^.^.^.^.^.^.^.^.^.^.^.^.^.^.^.^.^.^.^.^.^.^.^.^.^.^.^.^.^.^.^.^.^.^.^.^.^.^.^.^.^.^.^.^.^.^.^.^.^.^.^.^.^.^.^.^.^.^.^.^.^.^.^.^.^.^.^.^.^.^.^.^.^.^.^.^.^.^.^.^.^.^.^.^.^.^.^.^.^.^.^.^.^.^.^.^.^.^.^.^.^.^.^.^.^.^.^.^.^.^.^.^.^.^.^.^.^.^.^.^.^.^.^.^.^.^.^.^.^.^.^.^.^.^.^.^.^.^.^.^.^.^.^.^.^.^.^.^.^.^.^.^.^.^.^.^.^.^.^.^.^.^.^.^.^.^.^.^.^.^.^.^.^.^.^.^.^.^.^.^.^.^.^.^.^.^.^.^.^.^.^.^.^.^.^.^.^.^.^.^.^.^.^.^.^.^.^.^.^.^.^.^.^.^.^.^.^.^.^.^.^.^.^.^.^.^.^.^.^.^.^.^.^.^.^.^.^.^.^.^.^.^.^.^.^.^.^.^.^.^.^.^.^.^.^.^.^.^.^.^.^.^.^.^.^.^.^.^.^.^.^.^.^.^.^.^.^.^.^.^.^.^.^.^.^.^.^.^.^.^.^.^.^.^.^.^.^.^.^.^.^.^.^.^.^.^.^.^.^.^.^.^.^.^.^.^.^.^.^.^.^.^.^.^.^.^.^.^.^.^.^.^.^.^.^.^.^.^.^.^.^.^.^.^.^.^.^.^.^.^.^.^.^.^.^.^.^.^.^.^.^.^.^.^.^.^.^.^.^.^.^.^.^.^.^.^.^.^.^.^.^.^.^.^.^.^.^.^.^.^.^.^.^.^.^.^.^.^.^.^.^.^.^.^.^.^.^.^.^.^.^.^.^.^.^.^.^.^.^.^.^.^.^.^.^.^.^.^.^.^.^.^.^.^.^.^.^.^.^.^.^.^.^.^.^.^.^.^.^.^.^.^.^.^.^.^.^.^.^.^.^.^.^.^.^.^.^.^.^.^.^.^.^.^.^.^.^.^.^.^.^.^.^.^.^.^.^.^.^.^.^.^.^.^.^.^.^.^.^.^.^.^.^.^.^.^.^.^.^.^.^.^.^.^.^.^.^.^.^.^.^.^.^.^.^.^.^.^.^.^.^.^.^.^.^.^.^.^.^.^.^.^.^.^.^.^.^.^.^.^.^.^.^.^.^.^.^.^.^.^.^.^.^.^.^.^.^.^.^.^.^.^.^.^.^.^.^.^.^.^.^.^.^.^.^.^.^.^.^.^.^.^.^.^.^.^.",
"^.^.^.^.^.^.^.^.^.^.^.^.^.^.^.^.^.^.^.^.^.^.^.^.^.^.^.^.^.^.^.^.^.^.^.^.^.^.^.^.^.^.^.^.^.^.^.^.^.^.^.^.^.^.^.^.^.^.^.^.^.^.^.^.^.^.^.^.^.^.^.^.^.^.^.^.^.^.^.^.^.^.^.^.^.^.^.^.^.^.^.^.^.^.^.^.^.^.^.^.^.^.^.^.^.^.^.^.^.^.^.^.^.^.^.^.^.^.^.^.^.^.^.^.^.^.^.^.^.^.^.^.^.^.^.^.^.^.^.^.^.^.^.^.^.^.^.^.^.^.^.^.^.^.^.^.^.^.^.^.^.^.^.^.^.^.^.^.^.^.^.^.^.^.^.^.^.^.^.^.^.^.^.^.^.^.^.^.^.^.^.^.^.^.^.^.^.^.^.^.^.^.^.^.^.^.^.^.^.^.^.^.^.^.^.^.^.^.^.^.^.^.^.^.^.^.^.^.^.^.^.^.^.^.^.^.^.^.^.^.^.^.^.^.^.^.^.^.^.^.^.^.^.^.^.^.^.^.^.^.^.^.^.^.^.^.^.^.^.^.^.^.^.^.^.^.^.^.^.^.^.^.^.^.^.^.^.^.^.^.^.^.^.^.^.^.^.^.^.^.^.^.^.^.^.^.^.^.^.^.^.^.^.^.^.^.^.^.^.^.^.^.^.^.^.^.^.^.^.^.^.^.^.^.^.^.^.^.^.^.^.^.^.^.^.^.^.^.^.^.^.^.^.^.^.^.^.^.^.^.^.^.^.^.^.^.^.^.^.^.^.^.^.^.^.^.^.^.^.^.^.^.^.^.^.^.^.^.^.^.^.^.^.^.^.^.^.^.^.^.^.^.^.^.^.^.^.^.^.^.^.^.^.^.^.^.^.^.^.^.^.^.^.^.^.^.^.^.^.^.^.^.^.^.^.^.^.^.^.^.^.^.^.^.^.^.^.^.^.^.^.^.^.^.^.^.^.^.^.^.^.^.^.^.^.^.^.^.^.^.^.^.^.^.^.^.^.^.^.^.^.^.^.^.^.^.^.^.^.^.^.^.^.^.^.^.^.^.^.^.^.^.^.^.^.^.^.^.^.^.^.^.^.^.^.^.^.^.^.^.^.^.^.^.^.^.^.^.^.^.^.^.^.^.^.^.^.^.^.^.^.^.^.^.^.^.^.^.^.^.^.^.^.^.^.^.^.^.^.^.^.^.^.^.^.^.^.^.^.^.^.^.^.^.^.^.^.^.^.^.^.^.^.^.^.^.^.^.^.^.^.^.^.^.^.^.^.^.^.^.^.^.^.^.^.^.^.^.^.^.^.^.^.^.^.^.^.^.^.^.^.^.^.^.^.^.^.^.^.^.^.^.^.^.",
"^.^.^.^.^.^.^.^.^.^.^.^.^.^.^.^.^.^.^.^.^.^.^.^.^.^.^.^.^.^.^.^.^.^.^.^.^.^.^.^.^.^.^.^.^.^.^.^.^.^.^.^.^.^.^.^.^.^.^.^.^.^.^.^.^.^.^.^.^.^.^.^.^.^.^.^.^.^.^.^.^.^.^.^.^.^.^.^.^.^.^.^.^.^.^.^.^.^.^.^.^.^.^.^.^.^.^.^.^.^.^.^.^.^.^.^.^.^.^.^.^.^.^.^.^.^.^.^.^.^.^.^.^.^.^.^.^.^.^.^.^.^.^.^.^.^.^.^.^.^.^.^.^.^.^.^.^.^.^.^.^.^.^.^.^.^.^.^.^.^.^.^.^.^.^.^.^.^.^.^.^.^.^.^.^.^.^.^.^.^.^.^.^.^.^.^.^.^.^.^.^.^.^.^.^.^.^.^.^.^.^.^.^.^.^.^.^.^.^.^.^.^.^.^.^.^.^.^.^.^.^.^.^.^.^.^.^.^.^.^.^.^.^.^.^.^.^.^.^.^.^.^.^.^.^.^.^.^.^.^.^.^.^.^.^.^.^.^.^.^.^.^.^.^.^.^.^.^.^.^.^.^.^.^.^.^.^.^.^.^.^.^.^.^.^.^.^.^.^.^.^.^.^.^.^.^.^.^.^.^.^.^.^.^.^.^.^.^.^.^.^.^.^.^.^.^.^.^.^.^.^.^.^.^.^.^.^.^.^.^.^.^.^.^.^.^.^.^.^.^.^.^.^.^.^.^.^.^.^.^.^.^.^.^.^.^.^.^.^.^.^.^.^.^.^.^.^.^.^.^.^.^.^.^.^.^.^.^.^.^.^.^.^.^.^.^.^.^.^.^.^.^.^.^.^.^.^.^.^.^.^.^.^.^.^.^.^.^.^.^.^.^.^.^.^.^.^.^.^.^.^.^.^.^.^.^.^.^.^.^.^.^.^.^.^.^.^.^.^.^.^.^.^.^.^.^.^.^.^.^.^.^.^.^.^.^.^.^.^.^.^.^.^.^.^.^.^.^.^.^.^.^.^.^.^.^.^.^.^.^.^.^.^.^.^.^.^.^.^.^.^.^.^.^.^.^.^.^.^.^.^.^.^.^.^.^.^.^.^.^.^.^.^.^.^.^.^.^.^.^.^.^.^.^.^.^.^.^.^.^.^.^.^.^.^.^.^.^.^.^.^.^.^.^.^.^.^.^.^.^.^.^.^.^.^.^.^.^.^.^.^.^.^.^.^.^.^.^.^.^.^.^.^.^.^.^.^.^.^.^.^.^.^.^.^.^.^.^.^.^.^.^.^.^.^.^.^.^.^.^.^.^.^.^.^.^.^.^.^.^.^.^.^.^.^.^.^.^.^.^.^.^.^.^.",
"^.^.^.^.^.^.^.^.^.^.^.^.^.^.^.^.^.^.^.^.^.^.^.^.^.^.^.^.^.^.^.^.^.^.^.^.^.^.^.^.^.^.^.^.^.^.^.^.^.^.^.^.^.^.^.^.^.^.^.^.^.^.^.^.^.^.^.^.^.^.^.^.^.^.^.^.^.^.^.^.^.^.^.^.^.^.^.^.^.^.^.^.^.^.^.^.^.^.^.^.^.^.^.^.^.^.^.^.^.^.^.^.^.^.^.^.^.^.^.^.^.^.^.^.^.^.^.^.^.^.^.^.^.^.^.^.^.^.^.^.^.^.^.^.^.^.^.^.^.^.^.^.^.^.^.^.^.^.^.^.^.^.^.^.^.^.^.^.^.^.^.^.^.^.^.^.^.^.^.^.^.^.^.^.^.^.^.^.^.^.^.^.^.^.^.^.^.^.^.^.^.^.^.^.^.^.^.^.^.^.^.^.^.^.^.^.^.^.^.^.^.^.^.^.^.^.^.^.^.^.^.^.^.^.^.^.^.^.^.^.^.^.^.^.^.^.^.^.^.^.^.^.^.^.^.^.^.^.^.^.^.^.^.^.^.^.^.^.^.^.^.^.^.^.^.^.^.^.^.^.^.^.^.^.^.^.^.^.^.^.^.^.^.^.^.^.^.^.^.^.^.^.^.^.^.^.^.^.^.^.^.^.^.^.^.^.^.^.^.^.^.^.^.^.^.^.^.^.^.^.^.^.^.^.^.^.^.^.^.^.^.^.^.^.^.^.^.^.^.^.^.^.^.^.^.^.^.^.^.^.^.^.^.^.^.^.^.^.^.^.^.^.^.^.^.^.^.^.^.^.^.^.^.^.^.^.^.^.^.^.^.^.^.^.^.^.^.^.^.^.^.^.^.^.^.^.^.^.^.^.^.^.^.^.^.^.^.^.^.^.^.^.^.^.^.^.^.^.^.^.^.^.^.^.^.^.^.^.^.^.^.^.^.^.^.^.^.^.^.^.^.^.^.^.^.^.^.^.^.^.^.^.^.^.^.^.^.^.^.^.^.^.^.^.^.^.^.^.^.^.^.^.^.^.^.^.^.^.^.^.^.^.^.^.^.^.^.^.^.^.^.^.^.^.^.^.^.^.^.^.^.^.^.^.^.^.^.^.^.^.^.^.^.^.^.^.^.^.^.^.^.^.^.^.^.^.^.^.^.^.^.^.^.^.^.^.^.^.^.^.^.^.^.^.^.^.^.^.^.^.^.^.^.^.^.^.^.^.^.^.^.^.^.^.^.^.^.^.^.^.^.^.^.^.^.^.^.^.^.^.^.^.^.^.^.^.^.^.^.^.^.^.^.^.^.^.^.^.^.^.^.^.^.^.^.^.^.^.^.^.^.^.^.^.^.^.^.^.^.^.^.^.^.^.",
"^.^.^.^.^.^.^.^.^.^.^.^.^.^.^.^.^.^.^.^.^.^.^.^.^.^.^.^.^.^.^.^.^.^.^.^.^.^.^.^.^.^.^.^.^.^.^.^.^.^.^.^.^.^.^.^.^.^.^.^.^.^.^.^.^.^.^.^.^.^.^.^.^.^.^.^.^.^.^.^.^.^.^.^.^.^.^.^.^.^.^.^.^.^.^.^.^.^.^.^.^.^.^.^.^.^.^.^.^.^.^.^.^.^.^.^.^.^.^.^.^.^.^.^.^.^.^.^.^.^.^.^.^.^.^.^.^.^.^.^.^.^.^.^.^.^.^.^.^.^.^.^.^.^.^.^.^.^.^.^.^.^.^.^.^.^.^.^.^.^.^.^.^.^.^.^.^.^.^.^.^.^.^.^.^.^.^.^.^.^.^.^.^.^.^.^.^.^.^.^.^.^.^.^.^.^.^.^.^.^.^.^.^.^.^.^.^.^.^.^.^.^.^.^.^.^.^.^.^.^.^.^.^.^.^.^.^.^.^.^.^.^.^.^.^.^.^.^.^.^.^.^.^.^.^.^.^.^.^.^.^.^.^.^.^.^.^.^.^.^.^.^.^.^.^.^.^.^.^.^.^.^.^.^.^.^.^.^.^.^.^.^.^.^.^.^.^.^.^.^.^.^.^.^.^.^.^.^.^.^.^.^.^.^.^.^.^.^.^.^.^.^.^.^.^.^.^.^.^.^.^.^.^.^.^.^.^.^.^.^.^.^.^.^.^.^.^.^.^.^.^.^.^.^.^.^.^.^.^.^.^.^.^.^.^.^.^.^.^.^.^.^.^.^.^.^.^.^.^.^.^.^.^.^.^.^.^.^.^.^.^.^.^.^.^.^.^.^.^.^.^.^.^.^.^.^.^.^.^.^.^.^.^.^.^.^.^.^.^.^.^.^.^.^.^.^.^.^.^.^.^.^.^.^.^.^.^.^.^.^.^.^.^.^.^.^.^.^.^.^.^.^.^.^.^.^.^.^.^.^.^.^.^.^.^.^.^.^.^.^.^.^.^.^.^.^.^.^.^.^.^.^.^.^.^.^.^.^.^.^.^.^.^.^.^.^.^.^.^.^.^.^.^.^.^.^.^.^.^.^.^.^.^.^.^.^.^.^.^.^.^.^.^.^.^.^.^.^.^.^.^.^.^.^.^.^.^.^.^.^.^.^.^.^.^.^.^.^.^.^.^.^.^.^.^.^.^.^.^.^.^.^.^.^.^.^.^.^.^.^.^.^.^.^.^.^.^.^.^.^.^.^.^.^.^.^.^.^.^.^.^.^.^.^.^.^.^.^.^.^.^.^.^.^.^.^.^.^.^.^.^.^.^.^.^.^.^.^.^.^.^.^.^.^.^.^.^.^.^.^.^.^.^.^.",
"^.^.^.^.^.^.^.^.^.^.^.^.^.^.^.^.^.^.^.^.^.^.^.^.^.^.^.^.^.^.^.^.^.^.^.^.^.^.^.^.^.^.^.^.^.^.^.^.^.^.^.^.^.^.^.^.^.^.^.^.^.^.^.^.^.^.^.^.^.^.^.^.^.^.^.^.^.^.^.^.^.^.^.^.^.^.^.^.^.^.^.^.^.^.^.^.^.^.^.^.^.^.^.^.^.^.^.^.^.^.^.^.^.^.^.^.^.^.^.^.^.^.^.^.^.^.^.^.^.^.^.^.^.^.^.^.^.^.^.^.^.^.^.^.^.^.^.^.^.^.^.^.^.^.^.^.^.^.^.^.^.^.^.^.^.^.^.^.^.^.^.^.^.^.^.^.^.^.^.^.^.^.^.^.^.^.^.^.^.^.^.^.^.^.^.^.^.^.^.^.^.^.^.^.^.^.^.^.^.^.^.^.^.^.^.^.^.^.^.^.^.^.^.^.^.^.^.^.^.^.^.^.^.^.^.^.^.^.^.^.^.^.^.^.^.^.^.^.^.^.^.^.^.^.^.^.^.^.^.^.^.^.^.^.^.^.^.^.^.^.^.^.^.^.^.^.^.^.^.^.^.^.^.^.^.^.^.^.^.^.^.^.^.^.^.^.^.^.^.^.^.^.^.^.^.^.^.^.^.^.^.^.^.^.^.^.^.^.^.^.^.^.^.^.^.^.^.^.^.^.^.^.^.^.^.^.^.^.^.^.^.^.^.^.^.^.^.^.^.^.^.^.^.^.^.^.^.^.^.^.^.^.^.^.^.^.^.^.^.^.^.^.^.^.^.^.^.^.^.^.^.^.^.^.^.^.^.^.^.^.^.^.^.^.^.^.^.^.^.^.^.^.^.^.^.^.^.^.^.^.^.^.^.^.^.^.^.^.^.^.^.^.^.^.^.^.^.^.^.^.^.^.^.^.^.^.^.^.^.^.^.^.^.^.^.^.^.^.^.^.^.^.^.^.^.^.^.^.^.^.^.^.^.^.^.^.^.^.^.^.^.^.^.^.^.^.^.^.^.^.^.^.^.^.^.^.^.^.^.^.^.^.^.^.^.^.^.^.^.^.^.^.^.^.^.^.^.^.^.^.^.^.^.^.^.^.^.^.^.^.^.^.^.^.^.^.^.^.^.^.^.^.^.^.^.^.^.^.^.^.^.^.^.^.^.^.^.^.^.^.^.^.^.^.^.^.^.^.^.^.^.^.^.^.^.^.^.^.^.^.^.^.^.^.^.^.^.^.^.^.^.^.^.^.^.^.^.^.^.^.^.^.^.^.^.^.^.^.^.^.^.^.^.^.^.^.^.^.^.^.^.^.^.^.^.^.^.^.^.^.^.^.^.^.^.^.^.^.^.^.^.^.^.^.",
"^.^.^.^.^.^.^.^.^.^.^.^.^.^.^.^.^.^.^.^.^.^.^.^.^.^.^.^.^.^.^.^.^.^.^.^.^.^.^.^.^.^.^.^.^.^.^.^.^.^.^.^.^.^.^.^.^.^.^.^.^.^.^.^.^.^.^.^.^.^.^.^.^.^.^.^.^.^.^.^.^.^.^.^.^.^.^.^.^.^.^.^.^.^.^.^.^.^.^.^.^.^.^.^.^.^.^.^.^.^.^.^.^.^.^.^.^.^.^.^.^.^.^.^.^.^.^.^.^.^.^.^.^.^.^.^.^.^.^.^.^.^.^.^.^.^.^.^.^.^.^.^.^.^.^.^.^.^.^.^.^.^.^.^.^.^.^.^.^.^.^.^.^.^.^.^.^.^.^.^.^.^.^.^.^.^.^.^.^.^.^.^.^.^.^.^.^.^.^.^.^.^.^.^.^.^.^.^.^.^.^.^.^.^.^.^.^.^.^.^.^.^.^.^.^.^.^.^.^.^.^.^.^.^.^.^.^.^.^.^.^.^.^.^.^.^.^.^.^.^.^.^.^.^.^.^.^.^.^.^.^.^.^.^.^.^.^.^.^.^.^.^.^.^.^.^.^.^.^.^.^.^.^.^.^.^.^.^.^.^.^.^.^.^.^.^.^.^.^.^.^.^.^.^.^.^.^.^.^.^.^.^.^.^.^.^.^.^.^.^.^.^.^.^.^.^.^.^.^.^.^.^.^.^.^.^.^.^.^.^.^.^.^.^.^.^.^.^.^.^.^.^.^.^.^.^.^.^.^.^.^.^.^.^.^.^.^.^.^.^.^.^.^.^.^.^.^.^.^.^.^.^.^.^.^.^.^.^.^.^.^.^.^.^.^.^.^.^.^.^.^.^.^.^.^.^.^.^.^.^.^.^.^.^.^.^.^.^.^.^.^.^.^.^.^.^.^.^.^.^.^.^.^.^.^.^.^.^.^.^.^.^.^.^.^.^.^.^.^.^.^.^.^.^.^.^.^.^.^.^.^.^.^.^.^.^.^.^.^.^.^.^.^.^.^.^.^.^.^.^.^.^.^.^.^.^.^.^.^.^.^.^.^.^.^.^.^.^.^.^.^.^.^.^.^.^.^.^.^.^.^.^.^.^.^.^.^.^.^.^.^.^.^.^.^.^.^.^.^.^.^.^.^.^.^.^.^.^.^.^.^.^.^.^.^.^.^.^.^.^.^.^.^.^.^.^.^.^.^.^.^.^.^.^.^.^.^.^.^.^.^.^.^.^.^.^.^.^.^.^.^.^.^.^.^.^.^.^.^.^.^.^.^.^.^.^.^.^.^.^.^.^.^.^.^.^.^.^.^.^.^.^.^.^.^.^.^.^.^.^.^.^.^.^.^.^.^.^.^.^.^.^.^.^.",
"^.^.^.^.^.^.^.^.^.^.^.^.^.^.^.^.^.^.^.^.^.^.^.^.^.^.^.^.^.^.^.^.^.^.^.^.^.^.^.^.^.^.^.^.^.^.^.^.^.^.^.^.^.^.^.^.^.^.^.^.^.^.^.^.^.^.^.^.^.^.^.^.^.^.^.^.^.^.^.^.^.^.^.^.^.^.^.^.^.^.^.^.^.^.^.^.^.^.^.^.^.^.^.^.^.^.^.^.^.^.^.^.^.^.^.^.^.^.^.^.^.^.^.^.^.^.^.^.^.^.^.^.^.^.^.^.^.^.^.^.^.^.^.^.^.^.^.^.^.^.^.^.^.^.^.^.^.^.^.^.^.^.^.^.^.^.^.^.^.^.^.^.^.^.^.^.^.^.^.^.^.^.^.^.^.^.^.^.^.^.^.^.^.^.^.^.^.^.^.^.^.^.^.^.^.^.^.^.^.^.^.^.^.^.^.^.^.^.^.^.^.^.^.^.^.^.^.^.^.^.^.^.^.^.^.^.^.^.^.^.^.^.^.^.^.^.^.^.^.^.^.^.^.^.^.^.^.^.^.^.^.^.^.^.^.^.^.^.^.^.^.^.^.^.^.^.^.^.^.^.^.^.^.^.^.^.^.^.^.^.^.^.^.^.^.^.^.^.^.^.^.^.^.^.^.^.^.^.^.^.^.^.^.^.^.^.^.^.^.^.^.^.^.^.^.^.^.^.^.^.^.^.^.^.^.^.^.^.^.^.^.^.^.^.^.^.^.^.^.^.^.^.^.^.^.^.^.^.^.^.^.^.^.^.^.^.^.^.^.^.^.^.^.^.^.^.^.^.^.^.^.^.^.^.^.^.^.^.^.^.^.^.^.^.^.^.^.^.^.^.^.^.^.^.^.^.^.^.^.^.^.^.^.^.^.^.^.^.^.^.^.^.^.^.^.^.^.^.^.^.^.^.^.^.^.^.^.^.^.^.^.^.^.^.^.^.^.^.^.^.^.^.^.^.^.^.^.^.^.^.^.^.^.^.^.^.^.^.^.^.^.^.^.^.^.^.^.^.^.^.^.^.^.^.^.^.^.^.^.^.^.^.^.^.^.^.^.^.^.^.^.^.^.^.^.^.^.^.^.^.^.^.^.^.^.^.^.^.^.^.^.^.^.^.^.^.^.^.^.^.^.^.^.^.^.^.^.^.^.^.^.^.^.^.^.^.^.^.^.^.^.^.^.^.^.^.^.^.^.^.^.^.^.^.^.^.^.^.^.^.^.^.^.^.^.^.^.^.^.^.^.^.^.^.^.^.^.^.^.^.^.^.^.^.^.^.^.^.^.^.^.^.^.^.^.^.^.^.^.^.^.^.^.^.^.^.^.^.^.^.^.^.^.^.^.^.^.^.^.^.^.^.^.^.",
"^.^.^.^.^.^.^.^.^.^.^.^.^.^.^.^.^.^.^.^.^.^.^.^.^.^.^.^.^.^.^.^.^.^.^.^.^.^.^.^.^.^.^.^.^.^.^.^.^.^.^.^.^.^.^.^.^.^.^.^.^.^.^.^.^.^.^.^.^.^.^.^.^.^.^.^.^.^.^.^.^.^.^.^.^.^.^.^.^.^.^.^.^.^.^.^.^.^.^.^.^.^.^.^.^.^.^.^.^.^.^.^.^.^.^.^.^.^.^.^.^.^.^.^.^.^.^.^.^.^.^.^.^.^.^.^.^.^.^.^.^.^.^.^.^.^.^.^.^.^.^.^.^.^.^.^.^.^.^.^.^.^.^.^.^.^.^.^.^.^.^.^.^.^.^.^.^.^.^.^.^.^.^.^.^.^.^.^.^.^.^.^.^.^.^.^.^.^.^.^.^.^.^.^.^.^.^.^.^.^.^.^.^.^.^.^.^.^.^.^.^.^.^.^.^.^.^.^.^.^.^.^.^.^.^.^.^.^.^.^.^.^.^.^.^.^.^.^.^.^.^.^.^.^.^.^.^.^.^.^.^.^.^.^.^.^.^.^.^.^.^.^.^.^.^.^.^.^.^.^.^.^.^.^.^.^.^.^.^.^.^.^.^.^.^.^.^.^.^.^.^.^.^.^.^.^.^.^.^.^.^.^.^.^.^.^.^.^.^.^.^.^.^.^.^.^.^.^.^.^.^.^.^.^.^.^.^.^.^.^.^.^.^.^.^.^.^.^.^.^.^.^.^.^.^.^.^.^.^.^.^.^.^.^.^.^.^.^.^.^.^.^.^.^.^.^.^.^.^.^.^.^.^.^.^.^.^.^.^.^.^.^.^.^.^.^.^.^.^.^.^.^.^.^.^.^.^.^.^.^.^.^.^.^.^.^.^.^.^.^.^.^.^.^.^.^.^.^.^.^.^.^.^.^.^.^.^.^.^.^.^.^.^.^.^.^.^.^.^.^.^.^.^.^.^.^.^.^.^.^.^.^.^.^.^.^.^.^.^.^.^.^.^.^.^.^.^.^.^.^.^.^.^.^.^.^.^.^.^.^.^.^.^.^.^.^.^.^.^.^.^.^.^.^.^.^.^.^.^.^.^.^.^.^.^.^.^.^.^.^.^.^.^.^.^.^.^.^.^.^.^.^.^.^.^.^.^.^.^.^.^.^.^.^.^.^.^.^.^.^.^.^.^.^.^.^.^.^.^.^.^.^.^.^.^.^.^.^.^.^.^.^.^.^.^.^.^.^.^.^.^.^.^.^.^.^.^.^.^.^.^.^.^.^.^.^.^.^.^.^.^.^.^.^.^.^.^.^.^.^.^.^.^.^.^.^.^.^.^.^.^.^.^.^.^.^.^.^.^.^.^.^.^.^.",
"^.^.^.^.^.^.^.^.^.^.^.^.^.^.^.^.^.^.^.^.^.^.^.^.^.^.^.^.^.^.^.^.^.^.^.^.^.^.^.^.^.^.^.^.^.^.^.^.^.^.^.^.^.^.^.^.^.^.^.^.^.^.^.^.^.^.^.^.^.^.^.^.^.^.^.^.^.^.^.^.^.^.^.^.^.^.^.^.^.^.^.^.^.^.^.^.^.^.^.^.^.^.^.^.^.^.^.^.^.^.^.^.^.^.^.^.^.^.^.^.^.^.^.^.^.^.^.^.^.^.^.^.^.^.^.^.^.^.^.^.^.^.^.^.^.^.^.^.^.^.^.^.^.^.^.^.^.^.^.^.^.^.^.^.^.^.^.^.^.^.^.^.^.^.^.^.^.^.^.^.^.^.^.^.^.^.^.^.^.^.^.^.^.^.^.^.^.^.^.^.^.^.^.^.^.^.^.^.^.^.^.^.^.^.^.^.^.^.^.^.^.^.^.^.^.^.^.^.^.^.^.^.^.^.^.^.^.^.^.^.^.^.^.^.^.^.^.^.^.^.^.^.^.^.^.^.^.^.^.^.^.^.^.^.^.^.^.^.^.^.^.^.^.^.^.^.^.^.^.^.^.^.^.^.^.^.^.^.^.^.^.^.^.^.^.^.^.^.^.^.^.^.^.^.^.^.^.^.^.^.^.^.^.^.^.^.^.^.^.^.^.^.^.^.^.^.^.^.^.^.^.^.^.^.^.^.^.^.^.^.^.^.^.^.^.^.^.^.^.^.^.^.^.^.^.^.^.^.^.^.^.^.^.^.^.^.^.^.^.^.^.^.^.^.^.^.^.^.^.^.^.^.^.^.^.^.^.^.^.^.^.^.^.^.^.^.^.^.^.^.^.^.^.^.^.^.^.^.^.^.^.^.^.^.^.^.^.^.^.^.^.^.^.^.^.^.^.^.^.^.^.^.^.^.^.^.^.^.^.^.^.^.^.^.^.^.^.^.^.^.^.^.^.^.^.^.^.^.^.^.^.^.^.^.^.^.^.^.^.^.^.^.^.^.^.^.^.^.^.^.^.^.^.^.^.^.^.^.^.^.^.^.^.^.^.^.^.^.^.^.^.^.^.^.^.^.^.^.^.^.^.^.^.^.^.^.^.^.^.^.^.^.^.^.^.^.^.^.^.^.^.^.^.^.^.^.^.^.^.^.^.^.^.^.^.^.^.^.^.^.^.^.^.^.^.^.^.^.^.^.^.^.^.^.^.^.^.^.^.^.^.^.^.^.^.^.^.^.^.^.^.^.^.^.^.^.^.^.^.^.^.^.^.^.^.^.^.^.^.^.^.^.^.^.^.^.^.^.^.^.^.^.^.^.^.^.^.^.^.^.^.^.^.^.^.^.^.^.^.^.^.^.^.^.",
"^.^.^.^.^.^.^.^.^.^.^.^.^.^.^.^.^.^.^.^.^.^.^.^.^.^.^.^.^.^.^.^.^.^.^.^.^.^.^.^.^.^.^.^.^.^.^.^.^.^.^.^.^.^.^.^.^.^.^.^.^.^.^.^.^.^.^.^.^.^.^.^.^.^.^.^.^.^.^.^.^.^.^.^.^.^.^.^.^.^.^.^.^.^.^.^.^.^.^.^.^.^.^.^.^.^.^.^.^.^.^.^.^.^.^.^.^.^.^.^.^.^.^.^.^.^.^.^.^.^.^.^.^.^.^.^.^.^.^.^.^.^.^.^.^.^.^.^.^.^.^.^.^.^.^.^.^.^.^.^.^.^.^.^.^.^.^.^.^.^.^.^.^.^.^.^.^.^.^.^.^.^.^.^.^.^.^.^.^.^.^.^.^.^.^.^.^.^.^.^.^.^.^.^.^.^.^.^.^.^.^.^.^.^.^.^.^.^.^.^.^.^.^.^.^.^.^.^.^.^.^.^.^.^.^.^.^.^.^.^.^.^.^.^.^.^.^.^.^.^.^.^.^.^.^.^.^.^.^.^.^.^.^.^.^.^.^.^.^.^.^.^.^.^.^.^.^.^.^.^.^.^.^.^.^.^.^.^.^.^.^.^.^.^.^.^.^.^.^.^.^.^.^.^.^.^.^.^.^.^.^.^.^.^.^.^.^.^.^.^.^.^.^.^.^.^.^.^.^.^.^.^.^.^.^.^.^.^.^.^.^.^.^.^.^.^.^.^.^.^.^.^.^.^.^.^.^.^.^.^.^.^.^.^.^.^.^.^.^.^.^.^.^.^.^.^.^.^.^.^.^.^.^.^.^.^.^.^.^.^.^.^.^.^.^.^.^.^.^.^.^.^.^.^.^.^.^.^.^.^.^.^.^.^.^.^.^.^.^.^.^.^.^.^.^.^.^.^.^.^.^.^.^.^.^.^.^.^.^.^.^.^.^.^.^.^.^.^.^.^.^.^.^.^.^.^.^.^.^.^.^.^.^.^.^.^.^.^.^.^.^.^.^.^.^.^.^.^.^.^.^.^.^.^.^.^.^.^.^.^.^.^.^.^.^.^.^.^.^.^.^.^.^.^.^.^.^.^.^.^.^.^.^.^.^.^.^.^.^.^.^.^.^.^.^.^.^.^.^.^.^.^.^.^.^.^.^.^.^.^.^.^.^.^.^.^.^.^.^.^.^.^.^.^.^.^.^.^.^.^.^.^.^.^.^.^.^.^.^.^.^.^.^.^.^.^.^.^.^.^.^.^.^.^.^.^.^.^.^.^.^.^.^.^.^.^.^.^.^.^.^.^.^.^.^.^.^.^.^.^.^.^.^.^.^.^.^.^.^.^.^.^.^.^.^.^.^.^.^.^.^.^.^.^.",
"^.^.^.^.^.^.^.^.^.^.^.^.^.^.^.^.^.^.^.^.^.^.^.^.^.^.^.^.^.^.^.^.^.^.^.^.^.^.^.^.^.^.^.^.^.^.^.^.^.^.^.^.^.^.^.^.^.^.^.^.^.^.^.^.^.^.^.^.^.^.^.^.^.^.^.^.^.^.^.^.^.^.^.^.^.^.^.^.^.^.^.^.^.^.^.^.^.^.^.^.^.^.^.^.^.^.^.^.^.^.^.^.^.^.^.^.^.^.^.^.^.^.^.^.^.^.^.^.^.^.^.^.^.^.^.^.^.^.^.^.^.^.^.^.^.^.^.^.^.^.^.^.^.^.^.^.^.^.^.^.^.^.^.^.^.^.^.^.^.^.^.^.^.^.^.^.^.^.^.^.^.^.^.^.^.^.^.^.^.^.^.^.^.^.^.^.^.^.^.^.^.^.^.^.^.^.^.^.^.^.^.^.^.^.^.^.^.^.^.^.^.^.^.^.^.^.^.^.^.^.^.^.^.^.^.^.^.^.^.^.^.^.^.^.^.^.^.^.^.^.^.^.^.^.^.^.^.^.^.^.^.^.^.^.^.^.^.^.^.^.^.^.^.^.^.^.^.^.^.^.^.^.^.^.^.^.^.^.^.^.^.^.^.^.^.^.^.^.^.^.^.^.^.^.^.^.^.^.^.^.^.^.^.^.^.^.^.^.^.^.^.^.^.^.^.^.^.^.^.^.^.^.^.^.^.^.^.^.^.^.^.^.^.^.^.^.^.^.^.^.^.^.^.^.^.^.^.^.^.^.^.^.^.^.^.^.^.^.^.^.^.^.^.^.^.^.^.^.^.^.^.^.^.^.^.^.^.^.^.^.^.^.^.^.^.^.^.^.^.^.^.^.^.^.^.^.^.^.^.^.^.^.^.^.^.^.^.^.^.^.^.^.^.^.^.^.^.^.^.^.^.^.^.^.^.^.^.^.^.^.^.^.^.^.^.^.^.^.^.^.^.^.^.^.^.^.^.^.^.^.^.^.^.^.^.^.^.^.^.^.^.^.^.^.^.^.^.^.^.^.^.^.^.^.^.^.^.^.^.^.^.^.^.^.^.^.^.^.^.^.^.^.^.^.^.^.^.^.^.^.^.^.^.^.^.^.^.^.^.^.^.^.^.^.^.^.^.^.^.^.^.^.^.^.^.^.^.^.^.^.^.^.^.^.^.^.^.^.^.^.^.^.^.^.^.^.^.^.^.^.^.^.^.^.^.^.^.^.^.^.^.^.^.^.^.^.^.^.^.^.^.^.^.^.^.^.^.^.^.^.^.^.^.^.^.^.^.^.^.^.^.^.^.^.^.^.^.^.^.^.^.^.^.^.^.^.^.^.^.^.^.^.^.^.^.^.^.^.^.^.^.^.^.^.",
"^.^.^.^.^.^.^.^.^.^.^.^.^.^.^.^.^.^.^.^.^.^.^.^.^.^.^.^.^.^.^.^.^.^.^.^.^.^.^.^.^.^.^.^.^.^.^.^.^.^.^.^.^.^.^.^.^.^.^.^.^.^.^.^.^.^.^.^.^.^.^.^.^.^.^.^.^.^.^.^.^.^.^.^.^.^.^.^.^.^.^.^.^.^.^.^.^.^.^.^.^.^.^.^.^.^.^.^.^.^.^.^.^.^.^.^.^.^.^.^.^.^.^.^.^.^.^.^.^.^.^.^.^.^.^.^.^.^.^.^.^.^.^.^.^.^.^.^.^.^.^.^.^.^.^.^.^.^.^.^.^.^.^.^.^.^.^.^.^.^.^.^.^.^.^.^.^.^.^.^.^.^.^.^.^.^.^.^.^.^.^.^.^.^.^.^.^.^.^.^.^.^.^.^.^.^.^.^.^.^.^.^.^.^.^.^.^.^.^.^.^.^.^.^.^.^.^.^.^.^.^.^.^.^.^.^.^.^.^.^.^.^.^.^.^.^.^.^.^.^.^.^.^.^.^.^.^.^.^.^.^.^.^.^.^.^.^.^.^.^.^.^.^.^.^.^.^.^.^.^.^.^.^.^.^.^.^.^.^.^.^.^.^.^.^.^.^.^.^.^.^.^.^.^.^.^.^.^.^.^.^.^.^.^.^.^.^.^.^.^.^.^.^.^.^.^.^.^.^.^.^.^.^.^.^.^.^.^.^.^.^.^.^.^.^.^.^.^.^.^.^.^.^.^.^.^.^.^.^.^.^.^.^.^.^.^.^.^.^.^.^.^.^.^.^.^.^.^.^.^.^.^.^.^.^.^.^.^.^.^.^.^.^.^.^.^.^.^.^.^.^.^.^.^.^.^.^.^.^.^.^.^.^.^.^.^.^.^.^.^.^.^.^.^.^.^.^.^.^.^.^.^.^.^.^.^.^.^.^.^.^.^.^.^.^.^.^.^.^.^.^.^.^.^.^.^.^.^.^.^.^.^.^.^.^.^.^.^.^.^.^.^.^.^.^.^.^.^.^.^.^.^.^.^.^.^.^.^.^.^.^.^.^.^.^.^.^.^.^.^.^.^.^.^.^.^.^.^.^.^.^.^.^.^.^.^.^.^.^.^.^.^.^.^.^.^.^.^.^.^.^.^.^.^.^.^.^.^.^.^.^.^.^.^.^.^.^.^.^.^.^.^.^.^.^.^.^.^.^.^.^.^.^.^.^.^.^.^.^.^.^.^.^.^.^.^.^.^.^.^.^.^.^.^.^.^.^.^.^.^.^.^.^.^.^.^.^.^.^.^.^.^.^.^.^.^.^.^.^.^.^.^.^.^.^.^.^.^.^.^.^.^.^.^.^.^.^.^.^.^.^.^.^.^.",
"^.^.^.^.^.^.^.^.^.^.^.^.^.^.^.^.^.^.^.^.^.^.^.^.^.^.^.^.^.^.^.^.^.^.^.^.^.^.^.^.^.^.^.^.^.^.^.^.^.^.^.^.^.^.^.^.^.^.^.^.^.^.^.^.^.^.^.^.^.^.^.^.^.^.^.^.^.^.^.^.^.^.^.^.^.^.^.^.^.^.^.^.^.^.^.^.^.^.^.^.^.^.^.^.^.^.^.^.^.^.^.^.^.^.^.^.^.^.^.^.^.^.^.^.^.^.^.^.^.^.^.^.^.^.^.^.^.^.^.^.^.^.^.^.^.^.^.^.^.^.^.^.^.^.^.^.^.^.^.^.^.^.^.^.^.^.^.^.^.^.^.^.^.^.^.^.^.^.^.^.^.^.^.^.^.^.^.^.^.^.^.^.^.^.^.^.^.^.^.^.^.^.^.^.^.^.^.^.^.^.^.^.^.^.^.^.^.^.^.^.^.^.^.^.^.^.^.^.^.^.^.^.^.^.^.^.^.^.^.^.^.^.^.^.^.^.^.^.^.^.^.^.^.^.^.^.^.^.^.^.^.^.^.^.^.^.^.^.^.^.^.^.^.^.^.^.^.^.^.^.^.^.^.^.^.^.^.^.^.^.^.^.^.^.^.^.^.^.^.^.^.^.^.^.^.^.^.^.^.^.^.^.^.^.^.^.^.^.^.^.^.^.^.^.^.^.^.^.^.^.^.^.^.^.^.^.^.^.^.^.^.^.^.^.^.^.^.^.^.^.^.^.^.^.^.^.^.^.^.^.^.^.^.^.^.^.^.^.^.^.^.^.^.^.^.^.^.^.^.^.^.^.^.^.^.^.^.^.^.^.^.^.^.^.^.^.^.^.^.^.^.^.^.^.^.^.^.^.^.^.^.^.^.^.^.^.^.^.^.^.^.^.^.^.^.^.^.^.^.^.^.^.^.^.^.^.^.^.^.^.^.^.^.^.^.^.^.^.^.^.^.^.^.^.^.^.^.^.^.^.^.^.^.^.^.^.^.^.^.^.^.^.^.^.^.^.^.^.^.^.^.^.^.^.^.^.^.^.^.^.^.^.^.^.^.^.^.^.^.^.^.^.^.^.^.^.^.^.^.^.^.^.^.^.^.^.^.^.^.^.^.^.^.^.^.^.^.^.^.^.^.^.^.^.^.^.^.^.^.^.^.^.^.^.^.^.^.^.^.^.^.^.^.^.^.^.^.^.^.^.^.^.^.^.^.^.^.^.^.^.^.^.^.^.^.^.^.^.^.^.^.^.^.^.^.^.^.^.^.^.^.^.^.^.^.^.^.^.^.^.^.^.^.^.^.^.^.^.^.^.^.^.^.^.^.^.^.^.^.^.^.^.^.^.^.^.^.^.^.^.^.^.^.^.",
"^.^.^.^.^.^.^.^.^.^.^.^.^.^.^.^.^.^.^.^.^.^.^.^.^.^.^.^.^.^.^.^.^.^.^.^.^.^.^.^.^.^.^.^.^.^.^.^.^.^.^.^.^.^.^.^.^.^.^.^.^.^.^.^.^.^.^.^.^.^.^.^.^.^.^.^.^.^.^.^.^.^.^.^.^.^.^.^.^.^.^.^.^.^.^.^.^.^.^.^.^.^.^.^.^.^.^.^.^.^.^.^.^.^.^.^.^.^.^.^.^.^.^.^.^.^.^.^.^.^.^.^.^.^.^.^.^.^.^.^.^.^.^.^.^.^.^.^.^.^.^.^.^.^.^.^.^.^.^.^.^.^.^.^.^.^.^.^.^.^.^.^.^.^.^.^.^.^.^.^.^.^.^.^.^.^.^.^.^.^.^.^.^.^.^.^.^.^.^.^.^.^.^.^.^.^.^.^.^.^.^.^.^.^.^.^.^.^.^.^.^.^.^.^.^.^.^.^.^.^.^.^.^.^.^.^.^.^.^.^.^.^.^.^.^.^.^.^.^.^.^.^.^.^.^.^.^.^.^.^.^.^.^.^.^.^.^.^.^.^.^.^.^.^.^.^.^.^.^.^.^.^.^.^.^.^.^.^.^.^.^.^.^.^.^.^.^.^.^.^.^.^.^.^.^.^.^.^.^.^.^.^.^.^.^.^.^.^.^.^.^.^.^.^.^.^.^.^.^.^.^.^.^.^.^.^.^.^.^.^.^.^.^.^.^.^.^.^.^.^.^.^.^.^.^.^.^.^.^.^.^.^.^.^.^.^.^.^.^.^.^.^.^.^.^.^.^.^.^.^.^.^.^.^.^.^.^.^.^.^.^.^.^.^.^.^.^.^.^.^.^.^.^.^.^.^.^.^.^.^.^.^.^.^.^.^.^.^.^.^.^.^.^.^.^.^.^.^.^.^.^.^.^.^.^.^.^.^.^.^.^.^.^.^.^.^.^.^.^.^.^.^.^.^.^.^.^.^.^.^.^.^.^.^.^.^.^.^.^.^.^.^.^.^.^.^.^.^.^.^.^.^.^.^.^.^.^.^.^.^.^.^.^.^.^.^.^.^.^.^.^.^.^.^.^.^.^.^.^.^.^.^.^.^.^.^.^.^.^.^.^.^.^.^.^.^.^.^.^.^.^.^.^.^.^.^.^.^.^.^.^.^.^.^.^.^.^.^.^.^.^.^.^.^.^.^.^.^.^.^.^.^.^.^.^.^.^.^.^.^.^.^.^.^.^.^.^.^.^.^.^.^.^.^.^.^.^.^.^.^.^.^.^.^.^.^.^.^.^.^.^.^.^.^.^.^.^.^.^.^.^.^.^.^.^.^.^.^.^.^.^.^.^.^.^.^.^.^.^.^.^.^.^.^.",
"^.^.^.^.^.^.^.^.^.^.^.^.^.^.^.^.^.^.^.^.^.^.^.^.^.^.^.^.^.^.^.^.^.^.^.^.^.^.^.^.^.^.^.^.^.^.^.^.^.^.^.^.^.^.^.^.^.^.^.^.^.^.^.^.^.^.^.^.^.^.^.^.^.^.^.^.^.^.^.^.^.^.^.^.^.^.^.^.^.^.^.^.^.^.^.^.^.^.^.^.^.^.^.^.^.^.^.^.^.^.^.^.^.^.^.^.^.^.^.^.^.^.^.^.^.^.^.^.^.^.^.^.^.^.^.^.^.^.^.^.^.^.^.^.^.^.^.^.^.^.^.^.^.^.^.^.^.^.^.^.^.^.^.^.^.^.^.^.^.^.^.^.^.^.^.^.^.^.^.^.^.^.^.^.^.^.^.^.^.^.^.^.^.^.^.^.^.^.^.^.^.^.^.^.^.^.^.^.^.^.^.^.^.^.^.^.^.^.^.^.^.^.^.^.^.^.^.^.^.^.^.^.^.^.^.^.^.^.^.^.^.^.^.^.^.^.^.^.^.^.^.^.^.^.^.^.^.^.^.^.^.^.^.^.^.^.^.^.^.^.^.^.^.^.^.^.^.^.^.^.^.^.^.^.^.^.^.^.^.^.^.^.^.^.^.^.^.^.^.^.^.^.^.^.^.^.^.^.^.^.^.^.^.^.^.^.^.^.^.^.^.^.^.^.^.^.^.^.^.^.^.^.^.^.^.^.^.^.^.^.^.^.^.^.^.^.^.^.^.^.^.^.^.^.^.^.^.^.^.^.^.^.^.^.^.^.^.^.^.^.^.^.^.^.^.^.^.^.^.^.^.^.^.^.^.^.^.^.^.^.^.^.^.^.^.^.^.^.^.^.^.^.^.^.^.^.^.^.^.^.^.^.^.^.^.^.^.^.^.^.^.^.^.^.^.^.^.^.^.^.^.^.^.^.^.^.^.^.^.^.^.^.^.^.^.^.^.^.^.^.^.^.^.^.^.^.^.^.^.^.^.^.^.^.^.^.^.^.^.^.^.^.^.^.^.^.^.^.^.^.^.^.^.^.^.^.^.^.^.^.^.^.^.^.^.^.^.^.^.^.^.^.^.^.^.^.^.^.^.^.^.^.^.^.^.^.^.^.^.^.^.^.^.^.^.^.^.^.^.^.^.^.^.^.^.^.^.^.^.^.^.^.^.^.^.^.^.^.^.^.^.^.^.^.^.^.^.^.^.^.^.^.^.^.^.^.^.^.^.^.^.^.^.^.^.^.^.^.^.^.^.^.^.^.^.^.^.^.^.^.^.^.^.^.^.^.^.^.^.^.^.^.^.^.^.^.^.^.^.^.^.^.^.^.^.^.^.^.^.^.^.^.^.^.^.^.^.^.^.^.^.^.^.^.",
"^.^.^.^.^.^.^.^.^.^.^.^.^.^.^.^.^.^.^.^.^.^.^.^.^.^.^.^.^.^.^.^.^.^.^.^.^.^.^.^.^.^.^.^.^.^.^.^.^.^.^.^.^.^.^.^.^.^.^.^.^.^.^.^.^.^.^.^.^.^.^.^.^.^.^.^.^.^.^.^.^.^.^.^.^.^.^.^.^.^.^.^.^.^.^.^.^.^.^.^.^.^.^.^.^.^.^.^.^.^.^.^.^.^.^.^.^.^.^.^.^.^.^.^.^.^.^.^.^.^.^.^.^.^.^.^.^.^.^.^.^.^.^.^.^.^.^.^.^.^.^.^.^.^.^.^.^.^.^.^.^.^.^.^.^.^.^.^.^.^.^.^.^.^.^.^.^.^.^.^.^.^.^.^.^.^.^.^.^.^.^.^.^.^.^.^.^.^.^.^.^.^.^.^.^.^.^.^.^.^.^.^.^.^.^.^.^.^.^.^.^.^.^.^.^.^.^.^.^.^.^.^.^.^.^.^.^.^.^.^.^.^.^.^.^.^.^.^.^.^.^.^.^.^.^.^.^.^.^.^.^.^.^.^.^.^.^.^.^.^.^.^.^.^.^.^.^.^.^.^.^.^.^.^.^.^.^.^.^.^.^.^.^.^.^.^.^.^.^.^.^.^.^.^.^.^.^.^.^.^.^.^.^.^.^.^.^.^.^.^.^.^.^.^.^.^.^.^.^.^.^.^.^.^.^.^.^.^.^.^.^.^.^.^.^.^.^.^.^.^.^.^.^.^.^.^.^.^.^.^.^.^.^.^.^.^.^.^.^.^.^.^.^.^.^.^.^.^.^.^.^.^.^.^.^.^.^.^.^.^.^.^.^.^.^.^.^.^.^.^.^.^.^.^.^.^.^.^.^.^.^.^.^.^.^.^.^.^.^.^.^.^.^.^.^.^.^.^.^.^.^.^.^.^.^.^.^.^.^.^.^.^.^.^.^.^.^.^.^.^.^.^.^.^.^.^.^.^.^.^.^.^.^.^.^.^.^.^.^.^.^.^.^.^.^.^.^.^.^.^.^.^.^.^.^.^.^.^.^.^.^.^.^.^.^.^.^.^.^.^.^.^.^.^.^.^.^.^.^.^.^.^.^.^.^.^.^.^.^.^.^.^.^.^.^.^.^.^.^.^.^.^.^.^.^.^.^.^.^.^.^.^.^.^.^.^.^.^.^.^.^.^.^.^.^.^.^.^.^.^.^.^.^.^.^.^.^.^.^.^.^.^.^.^.^.^.^.^.^.^.^.^.^.^.^.^.^.^.^.^.^.^.^.^.^.^.^.^.^.^.^.^.^.^.^.^.^.^.^.^.^.^.^.^.^.^.^.^.^.^.^.^.^.^.^.^.^.^.^.^.^.^.^.^.",
"^.^.^.^.^.^.^.^.^.^.^.^.^.^.^.^.^.^.^.^.^.^.^.^.^.^.^.^.^.^.^.^.^.^.^.^.^.^.^.^.^.^.^.^.^.^.^.^.^.^.^.^.^.^.^.^.^.^.^.^.^.^.^.^.^.^.^.^.^.^.^.^.^.^.^.^.^.^.^.^.^.^.^.^.^.^.^.^.^.^.^.^.^.^.^.^.^.^.^.^.^.^.^.^.^.^.^.^.^.^.^.^.^.^.^.^.^.^.^.^.^.^.^.^.^.^.^.^.^.^.^.^.^.^.^.^.^.^.^.^.^.^.^.^.^.^.^.^.^.^.^.^.^.^.^.^.^.^.^.^.^.^.^.^.^.^.^.^.^.^.^.^.^.^.^.^.^.^.^.^.^.^.^.^.^.^.^.^.^.^.^.^.^.^.^.^.^.^.^.^.^.^.^.^.^.^.^.^.^.^.^.^.^.^.^.^.^.^.^.^.^.^.^.^.^.^.^.^.^.^.^.^.^.^.^.^.^.^.^.^.^.^.^.^.^.^.^.^.^.^.^.^.^.^.^.^.^.^.^.^.^.^.^.^.^.^.^.^.^.^.^.^.^.^.^.^.^.^.^.^.^.^.^.^.^.^.^.^.^.^.^.^.^.^.^.^.^.^.^.^.^.^.^.^.^.^.^.^.^.^.^.^.^.^.^.^.^.^.^.^.^.^.^.^.^.^.^.^.^.^.^.^.^.^.^.^.^.^.^.^.^.^.^.^.^.^.^.^.^.^.^.^.^.^.^.^.^.^.^.^.^.^.^.^.^.^.^.^.^.^.^.^.^.^.^.^.^.^.^.^.^.^.^.^.^.^.^.^.^.^.^.^.^.^.^.^.^.^.^.^.^.^.^.^.^.^.^.^.^.^.^.^.^.^.^.^.^.^.^.^.^.^.^.^.^.^.^.^.^.^.^.^.^.^.^.^.^.^.^.^.^.^.^.^.^.^.^.^.^.^.^.^.^.^.^.^.^.^.^.^.^.^.^.^.^.^.^.^.^.^.^.^.^.^.^.^.^.^.^.^.^.^.^.^.^.^.^.^.^.^.^.^.^.^.^.^.^.^.^.^.^.^.^.^.^.^.^.^.^.^.^.^.^.^.^.^.^.^.^.^.^.^.^.^.^.^.^.^.^.^.^.^.^.^.^.^.^.^.^.^.^.^.^.^.^.^.^.^.^.^.^.^.^.^.^.^.^.^.^.^.^.^.^.^.^.^.^.^.^.^.^.^.^.^.^.^.^.^.^.^.^.^.^.^.^.^.^.^.^.^.^.^.^.^.^.^.^.^.^.^.^.^.^.^.^.^.^.^.^.^.^.^.^.^.^.^.^.^.^.^.^.^.^.^.^.^.^.^.^.^.^.^.^.^.",
"^.^.^.^.^.^.^.^.^.^.^.^.^.^.^.^.^.^.^.^.^.^.^.^.^.^.^.^.^.^.^.^.^.^.^.^.^.^.^.^.^.^.^.^.^.^.^.^.^.^.^.^.^.^.^.^.^.^.^.^.^.^.^.^.^.^.^.^.^.^.^.^.^.^.^.^.^.^.^.^.^.^.^.^.^.^.^.^.^.^.^.^.^.^.^.^.^.^.^.^.^.^.^.^.^.^.^.^.^.^.^.^.^.^.^.^.^.^.^.^.^.^.^.^.^.^.^.^.^.^.^.^.^.^.^.^.^.^.^.^.^.^.^.^.^.^.^.^.^.^.^.^.^.^.^.^.^.^.^.^.^.^.^.^.^.^.^.^.^.^.^.^.^.^.^.^.^.^.^.^.^.^.^.^.^.^.^.^.^.^.^.^.^.^.^.^.^.^.^.^.^.^.^.^.^.^.^.^.^.^.^.^.^.^.^.^.^.^.^.^.^.^.^.^.^.^.^.^.^.^.^.^.^.^.^.^.^.^.^.^.^.^.^.^.^.^.^.^.^.^.^.^.^.^.^.^.^.^.^.^.^.^.^.^.^.^.^.^.^.^.^.^.^.^.^.^.^.^.^.^.^.^.^.^.^.^.^.^.^.^.^.^.^.^.^.^.^.^.^.^.^.^.^.^.^.^.^.^.^.^.^.^.^.^.^.^.^.^.^.^.^.^.^.^.^.^.^.^.^.^.^.^.^.^.^.^.^.^.^.^.^.^.^.^.^.^.^.^.^.^.^.^.^.^.^.^.^.^.^.^.^.^.^.^.^.^.^.^.^.^.^.^.^.^.^.^.^.^.^.^.^.^.^.^.^.^.^.^.^.^.^.^.^.^.^.^.^.^.^.^.^.^.^.^.^.^.^.^.^.^.^.^.^.^.^.^.^.^.^.^.^.^.^.^.^.^.^.^.^.^.^.^.^.^.^.^.^.^.^.^.^.^.^.^.^.^.^.^.^.^.^.^.^.^.^.^.^.^.^.^.^.^.^.^.^.^.^.^.^.^.^.^.^.^.^.^.^.^.^.^.^.^.^.^.^.^.^.^.^.^.^.^.^.^.^.^.^.^.^.^.^.^.^.^.^.^.^.^.^.^.^.^.^.^.^.^.^.^.^.^.^.^.^.^.^.^.^.^.^.^.^.^.^.^.^.^.^.^.^.^.^.^.^.^.^.^.^.^.^.^.^.^.^.^.^.^.^.^.^.^.^.^.^.^.^.^.^.^.^.^.^.^.^.^.^.^.^.^.^.^.^.^.^.^.^.^.^.^.^.^.^.^.^.^.^.^.^.^.^.^.^.^.^.^.^.^.^.^.^.^.^.^.^.^.^.^.^.^.^.^.^.^.^.^.^.^.^.^.^.^.^.^.^.^.",
"^.^.^.^.^.^.^.^.^.^.^.^.^.^.^.^.^.^.^.^.^.^.^.^.^.^.^.^.^.^.^.^.^.^.^.^.^.^.^.^.^.^.^.^.^.^.^.^.^.^.^.^.^.^.^.^.^.^.^.^.^.^.^.^.^.^.^.^.^.^.^.^.^.^.^.^.^.^.^.^.^.^.^.^.^.^.^.^.^.^.^.^.^.^.^.^.^.^.^.^.^.^.^.^.^.^.^.^.^.^.^.^.^.^.^.^.^.^.^.^.^.^.^.^.^.^.^.^.^.^.^.^.^.^.^.^.^.^.^.^.^.^.^.^.^.^.^.^.^.^.^.^.^.^.^.^.^.^.^.^.^.^.^.^.^.^.^.^.^.^.^.^.^.^.^.^.^.^.^.^.^.^.^.^.^.^.^.^.^.^.^.^.^.^.^.^.^.^.^.^.^.^.^.^.^.^.^.^.^.^.^.^.^.^.^.^.^.^.^.^.^.^.^.^.^.^.^.^.^.^.^.^.^.^.^.^.^.^.^.^.^.^.^.^.^.^.^.^.^.^.^.^.^.^.^.^.^.^.^.^.^.^.^.^.^.^.^.^.^.^.^.^.^.^.^.^.^.^.^.^.^.^.^.^.^.^.^.^.^.^.^.^.^.^.^.^.^.^.^.^.^.^.^.^.^.^.^.^.^.^.^.^.^.^.^.^.^.^.^.^.^.^.^.^.^.^.^.^.^.^.^.^.^.^.^.^.^.^.^.^.^.^.^.^.^.^.^.^.^.^.^.^.^.^.^.^.^.^.^.^.^.^.^.^.^.^.^.^.^.^.^.^.^.^.^.^.^.^.^.^.^.^.^.^.^.^.^.^.^.^.^.^.^.^.^.^.^.^.^.^.^.^.^.^.^.^.^.^.^.^.^.^.^.^.^.^.^.^.^.^.^.^.^.^.^.^.^.^.^.^.^.^.^.^.^.^.^.^.^.^.^.^.^.^.^.^.^.^.^.^.^.^.^.^.^.^.^.^.^.^.^.^.^.^.^.^.^.^.^.^.^.^.^.^.^.^.^.^.^.^.^.^.^.^.^.^.^.^.^.^.^.^.^.^.^.^.^.^.^.^.^.^.^.^.^.^.^.^.^.^.^.^.^.^.^.^.^.^.^.^.^.^.^.^.^.^.^.^.^.^.^.^.^.^.^.^.^.^.^.^.^.^.^.^.^.^.^.^.^.^.^.^.^.^.^.^.^.^.^.^.^.^.^.^.^.^.^.^.^.^.^.^.^.^.^.^.^.^.^.^.^.^.^.^.^.^.^.^.^.^.^.^.^.^.^.^.^.^.^.^.^.^.^.^.^.^.^.^.^.^.^.^.^.^.^.^.^.^.^.^.^.^.^.^.^.^.^.^.^.^.^.^.^.^.",
"^.^.^.^.^.^.^.^.^.^.^.^.^.^.^.^.^.^.^.^.^.^.^.^.^.^.^.^.^.^.^.^.^.^.^.^.^.^.^.^.^.^.^.^.^.^.^.^.^.^.^.^.^.^.^.^.^.^.^.^.^.^.^.^.^.^.^.^.^.^.^.^.^.^.^.^.^.^.^.^.^.^.^.^.^.^.^.^.^.^.^.^.^.^.^.^.^.^.^.^.^.^.^.^.^.^.^.^.^.^.^.^.^.^.^.^.^.^.^.^.^.^.^.^.^.^.^.^.^.^.^.^.^.^.^.^.^.^.^.^.^.^.^.^.^.^.^.^.^.^.^.^.^.^.^.^.^.^.^.^.^.^.^.^.^.^.^.^.^.^.^.^.^.^.^.^.^.^.^.^.^.^.^.^.^.^.^.^.^.^.^.^.^.^.^.^.^.^.^.^.^.^.^.^.^.^.^.^.^.^.^.^.^.^.^.^.^.^.^.^.^.^.^.^.^.^.^.^.^.^.^.^.^.^.^.^.^.^.^.^.^.^.^.^.^.^.^.^.^.^.^.^.^.^.^.^.^.^.^.^.^.^.^.^.^.^.^.^.^.^.^.^.^.^.^.^.^.^.^.^.^.^.^.^.^.^.^.^.^.^.^.^.^.^.^.^.^.^.^.^.^.^.^.^.^.^.^.^.^.^.^.^.^.^.^.^.^.^.^.^.^.^.^.^.^.^.^.^.^.^.^.^.^.^.^.^.^.^.^.^.^.^.^.^.^.^.^.^.^.^.^.^.^.^.^.^.^.^.^.^.^.^.^.^.^.^.^.^.^.^.^.^.^.^.^.^.^.^.^.^.^.^.^.^.^.^.^.^.^.^.^.^.^.^.^.^.^.^.^.^.^.^.^.^.^.^.^.^.^.^.^.^.^.^.^.^.^.^.^.^.^.^.^.^.^.^.^.^.^.^.^.^.^.^.^.^.^.^.^.^.^.^.^.^.^.^.^.^.^.^.^.^.^.^.^.^.^.^.^.^.^.^.^.^.^.^.^.^.^.^.^.^.^.^.^.^.^.^.^.^.^.^.^.^.^.^.^.^.^.^.^.^.^.^.^.^.^.^.^.^.^.^.^.^.^.^.^.^.^.^.^.^.^.^.^.^.^.^.^.^.^.^.^.^.^.^.^.^.^.^.^.^.^.^.^.^.^.^.^.^.^.^.^.^.^.^.^.^.^.^.^.^.^.^.^.^.^.^.^.^.^.^.^.^.^.^.^.^.^.^.^.^.^.^.^.^.^.^.^.^.^.^.^.^.^.^.^.^.^.^.^.^.^.^.^.^.^.^.^.^.^.^.^.^.^.^.^.^.^.^.^.^.^.^.^.^.^.^.^.^.^.^.^.^.^.^.^.^.^.^.^.^.^.^.",
"^.^.^.^.^.^.^.^.^.^.^.^.^.^.^.^.^.^.^.^.^.^.^.^.^.^.^.^.^.^.^.^.^.^.^.^.^.^.^.^.^.^.^.^.^.^.^.^.^.^.^.^.^.^.^.^.^.^.^.^.^.^.^.^.^.^.^.^.^.^.^.^.^.^.^.^.^.^.^.^.^.^.^.^.^.^.^.^.^.^.^.^.^.^.^.^.^.^.^.^.^.^.^.^.^.^.^.^.^.^.^.^.^.^.^.^.^.^.^.^.^.^.^.^.^.^.^.^.^.^.^.^.^.^.^.^.^.^.^.^.^.^.^.^.^.^.^.^.^.^.^.^.^.^.^.^.^.^.^.^.^.^.^.^.^.^.^.^.^.^.^.^.^.^.^.^.^.^.^.^.^.^.^.^.^.^.^.^.^.^.^.^.^.^.^.^.^.^.^.^.^.^.^.^.^.^.^.^.^.^.^.^.^.^.^.^.^.^.^.^.^.^.^.^.^.^.^.^.^.^.^.^.^.^.^.^.^.^.^.^.^.^.^.^.^.^.^.^.^.^.^.^.^.^.^.^.^.^.^.^.^.^.^.^.^.^.^.^.^.^.^.^.^.^.^.^.^.^.^.^.^.^.^.^.^.^.^.^.^.^.^.^.^.^.^.^.^.^.^.^.^.^.^.^.^.^.^.^.^.^.^.^.^.^.^.^.^.^.^.^.^.^.^.^.^.^.^.^.^.^.^.^.^.^.^.^.^.^.^.^.^.^.^.^.^.^.^.^.^.^.^.^.^.^.^.^.^.^.^.^.^.^.^.^.^.^.^.^.^.^.^.^.^.^.^.^.^.^.^.^.^.^.^.^.^.^.^.^.^.^.^.^.^.^.^.^.^.^.^.^.^.^.^.^.^.^.^.^.^.^.^.^.^.^.^.^.^.^.^.^.^.^.^.^.^.^.^.^.^.^.^.^.^.^.^.^.^.^.^.^.^.^.^.^.^.^.^.^.^.^.^.^.^.^.^.^.^.^.^.^.^.^.^.^.^.^.^.^.^.^.^.^.^.^.^.^.^.^.^.^.^.^.^.^.^.^.^.^.^.^.^.^.^.^.^.^.^.^.^.^.^.^.^.^.^.^.^.^.^.^.^.^.^.^.^.^.^.^.^.^.^.^.^.^.^.^.^.^.^.^.^.^.^.^.^.^.^.^.^.^.^.^.^.^.^.^.^.^.^.^.^.^.^.^.^.^.^.^.^.^.^.^.^.^.^.^.^.^.^.^.^.^.^.^.^.^.^.^.^.^.^.^.^.^.^.^.^.^.^.^.^.^.^.^.^.^.^.^.^.^.^.^.^.^.^.^.^.^.^.^.^.^.^.^.^.^.^.^.^.^.^.^.^.^.^.^.^.^.^.^.^.^.^.^.",
"^.^.^.^.^.^.^.^.^.^.^.^.^.^.^.^.^.^.^.^.^.^.^.^.^.^.^.^.^.^.^.^.^.^.^.^.^.^.^.^.^.^.^.^.^.^.^.^.^.^.^.^.^.^.^.^.^.^.^.^.^.^.^.^.^.^.^.^.^.^.^.^.^.^.^.^.^.^.^.^.^.^.^.^.^.^.^.^.^.^.^.^.^.^.^.^.^.^.^.^.^.^.^.^.^.^.^.^.^.^.^.^.^.^.^.^.^.^.^.^.^.^.^.^.^.^.^.^.^.^.^.^.^.^.^.^.^.^.^.^.^.^.^.^.^.^.^.^.^.^.^.^.^.^.^.^.^.^.^.^.^.^.^.^.^.^.^.^.^.^.^.^.^.^.^.^.^.^.^.^.^.^.^.^.^.^.^.^.^.^.^.^.^.^.^.^.^.^.^.^.^.^.^.^.^.^.^.^.^.^.^.^.^.^.^.^.^.^.^.^.^.^.^.^.^.^.^.^.^.^.^.^.^.^.^.^.^.^.^.^.^.^.^.^.^.^.^.^.^.^.^.^.^.^.^.^.^.^.^.^.^.^.^.^.^.^.^.^.^.^.^.^.^.^.^.^.^.^.^.^.^.^.^.^.^.^.^.^.^.^.^.^.^.^.^.^.^.^.^.^.^.^.^.^.^.^.^.^.^.^.^.^.^.^.^.^.^.^.^.^.^.^.^.^.^.^.^.^.^.^.^.^.^.^.^.^.^.^.^.^.^.^.^.^.^.^.^.^.^.^.^.^.^.^.^.^.^.^.^.^.^.^.^.^.^.^.^.^.^.^.^.^.^.^.^.^.^.^.^.^.^.^.^.^.^.^.^.^.^.^.^.^.^.^.^.^.^.^.^.^.^.^.^.^.^.^.^.^.^.^.^.^.^.^.^.^.^.^.^.^.^.^.^.^.^.^.^.^.^.^.^.^.^.^.^.^.^.^.^.^.^.^.^.^.^.^.^.^.^.^.^.^.^.^.^.^.^.^.^.^.^.^.^.^.^.^.^.^.^.^.^.^.^.^.^.^.^.^.^.^.^.^.^.^.^.^.^.^.^.^.^.^.^.^.^.^.^.^.^.^.^.^.^.^.^.^.^.^.^.^.^.^.^.^.^.^.^.^.^.^.^.^.^.^.^.^.^.^.^.^.^.^.^.^.^.^.^.^.^.^.^.^.^.^.^.^.^.^.^.^.^.^.^.^.^.^.^.^.^.^.^.^.^.^.^.^.^.^.^.^.^.^.^.^.^.^.^.^.^.^.^.^.^.^.^.^.^.^.^.^.^.^.^.^.^.^.^.^.^.^.^.^.^.^.^.^.^.^.^.^.^.^.^.^.^.^.^.^.^.^.^.^.^.^.^.^.^.^.^.^.^.^.^.^.",
"^.^.^.^.^.^.^.^.^.^.^.^.^.^.^.^.^.^.^.^.^.^.^.^.^.^.^.^.^.^.^.^.^.^.^.^.^.^.^.^.^.^.^.^.^.^.^.^.^.^.^.^.^.^.^.^.^.^.^.^.^.^.^.^.^.^.^.^.^.^.^.^.^.^.^.^.^.^.^.^.^.^.^.^.^.^.^.^.^.^.^.^.^.^.^.^.^.^.^.^.^.^.^.^.^.^.^.^.^.^.^.^.^.^.^.^.^.^.^.^.^.^.^.^.^.^.^.^.^.^.^.^.^.^.^.^.^.^.^.^.^.^.^.^.^.^.^.^.^.^.^.^.^.^.^.^.^.^.^.^.^.^.^.^.^.^.^.^.^.^.^.^.^.^.^.^.^.^.^.^.^.^.^.^.^.^.^.^.^.^.^.^.^.^.^.^.^.^.^.^.^.^.^.^.^.^.^.^.^.^.^.^.^.^.^.^.^.^.^.^.^.^.^.^.^.^.^.^.^.^.^.^.^.^.^.^.^.^.^.^.^.^.^.^.^.^.^.^.^.^.^.^.^.^.^.^.^.^.^.^.^.^.^.^.^.^.^.^.^.^.^.^.^.^.^.^.^.^.^.^.^.^.^.^.^.^.^.^.^.^.^.^.^.^.^.^.^.^.^.^.^.^.^.^.^.^.^.^.^.^.^.^.^.^.^.^.^.^.^.^.^.^.^.^.^.^.^.^.^.^.^.^.^.^.^.^.^.^.^.^.^.^.^.^.^.^.^.^.^.^.^.^.^.^.^.^.^.^.^.^.^.^.^.^.^.^.^.^.^.^.^.^.^.^.^.^.^.^.^.^.^.^.^.^.^.^.^.^.^.^.^.^.^.^.^.^.^.^.^.^.^.^.^.^.^.^.^.^.^.^.^.^.^.^.^.^.^.^.^.^.^.^.^.^.^.^.^.^.^.^.^.^.^.^.^.^.^.^.^.^.^.^.^.^.^.^.^.^.^.^.^.^.^.^.^.^.^.^.^.^.^.^.^.^.^.^.^.^.^.^.^.^.^.^.^.^.^.^.^.^.^.^.^.^.^.^.^.^.^.^.^.^.^.^.^.^.^.^.^.^.^.^.^.^.^.^.^.^.^.^.^.^.^.^.^.^.^.^.^.^.^.^.^.^.^.^.^.^.^.^.^.^.^.^.^.^.^.^.^.^.^.^.^.^.^.^.^.^.^.^.^.^.^.^.^.^.^.^.^.^.^.^.^.^.^.^.^.^.^.^.^.^.^.^.^.^.^.^.^.^.^.^.^.^.^.^.^.^.^.^.^.^.^.^.^.^.^.^.^.^.^.^.^.^.^.^.^.^.^.^.^.^.^.^.^.^.^.^.^.^.^.^.^.^.^.^.^.^.^.^.^.^.^.^.",
"^.^.^.^.^.^.^.^.^.^.^.^.^.^.^.^.^.^.^.^.^.^.^.^.^.^.^.^.^.^.^.^.^.^.^.^.^.^.^.^.^.^.^.^.^.^.^.^.^.^.^.^.^.^.^.^.^.^.^.^.^.^.^.^.^.^.^.^.^.^.^.^.^.^.^.^.^.^.^.^.^.^.^.^.^.^.^.^.^.^.^.^.^.^.^.^.^.^.^.^.^.^.^.^.^.^.^.^.^.^.^.^.^.^.^.^.^.^.^.^.^.^.^.^.^.^.^.^.^.^.^.^.^.^.^.^.^.^.^.^.^.^.^.^.^.^.^.^.^.^.^.^.^.^.^.^.^.^.^.^.^.^.^.^.^.^.^.^.^.^.^.^.^.^.^.^.^.^.^.^.^.^.^.^.^.^.^.^.^.^.^.^.^.^.^.^.^.^.^.^.^.^.^.^.^.^.^.^.^.^.^.^.^.^.^.^.^.^.^.^.^.^.^.^.^.^.^.^.^.^.^.^.^.^.^.^.^.^.^.^.^.^.^.^.^.^.^.^.^.^.^.^.^.^.^.^.^.^.^.^.^.^.^.^.^.^.^.^.^.^.^.^.^.^.^.^.^.^.^.^.^.^.^.^.^.^.^.^.^.^.^.^.^.^.^.^.^.^.^.^.^.^.^.^.^.^.^.^.^.^.^.^.^.^.^.^.^.^.^.^.^.^.^.^.^.^.^.^.^.^.^.^.^.^.^.^.^.^.^.^.^.^.^.^.^.^.^.^.^.^.^.^.^.^.^.^.^.^.^.^.^.^.^.^.^.^.^.^.^.^.^.^.^.^.^.^.^.^.^.^.^.^.^.^.^.^.^.^.^.^.^.^.^.^.^.^.^.^.^.^.^.^.^.^.^.^.^.^.^.^.^.^.^.^.^.^.^.^.^.^.^.^.^.^.^.^.^.^.^.^.^.^.^.^.^.^.^.^.^.^.^.^.^.^.^.^.^.^.^.^.^.^.^.^.^.^.^.^.^.^.^.^.^.^.^.^.^.^.^.^.^.^.^.^.^.^.^.^.^.^.^.^.^.^.^.^.^.^.^.^.^.^.^.^.^.^.^.^.^.^.^.^.^.^.^.^.^.^.^.^.^.^.^.^.^.^.^.^.^.^.^.^.^.^.^.^.^.^.^.^.^.^.^.^.^.^.^.^.^.^.^.^.^.^.^.^.^.^.^.^.^.^.^.^.^.^.^.^.^.^.^.^.^.^.^.^.^.^.^.^.^.^.^.^.^.^.^.^.^.^.^.^.^.^.^.^.^.^.^.^.^.^.^.^.^.^.^.^.^.^.^.^.^.^.^.^.^.^.^.^.^.^.^.^.^.^.^.^.^.^.^.^.^.^.^.^.^.^.^.^.^.^.^.^.",
"^.^.^.^.^.^.^.^.^.^.^.^.^.^.^.^.^.^.^.^.^.^.^.^.^.^.^.^.^.^.^.^.^.^.^.^.^.^.^.^.^.^.^.^.^.^.^.^.^.^.^.^.^.^.^.^.^.^.^.^.^.^.^.^.^.^.^.^.^.^.^.^.^.^.^.^.^.^.^.^.^.^.^.^.^.^.^.^.^.^.^.^.^.^.^.^.^.^.^.^.^.^.^.^.^.^.^.^.^.^.^.^.^.^.^.^.^.^.^.^.^.^.^.^.^.^.^.^.^.^.^.^.^.^.^.^.^.^.^.^.^.^.^.^.^.^.^.^.^.^.^.^.^.^.^.^.^.^.^.^.^.^.^.^.^.^.^.^.^.^.^.^.^.^.^.^.^.^.^.^.^.^.^.^.^.^.^.^.^.^.^.^.^.^.^.^.^.^.^.^.^.^.^.^.^.^.^.^.^.^.^.^.^.^.^.^.^.^.^.^.^.^.^.^.^.^.^.^.^.^.^.^.^.^.^.^.^.^.^.^.^.^.^.^.^.^.^.^.^.^.^.^.^.^.^.^.^.^.^.^.^.^.^.^.^.^.^.^.^.^.^.^.^.^.^.^.^.^.^.^.^.^.^.^.^.^.^.^.^.^.^.^.^.^.^.^.^.^.^.^.^.^.^.^.^.^.^.^.^.^.^.^.^.^.^.^.^.^.^.^.^.^.^.^.^.^.^.^.^.^.^.^.^.^.^.^.^.^.^.^.^.^.^.^.^.^.^.^.^.^.^.^.^.^.^.^.^.^.^.^.^.^.^.^.^.^.^.^.^.^.^.^.^.^.^.^.^.^.^.^.^.^.^.^.^.^.^.^.^.^.^.^.^.^.^.^.^.^.^.^.^.^.^.^.^.^.^.^.^.^.^.^.^.^.^.^.^.^.^.^.^.^.^.^.^.^.^.^.^.^.^.^.^.^.^.^.^.^.^.^.^.^.^.^.^.^.^.^.^.^.^.^.^.^.^.^.^.^.^.^.^.^.^.^.^.^.^.^.^.^.^.^.^.^.^.^.^.^.^.^.^.^.^.^.^.^.^.^.^.^.^.^.^.^.^.^.^.^.^.^.^.^.^.^.^.^.^.^.^.^.^.^.^.^.^.^.^.^.^.^.^.^.^.^.^.^.^.^.^.^.^.^.^.^.^.^.^.^.^.^.^.^.^.^.^.^.^.^.^.^.^.^.^.^.^.^.^.^.^.^.^.^.^.^.^.^.^.^.^.^.^.^.^.^.^.^.^.^.^.^.^.^.^.^.^.^.^.^.^.^.^.^.^.^.^.^.^.^.^.^.^.^.^.^.^.^.^.^.^.^.^.^.^.^.^.^.^.^.^.^.^.^.^.^.^.^.^.^.^.^.^.^.^.^.",
"^.^.^.^.^.^.^.^.^.^.^.^.^.^.^.^.^.^.^.^.^.^.^.^.^.^.^.^.^.^.^.^.^.^.^.^.^.^.^.^.^.^.^.^.^.^.^.^.^.^.^.^.^.^.^.^.^.^.^.^.^.^.^.^.^.^.^.^.^.^.^.^.^.^.^.^.^.^.^.^.^.^.^.^.^.^.^.^.^.^.^.^.^.^.^.^.^.^.^.^.^.^.^.^.^.^.^.^.^.^.^.^.^.^.^.^.^.^.^.^.^.^.^.^.^.^.^.^.^.^.^.^.^.^.^.^.^.^.^.^.^.^.^.^.^.^.^.^.^.^.^.^.^.^.^.^.^.^.^.^.^.^.^.^.^.^.^.^.^.^.^.^.^.^.^.^.^.^.^.^.^.^.^.^.^.^.^.^.^.^.^.^.^.^.^.^.^.^.^.^.^.^.^.^.^.^.^.^.^.^.^.^.^.^.^.^.^.^.^.^.^.^.^.^.^.^.^.^.^.^.^.^.^.^.^.^.^.^.^.^.^.^.^.^.^.^.^.^.^.^.^.^.^.^.^.^.^.^.^.^.^.^.^.^.^.^.^.^.^.^.^.^.^.^.^.^.^.^.^.^.^.^.^.^.^.^.^.^.^.^.^.^.^.^.^.^.^.^.^.^.^.^.^.^.^.^.^.^.^.^.^.^.^.^.^.^.^.^.^.^.^.^.^.^.^.^.^.^.^.^.^.^.^.^.^.^.^.^.^.^.^.^.^.^.^.^.^.^.^.^.^.^.^.^.^.^.^.^.^.^.^.^.^.^.^.^.^.^.^.^.^.^.^.^.^.^.^.^.^.^.^.^.^.^.^.^.^.^.^.^.^.^.^.^.^.^.^.^.^.^.^.^.^.^.^.^.^.^.^.^.^.^.^.^.^.^.^.^.^.^.^.^.^.^.^.^.^.^.^.^.^.^.^.^.^.^.^.^.^.^.^.^.^.^.^.^.^.^.^.^.^.^.^.^.^.^.^.^.^.^.^.^.^.^.^.^.^.^.^.^.^.^.^.^.^.^.^.^.^.^.^.^.^.^.^.^.^.^.^.^.^.^.^.^.^.^.^.^.^.^.^.^.^.^.^.^.^.^.^.^.^.^.^.^.^.^.^.^.^.^.^.^.^.^.^.^.^.^.^.^.^.^.^.^.^.^.^.^.^.^.^.^.^.^.^.^.^.^.^.^.^.^.^.^.^.^.^.^.^.^.^.^.^.^.^.^.^.^.^.^.^.^.^.^.^.^.^.^.^.^.^.^.^.^.^.^.^.^.^.^.^.^.^.^.^.^.^.^.^.^.^.^.^.^.^.^.^.^.^.^.^.^.^.^.^.^.^.^.^.^.^.^.^.^.^.^.^.^.^.^.^.^.^.^.",
"^.^.^.^.^.^.^.^.^.^.^.^.^.^.^.^.^.^.^.^.^.^.^.^.^.^.^.^.^.^.^.^.^.^.^.^.^.^.^.^.^.^.^.^.^.^.^.^.^.^.^.^.^.^.^.^.^.^.^.^.^.^.^.^.^.^.^.^.^.^.^.^.^.^.^.^.^.^.^.^.^.^.^.^.^.^.^.^.^.^.^.^.^.^.^.^.^.^.^.^.^.^.^.^.^.^.^.^.^.^.^.^.^.^.^.^.^.^.^.^.^.^.^.^.^.^.^.^.^.^.^.^.^.^.^.^.^.^.^.^.^.^.^.^.^.^.^.^.^.^.^.^.^.^.^.^.^.^.^.^.^.^.^.^.^.^.^.^.^.^.^.^.^.^.^.^.^.^.^.^.^.^.^.^.^.^.^.^.^.^.^.^.^.^.^.^.^.^.^.^.^.^.^.^.^.^.^.^.^.^.^.^.^.^.^.^.^.^.^.^.^.^.^.^.^.^.^.^.^.^.^.^.^.^.^.^.^.^.^.^.^.^.^.^.^.^.^.^.^.^.^.^.^.^.^.^.^.^.^.^.^.^.^.^.^.^.^.^.^.^.^.^.^.^.^.^.^.^.^.^.^.^.^.^.^.^.^.^.^.^.^.^.^.^.^.^.^.^.^.^.^.^.^.^.^.^.^.^.^.^.^.^.^.^.^.^.^.^.^.^.^.^.^.^.^.^.^.^.^.^.^.^.^.^.^.^.^.^.^.^.^.^.^.^.^.^.^.^.^.^.^.^.^.^.^.^.^.^.^.^.^.^.^.^.^.^.^.^.^.^.^.^.^.^.^.^.^.^.^.^.^.^.^.^.^.^.^.^.^.^.^.^.^.^.^.^.^.^.^.^.^.^.^.^.^.^.^.^.^.^.^.^.^.^.^.^.^.^.^.^.^.^.^.^.^.^.^.^.^.^.^.^.^.^.^.^.^.^.^.^.^.^.^.^.^.^.^.^.^.^.^.^.^.^.^.^.^.^.^.^.^.^.^.^.^.^.^.^.^.^.^.^.^.^.^.^.^.^.^.^.^.^.^.^.^.^.^.^.^.^.^.^.^.^.^.^.^.^.^.^.^.^.^.^.^.^.^.^.^.^.^.^.^.^.^.^.^.^.^.^.^.^.^.^.^.^.^.^.^.^.^.^.^.^.^.^.^.^.^.^.^.^.^.^.^.^.^.^.^.^.^.^.^.^.^.^.^.^.^.^.^.^.^.^.^.^.^.^.^.^.^.^.^.^.^.^.^.^.^.^.^.^.^.^.^.^.^.^.^.^.^.^.^.^.^.^.^.^.^.^.^.^.^.^.^.^.^.^.^.^.^.^.^.^.^.^.^.^.^.^.^.^.^.^.^.^.^.^.^.^.^.^.^.^.",
"^.^.^.^.^.^.^.^.^.^.^.^.^.^.^.^.^.^.^.^.^.^.^.^.^.^.^.^.^.^.^.^.^.^.^.^.^.^.^.^.^.^.^.^.^.^.^.^.^.^.^.^.^.^.^.^.^.^.^.^.^.^.^.^.^.^.^.^.^.^.^.^.^.^.^.^.^.^.^.^.^.^.^.^.^.^.^.^.^.^.^.^.^.^.^.^.^.^.^.^.^.^.^.^.^.^.^.^.^.^.^.^.^.^.^.^.^.^.^.^.^.^.^.^.^.^.^.^.^.^.^.^.^.^.^.^.^.^.^.^.^.^.^.^.^.^.^.^.^.^.^.^.^.^.^.^.^.^.^.^.^.^.^.^.^.^.^.^.^.^.^.^.^.^.^.^.^.^.^.^.^.^.^.^.^.^.^.^.^.^.^.^.^.^.^.^.^.^.^.^.^.^.^.^.^.^.^.^.^.^.^.^.^.^.^.^.^.^.^.^.^.^.^.^.^.^.^.^.^.^.^.^.^.^.^.^.^.^.^.^.^.^.^.^.^.^.^.^.^.^.^.^.^.^.^.^.^.^.^.^.^.^.^.^.^.^.^.^.^.^.^.^.^.^.^.^.^.^.^.^.^.^.^.^.^.^.^.^.^.^.^.^.^.^.^.^.^.^.^.^.^.^.^.^.^.^.^.^.^.^.^.^.^.^.^.^.^.^.^.^.^.^.^.^.^.^.^.^.^.^.^.^.^.^.^.^.^.^.^.^.^.^.^.^.^.^.^.^.^.^.^.^.^.^.^.^.^.^.^.^.^.^.^.^.^.^.^.^.^.^.^.^.^.^.^.^.^.^.^.^.^.^.^.^.^.^.^.^.^.^.^.^.^.^.^.^.^.^.^.^.^.^.^.^.^.^.^.^.^.^.^.^.^.^.^.^.^.^.^.^.^.^.^.^.^.^.^.^.^.^.^.^.^.^.^.^.^.^.^.^.^.^.^.^.^.^.^.^.^.^.^.^.^.^.^.^.^.^.^.^.^.^.^.^.^.^.^.^.^.^.^.^.^.^.^.^.^.^.^.^.^.^.^.^.^.^.^.^.^.^.^.^.^.^.^.^.^.^.^.^.^.^.^.^.^.^.^.^.^.^.^.^.^.^.^.^.^.^.^.^.^.^.^.^.^.^.^.^.^.^.^.^.^.^.^.^.^.^.^.^.^.^.^.^.^.^.^.^.^.^.^.^.^.^.^.^.^.^.^.^.^.^.^.^.^.^.^.^.^.^.^.^.^.^.^.^.^.^.^.^.^.^.^.^.^.^.^.^.^.^.^.^.^.^.^.^.^.^.^.^.^.^.^.^.^.^.^.^.^.^.^.^.^.^.^.^.^.^.^.^.^.^.^.^.^.^.^.^.^.^.^.^.^.^.",
"^.^.^.^.^.^.^.^.^.^.^.^.^.^.^.^.^.^.^.^.^.^.^.^.^.^.^.^.^.^.^.^.^.^.^.^.^.^.^.^.^.^.^.^.^.^.^.^.^.^.^.^.^.^.^.^.^.^.^.^.^.^.^.^.^.^.^.^.^.^.^.^.^.^.^.^.^.^.^.^.^.^.^.^.^.^.^.^.^.^.^.^.^.^.^.^.^.^.^.^.^.^.^.^.^.^.^.^.^.^.^.^.^.^.^.^.^.^.^.^.^.^.^.^.^.^.^.^.^.^.^.^.^.^.^.^.^.^.^.^.^.^.^.^.^.^.^.^.^.^.^.^.^.^.^.^.^.^.^.^.^.^.^.^.^.^.^.^.^.^.^.^.^.^.^.^.^.^.^.^.^.^.^.^.^.^.^.^.^.^.^.^.^.^.^.^.^.^.^.^.^.^.^.^.^.^.^.^.^.^.^.^.^.^.^.^.^.^.^.^.^.^.^.^.^.^.^.^.^.^.^.^.^.^.^.^.^.^.^.^.^.^.^.^.^.^.^.^.^.^.^.^.^.^.^.^.^.^.^.^.^.^.^.^.^.^.^.^.^.^.^.^.^.^.^.^.^.^.^.^.^.^.^.^.^.^.^.^.^.^.^.^.^.^.^.^.^.^.^.^.^.^.^.^.^.^.^.^.^.^.^.^.^.^.^.^.^.^.^.^.^.^.^.^.^.^.^.^.^.^.^.^.^.^.^.^.^.^.^.^.^.^.^.^.^.^.^.^.^.^.^.^.^.^.^.^.^.^.^.^.^.^.^.^.^.^.^.^.^.^.^.^.^.^.^.^.^.^.^.^.^.^.^.^.^.^.^.^.^.^.^.^.^.^.^.^.^.^.^.^.^.^.^.^.^.^.^.^.^.^.^.^.^.^.^.^.^.^.^.^.^.^.^.^.^.^.^.^.^.^.^.^.^.^.^.^.^.^.^.^.^.^.^.^.^.^.^.^.^.^.^.^.^.^.^.^.^.^.^.^.^.^.^.^.^.^.^.^.^.^.^.^.^.^.^.^.^.^.^.^.^.^.^.^.^.^.^.^.^.^.^.^.^.^.^.^.^.^.^.^.^.^.^.^.^.^.^.^.^.^.^.^.^.^.^.^.^.^.^.^.^.^.^.^.^.^.^.^.^.^.^.^.^.^.^.^.^.^.^.^.^.^.^.^.^.^.^.^.^.^.^.^.^.^.^.^.^.^.^.^.^.^.^.^.^.^.^.^.^.^.^.^.^.^.^.^.^.^.^.^.^.^.^.^.^.^.^.^.^.^.^.^.^.^.^.^.^.^.^.^.^.^.^.^.^.^.^.^.^.^.^.^.^.^.^.^.^.^.^.^.^.^.^.^.^.^.^.^.^.^.^.^.^.^.",
"^.^.^.^.^.^.^.^.^.^.^.^.^.^.^.^.^.^.^.^.^.^.^.^.^.^.^.^.^.^.^.^.^.^.^.^.^.^.^.^.^.^.^.^.^.^.^.^.^.^.^.^.^.^.^.^.^.^.^.^.^.^.^.^.^.^.^.^.^.^.^.^.^.^.^.^.^.^.^.^.^.^.^.^.^.^.^.^.^.^.^.^.^.^.^.^.^.^.^.^.^.^.^.^.^.^.^.^.^.^.^.^.^.^.^.^.^.^.^.^.^.^.^.^.^.^.^.^.^.^.^.^.^.^.^.^.^.^.^.^.^.^.^.^.^.^.^.^.^.^.^.^.^.^.^.^.^.^.^.^.^.^.^.^.^.^.^.^.^.^.^.^.^.^.^.^.^.^.^.^.^.^.^.^.^.^.^.^.^.^.^.^.^.^.^.^.^.^.^.^.^.^.^.^.^.^.^.^.^.^.^.^.^.^.^.^.^.^.^.^.^.^.^.^.^.^.^.^.^.^.^.^.^.^.^.^.^.^.^.^.^.^.^.^.^.^.^.^.^.^.^.^.^.^.^.^.^.^.^.^.^.^.^.^.^.^.^.^.^.^.^.^.^.^.^.^.^.^.^.^.^.^.^.^.^.^.^.^.^.^.^.^.^.^.^.^.^.^.^.^.^.^.^.^.^.^.^.^.^.^.^.^.^.^.^.^.^.^.^.^.^.^.^.^.^.^.^.^.^.^.^.^.^.^.^.^.^.^.^.^.^.^.^.^.^.^.^.^.^.^.^.^.^.^.^.^.^.^.^.^.^.^.^.^.^.^.^.^.^.^.^.^.^.^.^.^.^.^.^.^.^.^.^.^.^.^.^.^.^.^.^.^.^.^.^.^.^.^.^.^.^.^.^.^.^.^.^.^.^.^.^.^.^.^.^.^.^.^.^.^.^.^.^.^.^.^.^.^.^.^.^.^.^.^.^.^.^.^.^.^.^.^.^.^.^.^.^.^.^.^.^.^.^.^.^.^.^.^.^.^.^.^.^.^.^.^.^.^.^.^.^.^.^.^.^.^.^.^.^.^.^.^.^.^.^.^.^.^.^.^.^.^.^.^.^.^.^.^.^.^.^.^.^.^.^.^.^.^.^.^.^.^.^.^.^.^.^.^.^.^.^.^.^.^.^.^.^.^.^.^.^.^.^.^.^.^.^.^.^.^.^.^.^.^.^.^.^.^.^.^.^.^.^.^.^.^.^.^.^.^.^.^.^.^.^.^.^.^.^.^.^.^.^.^.^.^.^.^.^.^.^.^.^.^.^.^.^.^.^.^.^.^.^.^.^.^.^.^.^.^.^.^.^.^.^.^.^.^.^.^.^.^.^.^.^.^.^.^.^.^.^.^.^.^.^.^.^.^.^.^.^.^.^.^.",
"^.^.^.^.^.^.^.^.^.^.^.^.^.^.^.^.^.^.^.^.^.^.^.^.^.^.^.^.^.^.^.^.^.^.^.^.^.^.^.^.^.^.^.^.^.^.^.^.^.^.^.^.^.^.^.^.^.^.^.^.^.^.^.^.^.^.^.^.^.^.^.^.^.^.^.^.^.^.^.^.^.^.^.^.^.^.^.^.^.^.^.^.^.^.^.^.^.^.^.^.^.^.^.^.^.^.^.^.^.^.^.^.^.^.^.^.^.^.^.^.^.^.^.^.^.^.^.^.^.^.^.^.^.^.^.^.^.^.^.^.^.^.^.^.^.^.^.^.^.^.^.^.^.^.^.^.^.^.^.^.^.^.^.^.^.^.^.^.^.^.^.^.^.^.^.^.^.^.^.^.^.^.^.^.^.^.^.^.^.^.^.^.^.^.^.^.^.^.^.^.^.^.^.^.^.^.^.^.^.^.^.^.^.^.^.^.^.^.^.^.^.^.^.^.^.^.^.^.^.^.^.^.^.^.^.^.^.^.^.^.^.^.^.^.^.^.^.^.^.^.^.^.^.^.^.^.^.^.^.^.^.^.^.^.^.^.^.^.^.^.^.^.^.^.^.^.^.^.^.^.^.^.^.^.^.^.^.^.^.^.^.^.^.^.^.^.^.^.^.^.^.^.^.^.^.^.^.^.^.^.^.^.^.^.^.^.^.^.^.^.^.^.^.^.^.^.^.^.^.^.^.^.^.^.^.^.^.^.^.^.^.^.^.^.^.^.^.^.^.^.^.^.^.^.^.^.^.^.^.^.^.^.^.^.^.^.^.^.^.^.^.^.^.^.^.^.^.^.^.^.^.^.^.^.^.^.^.^.^.^.^.^.^.^.^.^.^.^.^.^.^.^.^.^.^.^.^.^.^.^.^.^.^.^.^.^.^.^.^.^.^.^.^.^.^.^.^.^.^.^.^.^.^.^.^.^.^.^.^.^.^.^.^.^.^.^.^.^.^.^.^.^.^.^.^.^.^.^.^.^.^.^.^.^.^.^.^.^.^.^.^.^.^.^.^.^.^.^.^.^.^.^.^.^.^.^.^.^.^.^.^.^.^.^.^.^.^.^.^.^.^.^.^.^.^.^.^.^.^.^.^.^.^.^.^.^.^.^.^.^.^.^.^.^.^.^.^.^.^.^.^.^.^.^.^.^.^.^.^.^.^.^.^.^.^.^.^.^.^.^.^.^.^.^.^.^.^.^.^.^.^.^.^.^.^.^.^.^.^.^.^.^.^.^.^.^.^.^.^.^.^.^.^.^.^.^.^.^.^.^.^.^.^.^.^.^.^.^.^.^.^.^.^.^.^.^.^.^.^.^.^.^.^.^.^.^.^.^.^.^.^.^.^.^.^.^.^.^.^.^.^.^.^.^.",
"^.^.^.^.^.^.^.^.^.^.^.^.^.^.^.^.^.^.^.^.^.^.^.^.^.^.^.^.^.^.^.^.^.^.^.^.^.^.^.^.^.^.^.^.^.^.^.^.^.^.^.^.^.^.^.^.^.^.^.^.^.^.^.^.^.^.^.^.^.^.^.^.^.^.^.^.^.^.^.^.^.^.^.^.^.^.^.^.^.^.^.^.^.^.^.^.^.^.^.^.^.^.^.^.^.^.^.^.^.^.^.^.^.^.^.^.^.^.^.^.^.^.^.^.^.^.^.^.^.^.^.^.^.^.^.^.^.^.^.^.^.^.^.^.^.^.^.^.^.^.^.^.^.^.^.^.^.^.^.^.^.^.^.^.^.^.^.^.^.^.^.^.^.^.^.^.^.^.^.^.^.^.^.^.^.^.^.^.^.^.^.^.^.^.^.^.^.^.^.^.^.^.^.^.^.^.^.^.^.^.^.^.^.^.^.^.^.^.^.^.^.^.^.^.^.^.^.^.^.^.^.^.^.^.^.^.^.^.^.^.^.^.^.^.^.^.^.^.^.^.^.^.^.^.^.^.^.^.^.^.^.^.^.^.^.^.^.^.^.^.^.^.^.^.^.^.^.^.^.^.^.^.^.^.^.^.^.^.^.^.^.^.^.^.^.^.^.^.^.^.^.^.^.^.^.^.^.^.^.^.^.^.^.^.^.^.^.^.^.^.^.^.^.^.^.^.^.^.^.^.^.^.^.^.^.^.^.^.^.^.^.^.^.^.^.^.^.^.^.^.^.^.^.^.^.^.^.^.^.^.^.^.^.^.^.^.^.^.^.^.^.^.^.^.^.^.^.^.^.^.^.^.^.^.^.^.^.^.^.^.^.^.^.^.^.^.^.^.^.^.^.^.^.^.^.^.^.^.^.^.^.^.^.^.^.^.^.^.^.^.^.^.^.^.^.^.^.^.^.^.^.^.^.^.^.^.^.^.^.^.^.^.^.^.^.^.^.^.^.^.^.^.^.^.^.^.^.^.^.^.^.^.^.^.^.^.^.^.^.^.^.^.^.^.^.^.^.^.^.^.^.^.^.^.^.^.^.^.^.^.^.^.^.^.^.^.^.^.^.^.^.^.^.^.^.^.^.^.^.^.^.^.^.^.^.^.^.^.^.^.^.^.^.^.^.^.^.^.^.^.^.^.^.^.^.^.^.^.^.^.^.^.^.^.^.^.^.^.^.^.^.^.^.^.^.^.^.^.^.^.^.^.^.^.^.^.^.^.^.^.^.^.^.^.^.^.^.^.^.^.^.^.^.^.^.^.^.^.^.^.^.^.^.^.^.^.^.^.^.^.^.^.^.^.^.^.^.^.^.^.^.^.^.^.^.^.^.^.^.^.^.^.^.^.^.^.^.^.^.^.^.^.^.^.",
"^.^.^.^.^.^.^.^.^.^.^.^.^.^.^.^.^.^.^.^.^.^.^.^.^.^.^.^.^.^.^.^.^.^.^.^.^.^.^.^.^.^.^.^.^.^.^.^.^.^.^.^.^.^.^.^.^.^.^.^.^.^.^.^.^.^.^.^.^.^.^.^.^.^.^.^.^.^.^.^.^.^.^.^.^.^.^.^.^.^.^.^.^.^.^.^.^.^.^.^.^.^.^.^.^.^.^.^.^.^.^.^.^.^.^.^.^.^.^.^.^.^.^.^.^.^.^.^.^.^.^.^.^.^.^.^.^.^.^.^.^.^.^.^.^.^.^.^.^.^.^.^.^.^.^.^.^.^.^.^.^.^.^.^.^.^.^.^.^.^.^.^.^.^.^.^.^.^.^.^.^.^.^.^.^.^.^.^.^.^.^.^.^.^.^.^.^.^.^.^.^.^.^.^.^.^.^.^.^.^.^.^.^.^.^.^.^.^.^.^.^.^.^.^.^.^.^.^.^.^.^.^.^.^.^.^.^.^.^.^.^.^.^.^.^.^.^.^.^.^.^.^.^.^.^.^.^.^.^.^.^.^.^.^.^.^.^.^.^.^.^.^.^.^.^.^.^.^.^.^.^.^.^.^.^.^.^.^.^.^.^.^.^.^.^.^.^.^.^.^.^.^.^.^.^.^.^.^.^.^.^.^.^.^.^.^.^.^.^.^.^.^.^.^.^.^.^.^.^.^.^.^.^.^.^.^.^.^.^.^.^.^.^.^.^.^.^.^.^.^.^.^.^.^.^.^.^.^.^.^.^.^.^.^.^.^.^.^.^.^.^.^.^.^.^.^.^.^.^.^.^.^.^.^.^.^.^.^.^.^.^.^.^.^.^.^.^.^.^.^.^.^.^.^.^.^.^.^.^.^.^.^.^.^.^.^.^.^.^.^.^.^.^.^.^.^.^.^.^.^.^.^.^.^.^.^.^.^.^.^.^.^.^.^.^.^.^.^.^.^.^.^.^.^.^.^.^.^.^.^.^.^.^.^.^.^.^.^.^.^.^.^.^.^.^.^.^.^.^.^.^.^.^.^.^.^.^.^.^.^.^.^.^.^.^.^.^.^.^.^.^.^.^.^.^.^.^.^.^.^.^.^.^.^.^.^.^.^.^.^.^.^.^.^.^.^.^.^.^.^.^.^.^.^.^.^.^.^.^.^.^.^.^.^.^.^.^.^.^.^.^.^.^.^.^.^.^.^.^.^.^.^.^.^.^.^.^.^.^.^.^.^.^.^.^.^.^.^.^.^.^.^.^.^.^.^.^.^.^.^.^.^.^.^.^.^.^.^.^.^.^.^.^.^.^.^.^.^.^.^.^.^.^.^.^.^.^.^.^.^.^.^.^.^.^.^.^.^.^.^.^.^.^.^.",
"^.^.^.^.^.^.^.^.^.^.^.^.^.^.^.^.^.^.^.^.^.^.^.^.^.^.^.^.^.^.^.^.^.^.^.^.^.^.^.^.^.^.^.^.^.^.^.^.^.^.^.^.^.^.^.^.^.^.^.^.^.^.^.^.^.^.^.^.^.^.^.^.^.^.^.^.^.^.^.^.^.^.^.^.^.^.^.^.^.^.^.^.^.^.^.^.^.^.^.^.^.^.^.^.^.^.^.^.^.^.^.^.^.^.^.^.^.^.^.^.^.^.^.^.^.^.^.^.^.^.^.^.^.^.^.^.^.^.^.^.^.^.^.^.^.^.^.^.^.^.^.^.^.^.^.^.^.^.^.^.^.^.^.^.^.^.^.^.^.^.^.^.^.^.^.^.^.^.^.^.^.^.^.^.^.^.^.^.^.^.^.^.^.^.^.^.^.^.^.^.^.^.^.^.^.^.^.^.^.^.^.^.^.^.^.^.^.^.^.^.^.^.^.^.^.^.^.^.^.^.^.^.^.^.^.^.^.^.^.^.^.^.^.^.^.^.^.^.^.^.^.^.^.^.^.^.^.^.^.^.^.^.^.^.^.^.^.^.^.^.^.^.^.^.^.^.^.^.^.^.^.^.^.^.^.^.^.^.^.^.^.^.^.^.^.^.^.^.^.^.^.^.^.^.^.^.^.^.^.^.^.^.^.^.^.^.^.^.^.^.^.^.^.^.^.^.^.^.^.^.^.^.^.^.^.^.^.^.^.^.^.^.^.^.^.^.^.^.^.^.^.^.^.^.^.^.^.^.^.^.^.^.^.^.^.^.^.^.^.^.^.^.^.^.^.^.^.^.^.^.^.^.^.^.^.^.^.^.^.^.^.^.^.^.^.^.^.^.^.^.^.^.^.^.^.^.^.^.^.^.^.^.^.^.^.^.^.^.^.^.^.^.^.^.^.^.^.^.^.^.^.^.^.^.^.^.^.^.^.^.^.^.^.^.^.^.^.^.^.^.^.^.^.^.^.^.^.^.^.^.^.^.^.^.^.^.^.^.^.^.^.^.^.^.^.^.^.^.^.^.^.^.^.^.^.^.^.^.^.^.^.^.^.^.^.^.^.^.^.^.^.^.^.^.^.^.^.^.^.^.^.^.^.^.^.^.^.^.^.^.^.^.^.^.^.^.^.^.^.^.^.^.^.^.^.^.^.^.^.^.^.^.^.^.^.^.^.^.^.^.^.^.^.^.^.^.^.^.^.^.^.^.^.^.^.^.^.^.^.^.^.^.^.^.^.^.^.^.^.^.^.^.^.^.^.^.^.^.^.^.^.^.^.^.^.^.^.^.^.^.^.^.^.^.^.^.^.^.^.^.^.^.^.^.^.^.^.^.^.^.^.^.^.^.^.^.^.^.^.^.^.^.^.^.",
"^.^.^.^.^.^.^.^.^.^.^.^.^.^.^.^.^.^.^.^.^.^.^.^.^.^.^.^.^.^.^.^.^.^.^.^.^.^.^.^.^.^.^.^.^.^.^.^.^.^.^.^.^.^.^.^.^.^.^.^.^.^.^.^.^.^.^.^.^.^.^.^.^.^.^.^.^.^.^.^.^.^.^.^.^.^.^.^.^.^.^.^.^.^.^.^.^.^.^.^.^.^.^.^.^.^.^.^.^.^.^.^.^.^.^.^.^.^.^.^.^.^.^.^.^.^.^.^.^.^.^.^.^.^.^.^.^.^.^.^.^.^.^.^.^.^.^.^.^.^.^.^.^.^.^.^.^.^.^.^.^.^.^.^.^.^.^.^.^.^.^.^.^.^.^.^.^.^.^.^.^.^.^.^.^.^.^.^.^.^.^.^.^.^.^.^.^.^.^.^.^.^.^.^.^.^.^.^.^.^.^.^.^.^.^.^.^.^.^.^.^.^.^.^.^.^.^.^.^.^.^.^.^.^.^.^.^.^.^.^.^.^.^.^.^.^.^.^.^.^.^.^.^.^.^.^.^.^.^.^.^.^.^.^.^.^.^.^.^.^.^.^.^.^.^.^.^.^.^.^.^.^.^.^.^.^.^.^.^.^.^.^.^.^.^.^.^.^.^.^.^.^.^.^.^.^.^.^.^.^.^.^.^.^.^.^.^.^.^.^.^.^.^.^.^.^.^.^.^.^.^.^.^.^.^.^.^.^.^.^.^.^.^.^.^.^.^.^.^.^.^.^.^.^.^.^.^.^.^.^.^.^.^.^.^.^.^.^.^.^.^.^.^.^.^.^.^.^.^.^.^.^.^.^.^.^.^.^.^.^.^.^.^.^.^.^.^.^.^.^.^.^.^.^.^.^.^.^.^.^.^.^.^.^.^.^.^.^.^.^.^.^.^.^.^.^.^.^.^.^.^.^.^.^.^.^.^.^.^.^.^.^.^.^.^.^.^.^.^.^.^.^.^.^.^.^.^.^.^.^.^.^.^.^.^.^.^.^.^.^.^.^.^.^.^.^.^.^.^.^.^.^.^.^.^.^.^.^.^.^.^.^.^.^.^.^.^.^.^.^.^.^.^.^.^.^.^.^.^.^.^.^.^.^.^.^.^.^.^.^.^.^.^.^.^.^.^.^.^.^.^.^.^.^.^.^.^.^.^.^.^.^.^.^.^.^.^.^.^.^.^.^.^.^.^.^.^.^.^.^.^.^.^.^.^.^.^.^.^.^.^.^.^.^.^.^.^.^.^.^.^.^.^.^.^.^.^.^.^.^.^.^.^.^.^.^.^.^.^.^.^.^.^.^.^.^.^.^.^.^.^.^.^.^.^.^.^.^.^.^.^.^.^.^.^.^.^.^.^.^.^.^.^.^.",
"^.^.^.^.^.^.^.^.^.^.^.^.^.^.^.^.^.^.^.^.^.^.^.^.^.^.^.^.^.^.^.^.^.^.^.^.^.^.^.^.^.^.^.^.^.^.^.^.^.^.^.^.^.^.^.^.^.^.^.^.^.^.^.^.^.^.^.^.^.^.^.^.^.^.^.^.^.^.^.^.^.^.^.^.^.^.^.^.^.^.^.^.^.^.^.^.^.^.^.^.^.^.^.^.^.^.^.^.^.^.^.^.^.^.^.^.^.^.^.^.^.^.^.^.^.^.^.^.^.^.^.^.^.^.^.^.^.^.^.^.^.^.^.^.^.^.^.^.^.^.^.^.^.^.^.^.^.^.^.^.^.^.^.^.^.^.^.^.^.^.^.^.^.^.^.^.^.^.^.^.^.^.^.^.^.^.^.^.^.^.^.^.^.^.^.^.^.^.^.^.^.^.^.^.^.^.^.^.^.^.^.^.^.^.^.^.^.^.^.^.^.^.^.^.^.^.^.^.^.^.^.^.^.^.^.^.^.^.^.^.^.^.^.^.^.^.^.^.^.^.^.^.^.^.^.^.^.^.^.^.^.^.^.^.^.^.^.^.^.^.^.^.^.^.^.^.^.^.^.^.^.^.^.^.^.^.^.^.^.^.^.^.^.^.^.^.^.^.^.^.^.^.^.^.^.^.^.^.^.^.^.^.^.^.^.^.^.^.^.^.^.^.^.^.^.^.^.^.^.^.^.^.^.^.^.^.^.^.^.^.^.^.^.^.^.^.^.^.^.^.^.^.^.^.^.^.^.^.^.^.^.^.^.^.^.^.^.^.^.^.^.^.^.^.^.^.^.^.^.^.^.^.^.^.^.^.^.^.^.^.^.^.^.^.^.^.^.^.^.^.^.^.^.^.^.^.^.^.^.^.^.^.^.^.^.^.^.^.^.^.^.^.^.^.^.^.^.^.^.^.^.^.^.^.^.^.^.^.^.^.^.^.^.^.^.^.^.^.^.^.^.^.^.^.^.^.^.^.^.^.^.^.^.^.^.^.^.^.^.^.^.^.^.^.^.^.^.^.^.^.^.^.^.^.^.^.^.^.^.^.^.^.^.^.^.^.^.^.^.^.^.^.^.^.^.^.^.^.^.^.^.^.^.^.^.^.^.^.^.^.^.^.^.^.^.^.^.^.^.^.^.^.^.^.^.^.^.^.^.^.^.^.^.^.^.^.^.^.^.^.^.^.^.^.^.^.^.^.^.^.^.^.^.^.^.^.^.^.^.^.^.^.^.^.^.^.^.^.^.^.^.^.^.^.^.^.^.^.^.^.^.^.^.^.^.^.^.^.^.^.^.^.^.^.^.^.^.^.^.^.^.^.^.^.^.^.^.^.^.^.^.^.^.^.^.^.^.^.^.^.^.^.^.^.",
"^.^.^.^.^.^.^.^.^.^.^.^.^.^.^.^.^.^.^.^.^.^.^.^.^.^.^.^.^.^.^.^.^.^.^.^.^.^.^.^.^.^.^.^.^.^.^.^.^.^.^.^.^.^.^.^.^.^.^.^.^.^.^.^.^.^.^.^.^.^.^.^.^.^.^.^.^.^.^.^.^.^.^.^.^.^.^.^.^.^.^.^.^.^.^.^.^.^.^.^.^.^.^.^.^.^.^.^.^.^.^.^.^.^.^.^.^.^.^.^.^.^.^.^.^.^.^.^.^.^.^.^.^.^.^.^.^.^.^.^.^.^.^.^.^.^.^.^.^.^.^.^.^.^.^.^.^.^.^.^.^.^.^.^.^.^.^.^.^.^.^.^.^.^.^.^.^.^.^.^.^.^.^.^.^.^.^.^.^.^.^.^.^.^.^.^.^.^.^.^.^.^.^.^.^.^.^.^.^.^.^.^.^.^.^.^.^.^.^.^.^.^.^.^.^.^.^.^.^.^.^.^.^.^.^.^.^.^.^.^.^.^.^.^.^.^.^.^.^.^.^.^.^.^.^.^.^.^.^.^.^.^.^.^.^.^.^.^.^.^.^.^.^.^.^.^.^.^.^.^.^.^.^.^.^.^.^.^.^.^.^.^.^.^.^.^.^.^.^.^.^.^.^.^.^.^.^.^.^.^.^.^.^.^.^.^.^.^.^.^.^.^.^.^.^.^.^.^.^.^.^.^.^.^.^.^.^.^.^.^.^.^.^.^.^.^.^.^.^.^.^.^.^.^.^.^.^.^.^.^.^.^.^.^.^.^.^.^.^.^.^.^.^.^.^.^.^.^.^.^.^.^.^.^.^.^.^.^.^.^.^.^.^.^.^.^.^.^.^.^.^.^.^.^.^.^.^.^.^.^.^.^.^.^.^.^.^.^.^.^.^.^.^.^.^.^.^.^.^.^.^.^.^.^.^.^.^.^.^.^.^.^.^.^.^.^.^.^.^.^.^.^.^.^.^.^.^.^.^.^.^.^.^.^.^.^.^.^.^.^.^.^.^.^.^.^.^.^.^.^.^.^.^.^.^.^.^.^.^.^.^.^.^.^.^.^.^.^.^.^.^.^.^.^.^.^.^.^.^.^.^.^.^.^.^.^.^.^.^.^.^.^.^.^.^.^.^.^.^.^.^.^.^.^.^.^.^.^.^.^.^.^.^.^.^.^.^.^.^.^.^.^.^.^.^.^.^.^.^.^.^.^.^.^.^.^.^.^.^.^.^.^.^.^.^.^.^.^.^.^.^.^.^.^.^.^.^.^.^.^.^.^.^.^.^.^.^.^.^.^.^.^.^.^.^.^.^.^.^.^.^.^.^.^.^.^.^.^.^.^.^.^.^.^.^.^.^.^.^.^.^.^.^.^.",
"^.^.^.^.^.^.^.^.^.^.^.^.^.^.^.^.^.^.^.^.^.^.^.^.^.^.^.^.^.^.^.^.^.^.^.^.^.^.^.^.^.^.^.^.^.^.^.^.^.^.^.^.^.^.^.^.^.^.^.^.^.^.^.^.^.^.^.^.^.^.^.^.^.^.^.^.^.^.^.^.^.^.^.^.^.^.^.^.^.^.^.^.^.^.^.^.^.^.^.^.^.^.^.^.^.^.^.^.^.^.^.^.^.^.^.^.^.^.^.^.^.^.^.^.^.^.^.^.^.^.^.^.^.^.^.^.^.^.^.^.^.^.^.^.^.^.^.^.^.^.^.^.^.^.^.^.^.^.^.^.^.^.^.^.^.^.^.^.^.^.^.^.^.^.^.^.^.^.^.^.^.^.^.^.^.^.^.^.^.^.^.^.^.^.^.^.^.^.^.^.^.^.^.^.^.^.^.^.^.^.^.^.^.^.^.^.^.^.^.^.^.^.^.^.^.^.^.^.^.^.^.^.^.^.^.^.^.^.^.^.^.^.^.^.^.^.^.^.^.^.^.^.^.^.^.^.^.^.^.^.^.^.^.^.^.^.^.^.^.^.^.^.^.^.^.^.^.^.^.^.^.^.^.^.^.^.^.^.^.^.^.^.^.^.^.^.^.^.^.^.^.^.^.^.^.^.^.^.^.^.^.^.^.^.^.^.^.^.^.^.^.^.^.^.^.^.^.^.^.^.^.^.^.^.^.^.^.^.^.^.^.^.^.^.^.^.^.^.^.^.^.^.^.^.^.^.^.^.^.^.^.^.^.^.^.^.^.^.^.^.^.^.^.^.^.^.^.^.^.^.^.^.^.^.^.^.^.^.^.^.^.^.^.^.^.^.^.^.^.^.^.^.^.^.^.^.^.^.^.^.^.^.^.^.^.^.^.^.^.^.^.^.^.^.^.^.^.^.^.^.^.^.^.^.^.^.^.^.^.^.^.^.^.^.^.^.^.^.^.^.^.^.^.^.^.^.^.^.^.^.^.^.^.^.^.^.^.^.^.^.^.^.^.^.^.^.^.^.^.^.^.^.^.^.^.^.^.^.^.^.^.^.^.^.^.^.^.^.^.^.^.^.^.^.^.^.^.^.^.^.^.^.^.^.^.^.^.^.^.^.^.^.^.^.^.^.^.^.^.^.^.^.^.^.^.^.^.^.^.^.^.^.^.^.^.^.^.^.^.^.^.^.^.^.^.^.^.^.^.^.^.^.^.^.^.^.^.^.^.^.^.^.^.^.^.^.^.^.^.^.^.^.^.^.^.^.^.^.^.^.^.^.^.^.^.^.^.^.^.^.^.^.^.^.^.^.^.^.^.^.^.^.^.^.^.^.^.^.^.^.^.^.^.^.^.^.^.^.^.^.^.^.^.^.",
"^.^.^.^.^.^.^.^.^.^.^.^.^.^.^.^.^.^.^.^.^.^.^.^.^.^.^.^.^.^.^.^.^.^.^.^.^.^.^.^.^.^.^.^.^.^.^.^.^.^.^.^.^.^.^.^.^.^.^.^.^.^.^.^.^.^.^.^.^.^.^.^.^.^.^.^.^.^.^.^.^.^.^.^.^.^.^.^.^.^.^.^.^.^.^.^.^.^.^.^.^.^.^.^.^.^.^.^.^.^.^.^.^.^.^.^.^.^.^.^.^.^.^.^.^.^.^.^.^.^.^.^.^.^.^.^.^.^.^.^.^.^.^.^.^.^.^.^.^.^.^.^.^.^.^.^.^.^.^.^.^.^.^.^.^.^.^.^.^.^.^.^.^.^.^.^.^.^.^.^.^.^.^.^.^.^.^.^.^.^.^.^.^.^.^.^.^.^.^.^.^.^.^.^.^.^.^.^.^.^.^.^.^.^.^.^.^.^.^.^.^.^.^.^.^.^.^.^.^.^.^.^.^.^.^.^.^.^.^.^.^.^.^.^.^.^.^.^.^.^.^.^.^.^.^.^.^.^.^.^.^.^.^.^.^.^.^.^.^.^.^.^.^.^.^.^.^.^.^.^.^.^.^.^.^.^.^.^.^.^.^.^.^.^.^.^.^.^.^.^.^.^.^.^.^.^.^.^.^.^.^.^.^.^.^.^.^.^.^.^.^.^.^.^.^.^.^.^.^.^.^.^.^.^.^.^.^.^.^.^.^.^.^.^.^.^.^.^.^.^.^.^.^.^.^.^.^.^.^.^.^.^.^.^.^.^.^.^.^.^.^.^.^.^.^.^.^.^.^.^.^.^.^.^.^.^.^.^.^.^.^.^.^.^.^.^.^.^.^.^.^.^.^.^.^.^.^.^.^.^.^.^.^.^.^.^.^.^.^.^.^.^.^.^.^.^.^.^.^.^.^.^.^.^.^.^.^.^.^.^.^.^.^.^.^.^.^.^.^.^.^.^.^.^.^.^.^.^.^.^.^.^.^.^.^.^.^.^.^.^.^.^.^.^.^.^.^.^.^.^.^.^.^.^.^.^.^.^.^.^.^.^.^.^.^.^.^.^.^.^.^.^.^.^.^.^.^.^.^.^.^.^.^.^.^.^.^.^.^.^.^.^.^.^.^.^.^.^.^.^.^.^.^.^.^.^.^.^.^.^.^.^.^.^.^.^.^.^.^.^.^.^.^.^.^.^.^.^.^.^.^.^.^.^.^.^.^.^.^.^.^.^.^.^.^.^.^.^.^.^.^.^.^.^.^.^.^.^.^.^.^.^.^.^.^.^.^.^.^.^.^.^.^.^.^.^.^.^.^.^.^.^.^.^.^.^.^.^.^.^.^.^.^.^.^.^.^.^.^.^.^.^.^.^.",
"^.^.^.^.^.^.^.^.^.^.^.^.^.^.^.^.^.^.^.^.^.^.^.^.^.^.^.^.^.^.^.^.^.^.^.^.^.^.^.^.^.^.^.^.^.^.^.^.^.^.^.^.^.^.^.^.^.^.^.^.^.^.^.^.^.^.^.^.^.^.^.^.^.^.^.^.^.^.^.^.^.^.^.^.^.^.^.^.^.^.^.^.^.^.^.^.^.^.^.^.^.^.^.^.^.^.^.^.^.^.^.^.^.^.^.^.^.^.^.^.^.^.^.^.^.^.^.^.^.^.^.^.^.^.^.^.^.^.^.^.^.^.^.^.^.^.^.^.^.^.^.^.^.^.^.^.^.^.^.^.^.^.^.^.^.^.^.^.^.^.^.^.^.^.^.^.^.^.^.^.^.^.^.^.^.^.^.^.^.^.^.^.^.^.^.^.^.^.^.^.^.^.^.^.^.^.^.^.^.^.^.^.^.^.^.^.^.^.^.^.^.^.^.^.^.^.^.^.^.^.^.^.^.^.^.^.^.^.^.^.^.^.^.^.^.^.^.^.^.^.^.^.^.^.^.^.^.^.^.^.^.^.^.^.^.^.^.^.^.^.^.^.^.^.^.^.^.^.^.^.^.^.^.^.^.^.^.^.^.^.^.^.^.^.^.^.^.^.^.^.^.^.^.^.^.^.^.^.^.^.^.^.^.^.^.^.^.^.^.^.^.^.^.^.^.^.^.^.^.^.^.^.^.^.^.^.^.^.^.^.^.^.^.^.^.^.^.^.^.^.^.^.^.^.^.^.^.^.^.^.^.^.^.^.^.^.^.^.^.^.^.^.^.^.^.^.^.^.^.^.^.^.^.^.^.^.^.^.^.^.^.^.^.^.^.^.^.^.^.^.^.^.^.^.^.^.^.^.^.^.^.^.^.^.^.^.^.^.^.^.^.^.^.^.^.^.^.^.^.^.^.^.^.^.^.^.^.^.^.^.^.^.^.^.^.^.^.^.^.^.^.^.^.^.^.^.^.^.^.^.^.^.^.^.^.^.^.^.^.^.^.^.^.^.^.^.^.^.^.^.^.^.^.^.^.^.^.^.^.^.^.^.^.^.^.^.^.^.^.^.^.^.^.^.^.^.^.^.^.^.^.^.^.^.^.^.^.^.^.^.^.^.^.^.^.^.^.^.^.^.^.^.^.^.^.^.^.^.^.^.^.^.^.^.^.^.^.^.^.^.^.^.^.^.^.^.^.^.^.^.^.^.^.^.^.^.^.^.^.^.^.^.^.^.^.^.^.^.^.^.^.^.^.^.^.^.^.^.^.^.^.^.^.^.^.^.^.^.^.^.^.^.^.^.^.^.^.^.^.^.^.^.^.^.^.^.^.^.^.^.^.^.^.^.^.^.^.^.^.^.^.^.^.^.",
"^.^.^.^.^.^.^.^.^.^.^.^.^.^.^.^.^.^.^.^.^.^.^.^.^.^.^.^.^.^.^.^.^.^.^.^.^.^.^.^.^.^.^.^.^.^.^.^.^.^.^.^.^.^.^.^.^.^.^.^.^.^.^.^.^.^.^.^.^.^.^.^.^.^.^.^.^.^.^.^.^.^.^.^.^.^.^.^.^.^.^.^.^.^.^.^.^.^.^.^.^.^.^.^.^.^.^.^.^.^.^.^.^.^.^.^.^.^.^.^.^.^.^.^.^.^.^.^.^.^.^.^.^.^.^.^.^.^.^.^.^.^.^.^.^.^.^.^.^.^.^.^.^.^.^.^.^.^.^.^.^.^.^.^.^.^.^.^.^.^.^.^.^.^.^.^.^.^.^.^.^.^.^.^.^.^.^.^.^.^.^.^.^.^.^.^.^.^.^.^.^.^.^.^.^.^.^.^.^.^.^.^.^.^.^.^.^.^.^.^.^.^.^.^.^.^.^.^.^.^.^.^.^.^.^.^.^.^.^.^.^.^.^.^.^.^.^.^.^.^.^.^.^.^.^.^.^.^.^.^.^.^.^.^.^.^.^.^.^.^.^.^.^.^.^.^.^.^.^.^.^.^.^.^.^.^.^.^.^.^.^.^.^.^.^.^.^.^.^.^.^.^.^.^.^.^.^.^.^.^.^.^.^.^.^.^.^.^.^.^.^.^.^.^.^.^.^.^.^.^.^.^.^.^.^.^.^.^.^.^.^.^.^.^.^.^.^.^.^.^.^.^.^.^.^.^.^.^.^.^.^.^.^.^.^.^.^.^.^.^.^.^.^.^.^.^.^.^.^.^.^.^.^.^.^.^.^.^.^.^.^.^.^.^.^.^.^.^.^.^.^.^.^.^.^.^.^.^.^.^.^.^.^.^.^.^.^.^.^.^.^.^.^.^.^.^.^.^.^.^.^.^.^.^.^.^.^.^.^.^.^.^.^.^.^.^.^.^.^.^.^.^.^.^.^.^.^.^.^.^.^.^.^.^.^.^.^.^.^.^.^.^.^.^.^.^.^.^.^.^.^.^.^.^.^.^.^.^.^.^.^.^.^.^.^.^.^.^.^.^.^.^.^.^.^.^.^.^.^.^.^.^.^.^.^.^.^.^.^.^.^.^.^.^.^.^.^.^.^.^.^.^.^.^.^.^.^.^.^.^.^.^.^.^.^.^.^.^.^.^.^.^.^.^.^.^.^.^.^.^.^.^.^.^.^.^.^.^.^.^.^.^.^.^.^.^.^.^.^.^.^.^.^.^.^.^.^.^.^.^.^.^.^.^.^.^.^.^.^.^.^.^.^.^.^.^.^.^.^.^.^.^.^.^.^.^.^.^.^.^.^.^.^.^.^.^.^.^.^.^.^.^.^.^.",
"^.^.^.^.^.^.^.^.^.^.^.^.^.^.^.^.^.^.^.^.^.^.^.^.^.^.^.^.^.^.^.^.^.^.^.^.^.^.^.^.^.^.^.^.^.^.^.^.^.^.^.^.^.^.^.^.^.^.^.^.^.^.^.^.^.^.^.^.^.^.^.^.^.^.^.^.^.^.^.^.^.^.^.^.^.^.^.^.^.^.^.^.^.^.^.^.^.^.^.^.^.^.^.^.^.^.^.^.^.^.^.^.^.^.^.^.^.^.^.^.^.^.^.^.^.^.^.^.^.^.^.^.^.^.^.^.^.^.^.^.^.^.^.^.^.^.^.^.^.^.^.^.^.^.^.^.^.^.^.^.^.^.^.^.^.^.^.^.^.^.^.^.^.^.^.^.^.^.^.^.^.^.^.^.^.^.^.^.^.^.^.^.^.^.^.^.^.^.^.^.^.^.^.^.^.^.^.^.^.^.^.^.^.^.^.^.^.^.^.^.^.^.^.^.^.^.^.^.^.^.^.^.^.^.^.^.^.^.^.^.^.^.^.^.^.^.^.^.^.^.^.^.^.^.^.^.^.^.^.^.^.^.^.^.^.^.^.^.^.^.^.^.^.^.^.^.^.^.^.^.^.^.^.^.^.^.^.^.^.^.^.^.^.^.^.^.^.^.^.^.^.^.^.^.^.^.^.^.^.^.^.^.^.^.^.^.^.^.^.^.^.^.^.^.^.^.^.^.^.^.^.^.^.^.^.^.^.^.^.^.^.^.^.^.^.^.^.^.^.^.^.^.^.^.^.^.^.^.^.^.^.^.^.^.^.^.^.^.^.^.^.^.^.^.^.^.^.^.^.^.^.^.^.^.^.^.^.^.^.^.^.^.^.^.^.^.^.^.^.^.^.^.^.^.^.^.^.^.^.^.^.^.^.^.^.^.^.^.^.^.^.^.^.^.^.^.^.^.^.^.^.^.^.^.^.^.^.^.^.^.^.^.^.^.^.^.^.^.^.^.^.^.^.^.^.^.^.^.^.^.^.^.^.^.^.^.^.^.^.^.^.^.^.^.^.^.^.^.^.^.^.^.^.^.^.^.^.^.^.^.^.^.^.^.^.^.^.^.^.^.^.^.^.^.^.^.^.^.^.^.^.^.^.^.^.^.^.^.^.^.^.^.^.^.^.^.^.^.^.^.^.^.^.^.^.^.^.^.^.^.^.^.^.^.^.^.^.^.^.^.^.^.^.^.^.^.^.^.^.^.^.^.^.^.^.^.^.^.^.^.^.^.^.^.^.^.^.^.^.^.^.^.^.^.^.^.^.^.^.^.^.^.^.^.^.^.^.^.^.^.^.^.^.^.^.^.^.^.^.^.^.^.^.^.^.^.^.^.^.^.^.^.^.^.^.^.^.^.^.^.^.^.^.^.",
"^.^.^.^.^.^.^.^.^.^.^.^.^.^.^.^.^.^.^.^.^.^.^.^.^.^.^.^.^.^.^.^.^.^.^.^.^.^.^.^.^.^.^.^.^.^.^.^.^.^.^.^.^.^.^.^.^.^.^.^.^.^.^.^.^.^.^.^.^.^.^.^.^.^.^.^.^.^.^.^.^.^.^.^.^.^.^.^.^.^.^.^.^.^.^.^.^.^.^.^.^.^.^.^.^.^.^.^.^.^.^.^.^.^.^.^.^.^.^.^.^.^.^.^.^.^.^.^.^.^.^.^.^.^.^.^.^.^.^.^.^.^.^.^.^.^.^.^.^.^.^.^.^.^.^.^.^.^.^.^.^.^.^.^.^.^.^.^.^.^.^.^.^.^.^.^.^.^.^.^.^.^.^.^.^.^.^.^.^.^.^.^.^.^.^.^.^.^.^.^.^.^.^.^.^.^.^.^.^.^.^.^.^.^.^.^.^.^.^.^.^.^.^.^.^.^.^.^.^.^.^.^.^.^.^.^.^.^.^.^.^.^.^.^.^.^.^.^.^.^.^.^.^.^.^.^.^.^.^.^.^.^.^.^.^.^.^.^.^.^.^.^.^.^.^.^.^.^.^.^.^.^.^.^.^.^.^.^.^.^.^.^.^.^.^.^.^.^.^.^.^.^.^.^.^.^.^.^.^.^.^.^.^.^.^.^.^.^.^.^.^.^.^.^.^.^.^.^.^.^.^.^.^.^.^.^.^.^.^.^.^.^.^.^.^.^.^.^.^.^.^.^.^.^.^.^.^.^.^.^.^.^.^.^.^.^.^.^.^.^.^.^.^.^.^.^.^.^.^.^.^.^.^.^.^.^.^.^.^.^.^.^.^.^.^.^.^.^.^.^.^.^.^.^.^.^.^.^.^.^.^.^.^.^.^.^.^.^.^.^.^.^.^.^.^.^.^.^.^.^.^.^.^.^.^.^.^.^.^.^.^.^.^.^.^.^.^.^.^.^.^.^.^.^.^.^.^.^.^.^.^.^.^.^.^.^.^.^.^.^.^.^.^.^.^.^.^.^.^.^.^.^.^.^.^.^.^.^.^.^.^.^.^.^.^.^.^.^.^.^.^.^.^.^.^.^.^.^.^.^.^.^.^.^.^.^.^.^.^.^.^.^.^.^.^.^.^.^.^.^.^.^.^.^.^.^.^.^.^.^.^.^.^.^.^.^.^.^.^.^.^.^.^.^.^.^.^.^.^.^.^.^.^.^.^.^.^.^.^.^.^.^.^.^.^.^.^.^.^.^.^.^.^.^.^.^.^.^.^.^.^.^.^.^.^.^.^.^.^.^.^.^.^.^.^.^.^.^.^.^.^.^.^.^.^.^.^.^.^.^.^.^.^.^.^.^.^.^.^.^.^.^.^.^.",
"^.^.^.^.^.^.^.^.^.^.^.^.^.^.^.^.^.^.^.^.^.^.^.^.^.^.^.^.^.^.^.^.^.^.^.^.^.^.^.^.^.^.^.^.^.^.^.^.^.^.^.^.^.^.^.^.^.^.^.^.^.^.^.^.^.^.^.^.^.^.^.^.^.^.^.^.^.^.^.^.^.^.^.^.^.^.^.^.^.^.^.^.^.^.^.^.^.^.^.^.^.^.^.^.^.^.^.^.^.^.^.^.^.^.^.^.^.^.^.^.^.^.^.^.^.^.^.^.^.^.^.^.^.^.^.^.^.^.^.^.^.^.^.^.^.^.^.^.^.^.^.^.^.^.^.^.^.^.^.^.^.^.^.^.^.^.^.^.^.^.^.^.^.^.^.^.^.^.^.^.^.^.^.^.^.^.^.^.^.^.^.^.^.^.^.^.^.^.^.^.^.^.^.^.^.^.^.^.^.^.^.^.^.^.^.^.^.^.^.^.^.^.^.^.^.^.^.^.^.^.^.^.^.^.^.^.^.^.^.^.^.^.^.^.^.^.^.^.^.^.^.^.^.^.^.^.^.^.^.^.^.^.^.^.^.^.^.^.^.^.^.^.^.^.^.^.^.^.^.^.^.^.^.^.^.^.^.^.^.^.^.^.^.^.^.^.^.^.^.^.^.^.^.^.^.^.^.^.^.^.^.^.^.^.^.^.^.^.^.^.^.^.^.^.^.^.^.^.^.^.^.^.^.^.^.^.^.^.^.^.^.^.^.^.^.^.^.^.^.^.^.^.^.^.^.^.^.^.^.^.^.^.^.^.^.^.^.^.^.^.^.^.^.^.^.^.^.^.^.^.^.^.^.^.^.^.^.^.^.^.^.^.^.^.^.^.^.^.^.^.^.^.^.^.^.^.^.^.^.^.^.^.^.^.^.^.^.^.^.^.^.^.^.^.^.^.^.^.^.^.^.^.^.^.^.^.^.^.^.^.^.^.^.^.^.^.^.^.^.^.^.^.^.^.^.^.^.^.^.^.^.^.^.^.^.^.^.^.^.^.^.^.^.^.^.^.^.^.^.^.^.^.^.^.^.^.^.^.^.^.^.^.^.^.^.^.^.^.^.^.^.^.^.^.^.^.^.^.^.^.^.^.^.^.^.^.^.^.^.^.^.^.^.^.^.^.^.^.^.^.^.^.^.^.^.^.^.^.^.^.^.^.^.^.^.^.^.^.^.^.^.^.^.^.^.^.^.^.^.^.^.^.^.^.^.^.^.^.^.^.^.^.^.^.^.^.^.^.^.^.^.^.^.^.^.^.^.^.^.^.^.^.^.^.^.^.^.^.^.^.^.^.^.^.^.^.^.^.^.^.^.^.^.^.^.^.^.^.^.^.^.^.^.^.^.^.^.^.^.^.^.^.^.^.",
"^.^.^.^.^.^.^.^.^.^.^.^.^.^.^.^.^.^.^.^.^.^.^.^.^.^.^.^.^.^.^.^.^.^.^.^.^.^.^.^.^.^.^.^.^.^.^.^.^.^.^.^.^.^.^.^.^.^.^.^.^.^.^.^.^.^.^.^.^.^.^.^.^.^.^.^.^.^.^.^.^.^.^.^.^.^.^.^.^.^.^.^.^.^.^.^.^.^.^.^.^.^.^.^.^.^.^.^.^.^.^.^.^.^.^.^.^.^.^.^.^.^.^.^.^.^.^.^.^.^.^.^.^.^.^.^.^.^.^.^.^.^.^.^.^.^.^.^.^.^.^.^.^.^.^.^.^.^.^.^.^.^.^.^.^.^.^.^.^.^.^.^.^.^.^.^.^.^.^.^.^.^.^.^.^.^.^.^.^.^.^.^.^.^.^.^.^.^.^.^.^.^.^.^.^.^.^.^.^.^.^.^.^.^.^.^.^.^.^.^.^.^.^.^.^.^.^.^.^.^.^.^.^.^.^.^.^.^.^.^.^.^.^.^.^.^.^.^.^.^.^.^.^.^.^.^.^.^.^.^.^.^.^.^.^.^.^.^.^.^.^.^.^.^.^.^.^.^.^.^.^.^.^.^.^.^.^.^.^.^.^.^.^.^.^.^.^.^.^.^.^.^.^.^.^.^.^.^.^.^.^.^.^.^.^.^.^.^.^.^.^.^.^.^.^.^.^.^.^.^.^.^.^.^.^.^.^.^.^.^.^.^.^.^.^.^.^.^.^.^.^.^.^.^.^.^.^.^.^.^.^.^.^.^.^.^.^.^.^.^.^.^.^.^.^.^.^.^.^.^.^.^.^.^.^.^.^.^.^.^.^.^.^.^.^.^.^.^.^.^.^.^.^.^.^.^.^.^.^.^.^.^.^.^.^.^.^.^.^.^.^.^.^.^.^.^.^.^.^.^.^.^.^.^.^.^.^.^.^.^.^.^.^.^.^.^.^.^.^.^.^.^.^.^.^.^.^.^.^.^.^.^.^.^.^.^.^.^.^.^.^.^.^.^.^.^.^.^.^.^.^.^.^.^.^.^.^.^.^.^.^.^.^.^.^.^.^.^.^.^.^.^.^.^.^.^.^.^.^.^.^.^.^.^.^.^.^.^.^.^.^.^.^.^.^.^.^.^.^.^.^.^.^.^.^.^.^.^.^.^.^.^.^.^.^.^.^.^.^.^.^.^.^.^.^.^.^.^.^.^.^.^.^.^.^.^.^.^.^.^.^.^.^.^.^.^.^.^.^.^.^.^.^.^.^.^.^.^.^.^.^.^.^.^.^.^.^.^.^.^.^.^.^.^.^.^.^.^.^.^.^.^.^.^.^.^.^.^.^.^.^.^.^.^.^.^.^.^.^.^.^.^.^.^.",
"^.^.^.^.^.^.^.^.^.^.^.^.^.^.^.^.^.^.^.^.^.^.^.^.^.^.^.^.^.^.^.^.^.^.^.^.^.^.^.^.^.^.^.^.^.^.^.^.^.^.^.^.^.^.^.^.^.^.^.^.^.^.^.^.^.^.^.^.^.^.^.^.^.^.^.^.^.^.^.^.^.^.^.^.^.^.^.^.^.^.^.^.^.^.^.^.^.^.^.^.^.^.^.^.^.^.^.^.^.^.^.^.^.^.^.^.^.^.^.^.^.^.^.^.^.^.^.^.^.^.^.^.^.^.^.^.^.^.^.^.^.^.^.^.^.^.^.^.^.^.^.^.^.^.^.^.^.^.^.^.^.^.^.^.^.^.^.^.^.^.^.^.^.^.^.^.^.^.^.^.^.^.^.^.^.^.^.^.^.^.^.^.^.^.^.^.^.^.^.^.^.^.^.^.^.^.^.^.^.^.^.^.^.^.^.^.^.^.^.^.^.^.^.^.^.^.^.^.^.^.^.^.^.^.^.^.^.^.^.^.^.^.^.^.^.^.^.^.^.^.^.^.^.^.^.^.^.^.^.^.^.^.^.^.^.^.^.^.^.^.^.^.^.^.^.^.^.^.^.^.^.^.^.^.^.^.^.^.^.^.^.^.^.^.^.^.^.^.^.^.^.^.^.^.^.^.^.^.^.^.^.^.^.^.^.^.^.^.^.^.^.^.^.^.^.^.^.^.^.^.^.^.^.^.^.^.^.^.^.^.^.^.^.^.^.^.^.^.^.^.^.^.^.^.^.^.^.^.^.^.^.^.^.^.^.^.^.^.^.^.^.^.^.^.^.^.^.^.^.^.^.^.^.^.^.^.^.^.^.^.^.^.^.^.^.^.^.^.^.^.^.^.^.^.^.^.^.^.^.^.^.^.^.^.^.^.^.^.^.^.^.^.^.^.^.^.^.^.^.^.^.^.^.^.^.^.^.^.^.^.^.^.^.^.^.^.^.^.^.^.^.^.^.^.^.^.^.^.^.^.^.^.^.^.^.^.^.^.^.^.^.^.^.^.^.^.^.^.^.^.^.^.^.^.^.^.^.^.^.^.^.^.^.^.^.^.^.^.^.^.^.^.^.^.^.^.^.^.^.^.^.^.^.^.^.^.^.^.^.^.^.^.^.^.^.^.^.^.^.^.^.^.^.^.^.^.^.^.^.^.^.^.^.^.^.^.^.^.^.^.^.^.^.^.^.^.^.^.^.^.^.^.^.^.^.^.^.^.^.^.^.^.^.^.^.^.^.^.^.^.^.^.^.^.^.^.^.^.^.^.^.^.^.^.^.^.^.^.^.^.^.^.^.^.^.^.^.^.^.^.^.^.^.^.^.^.^.^.^.^.^.^.^.^.^.^.^.^.^.^.^.^.^.^.",
"^.^.^.^.^.^.^.^.^.^.^.^.^.^.^.^.^.^.^.^.^.^.^.^.^.^.^.^.^.^.^.^.^.^.^.^.^.^.^.^.^.^.^.^.^.^.^.^.^.^.^.^.^.^.^.^.^.^.^.^.^.^.^.^.^.^.^.^.^.^.^.^.^.^.^.^.^.^.^.^.^.^.^.^.^.^.^.^.^.^.^.^.^.^.^.^.^.^.^.^.^.^.^.^.^.^.^.^.^.^.^.^.^.^.^.^.^.^.^.^.^.^.^.^.^.^.^.^.^.^.^.^.^.^.^.^.^.^.^.^.^.^.^.^.^.^.^.^.^.^.^.^.^.^.^.^.^.^.^.^.^.^.^.^.^.^.^.^.^.^.^.^.^.^.^.^.^.^.^.^.^.^.^.^.^.^.^.^.^.^.^.^.^.^.^.^.^.^.^.^.^.^.^.^.^.^.^.^.^.^.^.^.^.^.^.^.^.^.^.^.^.^.^.^.^.^.^.^.^.^.^.^.^.^.^.^.^.^.^.^.^.^.^.^.^.^.^.^.^.^.^.^.^.^.^.^.^.^.^.^.^.^.^.^.^.^.^.^.^.^.^.^.^.^.^.^.^.^.^.^.^.^.^.^.^.^.^.^.^.^.^.^.^.^.^.^.^.^.^.^.^.^.^.^.^.^.^.^.^.^.^.^.^.^.^.^.^.^.^.^.^.^.^.^.^.^.^.^.^.^.^.^.^.^.^.^.^.^.^.^.^.^.^.^.^.^.^.^.^.^.^.^.^.^.^.^.^.^.^.^.^.^.^.^.^.^.^.^.^.^.^.^.^.^.^.^.^.^.^.^.^.^.^.^.^.^.^.^.^.^.^.^.^.^.^.^.^.^.^.^.^.^.^.^.^.^.^.^.^.^.^.^.^.^.^.^.^.^.^.^.^.^.^.^.^.^.^.^.^.^.^.^.^.^.^.^.^.^.^.^.^.^.^.^.^.^.^.^.^.^.^.^.^.^.^.^.^.^.^.^.^.^.^.^.^.^.^.^.^.^.^.^.^.^.^.^.^.^.^.^.^.^.^.^.^.^.^.^.^.^.^.^.^.^.^.^.^.^.^.^.^.^.^.^.^.^.^.^.^.^.^.^.^.^.^.^.^.^.^.^.^.^.^.^.^.^.^.^.^.^.^.^.^.^.^.^.^.^.^.^.^.^.^.^.^.^.^.^.^.^.^.^.^.^.^.^.^.^.^.^.^.^.^.^.^.^.^.^.^.^.^.^.^.^.^.^.^.^.^.^.^.^.^.^.^.^.^.^.^.^.^.^.^.^.^.^.^.^.^.^.^.^.^.^.^.^.^.^.^.^.^.^.^.^.^.^.^.^.^.^.^.^.^.^.^.^.^.^.^.^.^.^.^.^.",
"^.^.^.^.^.^.^.^.^.^.^.^.^.^.^.^.^.^.^.^.^.^.^.^.^.^.^.^.^.^.^.^.^.^.^.^.^.^.^.^.^.^.^.^.^.^.^.^.^.^.^.^.^.^.^.^.^.^.^.^.^.^.^.^.^.^.^.^.^.^.^.^.^.^.^.^.^.^.^.^.^.^.^.^.^.^.^.^.^.^.^.^.^.^.^.^.^.^.^.^.^.^.^.^.^.^.^.^.^.^.^.^.^.^.^.^.^.^.^.^.^.^.^.^.^.^.^.^.^.^.^.^.^.^.^.^.^.^.^.^.^.^.^.^.^.^.^.^.^.^.^.^.^.^.^.^.^.^.^.^.^.^.^.^.^.^.^.^.^.^.^.^.^.^.^.^.^.^.^.^.^.^.^.^.^.^.^.^.^.^.^.^.^.^.^.^.^.^.^.^.^.^.^.^.^.^.^.^.^.^.^.^.^.^.^.^.^.^.^.^.^.^.^.^.^.^.^.^.^.^.^.^.^.^.^.^.^.^.^.^.^.^.^.^.^.^.^.^.^.^.^.^.^.^.^.^.^.^.^.^.^.^.^.^.^.^.^.^.^.^.^.^.^.^.^.^.^.^.^.^.^.^.^.^.^.^.^.^.^.^.^.^.^.^.^.^.^.^.^.^.^.^.^.^.^.^.^.^.^.^.^.^.^.^.^.^.^.^.^.^.^.^.^.^.^.^.^.^.^.^.^.^.^.^.^.^.^.^.^.^.^.^.^.^.^.^.^.^.^.^.^.^.^.^.^.^.^.^.^.^.^.^.^.^.^.^.^.^.^.^.^.^.^.^.^.^.^.^.^.^.^.^.^.^.^.^.^.^.^.^.^.^.^.^.^.^.^.^.^.^.^.^.^.^.^.^.^.^.^.^.^.^.^.^.^.^.^.^.^.^.^.^.^.^.^.^.^.^.^.^.^.^.^.^.^.^.^.^.^.^.^.^.^.^.^.^.^.^.^.^.^.^.^.^.^.^.^.^.^.^.^.^.^.^.^.^.^.^.^.^.^.^.^.^.^.^.^.^.^.^.^.^.^.^.^.^.^.^.^.^.^.^.^.^.^.^.^.^.^.^.^.^.^.^.^.^.^.^.^.^.^.^.^.^.^.^.^.^.^.^.^.^.^.^.^.^.^.^.^.^.^.^.^.^.^.^.^.^.^.^.^.^.^.^.^.^.^.^.^.^.^.^.^.^.^.^.^.^.^.^.^.^.^.^.^.^.^.^.^.^.^.^.^.^.^.^.^.^.^.^.^.^.^.^.^.^.^.^.^.^.^.^.^.^.^.^.^.^.^.^.^.^.^.^.^.^.^.^.^.^.^.^.^.^.^.^.^.^.^.^.^.^.^.^.^.^.^.^.^.^.^.^.^.^.",
"^.^.^.^.^.^.^.^.^.^.^.^.^.^.^.^.^.^.^.^.^.^.^.^.^.^.^.^.^.^.^.^.^.^.^.^.^.^.^.^.^.^.^.^.^.^.^.^.^.^.^.^.^.^.^.^.^.^.^.^.^.^.^.^.^.^.^.^.^.^.^.^.^.^.^.^.^.^.^.^.^.^.^.^.^.^.^.^.^.^.^.^.^.^.^.^.^.^.^.^.^.^.^.^.^.^.^.^.^.^.^.^.^.^.^.^.^.^.^.^.^.^.^.^.^.^.^.^.^.^.^.^.^.^.^.^.^.^.^.^.^.^.^.^.^.^.^.^.^.^.^.^.^.^.^.^.^.^.^.^.^.^.^.^.^.^.^.^.^.^.^.^.^.^.^.^.^.^.^.^.^.^.^.^.^.^.^.^.^.^.^.^.^.^.^.^.^.^.^.^.^.^.^.^.^.^.^.^.^.^.^.^.^.^.^.^.^.^.^.^.^.^.^.^.^.^.^.^.^.^.^.^.^.^.^.^.^.^.^.^.^.^.^.^.^.^.^.^.^.^.^.^.^.^.^.^.^.^.^.^.^.^.^.^.^.^.^.^.^.^.^.^.^.^.^.^.^.^.^.^.^.^.^.^.^.^.^.^.^.^.^.^.^.^.^.^.^.^.^.^.^.^.^.^.^.^.^.^.^.^.^.^.^.^.^.^.^.^.^.^.^.^.^.^.^.^.^.^.^.^.^.^.^.^.^.^.^.^.^.^.^.^.^.^.^.^.^.^.^.^.^.^.^.^.^.^.^.^.^.^.^.^.^.^.^.^.^.^.^.^.^.^.^.^.^.^.^.^.^.^.^.^.^.^.^.^.^.^.^.^.^.^.^.^.^.^.^.^.^.^.^.^.^.^.^.^.^.^.^.^.^.^.^.^.^.^.^.^.^.^.^.^.^.^.^.^.^.^.^.^.^.^.^.^.^.^.^.^.^.^.^.^.^.^.^.^.^.^.^.^.^.^.^.^.^.^.^.^.^.^.^.^.^.^.^.^.^.^.^.^.^.^.^.^.^.^.^.^.^.^.^.^.^.^.^.^.^.^.^.^.^.^.^.^.^.^.^.^.^.^.^.^.^.^.^.^.^.^.^.^.^.^.^.^.^.^.^.^.^.^.^.^.^.^.^.^.^.^.^.^.^.^.^.^.^.^.^.^.^.^.^.^.^.^.^.^.^.^.^.^.^.^.^.^.^.^.^.^.^.^.^.^.^.^.^.^.^.^.^.^.^.^.^.^.^.^.^.^.^.^.^.^.^.^.^.^.^.^.^.^.^.^.^.^.^.^.^.^.^.^.^.^.^.^.^.^.^.^.^.^.^.^.^.^.^.^.^.^.^.^.^.^.^.^.^.^.^.^.^.^.^.^.^.^.",
"^.^.^.^.^.^.^.^.^.^.^.^.^.^.^.^.^.^.^.^.^.^.^.^.^.^.^.^.^.^.^.^.^.^.^.^.^.^.^.^.^.^.^.^.^.^.^.^.^.^.^.^.^.^.^.^.^.^.^.^.^.^.^.^.^.^.^.^.^.^.^.^.^.^.^.^.^.^.^.^.^.^.^.^.^.^.^.^.^.^.^.^.^.^.^.^.^.^.^.^.^.^.^.^.^.^.^.^.^.^.^.^.^.^.^.^.^.^.^.^.^.^.^.^.^.^.^.^.^.^.^.^.^.^.^.^.^.^.^.^.^.^.^.^.^.^.^.^.^.^.^.^.^.^.^.^.^.^.^.^.^.^.^.^.^.^.^.^.^.^.^.^.^.^.^.^.^.^.^.^.^.^.^.^.^.^.^.^.^.^.^.^.^.^.^.^.^.^.^.^.^.^.^.^.^.^.^.^.^.^.^.^.^.^.^.^.^.^.^.^.^.^.^.^.^.^.^.^.^.^.^.^.^.^.^.^.^.^.^.^.^.^.^.^.^.^.^.^.^.^.^.^.^.^.^.^.^.^.^.^.^.^.^.^.^.^.^.^.^.^.^.^.^.^.^.^.^.^.^.^.^.^.^.^.^.^.^.^.^.^.^.^.^.^.^.^.^.^.^.^.^.^.^.^.^.^.^.^.^.^.^.^.^.^.^.^.^.^.^.^.^.^.^.^.^.^.^.^.^.^.^.^.^.^.^.^.^.^.^.^.^.^.^.^.^.^.^.^.^.^.^.^.^.^.^.^.^.^.^.^.^.^.^.^.^.^.^.^.^.^.^.^.^.^.^.^.^.^.^.^.^.^.^.^.^.^.^.^.^.^.^.^.^.^.^.^.^.^.^.^.^.^.^.^.^.^.^.^.^.^.^.^.^.^.^.^.^.^.^.^.^.^.^.^.^.^.^.^.^.^.^.^.^.^.^.^.^.^.^.^.^.^.^.^.^.^.^.^.^.^.^.^.^.^.^.^.^.^.^.^.^.^.^.^.^.^.^.^.^.^.^.^.^.^.^.^.^.^.^.^.^.^.^.^.^.^.^.^.^.^.^.^.^.^.^.^.^.^.^.^.^.^.^.^.^.^.^.^.^.^.^.^.^.^.^.^.^.^.^.^.^.^.^.^.^.^.^.^.^.^.^.^.^.^.^.^.^.^.^.^.^.^.^.^.^.^.^.^.^.^.^.^.^.^.^.^.^.^.^.^.^.^.^.^.^.^.^.^.^.^.^.^.^.^.^.^.^.^.^.^.^.^.^.^.^.^.^.^.^.^.^.^.^.^.^.^.^.^.^.^.^.^.^.^.^.^.^.^.^.^.^.^.^.^.^.^.^.^.^.^.^.^.^.^.^.^.^.^.^.^.^.^.^.^.",
"^.^.^.^.^.^.^.^.^.^.^.^.^.^.^.^.^.^.^.^.^.^.^.^.^.^.^.^.^.^.^.^.^.^.^.^.^.^.^.^.^.^.^.^.^.^.^.^.^.^.^.^.^.^.^.^.^.^.^.^.^.^.^.^.^.^.^.^.^.^.^.^.^.^.^.^.^.^.^.^.^.^.^.^.^.^.^.^.^.^.^.^.^.^.^.^.^.^.^.^.^.^.^.^.^.^.^.^.^.^.^.^.^.^.^.^.^.^.^.^.^.^.^.^.^.^.^.^.^.^.^.^.^.^.^.^.^.^.^.^.^.^.^.^.^.^.^.^.^.^.^.^.^.^.^.^.^.^.^.^.^.^.^.^.^.^.^.^.^.^.^.^.^.^.^.^.^.^.^.^.^.^.^.^.^.^.^.^.^.^.^.^.^.^.^.^.^.^.^.^.^.^.^.^.^.^.^.^.^.^.^.^.^.^.^.^.^.^.^.^.^.^.^.^.^.^.^.^.^.^.^.^.^.^.^.^.^.^.^.^.^.^.^.^.^.^.^.^.^.^.^.^.^.^.^.^.^.^.^.^.^.^.^.^.^.^.^.^.^.. . . . . ^.^.^.^.^.. . ^.^.^.^.^.^.^.^.^.^.^.^.^.^.^.^.^.^.^.^.^.^.^.^.^.^.^.^.^.^.^.^.^.^.^.^.^.^.^.^.^.^.^.^.^.^.^.^.^.^.^.^.^.^.^.^.^.^.^.^.^.^.^.^.^.^.^.^.^.^.^.^.^.^.^.^.^.^.^.^.^.^.^.^.^.^.^.^.^.^.^.^.^.^.^.^.^.^.^.^.^.^.^.^.^.^.^.^.^.^.^.^.^.^.^.^.^.^.^.^.^.^.^.^.^.^.^.^.^.^.^.^.^.^.^.^.^.^.^.^.^.^.^.^.^.^.^.^.^.^.^.^.^.^.^.^.^.^.^.^.^.^.^.^.^.^.^.^.^.^.^.^.^.^.^.^.^.^.^.^.^.^.^.^.^.^.^.^.^.^.^.^.^.^.^.^.^.^.^.^.^.^.^.^.^.^.^.^.^.^.^.^.^.^.^.^.^.^.^.^.^.^.^.^.^.^.^.^.^.^.^.^.^.^.^.^.^.^.^.^.^.^.^.^.^.^.^.^.^.^.^.^.^.^.^.^.^.^.^.^.^.^.^.^.^.^.^.^.^.^.^.^.^.^.^.^.^.^.^.^.^.^.^.^.^.^.^.^.^.^.^.^.^.^.^.^.^.^.^.^.^.^.^.^.^.^.^.^.^.^.^.^.^.^.^.^.^.^.^.^.^.^.^.^.^.^.^.^.^.^.^.^.^.^.^.^.^.^.^.^.^.^.^.^.^.^.^.^.^.^.^.^.^.",
"^.^.^.^.^.^.^.^.^.^.^.^.^.^.^.^.^.^.^.^.^.^.^.^.^.^.^.^.^.^.^.^.^.^.^.^.^.^.^.^.^.^.^.^.^.^.^.^.^.^.^.^.^.^.^.^.^.^.^.^.^.^.^.^.^.^.^.^.^.^.^.^.^.^.^.^.^.^.^.^.^.^.^.^.^.^.^.^.^.^.^.^.^.^.^.^.^.^.^.^.^.^.^.^.^.^.^.^.^.^.^.^.^.^.^.^.^.^.^.^.^.^.^.^.^.^.^.^.^.^.^.^.^.^.^.^.^.^.^.^.^.^.^.^.^.^.^.^.^.^.^.^.^.^.^.^.^.^.^.^.^.^.^.^.^.^.^.^.^.^.^.^.^.^.^.^.^.^.^.^.^.^.^.^.^.^.^.^.^.^.^.^.^.^.^.^.^.^.^.^.^.^.^.^.^.^.^.^.^.^.^.^.^.^.^.^.^.^.^.^.^.^.^.^.^.^.^.^.^.^.^.^.^.^.^.^.^.^.^.^.^.^.^.^.^.^.^.^.^.^.^.^.^.^.^.^.^.^.^.^.^.^.^.^.^.^.^.^.. o o o o . . . . o . o o . . ^.^.^.^.^.^.^.^.^.^.^.^.^.^.^.^.^.^.^.^.^.^.^.^.^.^.^.^.^.^.^.^.^.^.^.^.^.^.^.^.^.^.^.^.^.^.^.^.^.^.^.^.^.^.^.^.^.^.^.^.^.^.^.^.^.^.^.^.^.^.^.^.^.^.^.^.^.^.^.^.^.^.^.^.^.^.^.^.^.^.^.^.^.^.^.^.^.^.^.^.^.^.^.^.^.^.^.^.^.^.^.^.^.^.^.^.^.^.^.^.^.^.^.^.^.^.^.^.^.^.^.^.^.^.^.^.^.^.^.^.^.^.^.^.^.^.^.^.^.^.^.^.^.^.^.^.^.^.^.^.^.^.^.^.^.^.^.^.^.^.^.^.^.^.^.^.^.^.^.^.^.^.^.^.^.^.^.^.^.^.^.^.^.^.^.^.^.^.^.^.^.^.^.^.^.^.^.^.^.^.^.^.^.^.^.^.^.^.^.^.^.^.^.^.^.^.^.^.^.^.^.^.^.^.^.^.^.^.^.^.^.^.^.^.^.^.^.^.^.^.^.^.^.^.^.^.^.^.^.^.^.^.^.^.^.^.^.^.^.^.^.^.^.^.^.^.^.^.^.^.^.^.^.^.^.^.^.^.^.^.^.^.^.^.^.^.^.^.^.^.^.^.^.^.^.^.^.^.^.^.^.^.^.^.^.^.^.^.^.^.^.^.^.^.^.^.^.^.^.^.^.^.^.^.^.^.^.^.^.^.^.^.^.^.^.^.^.^.^.^.^.",
"^.^.^.^.^.^.^.^.^.^.^.^.^.^.^.^.^.^.^.^.^.^.^.^.^.^.^.^.^.^.^.^.^.^.^.^.^.^.^.^.^.^.^.^.^.^.^.^.^.^.^.^.^.^.^.^.^.^.^.^.^.^.^.^.^.^.^.^.^.^.^.^.^.^.^.^.^.^.^.^.^.^.^.^.^.^.^.^.^.^.^.^.^.^.^.^.^.^.^.^.^.^.^.^.^.^.^.^.^.^.^.^.^.^.^.^.^.^.^.^.^.^.^.^.^.^.^.^.^.^.^.^.^.^.^.^.^.^.^.^.^.^.^.^.^.^.^.^.^.^.^.^.^.^.^.^.^.^.^.^.^.^.^.^.^.^.^.^.^.^.^.^.^.^.^.^.^.^.^.^.^.^.^.^.^.^.^.^.^.^.^.^.^.^.^.^.^.^.^.^.^.^.^.^.^.^.^.^.^.^.^.^.^.^.^.^.^.^.^.^.^.^.^.^.^.^.^.^.^.^.^.^.^.^.^.^.^.^.^.^.^.^.^.^.^.^.^.^.^.^.^.^.^.^.^.^.^.^.^.^.^.^.^.^.^.^.. o o o o o o o o o o o o o o o o . ^.^.^.^.^.^.^.^.^.^.^.^.^.^.^.^.^.^.^.^.^.^.^.^.^.^.^.^.^.^.^.^.^.^.^.^.^.^.^.^.^.^.^.^.^.^.^.^.^.^.^.^.^.^.^.^.^.^.^.^.^.^.^.^.^.^.^.^.^.^.^.^.^.^.^.^.^.^.^.^.^.^.^.^.^.^.^.^.^.^.^.^.^.^.^.^.^.^.^.^.^.^.^.^.^.^.^.^.^.^.^.^.^.^.^.^.^.^.^.^.^.^.^.^.^.^.^.^.^.^.^.^.^.^.^.^.^.^.^.^.^.^.^.^.^.^.^.^.^.^.^.^.^.^.^.^.^.^.^.^.^.^.^.^.^.^.^.^.^.^.^.^.^.^.^.^.^.^.^.^.^.^.^.^.^.^.^.^.^.^.^.^.^.^.^.^.^.^.^.^.^.^.^.^.^.^.^.^.^.^.^.^.^.^.^.^.^.^.^.^.^.^.^.^.^.^.^.^.^.^.^.^.^.^.^.^.^.^.^.^.^.^.^.^.^.^.^.^.^.^.^.^.^.^.^.^.^.^.^.^.^.^.^.^.^.^.^.^.^.^.^.^.^.^.^.^.^.^.^.^.^.^.^.^.^.^.^.^.^.^.^.^.^.^.^.^.^.^.^.^.^.^.^.^.^.^.^.^.^.^.^.^.^.^.^.^.^.^.^.^.^.^.^.^.^.^.^.^.^.^.^.^.^.^.^.^.^.^.^.^.^.^.^.^.^.^.^.^.^.^.",
"^.^.^.^.^.^.^.^.^.^.^.^.^.^.^.^.^.^.^.^.^.^.^.^.^.^.^.^.^.^.^.^.^.^.^.^.^.^.^.^.^.^.^.^.^.^.^.^.^.^.^.^.^.^.^.^.^.^.^.^.^.^.^.^.^.^.^.^.^.^.^.^.^.^.^.^.^.^.^.^.^.^.^.^.^.^.^.^.^.^.^.^.^.^.^.^.^.^.^.^.^.^.^.^.^.^.^.^.^.^.^.^.^.^.^.^.^.^.^.^.^.^.^.^.^.^.^.^.^.^.^.^.^.^.^.^.^.^.^.^.^.^.^.^.^.^.^.^.^.^.^.^.^.^.^.^.^.^.^.^.^.^.^.^.^.^.^.^.^.^.^.^.^.^.^.^.^.^.^.^.^.^.^.^.^.^.^.^.^.^.^.^.^.^.^.^.^.^.^.^.^.^.^.^.^.^.^.^.^.^.^.^.^.^.^.^.^.^.^.^.^.^.^.^.^.^.^.^.^.^.^.^.^.^.^.^.^.^.^.^.^.^.^.^.^.^.^.^.^.^.^.^.^.. ^.. . . ^.. . ^.^.^.. . . o o o + @ @ o o o @ @ @ @ o o o o o ^.^.^.^.^.^.^.^.^.^.^.^.^.^.^.^.^.^.^.^.^.^.^.^.^.^.^.^.^.^.^.^.^.^.^.^.^.^.^.^.^.^.^.^.^.^.^.^.^.^.^.^.^.^.^.^.^.^.^.^.^.^.^.^.^.^.^.^.^.^.^.^.^.^.^.^.^.^.^.^.^.^.^.^.^.^.^.^.^.^.^.^.^.^.^.^.^.^.^.^.^.^.^.^.^.^.^.^.^.^.^.^.^.^.^.^.^.^.^.^.^.^.^.^.^.^.^.^.^.^.^.^.^.^.^.^.^.^.^.^.^.^.^.^.^.^.^.^.^.^.^.^.^.^.^.^.^.^.^.^.^.^.^.^.^.^.^.^.^.^.^.^.^.^.^.^.^.^.^.^.^.^.^.^.^.^.^.^.^.^.^.^.^.^.^.^.^.^.^.^.^.^.^.^.^.^.^.^.^.^.^.^.^.^.^.^.^.^.^.^.^.^.^.^.^.^.^.^.^.^.^.^.^.^.^.^.^.^.^.^.^.^.^.^.^.^.^.^.^.^.^.^.^.^.^.^.^.^.^.^.^.^.^.^.^.^.^.^.^.^.^.^.^.^.^.^.^.^.^.^.^.^.^.^.^.^.^.^.^.^.^.^.^.^.^.^.^.^.^.^.^.^.^.^.^.^.^.^.^.^.^.^.^.^.^.^.^.^.^.^.^.^.^.^.^.^.^.^.^.^.^.^.^.^.^.^.^.^.^.^.^.^.^.^.^.^.^.^.^.",
"^.^.^.^.^.^.^.^.^.^.^.^.^.^.^.^.^.^.^.^.^.^.^.^.^.^.^.^.^.^.^.^.^.^.^.^.^.^.^.^.^.^.^.^.^.^.^.^.^.^.^.^.^.^.^.^.^.^.^.^.^.^.^.^.^.^.^.^.^.^.^.^.^.^.^.^.^.^.^.^.^.^.^.^.^.^.^.^.^.^.^.^.^.^.^.^.^.^.^.^.^.^.^.^.^.^.^.^.^.^.^.^.^.^.^.^.^.^.^.^.^.^.^.^.^.^.^.^.^.^.^.^.^.^.^.^.^.^.^.^.^.^.^.^.^.^.^.^.^.^.^.^.^.^.^.^.^.^.^.^.^.^.^.^.^.^.^.^.^.^.^.^.^.^.^.^.^.^.^.^.^.^.^.^.^.^.^.^.^.^.^.^.^.^.^.^.^.^.^.^.^.^.^.^.^.^.^.^.^.^.^.^.^.^.^.^.^.^.^.^.^.^.^.^.^.^.^.^.^.^.^.^.^.^.^.^.^.^.^.^.^.^.^.^.^.^.^.^.^.^.. . . . . o o . ^.. ^.. . . . o o o @ + + # # # + + + # + + + + @ o o . ^.^.^.^.^.^.^.^.^.^.^.^.^.^.^.^.^.^.^.^.^.^.^.^.^.^.^.^.^.^.^.^.^.^.^.^.^.^.^.^.^.^.^.^.^.^.^.^.^.^.^.^.^.^.^.^.^.^.^.^.^.^.^.^.^.^.^.^.^.^.^.^.^.^.^.^.^.^.^.^.^.^.^.^.^.^.^.^.^.^.^.^.^.^.^.^.^.^.^.^.^.^.^.^.^.^.^.^.^.^.^.^.^.^.^.^.^.^.^.^.^.^.^.^.^.^.^.^.^.^.^.^.^.^.^.^.^.^.^.^.^.^.^.^.^.^.^.^.^.^.^.^.^.^.^.^.^.^.^.^.^.^.^.^.^.^.^.^.^.^.^.^.^.^.^.^.^.^.^.^.^.^.^.^.^.^.^.^.^.^.^.^.^.^.^.^.^.^.^.^.^.^.^.^.^.^.^.^.^.^.^.^.^.^.^.^.^.^.^.^.^.^.^.^.^.^.^.^.^.^.^.^.^.^.^.^.^.^.^.^.^.^.^.^.^.^.^.^.^.^.^.^.^.^.^.^.^.^.^.^.^.^.^.^.^.^.^.^.^.^.^.^.^.^.^.^.^.^.^.^.^.^.^.^.^.^.^.^.^.^.^.^.^.^.^.^.^.^.^.^.^.^.^.^.^.^.^.^.^.^.^.^.^.^.^.^.^.^.^.^.^.^.^.^.^.^.^.^.^.^.^.^.^.^.^.^.^.^.^.^.^.^.^.^.^.^.^.^.",
"^.^.^.^.^.^.^.^.^.^.^.^.^.^.^.^.^.^.^.^.^.^.^.^.^.^.^.^.^.^.^.^.^.^.^.^.^.^.^.^.^.^.^.^.^.^.^.^.^.^.^.^.^.^.^.^.^.^.^.^.^.^.^.^.^.^.^.^.^.^.^.^.^.^.^.^.^.^.^.^.^.^.^.^.^.^.^.^.^.^.^.^.^.^.^.^.^.^.^.^.^.^.^.^.^.^.^.^.^.^.^.^.^.^.^.^.^.^.^.^.^.^.^.^.^.^.^.^.^.^.^.^.^.^.^.^.^.^.^.^.^.^.^.^.^.^.^.^.^.^.^.^.^.^.^.^.^.^.^.^.^.^.^.^.^.^.^.^.^.^.^.^.^.^.^.^.^.^.^.^.^.^.^.^.^.^.^.^.^.^.^.^.^.^.^.^.^.^.^.^.^.^.^.^.^.^.^.^.^.^.^.^.^.^.^.^.^.^.^.^.^.^.^.^.^.^.^.^.^.^.^.^.^.^.^.^.^.^.^.^.^.^.^.^.^.^.^.^.. . o . . o o . . o o o . . o o o o o o + # $ $ % % $ $ $ % % $ $ $ # # + o o . ^.^.^.^.^.^.^.^.^.^.^.^.^.^.^.^.^.^.^.^.^.^.^.^.^.^.^.^.^.^.^.^.^.^.^.^.^.^.^.^.^.^.^.^.^.^.^.^.^.^.^.^.^.^.^.^.^.^.^.^.^.^.^.^.^.^.^.^.^.^.^.^.^.^.^.^.^.^.^.^.^.^.^.^.^.^.^.^.^.^.^.^.^.^.^.^.^.^.^.^.^.^.^.^.^.^.^.^.^.^.^.^.^.^.^.^.^.^.^.^.^.^.^.^.^.^.^.^.^.^.^.^.^.^.^.^.^.^.^.^.^.^.^.^.^.^.^.^.^.^.^.^.^.^.^.^.^.^.^.^.^.^.^.^.^.^.^.^.^.^.^.^.^.^.^.^.^.^.^.^.^.^.^.^.^.^.^.^.^.^.^.^.^.^.^.^.^.^.^.^.^.^.^.^.^.^.^.^.^.^.^.^.^.^.^.^.^.^.^.^.^.^.^.^.^.^.^.^.^.^.^.^.^.^.^.^.^.^.^.^.^.^.^.^.^.^.^.^.^.^.^.^.^.^.^.^.^.^.^.^.^.^.^.^.^.^.^.^.^.^.^.^.^.^.^.^.^.^.^.^.^.^.^.^.^.^.^.^.^.^.^.^.^.^.^.^.^.^.^.^.^.^.^.^.^.^.^.^.^.^.^.^.^.^.^.^.^.^.^.^.^.^.^.^.^.^.^.^.^.^.^.^.^.^.^.^.^.^.^.^.^.^.^.^.^.^.",
"^.^.^.^.^.^.^.^.^.^.^.^.^.^.^.^.^.^.^.^.^.^.^.^.^.^.^.^.^.^.^.^.^.^.^.^.^.^.^.^.^.^.^.^.^.^.^.^.^.^.^.^.^.^.^.^.^.^.^.^.^.^.^.^.^.^.^.^.^.^.^.^.^.^.^.^.^.^.^.^.^.^.^.^.^.^.^.^.^.^.^.^.^.^.^.^.^.^.^.^.^.^.^.^.^.^.^.^.^.^.^.^.^.^.^.^.^.^.^.^.^.^.^.^.^.^.^.^.^.^.^.^.^.^.^.^.^.^.^.^.^.^.^.^.^.^.^.^.^.^.^.^.^.^.^.^.^.^.^.^.^.^.^.^.^.^.^.^.^.^.^.^.^.^.^.^.^.^.^.^.^.^.^.^.^.^.^.^.^.^.^.^.^.^.^.^.^.^.^.^.^.^.^.^.^.^.^.^.^.^.^.^.^.^.^.^.^.^.^.^.^.^.^.^.^.^.^.^.^.^.^.^.^.^.^.^.^.^.^.^.^.^.^.^.^.^.^.^.. o o o o o . o . . o o o o o o o o @ @ + $ % % * % % % % % % % % % $ % $ + @ o . ^.^.^.^.^.^.^.^.^.^.^.^.^.^.^.^.^.^.^.^.^.^.^.^.^.^.^.^.^.^.^.^.^.^.^.^.^.^.^.^.^.^.^.^.^.^.^.^.^.^.^.^.^.^.^.^.^.^.^.^.^.^.^.^.^.^.^.^.^.^.^.^.^.^.^.^.^.^.^.^.^.^.^.^.^.^.^.^.^.^.^.^.^.^.^.^.^.^.^.^.^.^.^.^.^.^.^.^.^.^.^.^.^.^.^.^.^.^.^.^.^.^.^.^.^.^.^.^.^.^.^.^.^.^.^.^.^.^.^.^.^.^.^.^.^.^.^.^.^.^.^.^.^.^.^.^.^.^.^.^.^.^.^.^.^.^.^.^.^.^.^.^.^.^.^.^.^.^.^.^.^.^.^.^.^.^.^.^.^.^.^.^.^.^.^.^.^.^.^.^.^.^.^.^.^.^.^.^.^.^.^.^.^.^.^.^.^.^.^.^.^.^.^.^.^.^.^.^.^.^.^.^.^.^.^.^.^.^.^.^.^.^.^.^.^.^.^.^.^.^.^.^.^.^.^.^.^.^.^.^.^.^.^.^.^.^.^.^.^.^.^.^.^.^.^.^.^.^.^.^.^.^.^.^.^.^.^.^.^.^.^.^.^.^.^.^.^.^.^.^.^.^.^.^.^.^.^.^.^.^.^.^.^.^.^.^.^.^.^.^.^.^.^.^.^.^.^.^.^.^.^.^.^.^.^.^.^.^.^.^.^.^.^.^.^.",
"^.^.^.^.^.^.^.^.^.^.^.^.^.^.^.^.^.^.^.^.^.^.^.^.^.^.^.^.^.^.^.^.^.^.^.^.^.^.^.^.^.^.^.^.^.^.^.^.^.^.^.^.^.^.^.^.^.^.^.^.^.^.^.^.^.^.^.^.^.^.^.^.^.^.^.^.^.^.^.^.^.^.^.^.^.^.^.^.^.^.^.^.^.^.^.^.^.^.^.^.^.^.^.^.^.^.^.^.^.^.^.^.^.^.^.^.^.^.^.^.^.^.^.^.^.^.^.^.^.^.^.^.^.^.^.^.^.^.^.^.^.^.^.^.^.^.^.^.^.^.^.^.^.^.^.^.^.^.^.^.^.^.^.^.^.^.^.^.^.^.^.^.^.^.^.^.^.^.^.^.^.^.^.^.^.^.^.^.^.^.^.^.^.^.^.^.^.^.^.^.^.^.^.^.^.^.^.^.^.^.^.^.^.^.^.^.^.^.^.^.^.^.^.^.^.^.^.^.^.^.^.^.^.^.^.^.^.^.^.^.^.^.^.^.^.^.^.^.o o o o o o o o o o o @ + @ @ + + + + $ $ % * * * * * * * * * * * * % % % % $ @ o ^.^.^.^.^.^.^.^.^.^.^.^.^.^.^.^.^.^.^.^.^.^.^.^.^.^.^.^.^.^.^.^.^.^.^.^.^.^.^.^.^.^.^.^.^.^.^.^.^.^.^.^.^.^.^.^.^.^.^.^.^.^.^.^.^.^.^.^.^.^.^.^.^.^.^.^.^.^.^.^.^.^.^.^.^.^.^.^.^.^.^.^.^.^.^.^.^.^.^.^.^.^.^.^.^.^.^.^.^.^.^.^.^.^.^.^.^.^.^.^.^.^.^.^.^.^.^.^.^.^.^.^.^.^.^.^.^.^.^.^.^.^.^.^.^.^.^.^.^.^.^.^.^.^.^.^.^.^.^.^.^.^.^.^.^.^.^.^.^.^.^.^.^.^.^.^.^.^.^.^.^.^.^.^.^.^.^.^.^.^.^.^.^.^.^.^.^.^.^.^.^.^.^.^.^.^.^.^.^.^.^.^.^.^.^.^.^.^.^.^.^.^.^.^.^.^.^.^.^.^.^.^.^.^.^.^.^.^.^.^.^.^.^.^.^.^.^.^.^.^.^.^.^.^.^.^.^.^.^.^.^.^.^.^.^.^.^.^.^.^.^.^.^.^.^.^.^.^.^.^.^.^.^.^.^.^.^.^.^.^.^.^.^.^.^.^.^.^.^.^.^.^.^.^.^.^.^.^.^.^.^.^.^.^.^.^.^.^.^.^.^.^.^.^.^.^.^.^.^.^.^.^.^.^.^.^.^.^.^.^.^.^.^.^.^.",
"^.^.^.^.^.^.^.^.^.^.^.^.^.^.^.^.^.^.^.^.^.^.^.^.^.^.^.^.^.^.^.^.^.^.^.^.^.^.^.^.^.^.^.^.^.^.^.^.^.^.^.^.^.^.^.^.^.^.^.^.^.^.^.^.^.^.^.^.^.^.^.^.^.^.^.^.^.^.^.^.^.^.^.^.^.^.^.^.^.^.^.^.^.^.^.^.^.^.^.^.^.^.^.^.^.^.^.^.^.^.^.^.^.^.^.^.^.^.^.^.^.^.^.^.^.^.^.^.^.^.^.^.^.^.^.^.^.^.^.^.^.^.^.^.^.^.^.^.^.^.^.^.^.^.^.^.^.^.^.^.^.^.^.^.^.^.^.^.^.^.^.^.^.^.^.^.^.^.^.^.^.^.^.^.^.^.^.^.^.^.^.^.^.^.^.^.^.^.^.^.^.^.^.^.^.^.^.^.^.^.^.^.^.^.^.^.^.^.^.^.^.^.^.^.^.^.^.^.^.^.^.^.^.^.^.^.^.^.^.^.^.^.^.^.^.^.^.o o o o o o # # o o @ # $ $ # $ # # $ % % % * * * * > > > * * * * * * * * * * % # o o . ^.^.^.^.^.^.^.^.^.^.^.^.^.^.^.^.^.^.^.^.^.^.^.^.^.^.^.^.^.^.^.^.^.^.^.^.^.^.^.^.^.^.^.^.^.^.^.^.^.^.^.^.^.^.^.^.^.^.^.^.^.^.^.^.^.^.^.^.^.^.^.^.^.^.^.^.^.^.^.^.^.^.^.^.^.^.^.^.^.^.^.^.^.^.^.^.^.^.^.^.^.^.^.^.^.^.^.^.^.^.^.^.^.^.^.^.^.^.^.^.^.^.^.^.^.^.^.^.^.^.^.^.^.^.^.^.^.^.^.^.^.^.^.^.^.^.^.^.^.^.^.^.^.^.^.^.^.^.^.^.^.^.^.^.^.^.^.^.^.^.^.^.^.^.^.^.^.^.^.^.^.^.^.^.^.^.^.^.^.^.^.^.^.^.^.^.^.^.^.^.^.^.^.^.^.^.^.^.^.^.^.^.^.^.^.^.^.^.^.^.^.^.^.^.^.^.^.^.^.^.^.^.^.^.^.^.^.^.^.^.^.^.^.^.^.^.^.^.^.^.^.^.^.^.^.^.^.^.^.^.^.^.^.^.^.^.^.^.^.^.^.^.^.^.^.^.^.^.^.^.^.^.^.^.^.^.^.^.^.^.^.^.^.^.^.^.^.^.^.^.^.^.^.^.^.^.^.^.^.^.^.^.^.^.^.^.^.^.^.^.^.^.^.^.^.^.^.^.^.^.^.^.^.^.^.^.^.^.^.^.^.^.^.",
"^.^.^.^.^.^.^.^.^.^.^.^.^.^.^.^.^.^.^.^.^.^.^.^.^.^.^.^.^.^.^.^.^.^.^.^.^.^.^.^.^.^.^.^.^.^.^.^.^.^.^.^.^.^.^.^.^.^.^.^.^.^.^.^.^.^.^.^.^.^.^.^.^.^.^.^.^.^.^.^.^.^.^.^.^.^.^.^.^.^.^.^.^.^.^.^.^.^.^.^.^.^.^.^.^.^.^.^.^.^.^.^.^.^.^.^.^.^.^.^.^.^.^.^.^.^.^.^.^.^.^.^.^.^.^.^.^.^.^.^.^.^.^.^.^.^.^.^.^.^.^.^.^.^.^.^.^.^.^.^.^.^.^.^.^.^.^.^.^.^.^.^.^.^.^.^.^.^.^.^.^.^.^.^.^.^.^.^.^.^.^.^.^.^.^.^.^.^.^.^.^.^.^.^.^.^.^.^.^.^.^.^.^.^.^.^.^.^.^.^.^.^.^.^.^.^.^.^.^.^.^.^.^.^.^.^.^.^.^.^.^.^.^.^.^.^.. o o o o o o # + + @ # $ % % % % % % % * * * * > > > > > > > > > > > * * * * * * $ @ o . ^.^.^.^.^.^.^.^.^.^.^.^.^.^.^.^.^.^.^.^.^.^.^.^.^.^.^.^.^.^.^.^.^.^.^.^.^.^.^.^.^.^.^.^.^.^.^.^.^.^.^.^.^.^.^.^.^.^.^.^.^.^.^.^.^.^.^.^.^.^.^.^.^.^.^.^.^.^.^.^.^.^.^.^.^.^.^.^.^.^.^.^.^.^.^.^.^.^.^.^.^.^.^.^.^.^.^.^.^.^.^.^.^.^.^.^.^.^.^.^.^.^.^.^.^.^.^.^.^.^.^.^.^.^.^.^.^.^.^.^.^.^.^.^.^.^.^.^.^.^.^.^.^.^.^.^.^.^.^.^.^.^.^.^.^.^.^.^.^.^.^.^.^.^.^.^.^.^.^.^.^.^.^.^.^.^.^.^.^.^.^.^.^.^.^.^.^.^.^.^.^.^.^.^.^.^.^.^.^.^.^.^.^.^.^.^.^.^.^.^.^.^.^.^.^.^.^.^.^.^.^.^.^.^.^.^.^.^.^.^.^.^.^.^.^.^.^.^.^.^.^.^.^.^.^.^.^.^.^.^.^.^.^.^.^.^.^.^.^.^.^.^.^.^.^.^.^.^.^.^.^.^.^.^.^.^.^.^.^.^.^.^.^.^.^.^.^.^.^.^.^.^.^.^.^.^.^.^.^.^.^.^.^.^.^.^.^.^.^.^.^.^.^.^.^.^.^.^.^.^.^.^.^.^.^.^.^.^.^.^.^.^.^.",
"^.^.^.^.^.^.^.^.^.^.^.^.^.^.^.^.^.^.^.^.^.^.^.^.^.^.^.^.^.^.^.^.^.^.^.^.^.^.^.^.^.^.^.^.^.^.^.^.^.^.^.^.^.^.^.^.^.^.^.^.^.^.^.^.^.^.^.^.^.^.^.^.^.^.^.^.^.^.^.^.^.^.^.^.^.^.^.^.^.^.^.^.^.^.^.^.^.^.^.^.^.^.^.^.^.^.^.^.^.^.^.^.^.^.^.^.^.^.^.^.^.^.^.^.^.^.^.^.^.^.^.^.^.^.^.^.^.^.^.^.^.^.^.^.^.^.^.^.^.^.^.^.^.^.^.^.^.^.^.^.^.^.^.^.^.^.^.^.^.^.^.^.^.^.^.^.^.^.^.^.^.^.^.^.^.^.^.^.^.^.^.^.^.^.^.^.^.^.^.^.^.^.^.^.^.^.^.^.^.^.^.^.^.^.^.^.^.^.^.^.^.^.^.^.^.^.^.^.^.^.^.. o . . ^.^.^.. . . o . . . o o o o o o @ @ + # % $ % % % * * * * * * * * > > 1 1 1 1 1 1 1 > 1 > > > * * * * * % + o . ^.^.^.^.^.^.^.^.^.^.^.^.^.^.^.^.^.^.^.^.^.^.^.^.^.^.^.^.^.^.^.^.^.^.^.^.^.^.^.^.^.^.^.^.^.^.^.^.^.^.^.^.^.^.^.^.^.^.^.^.^.^.^.^.^.^.^.^.^.^.^.^.^.^.^.^.^.^.^.^.^.^.^.^.^.^.^.^.^.^.^.^.^.^.^.^.^.^.^.^.^.^.^.^.^.^.^.^.^.^.^.^.^.^.^.^.^.^.^.^.^.^.^.^.^.^.^.^.^.^.^.^.^.^.^.^.^.^.^.^.^.^.^.^.^.^.^.^.^.^.^.^.^.^.^.^.^.^.^.^.^.^.^.^.^.^.^.^.^.^.^.^.^.^.^.^.^.^.^.^.^.^.^.^.^.^.^.^.^.^.^.^.^.^.^.^.^.^.^.^.^.^.^.^.^.^.^.^.^.^.^.^.^.^.^.^.^.^.^.^.^.^.^.^.^.^.^.^.^.^.^.^.^.^.^.^.^.^.^.^.^.^.^.^.^.^.^.^.^.^.^.^.^.^.^.^.^.^.^.^.^.^.^.^.^.^.^.^.^.^.^.^.^.^.^.^.^.^.^.^.^.^.^.^.^.^.^.^.^.^.^.^.^.^.^.^.^.^.^.^.^.^.^.^.^.^.^.^.^.^.^.^.^.^.^.^.^.^.^.^.^.^.^.^.^.^.^.^.^.^.^.^.^.^.^.^.^.^.^.^.^.^.^.",
"^.^.^.^.^.^.^.^.^.^.^.^.^.^.^.^.^.^.^.^.^.^.^.^.^.^.^.^.^.^.^.^.^.^.^.^.^.^.^.^.^.^.^.^.^.^.^.^.^.^.^.^.^.^.^.^.^.^.^.^.^.^.^.^.^.^.^.^.^.^.^.^.^.^.^.^.^.^.^.^.^.^.^.^.^.^.^.^.^.^.^.^.^.^.^.^.^.^.^.^.^.^.^.^.^.^.^.^.^.^.^.^.^.^.^.^.^.^.^.^.^.^.^.^.^.^.^.^.^.^.^.^.^.^.^.^.^.^.^.^.^.^.^.^.^.^.^.^.^.^.^.^.^.^.^.^.^.^.^.^.^.^.^.^.^.^.^.^.^.^.^.^.^.^.^.^.^.^.^.^.^.^.^.^.^.^.^.^.^.^.^.^.^.^.^.^.^.^.^.^.^.^.^.^.^.^.^.^.^.^.^.^.^.^.^.^.^.^.^.^.^.^.^.^.^.^.^.^.. ^.^.o o o o o o o o o o @ o o o o @ @ o + + # $ $ % % % * * * * * * * * * > > 1 1 4 4 4 4 4 1 1 1 1 1 > > > > > * * % # @ o ^.^.^.^.^.^.^.^.^.^.^.^.^.^.^.^.^.^.^.^.^.^.^.^.^.^.^.^.^.^.^.^.^.^.^.^.^.^.^.^.^.^.^.^.^.^.^.^.^.^.^.^.^.^.^.^.^.^.^.^.^.^.^.^.^.^.^.^.^.^.^.^.^.^.^.^.^.^.^.^.^.^.^.^.^.^.^.^.^.^.^.^.^.^.^.^.^.^.^.^.^.^.^.^.^.^.^.^.^.^.^.^.^.^.^.^.^.^.^.^.^.^.^.^.^.^.^.^.^.^.^.^.^.^.^.^.^.^.^.^.^.^.^.^.^.^.^.^.^.^.^.^.^.^.^.^.^.^.^.^.^.^.^.^.^.^.^.^.^.^.^.^.^.^.^.^.^.^.^.^.^.^.^.^.^.^.^.^.^.^.^.^.^.^.^.^.^.^.^.^.^.^.^.^.^.^.^.^.^.^.^.^.^.^.^.^.^.^.^.^.^.^.^.^.^.^.^.^.^.^.^.^.^.^.^.^.^.^.^.^.^.^.^.^.^.^.^.^.^.^.^.^.^.^.^.^.^.^.^.^.^.^.^.^.^.^.^.^.^.^.^.^.^.^.^.^.^.^.^.^.^.^.^.^.^.^.^.^.^.^.^.^.^.^.^.^.^.^.^.^.^.^.^.^.^.^.^.^.^.^.^.^.^.^.^.^.^.^.^.^.^.^.^.^.^.^.^.^.^.^.^.^.^.^.^.^.^.^.^.^.^.^.^.",
"^.^.^.^.^.^.^.^.^.^.^.^.^.^.^.^.^.^.^.^.^.^.^.^.^.^.^.^.^.^.^.^.^.^.^.^.^.^.^.^.^.^.^.^.^.^.^.^.^.^.^.^.^.^.^.^.^.^.^.^.^.^.^.^.^.^.^.^.^.^.^.^.^.^.^.^.^.^.^.^.^.^.^.^.^.^.^.^.^.^.^.^.^.^.^.^.^.^.^.^.^.^.^.^.^.^.^.^.^.^.^.^.^.^.^.^.^.^.^.^.^.^.^.^.^.^.^.^.^.^.^.^.^.^.^.^.^.^.^.^.^.^.^.^.^.^.^.^.^.^.^.^.^.^.^.^.^.^.^.^.^.^.^.^.^.^.^.^.^.^.^.^.^.^.^.^.^.^.^.^.^.^.^.^.^.^.^.^.^.^.^.^.^.^.^.^.^.^.^.^.^.^.^.^.^.^.^.^.^.^.^.^.^.^.^.^.^.^.^.^.^.^.. . . . . . . . . o @ @ o @ o o o @ + + @ o @ + + + + + $ % % % % * * * * * * > > > > > > 1 1 4 4 4 6 4 4 4 4 1 1 1 1 1 > > > * * % $ @ o . ^.^.^.^.^.^.^.^.^.^.^.^.^.^.^.^.^.^.^.^.^.^.^.^.^.^.^.^.^.^.^.^.^.^.^.^.^.^.^.^.^.^.^.^.^.^.^.^.^.^.^.^.^.^.^.^.^.^.^.^.^.^.^.^.^.^.^.^.^.^.^.^.^.^.^.^.^.^.^.^.^.^.^.^.^.^.^.^.^.^.^.^.^.^.^.^.^.^.^.^.^.^.^.^.^.^.^.^.^.^.^.^.^.^.^.^.^.^.^.^.^.^.^.^.^.^.^.^.^.^.^.^.^.^.^.^.^.^.^.^.^.^.^.^.^.^.^.^.^.^.^.^.^.^.^.^.^.^.^.^.^.^.^.^.^.^.^.^.^.^.^.^.^.^.^.^.^.^.^.^.^.^.^.^.^.^.^.^.^.^.^.^.^.^.^.^.^.^.^.^.^.^.^.^.^.^.^.^.^.^.^.^.^.^.^.^.^.^.^.^.^.^.^.^.^.^.^.^.^.^.^.^.^.^.^.^.^.^.^.^.^.^.^.^.^.^.^.^.^.^.^.^.^.^.^.^.^.^.^.^.^.^.^.^.^.^.^.^.^.^.^.^.^.^.^.^.^.^.^.^.^.^.^.^.^.^.^.^.^.^.^.^.^.^.^.^.^.^.^.^.^.^.^.^.^.^.^.^.^.^.^.^.^.^.^.^.^.^.^.^.^.^.^.^.^.^.^.^.^.^.^.^.^.^.^.^.^.^.^.^.^.^.",
"^.^.^.^.^.^.^.^.^.^.^.^.^.^.^.^.^.^.^.^.^.^.^.^.^.^.^.^.^.^.^.^.^.^.^.^.^.^.^.^.^.^.^.^.^.^.^.^.^.^.^.^.^.^.^.^.^.^.^.^.^.^.^.^.^.^.^.^.^.^.^.^.^.^.^.^.^.^.^.^.^.^.^.^.^.^.^.^.^.^.^.^.^.^.^.^.^.^.^.^.^.^.^.^.^.^.^.^.^.^.^.^.^.^.^.^.^.^.^.^.^.^.^.^.^.^.^.^.^.^.^.^.^.^.^.^.^.^.^.^.^.^.^.^.^.^.^.^.^.^.^.^.^.^.^.^.^.^.^.^.^.^.^.^.^.^.^.^.^.^.^.^.^.^.^.^.^.^.^.^.^.^.^.^.^.^.^.^.^.^.^.^.^.^.^.^.^.^.^.^.^.^.^.^.^.^.^.^.^.^.^.^.^.^.^.^.^.^.^.^.^.. o o o o . o o o o @ # $ # $ + + # # $ # + + + # # # # % % * % % % % * * * * * > > > > 1 1 4 4 4 4 4 4 4 4 4 4 4 4 4 1 1 > > * * * % $ # o o . ^.^.^.^.^.^.^.^.^.^.^.^.^.^.^.^.^.^.^.^.^.^.^.^.^.^.^.^.^.^.^.^.^.^.^.^.^.^.^.^.^.^.^.^.^.^.^.^.^.^.^.^.^.^.^.^.^.^.^.^.^.^.^.^.^.^.^.^.^.^.^.^.^.^.^.^.^.^.^.^.^.^.^.^.^.^.^.^.^.^.^.^.^.^.^.^.^.^.^.^.^.^.^.^.^.^.^.^.^.^.^.^.^.^.^.^.^.^.^.^.^.^.^.^.^.^.^.^.^.^.^.^.^.^.^.^.^.^.^.^.^.^.^.^.^.^.^.^.^.^.^.^.^.^.^.^.^.^.^.^.^.^.^.^.^.^.^.^.^.^.^.^.^.^.^.^.^.^.^.^.^.^.^.^.^.^.^.^.^.^.^.^.^.^.^.^.^.^.^.^.^.^.^.^.^.^.^.^.^.^.^.^.^.^.^.^.^.^.^.^.^.^.^.^.^.^.^.^.^.^.^.^.^.^.^.^.^.^.^.^.^.^.^.^.^.^.^.^.^.^.^.^.^.^.^.^.^.^.^.^.^.^.^.^.^.^.^.^.^.^.^.^.^.^.^.^.^.^.^.^.^.^.^.^.^.^.^.^.^.^.^.^.^.^.^.^.^.^.^.^.^.^.^.^.^.^.^.^.^.^.^.^.^.^.^.^.^.^.^.^.^.^.^.^.^.^.^.^.^.^.^.^.^.^.^.^.^.^.^.^.^.",
"^.^.^.^.^.^.^.^.^.^.^.^.^.^.^.^.^.^.^.^.^.^.^.^.^.^.^.^.^.^.^.^.^.^.^.^.^.^.^.^.^.^.^.^.^.^.^.^.^.^.^.^.^.^.^.^.^.^.^.^.^.^.^.^.^.^.^.^.^.^.^.^.^.^.^.^.^.^.^.^.^.^.^.^.^.^.^.^.^.^.^.^.^.^.^.^.^.^.^.^.^.^.^.^.^.^.^.^.^.^.^.^.^.^.^.^.^.^.^.^.^.^.^.^.^.^.^.^.^.^.^.^.^.^.^.^.^.^.^.^.^.^.^.^.^.^.^.^.^.^.^.^.^.^.^.^.^.^.^.^.^.^.^.^.^.^.^.^.^.^.^.^.^.^.^.^.^.^.^.^.^.^.^.^.^.^.^.^.^.^.^.^.^.^.^.^.^.^.^.^.^.^.^.^.^.^.^.^.^.^.^.^.^.^.^.^.^.^.^.^.. . o o o . o o + + @ $ $ % % % $ $ $ $ $ $ # + + $ $ % % * * * * * * % * * * * * > > > 1 4 4 4 4 4 4 4 4 4 4 4 4 4 4 4 1 1 1 > * * % % % $ @ o . ^.^.^.^.^.^.^.^.^.^.^.^.^.^.^.^.^.^.^.^.^.^.^.^.^.^.^.^.^.^.^.^.^.^.^.^.^.^.^.^.^.^.^.^.^.^.^.^.^.^.^.^.^.^.^.^.^.^.^.^.^.^.^.^.^.^.^.^.^.^.^.^.^.^.^.^.^.^.^.^.^.^.^.^.^.^.^.^.^.^.^.^.^.^.^.^.^.^.^.^.^.^.^.^.^.^.^.^.^.^.^.^.^.^.^.^.^.^.^.^.^.^.^.^.^.^.^.^.^.^.^.^.^.^.^.^.^.^.^.^.^.^.^.^.^.^.^.^.^.^.^.^.^.^.^.^.^.^.^.^.^.^.^.^.^.^.^.^.^.^.^.^.^.^.^.^.^.^.^.^.^.^.^.^.^.^.^.^.^.^.^.^.^.^.^.^.^.^.^.^.^.^.^.^.^.^.^.^.^.^.^.^.^.^.^.^.^.^.^.^.^.^.^.^.^.^.^.^.^.^.^.^.^.^.^.^.^.^.^.^.^.^.^.^.^.^.^.^.^.^.^.^.^.^.^.^.^.^.^.^.^.^.^.^.^.^.^.^.^.^.^.^.^.^.^.^.^.^.^.^.^.^.^.^.^.^.^.^.^.^.^.^.^.^.^.^.^.^.^.^.^.^.^.^.^.^.^.^.^.^.^.^.^.^.^.^.^.^.^.^.^.^.^.^.^.^.^.^.^.^.^.^.^.^.^.^.^.^.^.^.^.",
"^.^.^.^.^.^.^.^.^.^.^.^.^.^.^.^.^.^.^.^.^.^.^.^.^.^.^.^.^.^.^.^.^.^.^.^.^.^.^.^.^.^.^.^.^.^.^.^.^.^.^.^.^.^.^.^.^.^.^.^.^.^.^.^.^.^.^.^.^.^.^.^.^.^.^.^.^.^.^.^.^.^.^.^.^.^.^.^.^.^.^.^.^.^.^.^.^.^.^.^.^.^.^.^.^.^.^.^.^.^.^.^.^.^.^.^.^.^.^.^.^.^.^.^.^.^.^.^.^.^.^.^.^.^.^.^.^.^.^.^.^.^.^.^.^.^.^.^.^.^.^.^.^.^.^.^.^.^.^.^.^.^.^.^.^.^.^.^.^.^.^.^.^.^.^.^.^.^.^.^.^.^.^.^.^.^.^.^.^.^.^.^.^.^.^.^.^.^.^.^.^.^.^.^.^.^.^.^.^.^.^.^.^.^.^.^.^.. . . o o o o o o o + $ % $ $ % % * * % % % % % % $ % $ % % % * > > > > * * * * * * * > > > 1 4 4 6 6 6 4 4 4 6 6 6 6 4 4 4 4 1 1 1 > * * * % % $ @ o o . ^.^.^.^.^.^.^.^.^.^.^.^.^.^.^.^.^.^.^.^.^.^.^.^.^.^.^.^.^.^.^.^.^.^.^.^.^.^.^.^.^.^.^.^.^.^.^.^.^.^.^.^.^.^.^.^.^.^.^.^.^.^.^.^.^.^.^.^.^.^.^.^.^.^.^.^.^.^.^.^.^.^.^.^.^.^.^.^.^.^.^.^.^.^.^.^.^.^.^.^.^.^.^.^.^.^.^.^.^.^.^.^.^.^.^.^.^.^.^.^.^.^.^.^.^.^.^.^.^.^.^.^.^.^.^.^.^.^.^.^.^.^.^.^.^.^.^.^.^.^.^.^.^.^.^.^.^.^.^.^.^.^.^.^.^.^.^.^.^.^.^.^.^.^.^.^.^.^.^.^.^.^.^.^.^.^.^.^.^.^.^.^.^.^.^.^.^.^.^.^.^.^.^.^.^.^.^.^.^.^.^.^.^.^.^.^.^.^.^.^.^.^.^.^.^.^.^.^.^.^.^.^.^.^.^.^.^.^.^.^.^.^.^.^.^.^.^.^.^.^.^.^.^.^.^.^.^.^.^.^.^.^.^.^.^.^.^.^.^.^.^.^.^.^.^.^.^.^.^.^.^.^.^.^.^.^.^.^.^.^.^.^.^.^.^.^.^.^.^.^.^.^.^.^.^.^.^.^.^.^.^.^.^.^.^.^.^.^.^.^.^.^.^.^.^.^.^.^.^.^.^.^.^.^.^.^.^.^.^.^.",
"^.^.^.^.^.^.^.^.^.^.^.^.^.^.^.^.^.^.^.^.^.^.^.^.^.^.^.^.^.^.^.^.^.^.^.^.^.^.^.^.^.^.^.^.^.^.^.^.^.^.^.^.^.^.^.^.^.^.^.^.^.^.^.^.^.^.^.^.^.^.^.^.^.^.^.^.^.^.^.^.^.^.^.^.^.^.^.^.^.^.^.^.^.^.^.^.^.^.^.^.^.^.^.^.^.^.^.^.^.^.^.^.^.^.^.^.^.^.^.^.^.^.^.^.^.^.^.^.^.^.^.^.^.^.^.^.^.^.^.^.^.^.^.^.^.^.^.^.^.^.^.^.^.^.^.^.^.^.^.^.^.^.^.^.^.^.^.^.^.^.^.^.^.^.^.^.^.^.^.^.^.^.^.^.^.^.^.^.^.^.^.^.^.^.^.^.^.^.^.^.^.^.^.^.^.^.^.^.^.^.^.^.^.^.^.^.. o o . o o o o o o @ # $ % % % % * * * * * * * * * * % % % % * > > > > > > > > > > > > > > 1 4 4 4 4 6 6 4 6 6 6 8 6 6 4 4 4 4 1 1 1 > > * * * % % # @ o o . ^.^.^.^.^.^.^.^.^.^.^.^.^.^.^.^.^.^.^.^.^.^.^.^.^.^.^.^.^.^.^.^.^.^.^.^.^.^.^.^.^.^.^.^.^.^.^.^.^.^.^.^.^.^.^.^.^.^.^.^.^.^.^.^.^.^.^.^.^.^.^.^.^.^.^.^.^.^.^.^.^.^.^.^.^.^.^.^.^.^.^.^.^.^.^.^.^.^.^.^.^.^.^.^.^.^.^.^.^.^.^.^.^.^.^.^.^.^.^.^.^.^.^.^.^.^.^.^.^.^.^.^.^.^.^.^.^.^.^.^.^.^.^.^.^.^.^.^.^.^.^.^.^.^.^.^.^.^.^.^.^.^.^.^.^.^.^.^.^.^.^.^.^.^.^.^.^.^.^.^.^.^.^.^.^.^.^.^.^.^.^.^.^.^.^.^.^.^.^.^.^.^.^.^.^.^.^.^.^.^.^.^.^.^.^.^.^.^.^.^.^.^.^.^.^.^.^.^.^.^.^.^.^.^.^.^.^.^.^.^.^.^.^.^.^.^.^.^.^.^.^.^.^.^.^.^.^.^.^.^.^.^.^.^.^.^.^.^.^.^.^.^.^.^.^.^.^.^.^.^.^.^.^.^.^.^.^.^.^.^.^.^.^.^.^.^.^.^.^.^.^.^.^.^.^.^.^.^.^.^.^.^.^.^.^.^.^.^.^.^.^.^.^.^.^.^.^.^.^.^.^.^.^.^.^.^.^.^.^.",
"^.^.^.^.^.^.^.^.^.^.^.^.^.^.^.^.^.^.^.^.^.^.^.^.^.^.^.^.^.^.^.^.^.^.^.^.^.^.^.^.^.^.^.^.^.^.^.^.^.^.^.^.^.^.^.^.^.^.^.^.^.^.^.^.^.^.^.^.^.^.^.^.^.^.^.^.^.^.^.^.^.^.^.^.^.^.^.^.^.^.^.^.^.^.^.^.^.^.^.^.^.^.^.^.^.^.^.^.^.^.^.^.^.^.^.^.^.^.^.^.^.^.^.^.^.^.^.^.^.^.^.^.^.^.^.^.^.^.^.^.^.^.^.^.^.^.^.^.^.^.^.^.^.^.^.^.^.^.^.^.^.^.^.^.^.^.^.^.^.^.^.^.^.^.^.^.^.^.^.^.^.^.^.^.^.^.^.^.^.^.^.^.^.^.^.^.^.^.^.^.^.^.^.^.^.^.^.^.^.^.^.^.^.^.^.o o o o o o o o @ @ + # % % % % % * * * * * * * * > * * * * * * * > > > 1 > > 1 > > > > 1 1 1 4 4 4 6 6 7 0 0 0 0 8 8 8 8 6 4 4 4 4 1 > > > * * * % % $ # @ o . . ^.^.^.^.^.^.^.^.^.^.^.^.^.^.^.^.^.^.^.^.^.^.^.^.^.^.^.^.^.^.^.^.^.^.^.^.^.^.^.^.^.^.^.^.^.^.^.^.^.^.^.^.^.^.^.^.^.^.^.^.^.^.^.^.^.^.^.^.^.^.^.^.^.^.^.^.^.^.^.^.^.^.^.^.^.^.^.^.^.^.^.^.^.^.^.^.^.^.^.^.^.^.^.^.^.^.^.^.^.^.^.^.^.^.^.^.^.^.^.^.^.^.^.^.^.^.^.^.^.^.^.^.^.^.^.^.^.^.^.^.^.^.^.^.^.^.^.^.^.^.^.^.^.^.^.^.^.^.^.^.^.^.^.^.^.^.^.^.^.^.^.^.^.^.^.^.^.^.^.^.^.^.^.^.^.^.^.^.^.^.^.^.^.^.^.^.^.^.^.^.^.^.^.^.^.^.^.^.^.^.^.^.^.^.^.^.^.^.^.^.^.^.^.^.^.^.^.^.^.^.^.^.^.^.^.^.^.^.^.^.^.^.^.^.^.^.^.^.^.^.^.^.^.^.^.^.^.^.^.^.^.^.^.^.^.^.^.^.^.^.^.^.^.^.^.^.^.^.^.^.^.^.^.^.^.^.^.^.^.^.^.^.^.^.^.^.^.^.^.^.^.^.^.^.^.^.^.^.^.^.^.^.^.^.^.^.^.^.^.^.^.^.^.^.^.^.^.^.^.^.^.^.^.^.^.^.^.^.",
"^.^.^.^.^.^.^.^.^.^.^.^.^.^.^.^.^.^.^.^.^.^.^.^.^.^.^.^.^.^.^.^.^.^.^.^.^.^.^.^.^.^.^.^.^.^.^.^.^.^.^.^.^.^.^.^.^.^.^.^.^.^.^.^.^.^.^.^.^.^.^.^.^.^.^.^.^.^.^.^.^.^.^.^.^.^.^.^.^.^.^.^.^.^.^.^.^.^.^.^.^.^.^.^.^.^.^.^.^.^.^.^.^.^.^.^.^.^.^.^.^.^.^.^.^.^.^.^.^.^.^.^.^.^.^.^.^.^.^.^.^.^.^.^.^.^.^.^.^.^.^.^.^.^.^.^.^.^.^.^.^.^.^.^.^.^.^.^.^.^.^.^.^.^.^.^.^.^.^.^.^.^.^.^.^.^.^.^.^.^.^.^.^.^.^.^.^.^.^.^.^.^.^.^.^.^.^.^.^.. . o o o o o @ @ + @ + @ @ # # $ % % % % % % * * * * > > > > > > > > * * * > > > 1 1 1 1 1 > > > 1 1 1 4 4 6 6 7 8 0 0 0 0 0 0 0 0 7 8 4 4 4 4 1 1 1 1 > * * % % # # @ o o o . ^.^.^.^.^.^.^.^.^.^.^.^.^.^.^.^.^.^.^.^.^.^.^.^.^.^.^.^.^.^.^.^.^.^.^.^.^.^.^.^.^.^.^.^.^.^.^.^.^.^.^.^.^.^.^.^.^.^.^.^.^.^.^.^.^.^.^.^.^.^.^.^.^.^.^.^.^.^.^.^.^.^.^.^.^.^.^.^.^.^.^.^.^.^.^.^.^.^.^.^.^.^.^.^.^.^.^.^.^.^.^.^.^.^.^.^.^.^.^.^.^.^.^.^.^.^.^.^.^.^.^.^.^.^.^.^.^.^.^.^.^.^.^.^.^.^.^.^.^.^.^.^.^.^.^.^.^.^.^.^.^.^.^.^.^.^.^.^.^.^.^.^.^.^.^.^.^.^.^.^.^.^.^.^.^.^.^.^.^.^.^.^.^.^.^.^.^.^.^.^.^.^.^.^.^.^.^.^.^.^.^.^.^.^.^.^.^.^.^.^.^.^.^.^.^.^.^.^.^.^.^.^.^.^.^.^.^.^.^.^.^.^.^.^.^.^.^.^.^.^.^.^.^.^.^.^.^.^.^.^.^.^.^.^.^.^.^.^.^.^.^.^.^.^.^.^.^.^.^.^.^.^.^.^.^.^.^.^.^.^.^.^.^.^.^.^.^.^.^.^.^.^.^.^.^.^.^.^.^.^.^.^.^.^.^.^.^.^.^.^.^.^.^.^.^.^.^.^.^.^.^.^.^.^.^.^.^.",
"^.^.^.^.^.^.^.^.^.^.^.^.^.^.^.^.^.^.^.^.^.^.^.^.^.^.^.^.^.^.^.^.^.^.^.^.^.^.^.^.^.^.^.^.^.^.^.^.^.^.^.^.^.^.^.^.^.^.^.^.^.^.^.^.^.^.^.^.^.^.^.^.^.^.^.^.^.^.^.^.^.^.^.^.^.^.^.^.^.^.^.^.^.^.^.^.^.^.^.^.^.^.^.^.^.^.^.^.^.^.^.^.^.^.^.^.^.^.^.^.^.^.^.^.^.^.^.^.^.^.^.^.^.^.^.^.^.^.^.^.^.^.^.^.^.^.^.^.^.^.^.^.^.^.^.^.^.^.^.^.^.^.^.^.^.^.^.^.^.^.^.^.^.^.^.^.^.^.^.^.^.^.^.^.^.^.^.^.^.^.^.^.^.^.^.^.^.^.^.^.^.^.^.^.^.^.^.^.. o o o @ + # $ % % % $ % $ $ # % % * * % * * * * * * > > > > > > > * > > * > 1 1 1 1 4 4 4 4 1 > 1 1 4 4 4 4 6 8 0 0 0 0 q q q 0 0 0 7 6 4 4 1 1 1 1 > > > * * % % % $ + o o o o ^.^.^.^.^.^.^.^.^.^.^.^.^.^.^.^.^.^.^.^.^.^.^.^.^.^.^.^.^.^.^.^.^.^.^.^.^.^.^.^.^.^.^.^.^.^.^.^.^.^.^.^.^.^.^.^.^.^.^.^.^.^.^.^.^.^.^.^.^.^.^.^.^.^.^.^.^.^.^.^.^.^.^.^.^.^.^.^.^.^.^.^.^.^.^.^.^.^.^.^.^.^.^.^.^.^.^.^.^.^.^.^.^.^.^.^.^.^.^.^.^.^.^.^.^.^.^.^.^.^.^.^.^.^.^.^.^.^.^.^.^.^.^.^.^.^.^.^.^.^.^.^.^.^.^.^.^.^.^.^.^.^.^.^.^.^.^.^.^.^.^.^.^.^.^.^.^.^.^.^.^.^.^.^.^.^.^.^.^.^.^.^.^.^.^.^.^.^.^.^.^.^.^.^.^.^.^.^.^.^.^.^.^.^.^.^.^.^.^.^.^.^.^.^.^.^.^.^.^.^.^.^.^.^.^.^.^.^.^.^.^.^.^.^.^.^.^.^.^.^.^.^.^.^.^.^.^.^.^.^.^.^.^.^.^.^.^.^.^.^.^.^.^.^.^.^.^.^.^.^.^.^.^.^.^.^.^.^.^.^.^.^.^.^.^.^.^.^.^.^.^.^.^.^.^.^.^.^.^.^.^.^.^.^.^.^.^.^.^.^.^.^.^.^.^.^.^.^.^.^.^.^.^.^.^.^.^.",
"^.^.^.^.^.^.^.^.^.^.^.^.^.^.^.^.^.^.^.^.^.^.^.^.^.^.^.^.^.^.^.^.^.^.^.^.^.^.^.^.^.^.^.^.^.^.^.^.^.^.^.^.^.^.^.^.^.^.^.^.^.^.^.^.^.^.^.^.^.^.^.^.^.^.^.^.^.^.^.^.^.^.^.^.^.^.^.^.^.^.^.^.^.^.^.^.^.^.^.^.^.^.^.^.^.^.^.^.^.^.^.^.^.^.^.^.^.^.^.^.^.^.^.^.^.^.^.^.^.^.^.^.^.^.^.^.^.^.^.^.^.^.^.^.^.^.^.^.^.^.^.^.^.^.^.^.^.^.^.^.^.^.^.^.^.^.^.^.^.^.^.^.^.^.^.^.^.^.^.^.^.^.^.^.^.^.^.^.^.^.^.^.^.^.^.^.^.^.^.^.^.^.^.^.^.^.^.. o o # # $ % * * * * * * * * % % * * > * * * * % * * > > > > > > 1 > > > > > > 1 1 1 4 4 4 4 4 4 1 1 4 4 4 6 6 6 8 7 0 0 q q e e q 0 0 7 4 4 1 1 1 1 > > > > * * * % % $ + @ @ o o . ^.^.^.^.^.^.^.^.^.^.^.^.^.^.^.^.^.^.^.^.^.^.^.^.^.^.^.^.^.^.^.^.^.^.^.^.^.^.^.^.^.^.^.^.^.^.^.^.^.^.^.^.^.^.^.^.^.^.^.^.^.^.^.^.^.^.^.^.^.^.^.^.^.^.^.^.^.^.^.^.^.^.^.^.^.^.^.^.^.^.^.^.^.^.^.^.^.^.^.^.^.^.^.^.^.^.^.^.^.^.^.^.^.^.^.^.^.^.^.^.^.^.^.^.^.^.^.^.^.^.^.^.^.^.^.^.^.^.^.^.^.^.^.^.^.^.^.^.^.^.^.^.^.^.^.^.^.^.^.^.^.^.^.^.^.^.^.^.^.^.^.^.^.^.^.^.^.^.^.^.^.^.^.^.^.^.^.^.^.^.^.^.^.^.^.^.^.^.^.^.^.^.^.^.^.^.^.^.^.^.^.^.^.^.^.^.^.^.^.^.^.^.^.^.^.^.^.^.^.^.^.^.^.^.^.^.^.^.^.^.^.^.^.^.^.^.^.^.^.^.^.^.^.^.^.^.^.^.^.^.^.^.^.^.^.^.^.^.^.^.^.^.^.^.^.^.^.^.^.^.^.^.^.^.^.^.^.^.^.^.^.^.^.^.^.^.^.^.^.^.^.^.^.^.^.^.^.^.^.^.^.^.^.^.^.^.^.^.^.^.^.^.^.^.^.^.^.^.^.^.^.^.^.^.^.^.",
"^.^.^.^.^.^.^.^.^.^.^.^.^.^.^.^.^.^.^.^.^.^.^.^.^.^.^.^.^.^.^.^.^.^.^.^.^.^.^.^.^.^.^.^.^.^.^.^.^.^.^.^.^.^.^.^.^.^.^.^.^.^.^.^.^.^.^.^.^.^.^.^.^.^.^.^.^.^.^.^.^.^.^.^.^.^.^.^.^.^.^.^.^.^.^.^.^.^.^.^.^.^.^.^.^.^.^.^.^.^.^.^.^.^.^.^.^.^.^.^.^.^.^.^.^.^.^.^.^.^.^.^.^.^.^.^.^.^.^.^.^.^.^.^.^.^.^.^.^.^.^.^.^.^.^.^.^.^.^.^.^.^.^.^.^.^.^.^.^.^.^.^.^.^.^.^.^.^.^.^.^.^.^.^.^.^.^.^.^.^.^.^.^.^.^.^.^.^.^.^.^.^.^.^.^.o o o # $ % % * * > > > > > > > * * * > > > > * * * * * * > > 1 > > > 1 1 1 1 1 > 1 1 4 4 4 4 4 4 4 4 4 4 4 4 4 6 6 8 8 0 0 0 e e e e e q 0 8 6 4 1 1 1 1 1 > > * * * * % % % # + @ @ o o ^.^.^.^.^.^.^.^.^.^.^.^.^.^.^.^.^.^.^.^.^.^.^.^.^.^.^.^.^.^.^.^.^.^.^.^.^.^.^.^.^.^.^.^.^.^.^.^.^.^.^.^.^.^.^.^.^.^.^.^.^.^.^.^.^.^.^.^.^.^.^.^.^.^.^.^.^.^.^.^.^.^.^.^.^.^.^.^.^.^.^.^.^.^.^.^.^.^.^.^.^.^.^.^.^.^.^.^.^.^.^.^.^.^.^.^.^.^.^.^.^.^.^.^.^.^.^.^.^.^.^.^.^.^.^.^.^.^.^.^.^.^.^.^.^.^.^.^.^.^.^.^.^.^.^.^.^.^.^.^.^.^.^.^.^.^.^.^.^.^.^.^.^.^.^.^.^.^.^.^.^.^.^.^.^.^.^.^.^.^.^.^.^.^.^.^.^.^.^.^.^.^.^.^.^.^.^.^.^.^.^.^.^.^.^.^.^.^.^.^.^.^.^.^.^.^.^.^.^.^.^.^.^.^.^.^.^.^.^.^.^.^.^.^.^.^.^.^.^.^.^.^.^.^.^.^.^.^.^.^.^.^.^.^.^.^.^.^.^.^.^.^.^.^.^.^.^.^.^.^.^.^.^.^.^.^.^.^.^.^.^.^.^.^.^.^.^.^.^.^.^.^.^.^.^.^.^.^.^.^.^.^.^.^.^.^.^.^.^.^.^.^.^.^.^.^.^.^.^.^.^.^.^.^.^.^.",
"^.^.^.^.^.^.^.^.^.^.^.^.^.^.^.^.^.^.^.^.^.^.^.^.^.^.^.^.^.^.^.^.^.^.^.^.^.^.^.^.^.^.^.^.^.^.^.^.^.^.^.^.^.^.^.^.^.^.^.^.^.^.^.^.^.^.^.^.^.^.^.^.^.^.^.^.^.^.^.^.^.^.^.^.^.^.^.^.^.^.^.^.^.^.^.^.^.^.^.^.^.^.^.^.^.^.^.^.^.^.^.^.^.^.^.^.^.^.^.^.^.^.^.^.^.^.^.^.^.^.^.^.^.^.^.^.^.^.^.^.^.^.^.^.^.^.^.^.^.^.^.^.^.^.^.^.^.^.^.^.^.^.^.^.^.^.^.^.^.^.^.^.^.^.^.^.^.^.^.^.^.^.^.^.^.^.^.^.^.^.^.^.^.^.^.^.^.^.^.^.^.^.^.o o + @ @ # % * * > > 1 1 4 4 1 1 > > > > > 1 1 1 > > > > > > > 1 > > > 1 1 4 4 4 1 1 1 1 1 4 4 4 4 4 4 4 4 4 4 4 6 7 8 0 0 0 q q e e u t e q 0 8 6 4 4 1 1 1 1 1 > * * * * % % % $ # + @ o . ^.^.^.^.^.^.^.^.^.^.^.^.^.^.^.^.^.^.^.^.^.^.^.^.^.^.^.^.^.^.^.^.^.^.^.^.^.^.^.^.^.^.^.^.^.^.^.^.^.^.^.^.^.^.^.^.^.^.^.^.^.^.^.^.^.^.^.^.^.^.^.^.^.^.^.^.^.^.^.^.^.^.^.^.^.^.^.^.^.^.^.^.^.^.^.^.^.^.^.^.^.^.^.^.^.^.^.^.^.^.^.^.^.^.^.^.^.^.^.^.^.^.^.^.^.^.^.^.^.^.^.^.^.^.^.^.^.^.^.^.^.^.^.^.^.^.^.^.^.^.^.^.^.^.^.^.^.^.^.^.^.^.^.^.^.^.^.^.^.^.^.^.^.^.^.^.^.^.^.^.^.^.^.^.^.^.^.^.^.^.^.^.^.^.^.^.^.^.^.^.^.^.^.^.^.^.^.^.^.^.^.^.^.^.^.^.^.^.^.^.^.^.^.^.^.^.^.^.^.^.^.^.^.^.^.^.^.^.^.^.^.^.^.^.^.^.^.^.^.^.^.^.^.^.^.^.^.^.^.^.^.^.^.^.^.^.^.^.^.^.^.^.^.^.^.^.^.^.^.^.^.^.^.^.^.^.^.^.^.^.^.^.^.^.^.^.^.^.^.^.^.^.^.^.^.^.^.^.^.^.^.^.^.^.^.^.^.^.^.^.^.^.^.^.^.^.^.^.^.^.^.^.^.^.^.^.",
"^.^.^.^.^.^.^.^.^.^.^.^.^.^.^.^.^.^.^.^.^.^.^.^.^.^.^.^.^.^.^.^.^.^.^.^.^.^.^.^.^.^.^.^.^.^.^.^.^.^.^.^.^.^.^.^.^.^.^.^.^.^.^.^.^.^.^.^.^.^.^.^.^.^.^.^.^.^.^.^.^.^.^.^.^.^.^.^.^.^.^.^.^.^.^.^.^.^.^.^.^.^.^.^.^.^.^.^.^.^.^.^.^.^.^.^.^.^.^.^.^.^.^.^.^.^.^.^.^.^.^.^.^.^.^.^.^.^.^.^.^.^.^.^.^.^.^.^.^.^.^.^.^.^.^.^.^.^.^.^.^.^.^.^.^.^.^.^.^.^.^.^.^.^.^.^.^.^.^.^.^.^.^.^.^.^.^.^.^.^.^.^.^.^.^.^.^.^.^.^.^.. . o @ + + # # % * > 1 1 1 4 4 4 4 4 1 > 1 1 4 4 4 4 1 1 1 1 1 1 1 1 1 1 > 4 4 4 4 4 4 4 4 4 4 4 4 4 4 4 4 4 4 6 8 8 7 0 0 0 q q q e e e u u e q 0 8 6 4 4 4 4 1 1 4 1 > > * * * % % % $ + @ o . ^.^.^.^.^.^.^.^.^.^.^.^.^.^.^.^.^.^.^.^.^.^.^.^.^.^.^.^.^.^.^.^.^.^.^.^.^.^.^.^.^.^.^.^.^.^.^.^.^.^.^.^.^.^.^.^.^.^.^.^.^.^.^.^.^.^.^.^.^.^.^.^.^.^.^.^.^.^.^.^.^.^.^.^.^.^.^.^.^.^.^.^.^.^.^.^.^.^.^.^.^.^.^.^.^.^.^.^.^.^.^.^.^.^.^.^.^.^.^.^.^.^.^.^.^.^.^.^.^.^.^.^.^.^.^.^.^.^.^.^.^.^.^.^.^.^.^.^.^.^.^.^.^.^.^.^.^.^.^.^.^.^.^.^.^.^.^.^.^.^.^.^.^.^.^.^.^.^.^.^.^.^.^.^.^.^.^.^.^.^.^.^.^.^.^.^.^.^.^.^.^.^.^.^.^.^.^.^.^.^.^.^.^.^.^.^.^.^.^.^.^.^.^.^.^.^.^.^.^.^.^.^.^.^.^.^.^.^.^.^.^.^.^.^.^.^.^.^.^.^.^.^.^.^.^.^.^.^.^.^.^.^.^.^.^.^.^.^.^.^.^.^.^.^.^.^.^.^.^.^.^.^.^.^.^.^.^.^.^.^.^.^.^.^.^.^.^.^.^.^.^.^.^.^.^.^.^.^.^.^.^.^.^.^.^.^.^.^.^.^.^.^.^.^.^.^.^.^.^.^.^.^.^.^.^.^.",
"^.^.^.^.^.^.^.^.^.^.^.^.^.^.^.^.^.^.^.^.^.^.^.^.^.^.^.^.^.^.^.^.^.^.^.^.^.^.^.^.^.^.^.^.^.^.^.^.^.^.^.^.^.^.^.^.^.^.^.^.^.^.^.^.^.^.^.^.^.^.^.^.^.^.^.^.^.^.^.^.^.^.^.^.^.^.^.^.^.^.^.^.^.^.^.^.^.^.^.^.^.^.^.^.^.^.^.^.^.^.^.^.^.^.^.^.^.^.^.^.^.^.^.^.^.^.^.^.^.^.^.^.^.^.^.^.^.^.^.^.^.^.^.^.^.^.^.^.^.^.^.^.^.^.^.^.^.^.^.^.^.^.^.^.^.^.^.^.^.^.^.^.^.^.^.^.^.^.^.^.^.^.^.^.^.^.^.^.^.^.^.^.^.^.^.^.^.^.^.. . o o @ # $ % % % % * > 1 1 4 4 4 4 4 1 1 1 1 4 4 4 4 4 4 4 4 4 4 4 4 4 4 4 4 4 6 6 6 6 4 4 4 4 4 4 4 4 4 6 6 6 6 8 0 0 0 0 e e e q e e e e u u t e 0 7 6 6 6 4 4 4 4 4 4 4 1 > * * * * % $ # + o . . ^.^.^.^.^.^.^.^.^.^.^.^.^.^.^.^.^.^.^.^.^.^.^.^.^.^.^.^.^.^.^.^.^.^.^.^.^.^.^.^.^.^.^.^.^.^.^.^.^.^.^.^.^.^.^.^.^.^.^.^.^.^.^.^.^.^.^.^.^.^.^.^.^.^.^.^.^.^.^.^.^.^.^.^.^.^.^.^.^.^.^.^.^.^.^.^.^.^.^.^.^.^.^.^.^.^.^.^.^.^.^.^.^.^.^.^.^.^.^.^.^.^.^.^.^.^.^.^.^.^.^.^.^.^.^.^.^.^.^.^.^.^.^.^.^.^.^.^.^.^.^.^.^.^.^.^.^.^.^.^.^.^.^.^.^.^.^.^.^.^.^.^.^.^.^.^.^.^.^.^.^.^.^.^.^.^.^.^.^.^.^.^.^.^.^.^.^.^.^.^.^.^.^.^.^.^.^.^.^.^.^.^.^.^.^.^.^.^.^.^.^.^.^.^.^.^.^.^.^.^.^.^.^.^.^.^.^.^.^.^.^.^.^.^.^.^.^.^.^.^.^.^.^.^.^.^.^.^.^.^.^.^.^.^.^.^.^.^.^.^.^.^.^.^.^.^.^.^.^.^.^.^.^.^.^.^.^.^.^.^.^.^.^.^.^.^.^.^.^.^.^.^.^.^.^.^.^.^.^.^.^.^.^.^.^.^.^.^.^.^.^.^.^.^.^.^.^.^.^.^.^.^.^.^.^.",
"^.^.^.^.^.^.^.^.^.^.^.^.^.^.^.^.^.^.^.^.^.^.^.^.^.^.^.^.^.^.^.^.^.^.^.^.^.^.^.^.^.^.^.^.^.^.^.^.^.^.^.^.^.^.^.^.^.^.^.^.^.^.^.^.^.^.^.^.^.^.^.^.^.^.^.^.^.^.^.^.^.^.^.^.^.^.^.^.^.^.^.^.^.^.^.^.^.^.^.^.^.^.^.^.^.^.^.^.^.^.^.^.^.^.^.^.^.^.^.^.^.^.^.^.^.^.^.^.^.^.^.^.^.^.^.^.^.^.^.^.^.^.^.^.^.^.^.^.^.^.^.^.^.^.^.^.^.^.^.^.^.^.^.^.^.^.^.^.^.^.^.^.^.^.^.^.^.^.^.^.^.^.^.^.^.^.^.^.^.^.^.^.^.^.^.^.^.^.^.o o @ + # % % % % % * * > 1 1 4 4 4 4 1 1 1 1 4 4 6 8 6 4 4 6 6 6 6 8 0 0 8 8 8 8 0 7 7 6 8 6 4 4 4 4 4 4 6 7 0 8 7 8 0 0 q e e e e e e e e t u u u e 0 7 8 6 6 6 6 4 4 4 4 4 4 1 > > > * * % # + o o . . ^.^.^.^.^.^.^.^.^.^.^.^.^.^.^.^.^.^.^.^.^.^.^.^.^.^.^.^.^.^.^.^.^.^.^.^.^.^.^.^.^.^.^.^.^.^.^.^.^.^.^.^.^.^.^.^.^.^.^.^.^.^.^.^.^.^.^.^.^.^.^.^.^.^.^.^.^.^.^.^.^.^.^.^.^.^.^.^.^.^.^.^.^.^.^.^.^.^.^.^.^.^.^.^.^.^.^.^.^.^.^.^.^.^.^.^.^.^.^.^.^.^.^.^.^.^.^.^.^.^.^.^.^.^.^.^.^.^.^.^.^.^.^.^.^.^.^.^.^.^.^.^.^.^.^.^.^.^.^.^.^.^.^.^.^.^.^.^.^.^.^.^.^.^.^.^.^.^.^.^.^.^.^.^.^.^.^.^.^.^.^.^.^.^.^.^.^.^.^.^.^.^.^.^.^.^.^.^.^.^.^.^.^.^.^.^.^.^.^.^.^.^.^.^.^.^.^.^.^.^.^.^.^.^.^.^.^.^.^.^.^.^.^.^.^.^.^.^.^.^.^.^.^.^.^.^.^.^.^.^.^.^.^.^.^.^.^.^.^.^.^.^.^.^.^.^.^.^.^.^.^.^.^.^.^.^.^.^.^.^.^.^.^.^.^.^.^.^.^.^.^.^.^.^.^.^.^.^.^.^.^.^.^.^.^.^.^.^.^.^.^.^.^.^.^.^.^.^.^.^.^.^.^.^.",
"^.^.^.^.^.^.^.^.^.^.^.^.^.^.^.^.^.^.^.^.^.^.^.^.^.^.^.^.^.^.^.^.^.^.^.^.^.^.^.^.^.^.^.^.^.^.^.^.^.^.^.^.^.^.^.^.^.^.^.^.^.^.^.^.^.^.^.^.^.^.^.^.^.^.^.^.^.^.^.^.^.^.^.^.^.^.^.^.^.^.^.^.^.^.^.^.^.^.^.^.^.^.^.^.^.^.^.^.^.^.^.^.^.^.^.^.^.^.^.^.^.^.^.^.^.^.^.^.^.^.^.^.^.^.^.^.^.^.^.^.^.^.^.^.^.^.^.^.^.^.^.^.^.^.^.^.^.^.^.^.^.^.^.^.^.^.^.^.^.^.^.^.^.^.^.^.^.^.^.^.^.^.^.^.^.^.^.^.^.. . . . . ^.^.^.. o o @ + $ % % * * * * > > 1 1 1 4 4 4 4 1 1 4 4 4 4 8 0 7 7 0 0 8 7 7 0 0 e e 0 0 0 0 q q 0 0 0 8 6 4 4 8 7 0 0 0 0 0 0 0 e e e e e e e e e e t u u u e q 0 8 8 8 0 0 7 8 6 8 6 6 4 1 > > * * % $ # @ o o o . ^.. ^.^.^.^.^.^.^.^.^.^.^.^.^.^.^.^.^.^.^.^.^.^.^.^.^.^.^.^.^.^.^.^.^.^.^.^.^.^.^.^.^.^.^.^.^.^.^.^.^.^.^.^.^.^.^.^.^.^.^.^.^.^.^.^.^.^.^.^.^.^.^.^.^.^.^.^.^.^.^.^.^.^.^.^.^.^.^.^.^.^.^.^.^.^.^.^.^.^.^.^.^.^.^.^.^.^.^.^.^.^.^.^.^.^.^.^.^.^.^.^.^.^.^.^.^.^.^.^.^.^.^.^.^.^.^.^.^.^.^.^.^.^.^.^.^.^.^.^.^.^.^.^.^.^.^.^.^.^.^.^.^.^.^.^.^.^.^.^.^.^.^.^.^.^.^.^.^.^.^.^.^.^.^.^.^.^.^.^.^.^.^.^.^.^.^.^.^.^.^.^.^.^.^.^.^.^.^.^.^.^.^.^.^.^.^.^.^.^.^.^.^.^.^.^.^.^.^.^.^.^.^.^.^.^.^.^.^.^.^.^.^.^.^.^.^.^.^.^.^.^.^.^.^.^.^.^.^.^.^.^.^.^.^.^.^.^.^.^.^.^.^.^.^.^.^.^.^.^.^.^.^.^.^.^.^.^.^.^.^.^.^.^.^.^.^.^.^.^.^.^.^.^.^.^.^.^.^.^.^.^.^.^.^.^.^.^.^.^.^.^.^.^.^.^.^.^.^.^.^.^.^.",
"^.^.^.^.^.^.^.^.^.^.^.^.^.^.^.^.^.^.^.^.^.^.^.^.^.^.^.^.^.^.^.^.^.^.^.^.^.^.^.^.^.^.^.^.^.^.^.^.^.^.^.^.^.^.^.^.^.^.^.^.^.^.^.^.^.^.^.^.^.^.^.^.^.^.^.^.^.^.^.^.^.^.^.^.^.^.^.^.^.^.^.^.^.^.^.^.^.^.^.^.^.^.^.^.^.^.^.^.^.^.^.^.^.^.^.^.^.^.^.^.^.^.^.^.^.^.^.^.^.^.^.^.^.^.^.^.^.^.^.^.^.^.^.^.^.^.^.^.^.^.^.^.^.^.^.^.^.^.^.^.^.^.^.^.^.^.^.^.^.^.^.^.^.^.^.^.^.^.^.^.^.^.^.^.^.^.^.^.^.. o o . ^.^.^.. o o @ + # % % * * > > > 1 1 1 1 4 1 4 1 1 1 1 1 4 4 6 7 0 0 0 0 q 0 7 0 0 q e e e e e e e e e e e q 0 0 0 0 q 0 q 0 0 0 q e e e e e e e e e e t u t u t e e 0 0 0 0 q q q 0 0 0 8 6 6 4 4 > * * % % # # @ o o o o o o o o . ^.^.^.^.^.^.^.^.^.^.^.^.^.^.^.^.^.^.^.^.^.^.^.^.^.^.^.^.^.^.^.^.^.^.^.^.^.^.^.^.^.^.^.^.^.^.^.^.^.^.^.^.^.^.^.^.^.^.^.^.^.^.^.^.^.^.^.^.^.^.^.^.^.^.^.^.^.^.^.^.^.^.^.^.^.^.^.^.^.^.^.^.^.^.^.^.^.^.^.^.^.^.^.^.^.^.^.^.^.^.^.^.^.^.^.^.^.^.^.^.^.^.^.^.^.^.^.^.^.^.^.^.^.^.^.^.^.^.^.^.^.^.^.^.^.^.^.^.^.^.^.^.^.^.^.^.^.^.^.^.^.^.^.^.^.^.^.^.^.^.^.^.^.^.^.^.^.^.^.^.^.^.^.^.^.^.^.^.^.^.^.^.^.^.^.^.^.^.^.^.^.^.^.^.^.^.^.^.^.^.^.^.^.^.^.^.^.^.^.^.^.^.^.^.^.^.^.^.^.^.^.^.^.^.^.^.^.^.^.^.^.^.^.^.^.^.^.^.^.^.^.^.^.^.^.^.^.^.^.^.^.^.^.^.^.^.^.^.^.^.^.^.^.^.^.^.^.^.^.^.^.^.^.^.^.^.^.^.^.^.^.^.^.^.^.^.^.^.^.^.^.^.^.^.^.^.^.^.^.^.^.^.^.^.^.^.^.^.^.^.^.^.^.^.^.^.^.",
"^.^.^.^.^.^.^.^.^.^.^.^.^.^.^.^.^.^.^.^.^.^.^.^.^.^.^.^.^.^.^.^.^.^.^.^.^.^.^.^.^.^.^.^.^.^.^.^.^.^.^.^.^.^.^.^.^.^.^.^.^.^.^.^.^.^.^.^.^.^.^.^.^.^.^.^.^.^.^.^.^.^.^.^.^.^.^.^.^.^.^.^.^.^.^.^.^.^.^.^.^.^.^.^.^.^.^.^.^.^.^.^.^.^.^.^.^.^.^.^.^.^.^.^.^.^.^.^.^.^.^.^.^.^.^.^.^.^.^.^.^.^.^.^.^.^.^.^.^.^.^.^.^.^.^.^.^.^.^.^.^.^.^.^.^.^.^.^.^.^.^.^.^.^.^.^.^.^.^.^.^.^.^.^.^.^.^.^.. o o o o . . . o o o @ # % % * > > > > 1 1 4 1 1 4 1 1 1 1 4 4 4 4 7 0 0 0 q e e e q 0 0 0 e e t u e e u u u u u u u e e e e e e e q q q e e e e u u u e u t t t u u u e e e e q e e e e e q q q 0 0 8 4 4 1 > > * % % $ # @ o o o @ o o o o . ^.^.^.^.^.^.^.^.^.^.^.^.^.^.^.^.^.^.^.^.^.^.^.^.^.^.^.^.^.^.^.^.^.^.^.^.^.^.^.^.^.^.^.^.^.^.^.^.^.^.^.^.^.^.^.^.^.^.^.^.^.^.^.^.^.^.^.^.^.^.^.^.^.^.^.^.^.^.^.^.^.^.^.^.^.^.^.^.^.^.^.^.^.^.^.^.^.^.^.^.^.^.^.^.^.^.^.^.^.^.^.^.^.^.^.^.^.^.^.^.^.^.^.^.^.^.^.^.^.^.^.^.^.^.^.^.^.^.^.^.^.^.^.^.^.^.^.^.^.^.^.^.^.^.^.^.^.^.^.^.^.^.^.^.^.^.^.^.^.^.^.^.^.^.^.^.^.^.^.^.^.^.^.^.^.^.^.^.^.^.^.^.^.^.^.^.^.^.^.^.^.^.^.^.^.^.^.^.^.^.^.^.^.^.^.^.^.^.^.^.^.^.^.^.^.^.^.^.^.^.^.^.^.^.^.^.^.^.^.^.^.^.^.^.^.^.^.^.^.^.^.^.^.^.^.^.^.^.^.^.^.^.^.^.^.^.^.^.^.^.^.^.^.^.^.^.^.^.^.^.^.^.^.^.^.^.^.^.^.^.^.^.^.^.^.^.^.^.^.^.^.^.^.^.^.^.^.^.^.^.^.^.^.^.^.^.^.^.^.^.^.^.^.^.^.^.",
"^.^.^.^.^.^.^.^.^.^.^.^.^.^.^.^.^.^.^.^.^.^.^.^.^.^.^.^.^.^.^.^.^.^.^.^.^.^.^.^.^.^.^.^.^.^.^.^.^.^.^.^.^.^.^.^.^.^.^.^.^.^.^.^.^.^.^.^.^.^.^.^.^.^.^.^.^.^.^.^.^.^.^.^.^.^.^.^.^.^.^.^.^.^.^.^.^.^.^.^.^.^.^.^.^.^.^.^.^.^.^.^.^.^.^.^.^.^.^.^.^.^.^.^.^.^.^.^.^.^.^.^.^.^.^.^.^.^.^.^.^.^.^.^.^.^.^.^.^.^.^.^.^.^.^.^.^.^.^.^.^.^.^.^.^.^.^.^.^.^.^.^.^.^.^.^.^.^.. . . . . . . ^.^.^.o o o o . . o o @ @ + # $ * * > > 1 1 1 4 4 4 4 1 1 > 1 1 4 4 4 4 4 0 q e e e e e e q q 0 q e t u u u u u u p p p f p p p u u u e e e e e e e e t u u u t t e t t u t t e e e e e e t t e e e e q q 0 0 8 6 4 1 1 > * * % $ # + # # # + + # + o . . ^.^.^.^.^.^.^.^.^.^.^.^.^.^.^.^.^.^.^.^.^.^.^.^.^.^.^.^.^.^.^.^.^.^.^.^.^.^.^.^.^.^.^.^.^.^.^.^.^.^.^.^.^.^.^.^.^.^.^.^.^.^.^.^.^.^.^.^.^.^.^.^.^.^.^.^.^.^.^.^.^.^.^.^.^.^.^.^.^.^.^.^.^.^.^.^.^.^.^.^.^.^.^.^.^.^.^.^.^.^.^.^.^.^.^.^.^.^.^.^.^.^.^.^.^.^.^.^.^.^.^.^.^.^.^.^.^.^.^.^.^.^.^.^.^.^.^.^.^.^.^.^.^.^.^.^.^.^.^.^.^.^.^.^.^.^.^.^.^.^.^.^.^.^.^.^.^.^.^.^.^.^.^.^.^.^.^.^.^.^.^.^.^.^.^.^.^.^.^.^.^.^.^.^.^.^.^.^.^.^.^.^.^.^.^.^.^.^.^.^.^.^.^.^.^.^.^.^.^.^.^.^.^.^.^.^.^.^.^.^.^.^.^.^.^.^.^.^.^.^.^.^.^.^.^.^.^.^.^.^.^.^.^.^.^.^.^.^.^.^.^.^.^.^.^.^.^.^.^.^.^.^.^.^.^.^.^.^.^.^.^.^.^.^.^.^.^.^.^.^.^.^.^.^.^.^.^.^.^.^.^.^.^.^.^.^.^.^.^.^.^.^.^.^.",
"^.^.^.^.^.^.^.^.^.^.^.^.^.^.^.^.^.^.^.^.^.^.^.^.^.^.^.^.^.^.^.^.^.^.^.^.^.^.^.^.^.^.^.^.^.^.^.^.^.^.^.^.^.^.^.^.^.^.^.^.^.^.^.^.^.^.^.^.^.^.^.^.^.^.^.^.^.^.^.^.^.^.^.^.^.^.^.^.^.^.^.^.^.^.^.^.^.^.^.^.^.^.^.^.^.^.^.^.^.^.^.^.^.^.^.^.^.^.^.^.^.^.^.^.^.^.^.^.^.^.^.^.^.^.^.^.^.^.^.^.^.^.^.^.^.^.^.^.^.^.^.^.^.^.^.^.^.^.^.^.^.^.^.^.^.^.^.^.^.^.^.^.^.^.^.^.^.. o o o o o o o . . . o o o . . o o o o o + % % * > > 1 4 4 4 4 4 4 4 1 > > > 1 1 4 4 4 6 0 e e t t e e e e e q e u u u p p p p p p p f f f f f p p u u t e e e e e t e u t u t e e t t t u u e e e e e e e t e e e e e q q 0 0 7 6 4 4 4 1 > * % % % % % % % % # $ + o o . ^.^.^.^.^.^.^.^.^.^.^.^.^.^.^.^.^.^.^.^.^.^.^.^.^.^.^.^.^.^.^.^.^.^.^.^.^.^.^.^.^.^.^.^.^.^.^.^.^.^.^.^.^.^.^.^.^.^.^.^.^.^.^.^.^.^.^.^.^.^.^.^.^.^.^.^.^.^.^.^.^.^.^.^.^.^.^.^.^.^.^.^.^.^.^.^.^.^.^.^.^.^.^.^.^.^.^.^.^.^.^.^.^.^.^.^.^.^.^.^.^.^.^.^.^.^.^.^.^.^.^.^.^.^.^.^.^.^.^.^.^.^.^.^.^.^.^.^.^.^.^.^.^.^.^.^.^.^.^.^.^.^.^.^.^.^.^.^.^.^.^.^.^.^.^.^.^.^.^.^.^.^.^.^.^.^.^.^.^.^.^.^.^.^.^.^.^.^.^.^.^.^.^.^.^.^.^.^.^.^.^.^.^.^.^.^.^.^.^.^.^.^.^.^.^.^.^.^.^.^.^.^.^.^.^.^.^.^.^.^.^.^.^.^.^.^.^.^.^.^.^.^.^.^.^.^.^.^.^.^.^.^.^.^.^.^.^.^.^.^.^.^.^.^.^.^.^.^.^.^.^.^.^.^.^.^.^.^.^.^.^.^.^.^.^.^.^.^.^.^.^.^.^.^.^.^.^.^.^.^.^.^.^.^.^.^.^.^.^.^.^.^.^.",
"^.^.^.^.^.^.^.^.^.^.^.^.^.^.^.^.^.^.^.^.^.^.^.^.^.^.^.^.^.^.^.^.^.^.^.^.^.^.^.^.^.^.^.^.^.^.^.^.^.^.^.^.^.^.^.^.^.^.^.^.^.^.^.^.^.^.^.^.^.^.^.^.^.^.^.^.^.^.^.^.^.^.^.^.^.^.^.^.^.^.^.^.^.^.^.^.^.^.^.^.^.^.^.^.^.^.^.^.^.^.^.^.^.^.^.^.^.^.^.^.^.^.^.^.^.^.^.^.^.^.^.^.^.^.^.^.^.^.^.^.^.^.^.^.^.^.^.^.^.^.^.^.^.^.^.^.^.^.^.^.^.^.^.^.^.^.^.^.^.^.^.^.^.^.^.^.^.o o @ + # @ @ o o o o o o o o o o o o @ @ # % * * > > 1 4 6 4 4 4 4 4 1 1 1 > > 1 1 4 6 8 q e t u u t e e e e e t u p p p p p p f f f f f f f f f p u u u t e e e e e t e u t e e e e e e t t t e e e e e e u u u t e e e e q q 0 0 8 8 4 4 1 > * * * * * * * % % % % # @ o o . ^.^.^.^.^.^.^.^.^.^.^.^.^.^.^.^.^.^.^.^.^.^.^.^.^.^.^.^.^.^.^.^.^.^.^.^.^.^.^.^.^.^.^.^.^.^.^.^.^.^.^.^.^.^.^.^.^.^.^.^.^.^.^.^.^.^.^.^.^.^.^.^.^.^.^.^.^.^.^.^.^.^.^.^.^.^.^.^.^.^.^.^.^.^.^.^.^.^.^.^.^.^.^.^.^.^.^.^.^.^.^.^.^.^.^.^.^.^.^.^.^.^.^.^.^.^.^.^.^.^.^.^.^.^.^.^.^.^.^.^.^.^.^.^.^.^.^.^.^.^.^.^.^.^.^.^.^.^.^.^.^.^.^.^.^.^.^.^.^.^.^.^.^.^.^.^.^.^.^.^.^.^.^.^.^.^.^.^.^.^.^.^.^.^.^.^.^.^.^.^.^.^.^.^.^.^.^.^.^.^.^.^.^.^.^.^.^.^.^.^.^.^.^.^.^.^.^.^.^.^.^.^.^.^.^.^.^.^.^.^.^.^.^.^.^.^.^.^.^.^.^.^.^.^.^.^.^.^.^.^.^.^.^.^.^.^.^.^.^.^.^.^.^.^.^.^.^.^.^.^.^.^.^.^.^.^.^.^.^.^.^.^.^.^.^.^.^.^.^.^.^.^.^.^.^.^.^.^.^.^.^.^.^.^.^.^.^.^.^.^.^.",
"^.^.^.^.^.^.^.^.^.^.^.^.^.^.^.^.^.^.^.^.^.^.^.^.^.^.^.^.^.^.^.^.^.^.^.^.^.^.^.^.^.^.^.^.^.^.^.^.^.^.^.^.^.^.^.^.^.^.^.^.^.^.^.^.^.^.^.^.^.^.^.^.^.^.^.^.^.^.^.^.^.^.^.^.^.^.^.^.^.^.^.^.^.^.^.^.^.^.^.^.^.^.^.^.^.^.^.^.^.^.^.^.^.^.^.^.^.^.^.^.^.^.^.^.^.^.^.^.^.^.^.^.^.^.^.^.^.^.^.^.^.^.^.^.^.^.^.^.^.^.^.^.^.^.^.^.^.^.^.^.^.^.^.^.^.^.^.^.^.^.^.^.^.^.^.^.^.o # $ % $ $ # # + + + + @ @ o o @ o @ # # $ % * * > 1 4 6 6 6 4 4 6 4 4 1 1 1 1 1 4 6 6 0 q e u e u t e u t t u u u p f f f f f k k k k z k k f f f p p u u e e e e e e e t e e e e e e e e e e e e t t t u u u u u u t t t e e e q e 0 0 6 4 1 1 > > * * * * % * * % % $ $ + o . . . ^.^.^.^.^.^.^.^.^.^.^.^.^.^.^.^.^.^.^.^.^.^.^.^.^.^.^.^.^.^.^.^.^.^.^.^.^.^.^.^.^.^.^.^.^.^.^.^.^.^.^.^.^.^.^.^.^.^.^.^.^.^.^.^.^.^.^.^.^.^.^.^.^.^.^.^.^.^.^.^.^.^.^.^.^.^.^.^.^.^.^.^.^.^.^.^.^.^.^.^.^.^.^.^.^.^.^.^.^.^.^.^.^.^.^.^.^.^.^.^.^.^.^.^.^.^.^.^.^.^.^.^.^.^.^.^.^.^.^.^.^.^.^.^.^.^.^.^.^.^.^.^.^.^.^.^.^.^.^.^.^.^.^.^.^.^.^.^.^.^.^.^.^.^.^.^.^.^.^.^.^.^.^.^.^.^.^.^.^.^.^.^.^.^.^.^.^.^.^.^.^.^.^.^.^.^.^.^.^.^.^.^.^.^.^.^.^.^.^.^.^.^.^.^.^.^.^.^.^.^.^.^.^.^.^.^.^.^.^.^.^.^.^.^.^.^.^.^.^.^.^.^.^.^.^.^.^.^.^.^.^.^.^.^.^.^.^.^.^.^.^.^.^.^.^.^.^.^.^.^.^.^.^.^.^.^.^.^.^.^.^.^.^.^.^.^.^.^.^.^.^.^.^.^.^.^.^.^.^.^.^.^.^.^.^.^.^.^.",
"^.^.^.^.^.^.^.^.^.^.^.^.^.^.^.^.^.^.^.^.^.^.^.^.^.^.^.^.^.^.^.^.^.^.^.^.^.^.^.^.^.^.^.^.^.^.^.^.^.^.^.^.^.^.^.^.^.^.^.^.^.^.^.^.^.^.^.^.^.^.^.^.^.^.^.^.^.^.^.^.^.^.^.^.^.^.^.^.^.^.^.^.^.^.^.^.^.^.^.^.^.^.^.^.^.^.^.^.^.^.^.^.^.^.^.^.^.^.^.^.^.^.^.^.^.^.^.^.^.^.^.^.^.^.^.^.^.^.^.^.^.^.^.^.^.^.^.^.^.^.^.^.^.^.^.^.^.^.^.^.^.^.^.^.^.^.^.^.^.^.^.^.^.^.^.. . o # $ % % % $ $ # $ # # # # # + # + # $ % % * * * > 1 4 6 6 6 4 4 6 6 4 1 4 4 4 4 4 6 0 q e e t e u u u u u t u u p p p f f f k k z k z z z z z k f f p u u e e e e e e e e e e e e e e e e e e t e u u u u u u u u u u u u u u e e e e q 0 8 4 4 1 1 > > > > * * * * * * % $ + @ o o . . ^.^.^.^.^.^.^.^.^.^.^.^.^.^.^.^.^.^.^.^.^.^.^.^.^.^.^.^.^.^.^.^.^.^.^.^.^.^.^.^.^.^.^.^.^.^.^.^.^.^.^.^.^.^.^.^.^.^.^.^.^.^.^.^.^.^.^.^.^.^.^.^.^.^.^.^.^.^.^.^.^.^.^.^.^.^.^.^.^.^.^.^.^.^.^.^.^.^.^.^.^.^.^.^.^.^.^.^.^.^.^.^.^.^.^.^.^.^.^.^.^.^.^.^.^.^.^.^.^.^.^.^.^.^.^.^.^.^.^.^.^.^.^.^.^.^.^.^.^.^.^.^.^.^.^.^.^.^.^.^.^.^.^.^.^.^.^.^.^.^.^.^.^.^.^.^.^.^.^.^.^.^.^.^.^.^.^.^.^.^.^.^.^.^.^.^.^.^.^.^.^.^.^.^.^.^.^.^.^.^.^.^.^.^.^.^.^.^.^.^.^.^.^.^.^.^.^.^.^.^.^.^.^.^.^.^.^.^.^.^.^.^.^.^.^.^.^.^.^.^.^.^.^.^.^.^.^.^.^.^.^.^.^.^.^.^.^.^.^.^.^.^.^.^.^.^.^.^.^.^.^.^.^.^.^.^.^.^.^.^.^.^.^.^.^.^.^.^.^.^.^.^.^.^.^.^.^.^.^.^.^.^.^.^.^.^.",
"^.^.^.^.^.^.^.^.^.^.^.^.^.^.^.^.^.^.^.^.^.^.^.^.^.^.^.^.^.^.^.^.^.^.^.^.^.^.^.^.^.^.^.^.^.^.^.^.^.^.^.^.^.^.^.^.^.^.^.^.^.^.^.^.^.^.^.^.^.^.^.^.^.^.^.^.^.^.^.^.^.^.^.^.^.^.^.^.^.^.^.^.^.^.^.^.^.^.^.^.^.^.^.^.^.^.^.^.^.^.^.^.^.^.^.^.^.^.^.^.^.^.^.^.^.^.^.^.^.^.^.^.^.^.^.^.^.^.^.^.^.^.^.^.^.^.^.^.^.^.^.^.^.^.^.^.^.^.^.^.^.^.^.^.^.^.^.^.^.^.^.^.^.^.. . o @ $ % % * % % % $ $ # # % % % $ $ % % % % * * * > > 1 4 7 8 6 4 4 6 6 4 4 4 4 4 4 6 7 0 q e t u u u u u u u u u p p p f f f k k z z v x v x v z z k f f p p u e e e e e e e e e e e e e e e e e e e u u u u u u u p p p p p p u u u u u t e e q 0 6 4 4 4 1 1 > > > > * * * % $ # @ @ o o . ^.^.^.^.^.^.^.^.^.^.^.^.^.^.^.^.^.^.^.^.^.^.^.^.^.^.^.^.^.^.^.^.^.^.^.^.^.^.^.^.^.^.^.^.^.^.^.^.^.^.^.^.^.^.^.^.^.^.^.^.^.^.^.^.^.^.^.^.^.^.^.^.^.^.^.^.^.^.^.^.^.^.^.^.^.^.^.^.^.^.^.^.^.^.^.^.^.^.^.^.^.^.^.^.^.^.^.^.^.^.^.^.^.^.^.^.^.^.^.^.^.^.^.^.^.^.^.^.^.^.^.^.^.^.^.^.^.^.^.^.^.^.^.^.^.^.^.^.^.^.^.^.^.^.^.^.^.^.^.^.^.^.^.^.^.^.^.^.^.^.^.^.^.^.^.^.^.^.^.^.^.^.^.^.^.^.^.^.^.^.^.^.^.^.^.^.^.^.^.^.^.^.^.^.^.^.^.^.^.^.^.^.^.^.^.^.^.^.^.^.^.^.^.^.^.^.^.^.^.^.^.^.^.^.^.^.^.^.^.^.^.^.^.^.^.^.^.^.^.^.^.^.^.^.^.^.^.^.^.^.^.^.^.^.^.^.^.^.^.^.^.^.^.^.^.^.^.^.^.^.^.^.^.^.^.^.^.^.^.^.^.^.^.^.^.^.^.^.^.^.^.^.^.^.^.^.^.^.^.^.^.^.^.^.^.",
"^.^.^.^.^.^.^.^.^.^.^.^.^.^.^.^.^.^.^.^.^.^.^.^.^.^.^.^.^.^.^.^.^.^.^.^.^.^.^.^.^.^.^.^.^.^.^.^.^.^.^.^.^.^.^.^.^.^.^.^.^.^.^.^.^.^.^.^.^.^.^.^.^.^.^.^.^.^.^.^.^.^.^.^.^.^.^.^.^.^.^.^.^.^.^.^.^.^.^.^.^.^.^.^.^.^.^.^.^.^.^.^.^.^.^.^.^.^.^.^.^.^.^.^.^.^.^.^.^.^.^.^.^.^.^.^.^.^.^.^.^.^.^.^.^.^.^.^.^.^.^.^.^.^.^.^.^.^.^.^.^.^.^.^.^.^.^.^.^.^.^.^.^.. o o o # % % * * % % % % % % $ % % % % % % % % % * * * > 1 4 4 8 8 4 4 4 4 4 4 4 4 6 4 6 8 q e e e t u u u u u u u u u p p p f f f k z v v x v v x v v z k z k f p u t e e e e e t e e e e e e t u t t u u u u u p p p p p p f f f f p p p p p p u u e e q 0 0 7 8 4 4 4 4 1 1 > * * % % $ $ # + o o . ^.^.^.^.^.^.^.^.^.^.^.^.^.^.^.^.^.^.^.^.^.^.^.^.^.^.^.^.^.^.^.^.^.^.^.^.^.^.^.^.^.^.^.^.^.^.^.^.^.^.^.^.^.^.^.^.^.^.^.^.^.^.^.^.^.^.^.^.^.^.^.^.^.^.^.^.^.^.^.^.^.^.^.^.^.^.^.^.^.^.^.^.^.^.^.^.^.^.^.^.^.^.^.^.^.^.^.^.^.^.^.^.^.^.^.^.^.^.^.^.^.^.^.^.^.^.^.^.^.^.^.^.^.^.^.^.^.^.^.^.^.^.^.^.^.^.^.^.^.^.^.^.^.^.^.^.^.^.^.^.^.^.^.^.^.^.^.^.^.^.^.^.^.^.^.^.^.^.^.^.^.^.^.^.^.^.^.^.^.^.^.^.^.^.^.^.^.^.^.^.^.^.^.^.^.^.^.^.^.^.^.^.^.^.^.^.^.^.^.^.^.^.^.^.^.^.^.^.^.^.^.^.^.^.^.^.^.^.^.^.^.^.^.^.^.^.^.^.^.^.^.^.^.^.^.^.^.^.^.^.^.^.^.^.^.^.^.^.^.^.^.^.^.^.^.^.^.^.^.^.^.^.^.^.^.^.^.^.^.^.^.^.^.^.^.^.^.^.^.^.^.^.^.^.^.^.^.^.^.^.^.^.^.",
"^.^.^.^.^.^.^.^.^.^.^.^.^.^.^.^.^.^.^.^.^.^.^.^.^.^.^.^.^.^.^.^.^.^.^.^.^.^.^.^.^.^.^.^.^.^.^.^.^.^.^.^.^.^.^.^.^.^.^.^.^.^.^.^.^.^.^.^.^.^.^.^.^.^.^.^.^.^.^.^.^.^.^.^.^.^.^.^.^.^.^.^.^.^.^.^.^.^.^.^.^.^.^.^.^.^.^.^.^.^.^.^.^.^.^.^.^.^.^.^.^.^.^.^.^.^.^.^.^.^.^.^.^.^.^.^.^.^.^.^.^.^.^.^.^.^.^.^.^.^.^.^.^.^.^.^.^.^.^.^.^.^.^.^.^.^.^.^.^.^.^.^.^.. o o @ # % % * * * * % % % * * * % % % % * % % % * * > 1 4 4 4 4 4 4 4 4 4 6 4 8 6 8 0 0 0 e t t e u u u u u u u u u p p p p p f k z v v v b b b x v x x v v k k f p u u t e e u u u t e e t u u u u u p p p p p p p p p f f k k k k f f f f f p p u u u t e e q 0 8 4 4 4 4 4 1 > * * * % % % $ # @ o . ^.^.^.^.^.^.^.^.^.^.^.^.^.^.^.^.^.^.^.^.^.^.^.^.^.^.^.^.^.^.^.^.^.^.^.^.^.^.^.^.^.^.^.^.^.^.^.^.^.^.^.^.^.^.^.^.^.^.^.^.^.^.^.^.^.^.^.^.^.^.^.^.^.^.^.^.^.^.^.^.^.^.^.^.^.^.^.^.^.^.^.^.^.^.^.^.^.^.^.^.^.^.^.^.^.^.^.^.^.^.^.^.^.^.^.^.^.^.^.^.^.^.^.^.^.^.^.^.^.^.^.^.^.^.^.^.^.^.^.^.^.^.^.^.^.^.^.^.^.^.^.^.^.^.^.^.^.^.^.^.^.^.^.^.^.^.^.^.^.^.^.^.^.^.^.^.^.^.^.^.^.^.^.^.^.^.^.^.^.^.^.^.^.^.^.^.^.^.^.^.^.^.^.^.^.^.^.^.^.^.^.^.^.^.^.^.^.^.^.^.^.^.^.^.^.^.^.^.^.^.^.^.^.^.^.^.^.^.^.^.^.^.^.^.^.^.^.^.^.^.^.^.^.^.^.^.^.^.^.^.^.^.^.^.^.^.^.^.^.^.^.^.^.^.^.^.^.^.^.^.^.^.^.^.^.^.^.^.^.^.^.^.^.^.^.^.^.^.^.^.^.^.^.^.^.^.^.^.^.^.^.^.",
"^.^.^.^.^.^.^.^.^.^.^.^.^.^.^.^.^.^.^.^.^.^.^.^.^.^.^.^.^.^.^.^.^.^.^.^.^.^.^.^.^.^.^.^.^.^.^.^.^.^.^.^.^.^.^.^.^.^.^.^.^.^.^.^.^.^.^.^.^.^.^.^.^.^.^.^.^.^.^.^.^.^.^.^.^.^.^.^.^.^.^.^.^.^.^.^.^.^.^.^.^.^.^.^.^.^.^.^.^.^.^.^.^.^.^.^.^.^.^.^.^.^.^.^.^.^.^.^.^.^.^.^.^.^.^.^.^.^.^.^.^.^.^.^.^.^.^.^.^.^.^.^.^.^.^.^.^.^.^.^.^.^.^.^.^.^.^.^.^.^.^.^.^.. . o @ % * * > > > * * * % * * * * * * * * * * * * > > 1 4 6 4 4 4 4 4 4 4 4 4 8 0 0 q 0 q e t t t u p p p p p p p p f p p p p f z v b b b b b b b b v v v v v k k f p u u u u u u u u u u u u u u u u p p f f f f f f f k z z z k k k k k k k f f p p p u u u e e 0 0 6 6 4 4 1 1 > > > * * * % % + o o . ^.^.^.^.^.^.^.^.^.^.^.^.^.^.^.^.^.^.^.^.^.^.^.^.^.^.^.^.^.^.^.^.^.^.^.^.^.^.^.^.^.^.^.^.^.^.^.^.^.^.^.^.^.^.^.^.^.^.^.^.^.^.^.^.^.^.^.^.^.^.^.^.^.^.^.^.^.^.^.^.^.^.^.^.^.^.^.^.^.^.^.^.^.^.^.^.^.^.^.^.^.^.^.^.^.^.^.^.^.^.^.^.^.^.^.^.^.^.^.^.^.^.^.^.^.^.^.^.^.^.^.^.^.^.^.^.^.^.^.^.^.^.^.^.^.^.^.^.^.^.^.^.^.^.^.^.^.^.^.^.^.^.^.^.^.^.^.^.^.^.^.^.^.^.^.^.^.^.^.^.^.^.^.^.^.^.^.^.^.^.^.^.^.^.^.^.^.^.^.^.^.^.^.^.^.^.^.^.^.^.^.^.^.^.^.^.^.^.^.^.^.^.^.^.^.^.^.^.^.^.^.^.^.^.^.^.^.^.^.^.^.^.^.^.^.^.^.^.^.^.^.^.^.^.^.^.^.^.^.^.^.^.^.^.^.^.^.^.^.^.^.^.^.^.^.^.^.^.^.^.^.^.^.^.^.^.^.^.^.^.^.^.^.^.^.^.^.^.^.^.^.^.^.^.^.^.^.^.^.^.^.",
"^.^.^.^.^.^.^.^.^.^.^.^.^.^.^.^.^.^.^.^.^.^.^.^.^.^.^.^.^.^.^.^.^.^.^.^.^.^.^.^.^.^.^.^.^.^.^.^.^.^.^.^.^.^.^.^.^.^.^.^.^.^.^.^.^.^.^.^.^.^.^.^.^.^.^.^.^.^.^.^.^.^.^.^.^.^.^.^.^.^.^.^.^.^.^.^.^.^.^.^.^.^.^.^.^.^.^.^.^.^.^.^.^.^.^.^.^.^.^.^.^.^.^.^.^.^.^.^.^.^.^.^.^.^.^.^.^.^.^.^.^.^.^.^.^.^.^.^.^.^.^.^.^.^.^.^.^.^.^.^.^.^.^.^.^.^.^.^.^.^.^.^.^.o o o $ * * > > 1 > > > * * * * > > 1 > > > > * * > > > > 1 4 4 4 4 4 4 4 6 6 6 8 q e e e e t u u p p f f f f f f f f f f f p p f z v x v b b b m b m b b b b v z z f p p p u p p u u u u u u u p p p p f f f f f k k z k v v x x x v z z z z z k f f f p p p u u t e 0 0 8 8 4 4 4 1 1 > > * * * * $ @ o o . ^.^.^.^.^.^.^.^.^.^.^.^.^.^.^.^.^.^.^.^.^.^.^.^.^.^.^.^.^.^.^.^.^.^.^.^.^.^.^.^.^.^.^.^.^.^.^.^.^.^.^.^.^.^.^.^.^.^.^.^.^.^.^.^.^.^.^.^.^.^.^.^.^.^.^.^.^.^.^.^.^.^.^.^.^.^.^.^.^.^.^.^.^.^.^.^.^.^.^.^.^.^.^.^.^.^.^.^.^.^.^.^.^.^.^.^.^.^.^.^.^.^.^.^.^.^.^.^.^.^.^.^.^.^.^.^.^.^.^.^.^.^.^.^.^.^.^.^.^.^.^.^.^.^.^.^.^.^.^.^.^.^.^.^.^.^.^.^.^.^.^.^.^.^.^.^.^.^.^.^.^.^.^.^.^.^.^.^.^.^.^.^.^.^.^.^.^.^.^.^.^.^.^.^.^.^.^.^.^.^.^.^.^.^.^.^.^.^.^.^.^.^.^.^.^.^.^.^.^.^.^.^.^.^.^.^.^.^.^.^.^.^.^.^.^.^.^.^.^.^.^.^.^.^.^.^.^.^.^.^.^.^.^.^.^.^.^.^.^.^.^.^.^.^.^.^.^.^.^.^.^.^.^.^.^.^.^.^.^.^.^.^.^.^.^.^.^.^.^.^.^.^.^.^.^.^.^.^.^.^.",
"^.^.^.^.^.^.^.^.^.^.^.^.^.^.^.^.^.^.^.^.^.^.^.^.^.^.^.^.^.^.^.^.^.^.^.^.^.^.^.^.^.^.^.^.^.^.^.^.^.^.^.^.^.^.^.^.^.^.^.^.^.^.^.^.^.^.^.^.^.^.^.^.^.^.^.^.^.^.^.^.^.^.^.^.^.^.^.^.^.^.^.^.^.^.^.^.^.^.^.^.^.^.^.^.^.^.^.^.^.^.^.^.^.^.^.^.^.^.^.^.^.^.^.^.^.^.^.^.^.^.^.^.^.^.^.^.^.^.^.^.^.^.^.^.^.^.^.^.^.^.^.^.^.^.^.^.^.^.^.^.^.^.^.^.^.^.^.^.^.^.^.^.^.o o # % > 1 4 1 4 1 1 > > * * > > 1 1 1 > > > > > > > > > 1 4 4 4 4 4 4 4 8 8 0 0 e e u u u u u f f f f k k k k k k k k f f f f k k z v x b b m m m m m m m m b v v k f f p p p p p p p p p p p p f f f f f f k k k z z v v b b b b v v x x z z k k f f f f p p u u e e 0 0 0 7 4 4 4 1 1 1 > * * * % # @ o o . ^.^.^.^.^.^.^.^.^.^.^.^.^.^.^.^.^.^.^.^.^.^.^.^.^.^.^.^.^.^.^.^.^.^.^.^.^.^.^.^.^.^.^.^.^.^.^.^.^.^.^.^.^.^.^.^.^.^.^.^.^.^.^.^.^.^.^.^.^.^.^.^.^.^.^.^.^.^.^.^.^.^.^.^.^.^.^.^.^.^.^.^.^.^.^.^.^.^.^.^.^.^.^.^.^.^.^.^.^.^.^.^.^.^.^.^.^.^.^.^.^.^.^.^.^.^.^.^.^.^.^.^.^.^.^.^.^.^.^.^.^.^.^.^.^.^.^.^.^.^.^.^.^.^.^.^.^.^.^.^.^.^.^.^.^.^.^.^.^.^.^.^.^.^.^.^.^.^.^.^.^.^.^.^.^.^.^.^.^.^.^.^.^.^.^.^.^.^.^.^.^.^.^.^.^.^.^.^.^.^.^.^.^.^.^.^.^.^.^.^.^.^.^.^.^.^.^.^.^.^.^.^.^.^.^.^.^.^.^.^.^.^.^.^.^.^.^.^.^.^.^.^.^.^.^.^.^.^.^.^.^.^.^.^.^.^.^.^.^.^.^.^.^.^.^.^.^.^.^.^.^.^.^.^.^.^.^.^.^.^.^.^.^.^.^.^.^.^.^.^.^.^.^.^.^.^.^.^.^.",
"^.^.^.^.^.^.^.^.^.^.^.^.^.^.^.^.^.^.^.^.^.^.^.^.^.^.^.^.^.^.^.^.^.^.^.^.^.^.^.^.^.^.^.^.^.^.^.^.^.^.^.^.^.^.^.^.^.^.^.^.^.^.^.^.^.^.^.^.^.^.^.^.^.^.^.^.^.^.^.^.^.^.^.^.^.^.^.^.^.^.^.^.^.^.^.^.^.^.^.^.^.^.^.^.^.^.^.^.^.^.^.^.^.^.^.^.^.^.^.^.^.^.^.^.^.^.^.^.^.^.^.^.^.^.^.^.^.^.^.^.^.^.^.^.^.^.^.^.^.^.^.^.^.^.^.^.^.^.^.^.^.^.^.^.^.^.^.^.^.^.^.^.. o + % * 1 4 4 4 4 4 4 4 1 > > > 1 4 4 1 1 > > > > > 1 > > > 1 4 4 6 8 8 8 0 0 q e t u p p p p p f k k k k z k k z z k k k k k k k z v v v v b b m m m m m m m m b v v k f f f f f f f f f f f f f f f k k k z z k z x v b b m m m m m m b v x v z k k f k f f p p u u t e e e 0 8 6 4 4 4 4 1 > * * % % $ @ o o ^.^.^.^.^.^.^.^.^.^.^.^.^.^.^.^.^.^.^.^.^.^.^.^.^.^.^.^.^.^.^.^.^.^.^.^.^.^.^.^.^.^.^.^.^.^.^.^.^.^.^.^.^.^.^.^.^.^.^.^.^.^.^.^.^.^.^.^.^.^.^.^.^.^.^.^.^.^.^.^.^.^.^.^.^.^.^.^.^.^.^.^.^.^.^.^.^.^.^.^.^.^.^.^.^.^.^.^.^.^.^.^.^.^.^.^.^.^.^.^.^.^.^.^.^.^.^.^.^.^.^.^.^.^.^.^.^.^.^.^.^.^.^.^.^.^.^.^.^.^.^.^.^.^.^.^.^.^.^.^.^.^.^.^.^.^.^.^.^.^.^.^.^.^.^.^.^.^.^.^.^.^.^.^.^.^.^.^.^.^.^.^.^.^.^.^.^.^.^.^.^.^.^.^.^.^.^.^.^.^.^.^.^.^.^.^.^.^.^.^.^.^.^.^.^.^.^.^.^.^.^.^.^.^.^.^.^.^.^.^.^.^.^.^.^.^.^.^.^.^.^.^.^.^.^.^.^.^.^.^.^.^.^.^.^.^.^.^.^.^.^.^.^.^.^.^.^.^.^.^.^.^.^.^.^.^.^.^.^.^.^.^.^.^.^.^.^.^.^.^.^.^.^.^.^.^.^.^.^.",
"^.^.^.^.^.^.^.^.^.^.^.^.^.^.^.^.^.^.^.^.^.^.^.^.^.^.^.^.^.^.^.^.^.^.^.^.^.^.^.^.^.^.^.^.^.^.^.^.^.^.^.^.^.^.^.^.^.^.^.^.^.^.^.^.^.^.^.^.^.^.^.^.^.^.^.^.^.^.^.^.^.^.^.^.^.^.^.^.^.^.^.^.^.^.^.^.^.^.^.^.^.^.^.^.^.^.^.^.^.^.^.^.^.^.^.^.^.^.^.^.^.^.^.^.^.^.^.^.^.^.^.^.^.^.^.^.^.^.^.^.^.^.^.^.^.^.^.^.^.^.^.^.^.^.^.^.^.^.^.^.^.^.^.^.^.^.^.^.^.^.^.^.. o $ % * 1 4 6 4 4 4 4 4 4 1 1 4 4 4 4 4 4 1 1 1 > > > 1 1 > 1 4 4 8 0 0 q e e e t u p p f p f k z z k z k z z z z z z k z k k z z v v v b b m m m B B B B B B B m b v v k k f f f f f f f f f f k k z k z z v x v v b m m B B B B B B m m b b x z k z k k k f f p p u u u u e e 0 7 7 8 6 4 1 > > * * % % # @ o . ^.^.^.^.^.^.^.^.^.^.^.^.^.^.^.^.^.^.^.^.^.^.^.^.^.^.^.^.^.^.^.^.^.^.^.^.^.^.^.^.^.^.^.^.^.^.^.^.^.^.^.^.^.^.^.^.^.^.^.^.^.^.^.^.^.^.^.^.^.^.^.^.^.^.^.^.^.^.^.^.^.^.^.^.^.^.^.^.^.^.^.^.^.^.^.^.^.^.^.^.^.^.^.^.^.^.^.^.^.^.^.^.^.^.^.^.^.^.^.^.^.^.^.^.^.^.^.^.^.^.^.^.^.^.^.^.^.^.^.^.^.^.^.^.^.^.^.^.^.^.^.^.^.^.^.^.^.^.^.^.^.^.^.^.^.^.^.^.^.^.^.^.^.^.^.^.^.^.^.^.^.^.^.^.^.^.^.^.^.^.^.^.^.^.^.^.^.^.^.^.^.^.^.^.^.^.^.^.^.^.^.^.^.^.^.^.^.^.^.^.^.^.^.^.^.^.^.^.^.^.^.^.^.^.^.^.^.^.^.^.^.^.^.^.^.^.^.^.^.^.^.^.^.^.^.^.^.^.^.^.^.^.^.^.^.^.^.^.^.^.^.^.^.^.^.^.^.^.^.^.^.^.^.^.^.^.^.^.^.^.^.^.^.^.^.^.^.^.^.^.^.^.^.^.^.^.^.^.",
"^.^.^.^.^.^.^.^.^.^.^.^.^.^.^.^.^.^.^.^.^.^.^.^.^.^.^.^.^.^.^.^.^.^.^.^.^.^.^.^.^.^.^.^.^.^.^.^.^.^.^.^.^.^.^.^.^.^.^.^.^.^.^.^.^.^.^.^.^.^.^.^.^.^.^.^.^.^.^.^.^.^.^.^.^.^.^.^.^.^.^.^.^.^.^.^.^.^.^.^.^.^.^.^.^.^.^.^.^.^.^.^.^.^.^.^.^.^.^.^.^.^.^.^.^.^.^.^.^.^.^.^.^.^.^.^.^.^.^.^.^.^.^.^.^.^.^.^.^.^.^.^.^.^.^.^.^.^.^.^.^.^.^.^.^.^.^.^.^.^.^.^.. o $ % * 1 4 6 8 7 7 8 6 6 4 4 6 8 0 8 8 6 6 6 4 4 1 1 1 1 1 4 4 8 0 0 0 e e e u p p f f f k k z v v v v v x v v v z k k z v v z v v v b b m m m B B B Z D D D D B m m v v k k k k k k k k k k k v v v v x x v b b b m B B Z Z Z D Z B B m b b b x v z k z k k f f f p u u u u u e e q 0 0 6 4 1 > > * * % $ + o o ^.^.^.^.^.^.^.^.^.^.^.^.^.^.^.^.^.^.^.^.^.^.^.^.^.^.^.^.^.^.^.^.^.^.^.^.^.^.^.^.^.^.^.^.^.^.^.^.^.^.^.^.^.^.^.^.^.^.^.^.^.^.^.^.^.^.^.^.^.^.^.^.^.^.^.^.^.^.^.^.^.^.^.^.^.^.^.^.^.^.^.^.^.^.^.^.^.^.^.^.^.^.^.^.^.^.^.^.^.^.^.^.^.^.^.^.^.^.^.^.^.^.^.^.^.^.^.^.^.^.^.^.^.^.^.^.^.^.^.^.^.^.^.^.^.^.^.^.^.^.^.^.^.^.^.^.^.^.^.^.^.^.^.^.^.^.^.^.^.^.^.^.^.^.^.^.^.^.^.^.^.^.^.^.^.^.^.^.^.^.^.^.^.^.^.^.^.^.^.^.^.^.^.^.^.^.^.^.^.^.^.^.^.^.^.^.^.^.^.^.^.^.^.^.^.^.^.^.^.^.^.^.^.^.^.^.^.^.^.^.^.^.^.^.^.^.^.^.^.^.^.^.^.^.^.^.^.^.^.^.^.^.^.^.^.^.^.^.^.^.^.^.^.^.^.^.^.^.^.^.^.^.^.^.^.^.^.^.^.^.^.^.^.^.^.^.^.^.^.^.^.^.^.^.^.^.^.^.",
"^.^.^.^.^.^.^.^.^.^.^.^.^.^.^.^.^.^.^.^.^.^.^.^.^.^.^.^.^.^.^.^.^.^.^.^.^.^.^.^.^.^.^.^.^.^.^.^.^.^.^.^.^.^.^.^.^.^.^.^.^.^.^.^.^.^.^.^.^.^.^.^.^.^.^.^.^.^.^.^.^.^.^.^.^.^.^.^.^.^.^.^.^.^.^.^.^.^.^.^.^.^.^.^.^.^.^.^.^.^.^.^.^.^.^.^.^.^.^.^.^.^.^.^.^.^.^.^.^.^.^.^.^.^.^.^.^.^.^.^.^.^.^.^.^.^.^.^.^.^.^.^.^.^.^.^.^.^.^.^.^.^.^.^.^.^.^.^.^.^.^.^.. @ # * * > 1 6 8 0 0 0 0 0 0 0 0 q e e e e q q 0 4 4 4 4 4 4 4 4 8 0 e e e p p p f k k k k z v v v b b v v b b b b x x c x v v x v v b m m B B B B Z D D D D H D D B B m b v v z z z z z z z v x b b b b v b b m m m B D D D D H H D D B m m b b x x x v k k z z k f f p p p p u u e e e q 8 4 4 1 > > * * % # @ o . ^.^.^.^.^.^.^.^.^.^.^.^.^.^.^.^.^.^.^.^.^.^.^.^.^.^.^.^.^.^.^.^.^.^.^.^.^.^.^.^.^.^.^.^.^.^.^.^.^.^.^.^.^.^.^.^.^.^.^.^.^.^.^.^.^.^.^.^.^.^.^.^.^.^.^.^.^.^.^.^.^.^.^.^.^.^.^.^.^.^.^.^.^.^.^.^.^.^.^.^.^.^.^.^.^.^.^.^.^.^.^.^.^.^.^.^.^.^.^.^.^.^.^.^.^.^.^.^.^.^.^.^.^.^.^.^.^.^.^.^.^.^.^.^.^.^.^.^.^.^.^.^.^.^.^.^.^.^.^.^.^.^.^.^.^.^.^.^.^.^.^.^.^.^.^.^.^.^.^.^.^.^.^.^.^.^.^.^.^.^.^.^.^.^.^.^.^.^.^.^.^.^.^.^.^.^.^.^.^.^.^.^.^.^.^.^.^.^.^.^.^.^.^.^.^.^.^.^.^.^.^.^.^.^.^.^.^.^.^.^.^.^.^.^.^.^.^.^.^.^.^.^.^.^.^.^.^.^.^.^.^.^.^.^.^.^.^.^.^.^.^.^.^.^.^.^.^.^.^.^.^.^.^.^.^.^.^.^.^.^.^.^.^.^.^.^.^.^.^.^.^.^.^.^.^.^.^.",
"^.^.^.^.^.^.^.^.^.^.^.^.^.^.^.^.^.^.^.^.^.^.^.^.^.^.^.^.^.^.^.^.^.^.^.^.^.^.^.^.^.^.^.^.^.^.^.^.^.^.^.^.^.^.^.^.^.^.^.^.^.^.^.^.^.^.^.^.^.^.^.^.^.^.^.^.^.^.^.^.^.^.^.^.^.^.^.^.^.^.^.^.^.^.^.^.^.^.^.^.^.^.^.^.^.^.^.^.^.^.^.^.^.^.^.^.^.^.^.^.^.^.^.^.^.^.^.^.^.^.^.^.^.^.^.^.^.^.^.^.^.^.^.^.^.^.^.^.^.^.^.^.^.^.^.^.^.^.^.^.^.^.^.^.^.^.^.^.^.^.^.^.. o $ * > > 1 4 8 0 q q 0 0 q q e e u u u u u u e 0 8 8 8 4 4 6 7 0 e e t u p f k k k k z v v v v b b m m m B B B m b b b b b b b b b m B B B Z D D D H H H H H D D D Z B m b v x x x x v v v b m m m m m m m B B B Z D D H H K K H H D D B m b b v b v x v z z k k f f f f p p u u u u t e 0 8 4 4 1 > > * % % # o o . ^.^.^.^.^.^.^.^.^.^.^.^.^.^.^.^.^.^.^.^.^.^.^.^.^.^.^.^.^.^.^.^.^.^.^.^.^.^.^.^.^.^.^.^.^.^.^.^.^.^.^.^.^.^.^.^.^.^.^.^.^.^.^.^.^.^.^.^.^.^.^.^.^.^.^.^.^.^.^.^.^.^.^.^.^.^.^.^.^.^.^.^.^.^.^.^.^.^.^.^.^.^.^.^.^.^.^.^.^.^.^.^.^.^.^.^.^.^.^.^.^.^.^.^.^.^.^.^.^.^.^.^.^.^.^.^.^.^.^.^.^.^.^.^.^.^.^.^.^.^.^.^.^.^.^.^.^.^.^.^.^.^.^.^.^.^.^.^.^.^.^.^.^.^.^.^.^.^.^.^.^.^.^.^.^.^.^.^.^.^.^.^.^.^.^.^.^.^.^.^.^.^.^.^.^.^.^.^.^.^.^.^.^.^.^.^.^.^.^.^.^.^.^.^.^.^.^.^.^.^.^.^.^.^.^.^.^.^.^.^.^.^.^.^.^.^.^.^.^.^.^.^.^.^.^.^.^.^.^.^.^.^.^.^.^.^.^.^.^.^.^.^.^.^.^.^.^.^.^.^.^.^.^.^.^.^.^.^.^.^.^.^.^.^.^.^.^.^.^.^.^.^.^.^.^.^.",
"^.^.^.^.^.^.^.^.^.^.^.^.^.^.^.^.^.^.^.^.^.^.^.^.^.^.^.^.^.^.^.^.^.^.^.^.^.^.^.^.^.^.^.^.^.^.^.^.^.^.^.^.^.^.^.^.^.^.^.^.^.^.^.^.^.^.^.^.^.^.^.^.^.^.^.^.^.^.^.^.^.^.^.^.^.^.^.^.^.^.^.^.^.^.^.^.^.^.^.^.^.^.^.^.^.^.^.^.^.^.^.^.^.^.^.^.^.^.^.^.^.^.^.^.^.^.^.^.^.^.^.^.^.^.^.^.^.^.^.^.^.^.^.^.^.^.^.^.^.^.^.^.^.^.^.^.^.^.^.^.^.^.^.^.^.^.^.^.^.^.^.^.^.o # * > > 1 4 8 q e e q e e q e t u p p p p u u e e q q q 0 0 q e e u u p f k z z v x v b b b b m B m B Z D D D Z B m m b b m m m m B B Z D D H H K K H H H H H H D D Z B m b v b b b m m m m B m B B B B B Z D D H H H L U P L K K H D D B m m b b v x v v z k k k k k f f p p u u u u e q 0 6 4 1 > > * * * % o o . ^.^.^.^.^.^.^.^.^.^.^.^.^.^.^.^.^.^.^.^.^.^.^.^.^.^.^.^.^.^.^.^.^.^.^.^.^.^.^.^.^.^.^.^.^.^.^.^.^.^.^.^.^.^.^.^.^.^.^.^.^.^.^.^.^.^.^.^.^.^.^.^.^.^.^.^.^.^.^.^.^.^.^.^.^.^.^.^.^.^.^.^.^.^.^.^.^.^.^.^.^.^.^.^.^.^.^.^.^.^.^.^.^.^.^.^.^.^.^.^.^.^.^.^.^.^.^.^.^.^.^.^.^.^.^.^.^.^.^.^.^.^.^.^.^.^.^.^.^.^.^.^.^.^.^.^.^.^.^.^.^.^.^.^.^.^.^.^.^.^.^.^.^.^.^.^.^.^.^.^.^.^.^.^.^.^.^.^.^.^.^.^.^.^.^.^.^.^.^.^.^.^.^.^.^.^.^.^.^.^.^.^.^.^.^.^.^.^.^.^.^.^.^.^.^.^.^.^.^.^.^.^.^.^.^.^.^.^.^.^.^.^.^.^.^.^.^.^.^.^.^.^.^.^.^.^.^.^.^.^.^.^.^.^.^.^.^.^.^.^.^.^.^.^.^.^.^.^.^.^.^.^.^.^.^.^.^.^.^.^.^.^.^.^.^.^.^.^.^.^.^.^.^.^.^.^.",
"^.^.^.^.^.^.^.^.^.^.^.^.^.^.^.^.^.^.^.^.^.^.^.^.^.^.^.^.^.^.^.^.^.^.^.^.^.^.^.^.^.^.^.^.^.^.^.^.^.^.^.^.^.^.^.^.^.^.^.^.^.^.^.^.^.^.^.^.^.^.^.^.^.^.^.^.^.^.^.^.^.^.^.^.^.^.^.^.^.^.^.^.^.^.^.^.^.^.^.^.^.^.^.^.^.^.^.^.^.^.^.^.^.^.^.^.^.^.^.^.^.^.^.^.^.^.^.^.^.^.^.^.^.^.^.^.^.^.^.^.^.^.^.^.^.^.^.^.^.^.^.^.^.^.^.^.^.^.^.^.^.^.^.^.^.^.^.^.^.^.^.^.. @ $ * > > 4 6 7 0 e e e e e e e u p p p p p p u u u u u u e e e t u u p f f k z v v b b m B B m B B Z D H H H H H D D B m B B B B B B D D H K P U P P L L L P L H H D D D B B m m m B B B B B Z D D D D D H D H H K L U U E E U U P L K D B B m m m b v v x z z z z k k k f f p p u u u e q 0 8 4 4 1 > > * % $ # o o ^.^.^.^.^.^.^.^.^.^.^.^.^.^.^.^.^.^.^.^.^.^.^.^.^.^.^.^.^.^.^.^.^.^.^.^.^.^.^.^.^.^.^.^.^.^.^.^.^.^.^.^.^.^.^.^.^.^.^.^.^.^.^.^.^.^.^.^.^.^.^.^.^.^.^.^.^.^.^.^.^.^.^.^.^.^.^.^.^.^.^.^.^.^.^.^.^.^.^.^.^.^.^.^.^.^.^.^.^.^.^.^.^.^.^.^.^.^.^.^.^.^.^.^.^.^.^.^.^.^.^.^.^.^.^.^.^.^.^.^.^.^.^.^.^.^.^.^.^.^.^.^.^.^.^.^.^.^.^.^.^.^.^.^.^.^.^.^.^.^.^.^.^.^.^.^.^.^.^.^.^.^.^.^.^.^.^.^.^.^.^.^.^.^.^.^.^.^.^.^.^.^.^.^.^.^.^.^.^.^.^.^.^.^.^.^.^.^.^.^.^.^.^.^.^.^.^.^.^.^.^.^.^.^.^.^.^.^.^.^.^.^.^.^.^.^.^.^.^.^.^.^.^.^.^.^.^.^.^.^.^.^.^.^.^.^.^.^.^.^.^.^.^.^.^.^.^.^.^.^.^.^.^.^.^.^.^.^.^.^.^.^.^.^.^.^.^.^.^.^.^.^.^.^.^.^.",
"^.^.^.^.^.^.^.^.^.^.^.^.^.^.^.^.^.^.^.^.^.^.^.^.^.^.^.^.^.^.^.^.^.^.^.^.^.^.^.^.^.^.^.^.^.^.^.^.^.^.^.^.^.^.^.^.^.^.^.^.^.^.^.^.^.^.^.^.^.^.^.^.^.^.^.^.^.^.^.^.^.^.^.^.^.^.^.^.^.^.^.^.^.^.^.^.^.^.^.^.^.^.^.^.^.^.^.^.^.^.^.^.^.^.^.^.^.^.^.^.^.^.^.^.^.^.^.^.^.^.^.^.^.^.^.^.^.^.^.^.^.^.^.^.^.^.^.^.^.^.^.^.^.^.^.^.^.^.^.^.^.^.^.^.^.^.^.^.^.^.^.^.o + % * > 1 4 0 0 q q e e e e e u u p p p f p p p p p p p p u u u p p f f k k z x b m m B B B B B Z D H K L L P L K K H D B B Z B D D D H K L U E E E U U E E E U P K K H H H D Z B Z D D D D D D H H H H H K K L U U E E E E E E E U P L H D B B B m m b b x v z z z z k k f f f p u u t e 0 7 8 4 4 1 > > * % $ # o . ^.^.^.^.^.^.^.^.^.^.^.^.^.^.^.^.^.^.^.^.^.^.^.^.^.^.^.^.^.^.^.^.^.^.^.^.^.^.^.^.^.^.^.^.^.^.^.^.^.^.^.^.^.^.^.^.^.^.^.^.^.^.^.^.^.^.^.^.^.^.^.^.^.^.^.^.^.^.^.^.^.^.^.^.^.^.^.^.^.^.^.^.^.^.^.^.^.^.^.^.^.^.^.^.^.^.^.^.^.^.^.^.^.^.^.^.^.^.^.^.^.^.^.^.^.^.^.^.^.^.^.^.^.^.^.^.^.^.^.^.^.^.^.^.^.^.^.^.^.^.^.^.^.^.^.^.^.^.^.^.^.^.^.^.^.^.^.^.^.^.^.^.^.^.^.^.^.^.^.^.^.^.^.^.^.^.^.^.^.^.^.^.^.^.^.^.^.^.^.^.^.^.^.^.^.^.^.^.^.^.^.^.^.^.^.^.^.^.^.^.^.^.^.^.^.^.^.^.^.^.^.^.^.^.^.^.^.^.^.^.^.^.^.^.^.^.^.^.^.^.^.^.^.^.^.^.^.^.^.^.^.^.^.^.^.^.^.^.^.^.^.^.^.^.^.^.^.^.^.^.^.^.^.^.^.^.^.^.^.^.^.^.^.^.^.^.^.^.^.^.^.^.^.^.^.^.",
"^.^.^.^.^.^.^.^.^.^.^.^.^.^.^.^.^.^.^.^.^.^.^.^.^.^.^.^.^.^.^.^.^.^.^.^.^.^.^.^.^.^.^.^.^.^.^.^.^.^.^.^.^.^.^.^.^.^.^.^.^.^.^.^.^.^.^.^.^.^.^.^.^.^.^.^.^.^.^.^.^.^.^.^.^.^.^.^.^.^.^.^.^.^.^.^.^.^.^.^.^.^.^.^.^.^.^.^.^.^.^.^.^.^.^.^.^.^.^.^.^.^.^.^.^.^.^.^.^.^.^.^.^.^.^.^.^.^.^.^.^.^.^.^.^.^.^.^.^.^.^.^.^.^.^.^.^.^.^.^.^.^.^.^.^.^.^.^.^.^.^.^.o $ % * > 4 6 0 e e e e e e e t u u p p f f p p f f f f f f p p p f f k k z v x b m B D D D D Z Z D H K L E E E E U P L H D D D D D H K P U U E E E E E E E E E E E E E U P K H H H H H K K K K L P U U U U U U U E E E E E E E E E E U P L H H D B B m m m b x v v v z k k f f p p u u t q 0 7 8 4 4 4 > > * % % + o . ^.^.^.^.^.^.^.^.^.^.^.^.^.^.^.^.^.^.^.^.^.^.^.^.^.^.^.^.^.^.^.^.^.^.^.^.^.^.^.^.^.^.^.^.^.^.^.^.^.^.^.^.^.^.^.^.^.^.^.^.^.^.^.^.^.^.^.^.^.^.^.^.^.^.^.^.^.^.^.^.^.^.^.^.^.^.^.^.^.^.^.^.^.^.^.^.^.^.^.^.^.^.^.^.^.^.^.^.^.^.^.^.^.^.^.^.^.^.^.^.^.^.^.^.^.^.^.^.^.^.^.^.^.^.^.^.^.^.^.^.^.^.^.^.^.^.^.^.^.^.^.^.^.^.^.^.^.^.^.^.^.^.^.^.^.^.^.^.^.^.^.^.^.^.^.^.^.^.^.^.^.^.^.^.^.^.^.^.^.^.^.^.^.^.^.^.^.^.^.^.^.^.^.^.^.^.^.^.^.^.^.^.^.^.^.^.^.^.^.^.^.^.^.^.^.^.^.^.^.^.^.^.^.^.^.^.^.^.^.^.^.^.^.^.^.^.^.^.^.^.^.^.^.^.^.^.^.^.^.^.^.^.^.^.^.^.^.^.^.^.^.^.^.^.^.^.^.^.^.^.^.^.^.^.^.^.^.^.^.^.^.^.^.^.^.^.^.^.^.^.^.^.^.^.^.^.",
"^.^.^.^.^.^.^.^.^.^.^.^.^.^.^.^.^.^.^.^.^.^.^.^.^.^.^.^.^.^.^.^.^.^.^.^.^.^.^.^.^.^.^.^.^.^.^.^.^.^.^.^.^.^.^.^.^.^.^.^.^.^.^.^.^.^.^.^.^.^.^.^.^.^.^.^.^.^.^.^.^.^.^.^.^.^.^.^.^.^.^.^.^.^.^.^.^.^.^.^.^.^.^.^.^.^.^.^.^.^.^.^.^.^.^.^.^.^.^.^.^.^.^.^.^.^.^.^.^.^.^.^.^.^.^.^.^.^.^.^.^.^.^.^.^.^.^.^.^.^.^.^.^.^.^.^.^.^.^.^.^.^.^.^.^.^.^.^.^.^.^.. o $ % * 1 4 0 e t e e e e e e u p p p f p p f k f f k k k k k f f f k k z z v b m B D H H H H D H H K L U E E E E U U U P K H H H L U E E E E E E E E E E E E E E E E E E E U P P P P U U U E U U E E E E E E E E E E E E E E E E E E E E E U L H D D B m m b v x x v x v k f f p u u u t e q 0 8 4 4 4 > * * % # + o . ^.^.^.^.^.^.^.^.^.^.^.^.^.^.^.^.^.^.^.^.^.^.^.^.^.^.^.^.^.^.^.^.^.^.^.^.^.^.^.^.^.^.^.^.^.^.^.^.^.^.^.^.^.^.^.^.^.^.^.^.^.^.^.^.^.^.^.^.^.^.^.^.^.^.^.^.^.^.^.^.^.^.^.^.^.^.^.^.^.^.^.^.^.^.^.^.^.^.^.^.^.^.^.^.^.^.^.^.^.^.^.^.^.^.^.^.^.^.^.^.^.^.^.^.^.^.^.^.^.^.^.^.^.^.^.^.^.^.^.^.^.^.^.^.^.^.^.^.^.^.^.^.^.^.^.^.^.^.^.^.^.^.^.^.^.^.^.^.^.^.^.^.^.^.^.^.^.^.^.^.^.^.^.^.^.^.^.^.^.^.^.^.^.^.^.^.^.^.^.^.^.^.^.^.^.^.^.^.^.^.^.^.^.^.^.^.^.^.^.^.^.^.^.^.^.^.^.^.^.^.^.^.^.^.^.^.^.^.^.^.^.^.^.^.^.^.^.^.^.^.^.^.^.^.^.^.^.^.^.^.^.^.^.^.^.^.^.^.^.^.^.^.^.^.^.^.^.^.^.^.^.^.^.^.^.^.^.^.^.^.^.^.^.^.^.^.^.^.^.^.^.^.^.^.^.^.",
"^.^.^.^.^.^.^.^.^.^.^.^.^.^.^.^.^.^.^.^.^.^.^.^.^.^.^.^.^.^.^.^.^.^.^.^.^.^.^.^.^.^.^.^.^.^.^.^.^.^.^.^.^.^.^.^.^.^.^.^.^.^.^.^.^.^.^.^.^.^.^.^.^.^.^.^.^.^.^.^.^.^.^.^.^.^.^.^.^.^.^.^.^.^.^.^.^.^.^.^.^.^.^.^.^.^.^.^.^.^.^.^.^.^.^.^.^.^.^.^.^.^.^.^.^.^.^.^.^.^.^.^.^.^.^.^.^.^.^.^.^.^.^.^.^.^.^.^.^.^.^.^.^.^.^.^.^.^.^.^.^.^.^.^.^.^.^.^.^.^.^.o + $ * > 1 6 q e u u t u t e u u p f f f f k k z k k z z v z z k k k z z z x b m Z D H K K L L K K L U U E E E E E U E E E P L U U E E E E E E E E E E E E E E E E E E E E E E E E E E E E E E E E E E E E E E E E E E E E E E E E E E E E E E E P H D D B m m b b b v x v k f f p u u u t e e 0 6 4 4 4 1 * * % $ @ o . ^.^.^.^.^.^.^.^.^.^.^.^.^.^.^.^.^.^.^.^.^.^.^.^.^.^.^.^.^.^.^.^.^.^.^.^.^.^.^.^.^.^.^.^.^.^.^.^.^.^.^.^.^.^.^.^.^.^.^.^.^.^.^.^.^.^.^.^.^.^.^.^.^.^.^.^.^.^.^.^.^.^.^.^.^.^.^.^.^.^.^.^.^.^.^.^.^.^.^.^.^.^.^.^.^.^.^.^.^.^.^.^.^.^.^.^.^.^.^.^.^.^.^.^.^.^.^.^.^.^.^.^.^.^.^.^.^.^.^.^.^.^.^.^.^.^.^.^.^.^.^.^.^.^.^.^.^.^.^.^.^.^.^.^.^.^.^.^.^.^.^.^.^.^.^.^.^.^.^.^.^.^.^.^.^.^.^.^.^.^.^.^.^.^.^.^.^.^.^.^.^.^.^.^.^.^.^.^.^.^.^.^.^.^.^.^.^.^.^.^.^.^.^.^.^.^.^.^.^.^.^.^.^.^.^.^.^.^.^.^.^.^.^.^.^.^.^.^.^.^.^.^.^.^.^.^.^.^.^.^.^.^.^.^.^.^.^.^.^.^.^.^.^.^.^.^.^.^.^.^.^.^.^.^.^.^.^.^.^.^.^.^.^.^.^.^.^.^.^.^.^.^.^.^.^.^.",
"^.^.^.^.^.^.^.^.^.^.^.^.^.^.^.^.^.^.^.^.^.^.^.^.^.^.^.^.^.^.^.^.^.^.^.^.^.^.^.^.^.^.^.^.^.^.^.^.^.^.^.^.^.^.^.^.^.^.^.^.^.^.^.^.^.^.^.^.^.^.^.^.^.^.^.^.^.^.^.^.^.^.^.^.^.^.^.^.^.^.^.^.^.^.^.^.^.^.^.^.^.^.^.^.^.^.^.^.^.^.^.^.^.^.^.^.^.^.^.^.^.^.^.^.^.^.^.^.^.^.^.^.^.^.^.^.^.^.^.^.^.^.^.^.^.^.^.^.^.^.^.^.^.^.^.^.^.^.^.^.^.^.^.^.^.^.^.^.^.^.o @ $ % * > 4 8 e t u u u u u u p u p f f k k z z z v v x x x v v z z k z v x b m B D H K K L U E U U U E E E E E E E E E E E E E E E E E E E E E E E E E W E W Q W Q W Q W E E E E E E E E E E E E E E E E E E E W E E E W E W E W E E E E E E E E U K D D B m m m m b b v x z k f p p u u u e e 0 0 8 4 4 1 > * % $ @ o . ^.^.^.^.^.^.^.^.^.^.^.^.^.^.^.^.^.^.^.^.^.^.^.^.^.^.^.^.^.^.^.^.^.^.^.^.^.^.^.^.^.^.^.^.^.^.^.^.^.^.^.^.^.^.^.^.^.^.^.^.^.^.^.^.^.^.^.^.^.^.^.^.^.^.^.^.^.^.^.^.^.^.^.^.^.^.^.^.^.^.^.^.^.^.^.^.^.^.^.^.^.^.^.^.^.^.^.^.^.^.^.^.^.^.^.^.^.^.^.^.^.^.^.^.^.^.^.^.^.^.^.^.^.^.^.^.^.^.^.^.^.^.^.^.^.^.^.^.^.^.^.^.^.^.^.^.^.^.^.^.^.^.^.^.^.^.^.^.^.^.^.^.^.^.^.^.^.^.^.^.^.^.^.^.^.^.^.^.^.^.^.^.^.^.^.^.^.^.^.^.^.^.^.^.^.^.^.^.^.^.^.^.^.^.^.^.^.^.^.^.^.^.^.^.^.^.^.^.^.^.^.^.^.^.^.^.^.^.^.^.^.^.^.^.^.^.^.^.^.^.^.^.^.^.^.^.^.^.^.^.^.^.^.^.^.^.^.^.^.^.^.^.^.^.^.^.^.^.^.^.^.^.^.^.^.^.^.^.^.^.^.^.^.^.^.^.^.^.^.^.^.^.^.^.^.^.",
"^.^.^.^.^.^.^.^.^.^.^.^.^.^.^.^.^.^.^.^.^.^.^.^.^.^.^.^.^.^.^.^.^.^.^.^.^.^.^.^.^.^.^.^.^.^.^.^.^.^.^.^.^.^.^.^.^.^.^.^.^.^.^.^.^.^.^.^.^.^.^.^.^.^.^.^.^.^.^.^.^.^.^.^.^.^.^.^.^.^.^.^.^.^.^.^.^.^.^.^.^.^.^.^.^.^.^.^.^.^.^.^.^.^.^.^.^.^.^.^.^.^.^.^.^.^.^.^.^.^.^.^.^.^.^.^.^.^.^.^.^.^.^.^.^.^.^.^.^.^.^.^.^.^.^.^.^.^.^.^.^.^.^.^.^.^.^.^.^.. o @ $ * > 1 4 0 e u p p p p p p f f f f k z v x x v v v b b b b b v x v v v m m B D D H K L P E E E E E E E E E E E E E E E E E E E E E E E W E W Q W Q W Q Q Q Q Q Q Q Q W W E E E E W E E E E E E E E W W E Q W Q W E Q Q Q E Q Q E W E E E E E E P K H D D Z B B m m b v v x k k f p u u u t e e 0 0 8 4 1 > * * % % + o . ^.^.^.^.^.^.^.^.^.^.^.^.^.^.^.^.^.^.^.^.^.^.^.^.^.^.^.^.^.^.^.^.^.^.^.^.^.^.^.^.^.^.^.^.^.^.^.^.^.^.^.^.^.^.^.^.^.^.^.^.^.^.^.^.^.^.^.^.^.^.^.^.^.^.^.^.^.^.^.^.^.^.^.^.^.^.^.^.^.^.^.^.^.^.^.^.^.^.^.^.^.^.^.^.^.^.^.^.^.^.^.^.^.^.^.^.^.^.^.^.^.^.^.^.^.^.^.^.^.^.^.^.^.^.^.^.^.^.^.^.^.^.^.^.^.^.^.^.^.^.^.^.^.^.^.^.^.^.^.^.^.^.^.^.^.^.^.^.^.^.^.^.^.^.^.^.^.^.^.^.^.^.^.^.^.^.^.^.^.^.^.^.^.^.^.^.^.^.^.^.^.^.^.^.^.^.^.^.^.^.^.^.^.^.^.^.^.^.^.^.^.^.^.^.^.^.^.^.^.^.^.^.^.^.^.^.^.^.^.^.^.^.^.^.^.^.^.^.^.^.^.^.^.^.^.^.^.^.^.^.^.^.^.^.^.^.^.^.^.^.^.^.^.^.^.^.^.^.^.^.^.^.^.^.^.^.^.^.^.^.^.^.^.^.^.^.^.^.^.^.^.^.^.^.^.",
"^.^.^.^.^.^.^.^.^.^.^.^.^.^.^.^.^.^.^.^.^.^.^.^.^.^.^.^.^.^.^.^.^.^.^.^.^.^.^.^.^.^.^.^.^.^.^.^.^.^.^.^.^.^.^.^.^.^.^.^.^.^.^.^.^.^.^.^.^.^.^.^.^.^.^.^.^.^.^.^.^.^.^.^.^.^.^.^.^.^.^.^.^.^.^.^.^.^.^.^.^.^.^.^.^.^.^.^.^.^.^.^.^.^.^.^.^.^.^.^.^.^.^.^.^.^.^.^.^.^.^.^.^.^.^.^.^.^.^.^.^.^.^.^.^.^.^.^.^.^.^.^.^.^.^.^.^.^.^.^.^.^.^.^.^.^.^.^.^.^.. o % * 1 4 6 0 e u p f f f f f f k k k k x v b b b b b b m b m m b b v x b m m B D D H H L U E E E E E E E E E E E E E E E E E E E E E E Q Q W Q Q Q Q Q Q Q Q Q Q Q ^ Q Q Q Q W E Q W Q W E W E W W Q W Q Q Q Q Q Q Q Q Q Q Q W Q Q Q Q Q E E E E E U K H D D D B B m m b b v v k f f p u u t e e e 0 0 6 4 > > * * % # o o . ^.^.^.^.^.^.^.^.^.^.^.^.^.^.^.^.^.^.^.^.^.^.^.^.^.^.^.^.^.^.^.^.^.^.^.^.^.^.^.^.^.^.^.^.^.^.^.^.^.^.^.^.^.^.^.^.^.^.^.^.^.^.^.^.^.^.^.^.^.^.^.^.^.^.^.^.^.^.^.^.^.^.^.^.^.^.^.^.^.^.^.^.^.^.^.^.^.^.^.^.^.^.^.^.^.^.^.^.^.^.^.^.^.^.^.^.^.^.^.^.^.^.^.^.^.^.^.^.^.^.^.^.^.^.^.^.^.^.^.^.^.^.^.^.^.^.^.^.^.^.^.^.^.^.^.^.^.^.^.^.^.^.^.^.^.^.^.^.^.^.^.^.^.^.^.^.^.^.^.^.^.^.^.^.^.^.^.^.^.^.^.^.^.^.^.^.^.^.^.^.^.^.^.^.^.^.^.^.^.^.^.^.^.^.^.^.^.^.^.^.^.^.^.^.^.^.^.^.^.^.^.^.^.^.^.^.^.^.^.^.^.^.^.^.^.^.^.^.^.^.^.^.^.^.^.^.^.^.^.^.^.^.^.^.^.^.^.^.^.^.^.^.^.^.^.^.^.^.^.^.^.^.^.^.^.^.^.^.^.^.^.^.^.^.^.^.^.^.^.^.^.^.^.^.",
"^.^.^.^.^.^.^.^.^.^.^.^.^.^.^.^.^.^.^.^.^.^.^.^.^.^.^.^.^.^.^.^.^.^.^.^.^.^.^.^.^.^.^.^.^.^.^.^.^.^.^.^.^.^.^.^.^.^.^.^.^.^.^.^.^.^.^.^.^.^.^.^.^.^.^.^.^.^.^.^.^.^.^.^.^.^.^.^.^.^.^.^.^.^.^.^.^.^.^.^.^.^.^.^.^.^.^.^.^.^.^.^.^.^.^.^.^.^.^.^.^.^.^.^.^.^.^.^.^.^.^.^.^.^.^.^.^.^.^.^.^.^.^.^.^.^.^.^.^.^.^.^.^.^.^.^.^.^.^.^.^.^.^.^.^.^.^.^.^.^.. o % * 1 4 8 q t p f f k k k z z z k z v v b b m m m m m B m m m m b v v b B B D D D D H L E E E E E E E E E E W E W W Q E E E E W E W Q Q Q Q Q Q Q Q Q Q ^ ^ ^ ^ ^ ^ ^ Q Q Q Q Q Q Q W W E W Q Q Q W Q W Q Q Q Q Q Q Q Q Q Q Q Q Q Q Q Q Q E E E E E P K H H D D B B m m m b x z k f p p p u t e e e q 7 4 4 1 > * % $ @ o . ^.^.^.^.^.^.^.^.^.^.^.^.^.^.^.^.^.^.^.^.^.^.^.^.^.^.^.^.^.^.^.^.^.^.^.^.^.^.^.^.^.^.^.^.^.^.^.^.^.^.^.^.^.^.^.^.^.^.^.^.^.^.^.^.^.^.^.^.^.^.^.^.^.^.^.^.^.^.^.^.^.^.^.^.^.^.^.^.^.^.^.^.^.^.^.^.^.^.^.^.^.^.^.^.^.^.^.^.^.^.^.^.^.^.^.^.^.^.^.^.^.^.^.^.^.^.^.^.^.^.^.^.^.^.^.^.^.^.^.^.^.^.^.^.^.^.^.^.^.^.^.^.^.^.^.^.^.^.^.^.^.^.^.^.^.^.^.^.^.^.^.^.^.^.^.^.^.^.^.^.^.^.^.^.^.^.^.^.^.^.^.^.^.^.^.^.^.^.^.^.^.^.^.^.^.^.^.^.^.^.^.^.^.^.^.^.^.^.^.^.^.^.^.^.^.^.^.^.^.^.^.^.^.^.^.^.^.^.^.^.^.^.^.^.^.^.^.^.^.^.^.^.^.^.^.^.^.^.^.^.^.^.^.^.^.^.^.^.^.^.^.^.^.^.^.^.^.^.^.^.^.^.^.^.^.^.^.^.^.^.^.^.^.^.^.^.^.^.^.^.^.^.^.^.",
"^.^.^.^.^.^.^.^.^.^.^.^.^.^.^.^.^.^.^.^.^.^.^.^.^.^.^.^.^.^.^.^.^.^.^.^.^.^.^.^.^.^.^.^.^.^.^.^.^.^.^.^.^.^.^.^.^.^.^.^.^.^.^.^.^.^.^.^.^.^.^.^.^.^.^.^.^.^.^.^.^.^.^.^.^.^.^.^.^.^.^.^.^.^.^.^.^.^.^.^.^.^.^.^.^.^.^.^.^.^.^.^.^.^.^.^.^.^.^.^.^.^.^.^.^.^.^.^.^.^.^.^.^.^.^.^.^.^.^.^.^.^.^.^.^.^.^.^.^.^.^.^.^.^.^.^.^.^.^.^.^.^.^.^.^.^.^.^.^.^.. @ % * 1 4 8 e u p f k z z z z v x x x x v b m B m B B B B B B B B m b b m B D D D D D K U E E E E E E E E E E W Q Q Q Q Q Q Q Q Q W E W Q Q Q Q Q Q ^ ^ ^ ^ ^ ^ ^ ^ ^ ^ ^ Q Q Q Q Q Q Q Q Q Q Q Q Q Q Q Q Q Q ^ ^ ^ ^ Q Q Q Q Q Q Q Q Q Q Q W E E E E E U K H H D D B B m m b x z k f f p p u u u e e q 0 6 4 4 1 > * % $ @ o ^.^.^.^.^.^.^.^.^.^.^.^.^.^.^.^.^.^.^.^.^.^.^.^.^.^.^.^.^.^.^.^.^.^.^.^.^.^.^.^.^.^.^.^.^.^.^.^.^.^.^.^.^.^.^.^.^.^.^.^.^.^.^.^.^.^.^.^.^.^.^.^.^.^.^.^.^.^.^.^.^.^.^.^.^.^.^.^.^.^.^.^.^.^.^.^.^.^.^.^.^.^.^.^.^.^.^.^.^.^.^.^.^.^.^.^.^.^.^.^.^.^.^.^.^.^.^.^.^.^.^.^.^.^.^.^.^.^.^.^.^.^.^.^.^.^.^.^.^.^.^.^.^.^.^.^.^.^.^.^.^.^.^.^.^.^.^.^.^.^.^.^.^.^.^.^.^.^.^.^.^.^.^.^.^.^.^.^.^.^.^.^.^.^.^.^.^.^.^.^.^.^.^.^.^.^.^.^.^.^.^.^.^.^.^.^.^.^.^.^.^.^.^.^.^.^.^.^.^.^.^.^.^.^.^.^.^.^.^.^.^.^.^.^.^.^.^.^.^.^.^.^.^.^.^.^.^.^.^.^.^.^.^.^.^.^.^.^.^.^.^.^.^.^.^.^.^.^.^.^.^.^.^.^.^.^.^.^.^.^.^.^.^.^.^.^.^.^.^.^.^.^.^.^.",
"^.^.^.^.^.^.^.^.^.^.^.^.^.^.^.^.^.^.^.^.^.^.^.^.^.^.^.^.^.^.^.^.^.^.^.^.^.^.^.^.^.^.^.^.^.^.^.^.^.^.^.^.^.^.^.^.^.^.^.^.^.^.^.^.^.^.^.^.^.^.^.^.^.^.^.^.^.^.^.^.^.^.^.^.^.^.^.^.^.^.^.^.^.^.^.^.^.^.^.^.^.^.^.^.^.^.^.^.^.^.^.^.^.^.^.^.^.^.^.^.^.^.^.^.^.^.^.^.^.^.^.^.^.^.^.^.^.^.^.^.^.^.^.^.^.^.^.^.^.^.^.^.^.^.^.^.^.^.^.^.^.^.^.^.^.^.^.^.^.^.o + % * 1 4 0 e u f f k z v x x v v b v b m m B B D B Z D D D D Z B m m m m B D D D D D L U E E E E E W Q W Q Q Q Q Q Q Q Q Q Q Q Q Q Q Q Q Q Q Q ^ ^ ^ ^ ^ ( ^ ( ( ( ^ ^ ^ ^ Q Q Q Q Q ^ ^ Q Q Q Q ^ Q Q ^ ^ ^ ^ ( ^ ^ ^ Q Q ^ Q Q Q Q ^ ^ Q W E E E E E U L H H D D Z B m m b x v k k k f p p p p u e e e 0 8 6 4 1 > * % # o . ^.^.^.^.^.^.^.^.^.^.^.^.^.^.^.^.^.^.^.^.^.^.^.^.^.^.^.^.^.^.^.^.^.^.^.^.^.^.^.^.^.^.^.^.^.^.^.^.^.^.^.^.^.^.^.^.^.^.^.^.^.^.^.^.^.^.^.^.^.^.^.^.^.^.^.^.^.^.^.^.^.^.^.^.^.^.^.^.^.^.^.^.^.^.^.^.^.^.^.^.^.^.^.^.^.^.^.^.^.^.^.^.^.^.^.^.^.^.^.^.^.^.^.^.^.^.^.^.^.^.^.^.^.^.^.^.^.^.^.^.^.^.^.^.^.^.^.^.^.^.^.^.^.^.^.^.^.^.^.^.^.^.^.^.^.^.^.^.^.^.^.^.^.^.^.^.^.^.^.^.^.^.^.^.^.^.^.^.^.^.^.^.^.^.^.^.^.^.^.^.^.^.^.^.^.^.^.^.^.^.^.^.^.^.^.^.^.^.^.^.^.^.^.^.^.^.^.^.^.^.^.^.^.^.^.^.^.^.^.^.^.^.^.^.^.^.^.^.^.^.^.^.^.^.^.^.^.^.^.^.^.^.^.^.^.^.^.^.^.^.^.^.^.^.^.^.^.^.^.^.^.^.^.^.^.^.^.^.^.^.^.^.^.^.^.^.^.^.^.^.^.^.^.",
"^.^.^.^.^.^.^.^.^.^.^.^.^.^.^.^.^.^.^.^.^.^.^.^.^.^.^.^.^.^.^.^.^.^.^.^.^.^.^.^.^.^.^.^.^.^.^.^.^.^.^.^.^.^.^.^.^.^.^.^.^.^.^.^.^.^.^.^.^.^.^.^.^.^.^.^.^.^.^.^.^.^.^.^.^.^.^.^.^.^.^.^.^.^.^.^.^.^.^.^.^.^.^.^.^.^.^.^.^.^.^.^.^.^.^.^.^.^.^.^.^.^.^.^.^.^.^.^.^.^.^.^.^.^.^.^.^.^.^.^.^.^.^.^.^.^.^.^.^.^.^.^.^.^.^.^.^.^.^.^.^.^.^.^.^.^.^.^.^.o o # % * 1 4 0 e u f k z z v v v b b b b m B B B D D D H H H H H D D B m B B D D H D D D L E E E E E Q W Q W Q ^ Q Q Q Q Q Q Q Q Q Q Q Q Q Q Q Q Q ^ ^ ( ( ( ( ) ( ) ) ) ( ^ ^ ^ ^ ^ Q ^ ^ Q ^ Q ^ ^ ^ ^ ^ ^ ^ ( ( ( ( ( ^ ^ ^ ^ ^ ^ ^ ^ ^ ^ Q Q Q E E E E E U L K H H D B B m b b x v z z k f f p p p u t e e 0 7 4 4 1 * * $ @ . ^.^.^.^.^.^.^.^.^.^.^.^.^.^.^.^.^.^.^.^.^.^.^.^.^.^.^.^.^.^.^.^.^.^.^.^.^.^.^.^.^.^.^.^.^.^.^.^.^.^.^.^.^.^.^.^.^.^.^.^.^.^.^.^.^.^.^.^.^.^.^.^.^.^.^.^.^.^.^.^.^.^.^.^.^.^.^.^.^.^.^.^.^.^.^.^.^.^.^.^.^.^.^.^.^.^.^.^.^.^.^.^.^.^.^.^.^.^.^.^.^.^.^.^.^.^.^.^.^.^.^.^.^.^.^.^.^.^.^.^.^.^.^.^.^.^.^.^.^.^.^.^.^.^.^.^.^.^.^.^.^.^.^.^.^.^.^.^.^.^.^.^.^.^.^.^.^.^.^.^.^.^.^.^.^.^.^.^.^.^.^.^.^.^.^.^.^.^.^.^.^.^.^.^.^.^.^.^.^.^.^.^.^.^.^.^.^.^.^.^.^.^.^.^.^.^.^.^.^.^.^.^.^.^.^.^.^.^.^.^.^.^.^.^.^.^.^.^.^.^.^.^.^.^.^.^.^.^.^.^.^.^.^.^.^.^.^.^.^.^.^.^.^.^.^.^.^.^.^.^.^.^.^.^.^.^.^.^.^.^.^.^.^.^.^.^.^.^.^.^.^.^.^.",
"^.^.^.^.^.^.^.^.^.^.^.^.^.^.^.^.^.^.^.^.^.^.^.^.^.^.^.^.^.^.^.^.^.^.^.^.^.^.^.^.^.^.^.^.^.^.^.^.^.^.^.^.^.^.^.^.^.^.^.^.^.^.^.^.^.^.^.^.^.^.^.^.^.^.^.^.^.^.^.^.^.^.^.^.^.^.^.^.^.^.^.^.^.^.^.^.^.^.^.^.^.^.^.^.^.^.^.^.^.^.^.^.^.^.^.^.^.^.^.^.^.^.^.^.^.^.^.^.^.^.^.^.^.^.^.^.^.^.^.^.^.^.^.^.^.^.^.^.^.^.^.^.^.^.^.^.^.^.^.^.^.^.^.^.^.^.^.^.^.o # $ % * 1 4 0 e u f k k v x b b b m m m B B B Z D D H K L P P K H H D Z Z D D D H H H H U E E E E E W Q Q Q Q Q ^ ^ Q Q ^ Q Q Q Q Q ^ ^ Q Q Q Q ^ ^ ( ( ( ( ( ) ) ) ) ) ) ( ( ( ^ ^ ^ ^ ^ ^ ^ ^ ^ ( ^ ( ( ( ) ( ) ) ) ( ( ( ^ ^ ( ^ ^ ^ ^ ^ ^ Q Q W E E E E E U L K H D D B B m m b v v v z k f f f f p u u u e 0 6 4 1 > * % # o ^.^.^.^.^.^.^.^.^.^.^.^.^.^.^.^.^.^.^.^.^.^.^.^.^.^.^.^.^.^.^.^.^.^.^.^.^.^.^.^.^.^.^.^.^.^.^.^.^.^.^.^.^.^.^.^.^.^.^.^.^.^.^.^.^.^.^.^.^.^.^.^.^.^.^.^.^.^.^.^.^.^.^.^.^.^.^.^.^.^.^.^.^.^.^.^.^.^.^.^.^.^.^.^.^.^.^.^.^.^.^.^.^.^.^.^.^.^.^.^.^.^.^.^.^.^.^.^.^.^.^.^.^.^.^.^.^.^.^.^.^.^.^.^.^.^.^.^.^.^.^.^.^.^.^.^.^.^.^.^.^.^.^.^.^.^.^.^.^.^.^.^.^.^.^.^.^.^.^.^.^.^.^.^.^.^.^.^.^.^.^.^.^.^.^.^.^.^.^.^.^.^.^.^.^.^.^.^.^.^.^.^.^.^.^.^.^.^.^.^.^.^.^.^.^.^.^.^.^.^.^.^.^.^.^.^.^.^.^.^.^.^.^.^.^.^.^.^.^.^.^.^.^.^.^.^.^.^.^.^.^.^.^.^.^.^.^.^.^.^.^.^.^.^.^.^.^.^.^.^.^.^.^.^.^.^.^.^.^.^.^.^.^.^.^.^.^.^.^.^.^.^.^.",
"^.^.^.^.^.^.^.^.^.^.^.^.^.^.^.^.^.^.^.^.^.^.^.^.^.^.^.^.^.^.^.^.^.^.^.^.^.^.^.^.^.^.^.^.^.^.^.^.^.^.^.^.^.^.^.^.^.^.^.^.^.^.^.^.^.^.^.^.^.^.^.^.^.^.^.^.^.^.^.^.^.^.^.^.^.^.^.^.^.^.^.^.^.^.^.^.^.^.^.^.^.^.^.^.^.^.^.^.^.^.^.^.^.^.^.^.^.^.^.^.^.^.^.^.^.^.^.^.^.^.^.^.^.^.^.^.^.^.^.^.^.^.^.^.^.^.^.^.^.^.^.^.^.^.^.^.^.^.^.^.^.^.^.^.^.^.^.^.^.o # $ % > 1 6 0 e u p f z v b b m m m B B B Z D D D H K L P L U P L K H H D D H H K L P P E E E E E E Q Q Q Q ^ ^ Q ^ Q ^ ^ ^ ^ Q ^ ^ ^ ^ Q ^ Q ^ ^ ( ( ) ) ) ) ) ' ' ' ) ) ) ) ) ( ) ( ( ( ^ ^ ^ ( ( ) ) ) ) ) ' ) ) ) ) ) ( ( ( ( ( ^ ^ ^ ^ ^ ^ Q Q E E E E E E P L K H D Z B B B m m m b v v z z k k f p p u t e 7 6 4 > * * $ o o . ^.^.^.^.^.^.^.^.^.^.^.^.^.^.^.^.^.^.^.^.^.^.^.^.^.^.^.^.^.^.^.^.^.^.^.^.^.^.^.^.^.^.^.^.^.^.^.^.^.^.^.^.^.^.^.^.^.^.^.^.^.^.^.^.^.^.^.^.^.^.^.^.^.^.^.^.^.^.^.^.^.^.^.^.^.^.^.^.^.^.^.^.^.^.^.^.^.^.^.^.^.^.^.^.^.^.^.^.^.^.^.^.^.^.^.^.^.^.^.^.^.^.^.^.^.^.^.^.^.^.^.^.^.^.^.^.^.^.^.^.^.^.^.^.^.^.^.^.^.^.^.^.^.^.^.^.^.^.^.^.^.^.^.^.^.^.^.^.^.^.^.^.^.^.^.^.^.^.^.^.^.^.^.^.^.^.^.^.^.^.^.^.^.^.^.^.^.^.^.^.^.^.^.^.^.^.^.^.^.^.^.^.^.^.^.^.^.^.^.^.^.^.^.^.^.^.^.^.^.^.^.^.^.^.^.^.^.^.^.^.^.^.^.^.^.^.^.^.^.^.^.^.^.^.^.^.^.^.^.^.^.^.^.^.^.^.^.^.^.^.^.^.^.^.^.^.^.^.^.^.^.^.^.^.^.^.^.^.^.^.^.^.^.^.^.^.^.^.^.^.^.",
"^.^.^.^.^.^.^.^.^.^.^.^.^.^.^.^.^.^.^.^.^.^.^.^.^.^.^.^.^.^.^.^.^.^.^.^.^.^.^.^.^.^.^.^.^.^.^.^.^.^.^.^.^.^.^.^.^.^.^.^.^.^.^.^.^.^.^.^.^.^.^.^.^.^.^.^.^.^.^.^.^.^.^.^.^.^.^.^.^.^.^.^.^.^.^.^.^.^.^.^.^.^.^.^.^.^.^.^.^.^.^.^.^.^.^.^.^.^.^.^.^.^.^.^.^.^.^.^.^.^.^.^.^.^.^.^.^.^.^.^.^.^.^.^.^.^.^.^.^.^.^.^.^.^.^.^.^.^.^.^.^.^.^.^.^.^.^.^.^.o @ # % > 4 6 e u u f k z b m m m B B B D D D H D H H P P U U U E E E P K K L L L U E E E E E E E E E W Q Q Q Q Q ^ ^ ^ Q ^ ^ Q ^ ^ ^ ^ ^ ^ ^ ^ ( ) ) ) ) ) ) ) ' ' ' ' ' ' ) ' ) ) ) ) ) ( ( ( ( ) ) ) ) ) ' ' ' ' ' ' ' ) ) ( ) ) ( ( ( ( ^ ^ ^ Q Q Q E E E E E U P H H D D B B B B B B m m b v v z z k f f p u e q 0 4 1 > * % $ @ o o . . ^.^.^.^.^.^.^.^.^.^.^.^.^.^.^.^.^.^.^.^.^.^.^.^.^.^.^.^.^.^.^.^.^.^.^.^.^.^.^.^.^.^.^.^.^.^.^.^.^.^.^.^.^.^.^.^.^.^.^.^.^.^.^.^.^.^.^.^.^.^.^.^.^.^.^.^.^.^.^.^.^.^.^.^.^.^.^.^.^.^.^.^.^.^.^.^.^.^.^.^.^.^.^.^.^.^.^.^.^.^.^.^.^.^.^.^.^.^.^.^.^.^.^.^.^.^.^.^.^.^.^.^.^.^.^.^.^.^.^.^.^.^.^.^.^.^.^.^.^.^.^.^.^.^.^.^.^.^.^.^.^.^.^.^.^.^.^.^.^.^.^.^.^.^.^.^.^.^.^.^.^.^.^.^.^.^.^.^.^.^.^.^.^.^.^.^.^.^.^.^.^.^.^.^.^.^.^.^.^.^.^.^.^.^.^.^.^.^.^.^.^.^.^.^.^.^.^.^.^.^.^.^.^.^.^.^.^.^.^.^.^.^.^.^.^.^.^.^.^.^.^.^.^.^.^.^.^.^.^.^.^.^.^.^.^.^.^.^.^.^.^.^.^.^.^.^.^.^.^.^.^.^.^.^.^.^.^.^.^.^.^.^.^.^.^.^.^.^.",
"^.^.^.^.^.^.^.^.^.^.^.^.^.^.^.^.^.^.^.^.^.^.^.^.^.^.^.^.^.^.^.^.^.^.^.^.^.^.^.^.^.^.^.^.^.^.^.^.^.^.^.^.^.^.^.^.^.^.^.^.^.^.^.^.^.^.^.^.^.^.^.^.^.^.^.^.^.^.^.^.^.^.^.^.^.^.^.^.^.^.^.^.^.^.^.^.^.^.^.^.^.^.^.^.^.^.^.^.^.^.^.^.^.^.^.^.^.^.^.^.^.^.^.^.^.^.^.^.^.^.^.^.^.^.^.^.^.^.^.^.^.^.^.^.^.^.^.^.^.^.^.^.^.^.^.^.^.^.^.^.^.^.^.^.^.^.^.^.^.. o # % > 4 7 q t u p z v b m B B D D D D D H K K H L U E E E E E E E E E U E E E E E E E E E E E E W Q Q Q Q ^ Q ^ ^ Q ^ Q ^ ^ ^ ^ ( ^ ( ( ( ( ( ) ' ' ' ' ' ' ' ' ' ' ' ' ' ' ' ' ' ' ) ) ) ) ) ) ) ' ' ' ' ' ' ' ' ' ' ' ) ) ) ) ( ( ( ^ ^ ^ ^ Q Q Q W E E E E E P H H D B B B B m B B B m b b v v v v z k f p u e 0 8 4 1 > > * % $ # + o . ^.^.^.^.^.^.^.^.^.^.^.^.^.^.^.^.^.^.^.^.^.^.^.^.^.^.^.^.^.^.^.^.^.^.^.^.^.^.^.^.^.^.^.^.^.^.^.^.^.^.^.^.^.^.^.^.^.^.^.^.^.^.^.^.^.^.^.^.^.^.^.^.^.^.^.^.^.^.^.^.^.^.^.^.^.^.^.^.^.^.^.^.^.^.^.^.^.^.^.^.^.^.^.^.^.^.^.^.^.^.^.^.^.^.^.^.^.^.^.^.^.^.^.^.^.^.^.^.^.^.^.^.^.^.^.^.^.^.^.^.^.^.^.^.^.^.^.^.^.^.^.^.^.^.^.^.^.^.^.^.^.^.^.^.^.^.^.^.^.^.^.^.^.^.^.^.^.^.^.^.^.^.^.^.^.^.^.^.^.^.^.^.^.^.^.^.^.^.^.^.^.^.^.^.^.^.^.^.^.^.^.^.^.^.^.^.^.^.^.^.^.^.^.^.^.^.^.^.^.^.^.^.^.^.^.^.^.^.^.^.^.^.^.^.^.^.^.^.^.^.^.^.^.^.^.^.^.^.^.^.^.^.^.^.^.^.^.^.^.^.^.^.^.^.^.^.^.^.^.^.^.^.^.^.^.^.^.^.^.^.^.^.^.^.^.^.^.",
"^.^.^.^.^.^.^.^.^.^.^.^.^.^.^.^.^.^.^.^.^.^.^.^.^.^.^.^.^.^.^.^.^.^.^.^.^.^.^.^.^.^.^.^.^.^.^.^.^.^.^.^.^.^.^.^.^.^.^.^.^.^.^.^.^.^.^.^.^.^.^.^.^.^.^.^.^.^.^.^.^.^.^.^.^.^.^.^.^.^.^.^.^.^.^.^.^.^.^.^.^.^.^.^.^.^.^.^.^.^.^.^.^.^.^.^.^.^.^.^.^.^.^.^.^.^.^.^.^.^.^.^.^.^.^.^.^.^.^.^.^.^.^.^.^.^.^.^.^.^.^.^.^.^.^.^.^.^.^.^.^.^.^.^.^.^.^.^.^.. @ $ % > 4 8 q e u f z x b m B B Z D D D D H L L L P U E E E E E E E E E E E E E E E E E E W E Q W Q Q Q ^ ^ ^ ^ ^ ^ Q ^ ^ ^ ^ ( ( ) ) ( ) ) ) ) ' ' ' ' ' ' ' ' } } } ' ' ' ' ' ' ' ' ' ' ' ' ' ' ' ' ' ' ' ' ' ' ' ' ' ' ' ) ) ) ) ) ) ) ( ^ ^ ^ Q Q Q E E E E E U K H D Z B B B B B B Z B m m m b b b v k k f u u e 0 6 4 1 1 > > * % % # @ o . ^.^.^.^.^.^.^.^.^.^.^.^.^.^.^.^.^.^.^.^.^.^.^.^.^.^.^.^.^.^.^.^.^.^.^.^.^.^.^.^.^.^.^.^.^.^.^.^.^.^.^.^.^.^.^.^.^.^.^.^.^.^.^.^.^.^.^.^.^.^.^.^.^.^.^.^.^.^.^.^.^.^.^.^.^.^.^.^.^.^.^.^.^.^.^.^.^.^.^.^.^.^.^.^.^.^.^.^.^.^.^.^.^.^.^.^.^.^.^.^.^.^.^.^.^.^.^.^.^.^.^.^.^.^.^.^.^.^.^.^.^.^.^.^.^.^.^.^.^.^.^.^.^.^.^.^.^.^.^.^.^.^.^.^.^.^.^.^.^.^.^.^.^.^.^.^.^.^.^.^.^.^.^.^.^.^.^.^.^.^.^.^.^.^.^.^.^.^.^.^.^.^.^.^.^.^.^.^.^.^.^.^.^.^.^.^.^.^.^.^.^.^.^.^.^.^.^.^.^.^.^.^.^.^.^.^.^.^.^.^.^.^.^.^.^.^.^.^.^.^.^.^.^.^.^.^.^.^.^.^.^.^.^.^.^.^.^.^.^.^.^.^.^.^.^.^.^.^.^.^.^.^.^.^.^.^.^.^.^.^.^.^.^.^.^.",
"^.^.^.^.^.^.^.^.^.^.^.^.^.^.^.^.^.^.^.^.^.^.^.^.^.^.^.^.^.^.^.^.^.^.^.^.^.^.^.^.^.^.^.^.^.^.^.^.^.^.^.^.^.^.^.^.^.^.^.^.^.^.^.^.^.^.^.^.^.^.^.^.^.^.^.^.^.^.^.^.^.^.^.^.^.^.^.^.^.^.^.^.^.^.^.^.^.^.^.^.^.^.^.^.^.^.^.^.^.^.^.^.^.^.^.^.^.^.^.^.^.^.^.^.^.^.^.^.^.^.^.^.^.^.^.^.^.^.^.^.^.^.^.^.^.^.^.^.^.^.^.^.^.^.^.^.^.^.^.^.^.^.^.^.^.^.^.^.^.^.o # % > 1 6 q t p f z v b m m B Z D D D H K P U P U E E E E E E E E E E E E E E E E W W Q Q Q Q Q Q ^ ^ ^ ^ ^ ^ ^ ^ ^ ^ ^ ^ ^ ( ( ( ) ) ) ) ' ' ' ' ' ' ' ' ' } } } } } } } } ' ' ' ' ' ' ' ' ' ' ' ' ' ' ' ' ' ' ' ' ' ' ' ' ) ) ) ) ) ) ( ^ ^ Q Q Q Q W E E E E E L H H D D Z B Z D D D D B B m m m m b x z k f u t q 0 8 6 4 4 1 > * * % $ + o o ^.^.^.^.^.^.^.^.^.^.^.^.^.^.^.^.^.^.^.^.^.^.^.^.^.^.^.^.^.^.^.^.^.^.^.^.^.^.^.^.^.^.^.^.^.^.^.^.^.^.^.^.^.^.^.^.^.^.^.^.^.^.^.^.^.^.^.^.^.^.^.^.^.^.^.^.^.^.^.^.^.^.^.^.^.^.^.^.^.^.^.^.^.^.^.^.^.^.^.^.^.^.^.^.^.^.^.^.^.^.^.^.^.^.^.^.^.^.^.^.^.^.^.^.^.^.^.^.^.^.^.^.^.^.^.^.^.^.^.^.^.^.^.^.^.^.^.^.^.^.^.^.^.^.^.^.^.^.^.^.^.^.^.^.^.^.^.^.^.^.^.^.^.^.^.^.^.^.^.^.^.^.^.^.^.^.^.^.^.^.^.^.^.^.^.^.^.^.^.^.^.^.^.^.^.^.^.^.^.^.^.^.^.^.^.^.^.^.^.^.^.^.^.^.^.^.^.^.^.^.^.^.^.^.^.^.^.^.^.^.^.^.^.^.^.^.^.^.^.^.^.^.^.^.^.^.^.^.^.^.^.^.^.^.^.^.^.^.^.^.^.^.^.^.^.^.^.^.^.^.^.^.^.^.^.^.^.^.^.^.^.^.^.^.",
"^.^.^.^.^.^.^.^.^.^.^.^.^.^.^.^.^.^.^.^.^.^.^.^.^.^.^.^.^.^.^.^.^.^.^.^.^.^.^.^.^.^.^.^.^.^.^.^.^.^.^.^.^.^.^.^.^.^.^.^.^.^.^.^.^.^.^.^.^.^.^.^.^.^.^.^.^.^.^.^.^.^.^.^.^.^.^.^.^.^.^.^.^.^.^.^.^.^.^.^.^.^.^.^.^.^.^.^.^.^.^.^.^.^.^.^.^.^.^.^.^.^.^.^.^.^.^.^.^.^.^.^.^.^.^.^.^.^.^.^.^.^.^.^.^.^.^.^.^.^.^.^.^.^.^.^.^.^.^.^.^.^.^.^.^.^.^.^.^.^.o $ % > 4 8 e u p f k x v b m B Z Z D D H K U U U E E E E E E E E E W E E W Q Q W Q Q Q Q Q Q Q Q Q ^ ^ ^ ^ ( ^ ( ^ ^ ^ ^ ^ ) ( ' ) ) ' ' ' ' ' ' ' ' } ' ' ' ' } }  .} } } } } } } ' ' ' ' ' ' ' ' ' ' ' ' ' ' ' ' ' ' ' ' ' ' ) ) ) ) ) ( ( ^ Q Q Q W E E E E E E P K H D D D D D D D D D D D B B B m m b v k k f u t e q 0 0 6 4 4 1 > * * % # o . . ^.^.^.^.^.^.^.^.^.^.^.^.^.^.^.^.^.^.^.^.^.^.^.^.^.^.^.^.^.^.^.^.^.^.^.^.^.^.^.^.^.^.^.^.^.^.^.^.^.^.^.^.^.^.^.^.^.^.^.^.^.^.^.^.^.^.^.^.^.^.^.^.^.^.^.^.^.^.^.^.^.^.^.^.^.^.^.^.^.^.^.^.^.^.^.^.^.^.^.^.^.^.^.^.^.^.^.^.^.^.^.^.^.^.^.^.^.^.^.^.^.^.^.^.^.^.^.^.^.^.^.^.^.^.^.^.^.^.^.^.^.^.^.^.^.^.^.^.^.^.^.^.^.^.^.^.^.^.^.^.^.^.^.^.^.^.^.^.^.^.^.^.^.^.^.^.^.^.^.^.^.^.^.^.^.^.^.^.^.^.^.^.^.^.^.^.^.^.^.^.^.^.^.^.^.^.^.^.^.^.^.^.^.^.^.^.^.^.^.^.^.^.^.^.^.^.^.^.^.^.^.^.^.^.^.^.^.^.^.^.^.^.^.^.^.^.^.^.^.^.^.^.^.^.^.^.^.^.^.^.^.^.^.^.^.^.^.^.^.^.^.^.^.^.^.^.^.^.^.^.^.^.^.^.^.^.^.^.^.^.^.^.",
"^.^.^.^.^.^.^.^.^.^.^.^.^.^.^.^.^.^.^.^.^.^.^.^.^.^.^.^.^.^.^.^.^.^.^.^.^.^.^.^.^.^.^.^.^.^.^.^.^.^.^.^.^.^.^.^.^.^.^.^.^.^.^.^.^.^.^.^.^.^.^.^.^.^.^.^.^.^.^.^.^.^.^.^.^.^.^.^.^.^.^.^.^.^.^.^.^.^.^.^.^.^.^.^.^.^.^.^.^.^.^.^.^.^.^.^.^.^.^.^.^.^.^.^.^.^.^.^.^.^.^.^.^.^.^.^.^.^.^.^.^.^.^.^.^.^.^.^.^.^.^.^.^.^.^.^.^.^.^.^.^.^.^.^.^.^.^.^.^.^.o + % > 4 0 e u p f z x v m m B B D D D H P U U E E E E E E W W Q Q Q Q Q Q Q Q Q Q Q Q ^ ^ ^ ^ ^ ^ ^ ^ ^ ( ( ( ^ ( ^ ( ( ) ) ) ) ' ' ' ' ' ' ' ' ' } } } } } } }  . . . . .} } } } } ' } ' ' ' ' ' ' ' ' ' ' ' ' ' ' ' ' ' ' ' ' ' ' ' ) ) ( ^ ^ Q Q Q Q E E E E E P L H D D D D D D H H H D D D D B B B m b x z f p u u e e e q 0 6 4 1 > * * % # + @ o . ^.^.^.^.^.^.^.^.^.^.^.^.^.^.^.^.^.^.^.^.^.^.^.^.^.^.^.^.^.^.^.^.^.^.^.^.^.^.^.^.^.^.^.^.^.^.^.^.^.^.^.^.^.^.^.^.^.^.^.^.^.^.^.^.^.^.^.^.^.^.^.^.^.^.^.^.^.^.^.^.^.^.^.^.^.^.^.^.^.^.^.^.^.^.^.^.^.^.^.^.^.^.^.^.^.^.^.^.^.^.^.^.^.^.^.^.^.^.^.^.^.^.^.^.^.^.^.^.^.^.^.^.^.^.^.^.^.^.^.^.^.^.^.^.^.^.^.^.^.^.^.^.^.^.^.^.^.^.^.^.^.^.^.^.^.^.^.^.^.^.^.^.^.^.^.^.^.^.^.^.^.^.^.^.^.^.^.^.^.^.^.^.^.^.^.^.^.^.^.^.^.^.^.^.^.^.^.^.^.^.^.^.^.^.^.^.^.^.^.^.^.^.^.^.^.^.^.^.^.^.^.^.^.^.^.^.^.^.^.^.^.^.^.^.^.^.^.^.^.^.^.^.^.^.^.^.^.^.^.^.^.^.^.^.^.^.^.^.^.^.^.^.^.^.^.^.^.^.^.^.^.^.^.^.^.^.^.^.^.^.",
"^.^.^.^.^.^.^.^.^.^.^.^.^.^.^.^.^.^.^.^.^.^.^.^.^.^.^.^.^.^.^.^.^.^.^.^.^.^.^.^.^.^.^.^.^.^.^.^.^.^.^.^.^.^.^.^.^.^.^.^.^.^.^.^.^.^.^.^.^.^.^.^.^.^.^.^.^.^.^.^.^.^.^.^.^.^.^.^.^.^.^.^.^.^.^.^.^.^.^.^.^.^.^.^.^.^.^.^.^.^.^.^.^.^.^.^.^.^.^.^.^.^.^.^.^.^.^.^.^.^.^.^.^.^.^.^.^.^.^.^.^.^.^.^.^.^.^.^.^.^.^.^.^.^.^.^.^.^.^.^.^.^.^.^.^.^.^.^.^.^.. @ % > 1 8 q e p f k x b m m B B D H H H P E E E E E E W W E Q Q Q Q Q Q Q Q ^ ^ ^ ^ ^ ^ ( ^ ^ ^ ^ ^ ^ ^ ( ( ( ( ( ( ) ) ) ) ' ' ' ' ' ' ' } } } } } } } } } }  . . . . . . .} } } } ' ' ' ' ' ' ' ' ' ' ' ' ' ' ' ' ' ' ' ' ' ' ' ' ' ) ) ) ( ^ ^ Q Q W W E E E E E U L H H H H H H H H H H D H H D D Z B m b z k f f p u u t e q 0 8 4 1 1 > * % % $ @ o o o o . ^.^.^.^.. ^.^.^.^.^.^.^.^.^.^.^.^.^.^.^.^.^.^.^.^.^.^.^.^.^.. . ^.^.^.^.^.^.^.^.^.^.^.^.^.^.^.^.^.^.^.^.^.^.^.^.^.^.^.^.^.^.^.^.^.^.^.^.^.^.^.^.^.^.^.^.^.^.^.^.^.^.^.^.^.^.^.^.^.^.^.^.^.^.^.^.^.^.^.^.^.^.^.^.^.^.^.^.^.^.^.^.^.^.^.^.^.^.^.^.^.^.^.^.^.^.^.^.^.^.^.^.^.^.^.^.^.^.^.^.^.^.^.^.^.^.^.^.^.^.^.^.^.^.^.^.^.^.^.^.^.^.^.^.^.^.^.^.^.^.^.^.^.^.^.^.^.^.^.^.^.^.^.^.^.^.^.^.^.^.^.^.^.^.^.^.^.^.^.^.^.^.^.^.^.^.^.^.^.^.^.^.^.^.^.^.^.^.^.^.^.^.^.^.^.^.^.^.^.^.^.^.^.^.^.^.^.^.^.^.^.^.^.^.^.^.^.^.^.^.^.^.^.^.^.^.^.^.^.^.^.^.^.^.^.^.^.^.^.^.^.^.^.^.^.^.^.^.^.^.^.^.^.^.^.^.",
"^.^.^.^.^.^.^.^.^.^.^.^.^.^.^.^.^.^.^.^.^.^.^.^.^.^.^.^.^.^.^.^.^.^.^.^.^.^.^.^.^.^.^.^.^.^.^.^.^.^.^.^.^.^.^.^.^.^.^.^.^.^.^.^.^.^.^.^.^.^.^.^.^.^.^.^.^.^.^.^.^.^.^.^.^.^.^.^.^.^.^.^.^.^.^.^.^.^.^.^.^.^.^.^.^.^.^.^.^.^.^.^.^.^.^.^.^.^.^.^.^.^.^.^.^.^.^.^.^.^.^.^.^.^.^.^.^.^.^.^.^.^.^.^.^.^.^.^.^.^.^.^.^.^.^.^.^.^.^.^.^.^.^.^.^.^.^.^.^.^.. o % > 1 6 0 e u f z x b m B m Z D H K L U E E E E E Q Q Q Q Q Q Q Q ^ ^ ^ ^ ^ ( ^ ( ( ( ) ( ( ( ( ( ) ( ) ) ) ( ) ) ) ) ' ' ' ' ' ' ' } } }  . . . . . . . . . . . . . . .} } } } } } ' ' ' ' ' ' ' ' ' ' ' ' ' ' ' ' ' ' ' ' ' ' ' ) ) ) ( ( ^ ^ Q Q Q Q W E E E E E U L K K H H H K K K K H K H H D D B m b x z k f p p u u u e e q 0 8 4 4 > * * % % $ $ # + @ o o o o @ o o . ^.^.^.^.^.^.^.^.^.^.^.^.^.^.^.^.^.^.^.. . . o o o . . . . . . . o . . . . ^.^.^.^.^.^.^.^.^.^.^.^.^.^.^.^.^.^.^.^.^.^.^.^.^.^.^.^.^.^.^.^.^.^.^.^.^.^.^.^.^.^.^.^.^.^.^.^.^.^.^.^.^.^.^.^.^.^.^.^.^.^.^.^.^.^.^.^.^.^.^.^.^.^.^.^.^.^.^.^.^.^.^.^.^.^.^.^.^.^.^.^.^.^.^.^.^.^.^.^.^.^.^.^.^.^.^.^.^.^.^.^.^.^.^.^.^.^.^.^.^.^.^.^.^.^.^.^.^.^.^.^.^.^.^.^.^.^.^.^.^.^.^.^.^.^.^.^.^.^.^.^.^.^.^.^.^.^.^.^.^.^.^.^.^.^.^.^.^.^.^.^.^.^.^.^.^.^.^.^.^.^.^.^.^.^.^.^.^.^.^.^.^.^.^.^.^.^.^.^.^.^.^.^.^.^.^.^.^.^.^.^.^.^.^.^.^.^.^.^.^.^.^.^.^.^.^.^.^.^.^.^.^.^.^.^.^.^.^.^.^.",
"^.^.^.^.^.^.^.^.^.^.^.^.^.^.^.^.^.^.^.^.^.^.^.^.^.^.^.^.^.^.^.^.^.^.^.^.^.^.^.^.^.^.^.^.^.^.^.^.^.^.^.^.^.^.^.^.^.^.^.^.^.^.^.^.^.^.^.^.^.^.^.^.^.^.^.^.^.^.^.^.^.^.^.^.^.^.^.^.^.^.^.^.^.^.^.^.^.^.^.^.^.^.^.^.^.^.^.^.^.^.^.^.^.^.^.^.^.^.^.^.^.^.^.^.^.^.^.^.^.^.^.^.^.^.^.^.^.^.^.^.^.^.^.^.^.^.^.^.^.^.^.^.^.^.^.^.^.^.^.^.^.^.^.^.^.^.^.^.^.^.^.o % * 1 4 0 e u f k x b m B B D D H K P E E E E Q E Q Q Q Q ^ ^ ^ Q ^ ^ ^ ^ ( ) ( ) ) ) ) ) ) ( ) ( ) ) ) ) ) ) ' ) ' ' ' ' ' ' ' } } }  . . . . . . . . . . . . . . . . . . .} } } } } ' ' } ' ' ' ' ' ' ' ' ' ' ' ' ' ' ' ' ' ' ' ' ' ) ) ( ( ^ ^ Q Q Q W E E E E E E E U P L K K K L P P P P L H D D D B m b v z z f f p p u u u u e q 0 6 4 1 > * * * * % % % $ # + # # + @ o o o . . . . ^.. . . ^.^.^.^.^.^.^.. o o o o o o @ o o o o o @ @ @ o o o o o . ^.. o . . . . ^.^.^.^.^.^.^.^.^.^.^.^.^.^.^.^.^.^.^.^.^.^.^.^.^.^.^.^.^.^.^.^.^.^.^.^.^.^.^.^.^.^.^.^.^.^.^.^.^.^.^.^.^.^.^.^.^.^.^.^.^.^.^.^.^.^.^.^.^.^.^.^.^.^.^.^.^.^.^.^.^.^.^.^.^.^.^.^.^.^.^.^.^.^.^.^.^.^.^.^.^.^.^.^.^.^.^.^.^.^.^.^.^.^.^.^.^.^.^.^.^.^.^.^.^.^.^.^.^.^.^.^.^.^.^.^.^.^.^.^.^.^.^.^.^.^.^.^.^.^.^.^.^.^.^.^.^.^.^.^.^.^.^.^.^.^.^.^.^.^.^.^.^.^.^.^.^.^.^.^.^.^.^.^.^.^.^.^.^.^.^.^.^.^.^.^.^.^.^.^.^.^.^.^.^.^.^.^.^.^.^.^.^.^.^.^.^.^.^.^.^.^.^.^.^.^.^.^.^.^.^.^.",
"^.^.^.^.^.^.^.^.^.^.^.^.^.^.^.^.^.^.^.^.^.^.^.^.^.^.^.^.^.^.^.^.^.^.^.^.^.^.^.^.^.^.^.^.^.^.^.^.^.^.^.^.^.^.^.^.^.^.^.^.^.^.^.^.^.^.^.^.^.^.^.^.^.^.^.^.^.^.^.^.^.^.^.^.^.^.^.^.^.^.^.^.^.^.^.^.^.^.^.^.^.^.^.^.^.^.^.^.^.^.^.^.^.^.^.^.^.^.^.^.^.^.^.^.^.^.^.^.^.^.^.^.^.^.^.^.^.^.^.^.^.^.^.^.^.^.^.^.^.^.^.^.^.^.^.^.^.^.^.^.^.^.^.^.^.^.^.^.^.^.. # % * > 4 8 q u p k v b m B Z D H H L U E E E E Q Q Q Q ^ ^ ^ ^ ^ ^ ^ ^ ^ ( ) ( ) ) ) ) ' ) ) ) ) ) ) ) ) ) ' ' ' ' ' ' ' } ' } } } }  . . . . . . . . . . . . . . . . . . .}  .} } } } } } ' ' ' ' ' ' ' ' ' ' ' ' ' ' ' ' ' ' ' ' ' ) ) ) ( ( ^ ^ ^ Q Q W E E E E E E E E E U P L L P U E E U P K H H D D B m m b v k k f f p p p p u u e 0 7 4 4 > > > > > > * * % % % % % $ # + o o o . . o o o o . . . ^.. . o o o o @ @ + + + + @ # + # $ % # # # + o o o o o @ o @ @ o o . ^.^.^.^.^.^.^.^.^.^.^.^.^.^.^.^.^.^.^.^.^.^.^.^.^.^.^.^.^.^.^.^.^.^.^.^.^.^.^.^.^.^.^.^.^.^.^.^.^.^.^.^.^.^.^.^.^.^.^.^.^.^.^.^.^.^.^.^.^.^.^.^.^.^.^.^.^.^.^.^.^.^.^.^.^.^.^.^.^.^.^.^.^.^.^.^.^.^.^.^.^.^.^.^.^.^.^.^.^.^.^.^.^.^.^.^.^.^.^.^.^.^.^.^.^.^.^.^.^.^.^.^.^.^.^.^.^.^.^.^.^.^.^.^.^.^.^.^.^.^.^.^.^.^.^.^.^.^.^.^.^.^.^.^.^.^.^.^.^.^.^.^.^.^.^.^.^.^.^.^.^.^.^.^.^.^.^.^.^.^.^.^.^.^.^.^.^.^.^.^.^.^.^.^.^.^.^.^.^.^.^.^.^.^.^.^.^.^.^.^.^.^.^.^.^.^.^.^.^.^.",
"^.^.^.^.^.^.^.^.^.^.^.^.^.^.^.^.^.^.^.^.^.^.^.^.^.^.^.^.^.^.^.^.^.^.^.^.^.^.^.^.^.^.^.^.^.^.^.^.^.^.^.^.^.^.^.^.^.^.^.^.^.^.^.^.^.^.^.^.^.^.^.^.^.^.^.^.^.^.^.^.^.^.^.^.^.^.^.^.^.^.^.^.^.^.^.^.^.^.^.^.^.^.^.^.^.^.^.^.^.^.^.^.^.^.^.^.^.^.^.^.^.^.^.^.^.^.^.^.^.^.^.^.^.^.^.^.^.^.^.^.^.^.^.^.^.^.^.^.^.^.^.^.^.^.^.^.^.^.^.^.^.^.^.^.^.^.^.^.^.^.o # % > 1 4 8 e u f f k x m m B D H H P E E E E W Q Q ^ ^ ^ ^ ^ ( ^ ^ ^ ( ( ) ) ) ' ' ' ' ' ' ' ) ) ' ) ' ' ' ' ' ' ' ' ' } } } }  . . . . . .O. . . . . . . . . . . . . . . . . . .} } } } } } } } ' ' } ' ' ' ' ' ' ' ' ' ' ' ' ' ' ) ' ) ) ) ( ( ^ ^ ^ Q Q W W E E E E E E E E U U P U E E E E E L K K H H D Z B m b v v z k k f f f p p u e e 0 6 4 4 1 1 1 1 > > * * * * * % % % # # + o o o o o o o o o o o o o o @ + + $ $ # $ $ $ $ # % % * % % % % $ # + # $ $ % # # @ + + o ^.^.^.^.^.^.^.^.^.^.^.^.^.^.^.^.^.^.^.^.^.^.^.^.^.^.^.^.^.^.^.^.^.^.^.^.^.^.^.^.^.^.^.^.^.^.^.^.^.^.^.^.^.^.^.^.^.^.^.^.^.^.^.^.^.^.^.^.^.^.^.^.^.^.^.^.^.^.^.^.^.^.^.^.^.^.^.^.^.^.^.^.^.^.^.^.^.^.^.^.^.^.^.^.^.^.^.^.^.^.^.^.^.^.^.^.^.^.^.^.^.^.^.^.^.^.^.^.^.^.^.^.^.^.^.^.^.^.^.^.^.^.^.^.^.^.^.^.^.^.^.^.^.^.^.^.^.^.^.^.^.^.^.^.^.^.^.^.^.^.^.^.^.^.^.^.^.^.^.^.^.^.^.^.^.^.^.^.^.^.^.^.^.^.^.^.^.^.^.^.^.^.^.^.^.^.^.^.^.^.^.^.^.^.^.^.^.^.^.^.^.^.^.^.^.^.^.^.^.",
"^.^.^.^.^.^.^.^.^.^.^.^.^.^.^.^.^.^.^.^.^.^.^.^.^.^.^.^.^.^.^.^.^.^.^.^.^.^.^.^.^.^.^.^.^.^.^.^.^.^.^.^.^.^.^.^.^.^.^.^.^.^.^.^.^.^.^.^.^.^.^.^.^.^.^.^.^.^.^.^.^.^.^.^.^.^.^.^.^.^.^.^.^.^.^.^.^.^.^.^.^.^.^.^.^.^.^.^.^.^.^.^.^.^.^.^.^.^.^.^.^.^.^.^.^.^.^.^.^.^.^.^.^.^.^.^.^.^.^.^.^.^.^.^.^.^.^.^.^.^.^.^.^.^.^.^.^.^.^.^.^.^.^.^.^.^.^.^.^.^.o # * * 1 4 8 q u p f k v b m B D H K U E E E Q Q Q ^ ^ ^ ^ ^ ( ( ^ ( ( ) ) ) ' ' ' ' ' ' ' ' ' ' ' ' ' ' ' ' ' ' ' ' ' } } } }  . . . . .O.O.O.O.O. . . . . . . . . . . . . . . . . .} } } } } } } } } } } } ' } ' ' ' ' ' ' ' ' ' ' ' ) ) ) ) ( ( ^ ^ ^ Q Q Q E E E E E E E E E E E E E E E E E E U U P L K H H D D B m b b v v z z k k f p u u e 0 7 8 6 6 4 4 4 4 1 > > > > > * * % % $ # @ @ @ + # # # + @ @ @ @ @ + # $ % % * % % % % % * * * > > * * * % % % % % * % % % % % + o o ^.^.^.^.^.^.^.^.^.^.^.^.^.^.^.^.^.^.^.^.^.^.^.^.^.^.^.^.^.^.^.^.^.^.^.^.^.^.^.^.^.^.^.^.^.^.^.^.^.^.^.^.^.^.^.^.^.^.^.^.^.^.^.^.^.^.^.^.^.^.^.^.^.^.^.^.^.^.^.^.^.^.^.^.^.^.^.^.^.^.^.^.^.^.^.^.^.^.^.^.^.^.^.^.^.^.^.^.^.^.^.^.^.^.^.^.^.^.^.^.^.^.^.^.^.^.^.^.^.^.^.^.^.^.^.^.^.^.^.^.^.^.^.^.^.^.^.^.^.^.^.^.^.^.^.^.^.^.^.^.^.^.^.^.^.^.^.^.^.^.^.^.^.^.^.^.^.^.^.^.^.^.^.^.^.^.^.^.^.^.^.^.^.^.^.^.^.^.^.^.^.^.^.^.^.^.^.^.^.^.^.^.^.^.^.^.^.^.^.^.^.^.^.^.^.^.^.",
"^.^.^.^.^.^.^.^.^.^.^.^.^.^.^.^.^.^.^.^.^.^.^.^.^.^.^.^.^.^.^.^.^.^.^.^.^.^.^.^.^.^.^.^.^.^.^.^.^.^.^.^.^.^.^.^.^.^.^.^.^.^.^.^.^.^.^.^.^.^.^.^.^.^.^.^.^.^.^.^.^.^.^.^.^.^.^.^.^.^.^.^.^.^.^.^.^.^.^.^.^.^.^.^.^.^.^.^.^.^.^.^.^.^.^.^.^.^.^.^.^.^.^.^.^.^.^.^.^.^.^.^.^.^.^.^.^.^.^.^.^.^.^.^.^.^.^.^.^.^.^.^.^.^.^.^.^.^.^.^.^.^.^.^.^.^.^.^.^.^.o + % * > 4 8 e t p f k v b m B D H K E E E W W Q Q ^ ^ ^ ^ ( ( ( ) ) ( ) ) ' ' ' ' ' ' } ' ' } ' ' ' ' ' ' ' ' } } } } } }  . . . . . .O.O.O.O.O.O. . . . . . . . . . . . . . . . . . .} }  . . .} } } } } } ' } ' } ' ' ' ' ' ' ' ' ' ) ) ) ) ) ) ( ^ ^ ^ Q Q W Q E E E E E E E E E E E E E E E E E E E U U P K H H D Z B m m b v v x v z k f p u u e 0 0 0 0 8 6 4 4 4 4 4 1 1 > > * * % $ # + # $ $ % $ $ + # + # # + # % % * * * * * * * * * > 1 1 > > * * * * * * * * % % % % $ $ @ o . . ^.^.^.^.^.^.^.^.^.^.^.^.^.^.^.^.^.^.^.^.^.^.^.^.^.^.^.^.^.^.^.^.^.^.^.^.^.^.^.^.^.^.^.^.^.^.^.^.^.^.^.^.^.^.^.^.^.^.^.^.^.^.^.^.^.^.^.^.^.^.^.^.^.^.^.^.^.^.^.^.^.^.^.^.^.^.^.^.^.^.^.^.^.^.^.^.^.^.^.^.^.^.^.^.^.^.^.^.^.^.^.^.^.^.^.^.^.^.^.^.^.^.^.^.^.^.^.^.^.^.^.^.^.^.^.^.^.^.^.^.^.^.^.^.^.^.^.^.^.^.^.^.^.^.^.^.^.^.^.^.^.^.^.^.^.^.^.^.^.^.^.^.^.^.^.^.^.^.^.^.^.^.^.^.^.^.^.^.^.^.^.^.^.^.^.^.^.^.^.^.^.^.^.^.^.^.^.^.^.^.^.^.^.^.^.^.^.^.^.^.^.^.^.^.",
"^.^.^.^.^.^.^.^.^.^.^.^.^.^.^.^.^.^.^.^.^.^.^.^.^.^.^.^.^.^.^.^.^.^.^.^.^.^.^.^.^.^.^.^.^.^.^.^.^.^.^.^.^.^.^.^.^.^.^.^.^.^.^.^.^.^.^.^.^.^.^.^.^.^.^.^.^.^.^.^.^.^.^.^.^.^.^.^.^.^.^.^.^.^.^.^.^.^.^.^.^.^.^.^.^.^.^.^.^.^.^.^.^.^.^.^.^.^.^.^.^.^.^.^.^.^.^.^.^.^.^.^.^.^.^.^.^.^.^.^.^.^.^.^.^.^.^.^.^.^.^.^.^.^.^.^.^.^.^.^.^.^.^.^.^.^.^.^.^.^.o # % * > 4 8 q e u p k v b m B D H L E E E E Q Q Q ^ ^ ( ) ( ) ) ) ) ( ) ) ' ' ' ' } } } } } } } } } ' } } } } } } }  . . . . . .O.O.O.O.O.O.O.O.O.O. . . . . . . . . . . . . . . . . . . . .}  . . .} }  .} } } } } } ' ' ' ' ' ' ' ' ' ) ' ' ) ) ) ( ^ ^ Q Q Q Q W W E E E E E E E E E E E E E E E E E E E E U P L K H D B B m m m m m b x k k f p u e e e e q 0 0 8 8 8 6 4 4 4 1 > > * * % % $ % % % % $ % % $ $ $ # $ % * * * * * * * * > > > 1 4 1 1 1 > > > * * * * * * * * % % $ @ o . . ^.^.^.^.^.^.^.^.^.^.^.^.^.^.^.^.^.^.^.^.^.^.^.^.^.^.^.^.^.^.^.^.^.^.^.^.^.^.^.^.^.^.^.^.^.^.^.^.^.^.^.^.^.^.^.^.^.^.^.^.^.^.^.^.^.^.^.^.^.^.^.^.^.^.^.^.^.^.^.^.^.^.^.^.^.^.^.^.^.^.^.^.^.^.^.^.^.^.^.^.^.^.^.^.^.^.^.^.^.^.^.^.^.^.^.^.^.^.^.^.^.^.^.^.^.^.^.^.^.^.^.^.^.^.^.^.^.^.^.^.^.^.^.^.^.^.^.^.^.^.^.^.^.^.^.^.^.^.^.^.^.^.^.^.^.^.^.^.^.^.^.^.^.^.^.^.^.^.^.^.^.^.^.^.^.^.^.^.^.^.^.^.^.^.^.^.^.^.^.^.^.^.^.^.^.^.^.^.^.^.^.^.^.^.^.^.^.^.^.^.^.^.^.",
"^.^.^.^.^.^.^.^.^.^.^.^.^.^.^.^.^.^.^.^.^.^.^.^.^.^.^.^.^.^.^.^.^.^.^.^.^.^.^.^.^.^.^.^.^.^.^.^.^.^.^.^.^.^.^.^.^.^.^.^.^.^.^.^.^.^.^.^.^.^.^.^.^.^.^.^.^.^.^.^.^.^.^.^.^.^.^.^.^.^.^.^.^.^.^.^.^.^.^.^.^.^.^.^.^.^.^.^.^.^.^.^.^.^.^.^.^.^.^.^.^.^.^.^.^.^.^.^.^.^.^.^.^.^.^.^.^.^.^.^.^.^.^.^.^.^.^.^.^.^.^.^.^.^.^.^.^.^.^.^.^.^.^.^.^.^.^.^.^.^.o + % * > 4 6 0 e e p f v b m B D H P E E E W Q Q Q ^ ( ( ) ) ) ) ) ) ) ) ) ' ' ' ' } } } } } } } } } } } } } } } } }  . . . . .O.O.O.O.O.#.#.O.#.O.O.O.O. . . . .O. . .O. . .O. . . . . . . . . . . . . . .} } } } } } } ' ' ' ' ' ' ' ' ' ' ' ' ) ( ( ( ^ ^ Q Q Q Q W Q E E E E E E E E E E E E E E E E E E E E E U U K H D D D Z D B B m m v v k k f p p u u u e e q e q q 0 0 8 4 4 1 > > * * % % % * % * % % % % % % $ % * * * * * * > * > 1 1 4 4 4 4 4 1 1 > > > > * * > > * * % % # + @ o . . ^.^.^.^.^.^.^.^.^.^.^.^.^.^.^.^.^.^.^.^.^.^.^.^.^.^.^.^.^.^.^.^.^.^.^.^.^.^.^.^.^.^.^.^.^.^.^.^.^.^.^.^.^.^.^.^.^.^.^.^.^.^.^.^.^.^.^.^.^.^.^.^.^.^.^.^.^.^.^.^.^.^.^.^.^.^.^.^.^.^.^.^.^.^.^.^.^.^.^.^.^.^.^.^.^.^.^.^.^.^.^.^.^.^.^.^.^.^.^.^.^.^.^.^.^.^.^.^.^.^.^.^.^.^.^.^.^.^.^.^.^.^.^.^.^.^.^.^.^.^.^.^.^.^.^.^.^.^.^.^.^.^.^.^.^.^.^.^.^.^.^.^.^.^.^.^.^.^.^.^.^.^.^.^.^.^.^.^.^.^.^.^.^.^.^.^.^.^.^.^.^.^.^.^.^.^.^.^.^.^.^.^.^.^.^.^.^.^.^.^.^.",
"^.^.^.^.^.^.^.^.^.^.^.^.^.^.^.^.^.^.^.^.^.^.^.^.^.^.^.^.^.^.^.^.^.^.^.^.^.^.^.^.^.^.^.^.^.^.^.^.^.^.^.^.^.^.^.^.^.^.^.^.^.^.^.^.^.^.^.^.^.^.^.^.^.^.^.^.^.^.^.^.^.^.^.^.^.^.^.^.^.^.^.^.^.^.^.^.^.^.^.^.^.^.^.^.^.^.^.^.^.^.^.^.^.^.^.^.^.^.^.^.^.^.^.^.^.^.^.^.^.^.^.^.^.^.^.^.^.^.^.^.^.^.^.^.^.^.^.^.^.^.^.^.^.^.^.^.^.^.^.^.^.^.^.^.^.^.^.^.^.. o + $ * > 1 4 0 e e u f v v m B D H P E E E W Q Q ^ ^ ( ( ) ) ' ' ' ' ) ' ' ' ' ' } }  . . . . . . . .}  . . .} }  . . . . . .O.O.#.O.#.#.#.#.#.#.O.O.O.O.O. .O.O.O.O.O. .O. .O.O. .O. . . . . . . . . . . . . .} } } } } } } ' ' ' } ' ' ' ' ' ' ) ) ) ) ( ^ Q Q Q Q Q Q Q W E E E E E E E E E E E E E E W E E E E E E U P K H H H H D D B m b v x v k k f f p p u u u u u e e q 0 8 4 4 1 1 > > * * * * * * * * * % % % % % * > * * > > > > > 1 4 4 6 4 4 4 4 1 > > > > > > > > > * % % % % % $ # o . ^.^.^.^.^.^.^.^.^.^.^.^.^.^.^.^.^.^.^.^.^.^.^.^.^.^.^.^.^.^.^.^.^.^.^.^.^.^.^.^.^.^.^.^.^.^.^.^.^.^.^.^.^.^.^.^.^.^.^.^.^.^.^.^.^.^.^.^.^.^.^.^.^.^.^.^.^.^.^.^.^.^.^.^.^.^.^.^.^.^.^.^.^.^.^.^.^.^.^.^.^.^.^.^.^.^.^.^.^.^.^.^.^.^.^.^.^.^.^.^.^.^.^.^.^.^.^.^.^.^.^.^.^.^.^.^.^.^.^.^.^.^.^.^.^.^.^.^.^.^.^.^.^.^.^.^.^.^.^.^.^.^.^.^.^.^.^.^.^.^.^.^.^.^.^.^.^.^.^.^.^.^.^.^.^.^.^.^.^.^.^.^.^.^.^.^.^.^.^.^.^.^.^.^.^.^.^.^.^.^.^.^.^.^.^.^.^.^.^.^.",
"^.^.^.^.^.^.^.^.^.^.^.^.^.^.^.^.^.^.^.^.^.^.^.^.^.^.^.^.^.^.^.^.^.^.^.^.^.^.^.^.^.^.^.^.^.^.^.^.^.^.^.^.^.^.^.^.^.^.^.^.^.^.^.^.^.^.^.^.^.^.^.^.^.^.^.^.^.^.^.^.^.^.^.^.^.^.^.^.^.^.^.^.^.^.^.^.^.^.^.^.^.^.^.^.^.^.^.^.^.^.^.^.^.^.^.^.^.^.^.^.^.^.^.^.^.^.^.^.^.^.^.^.^.^.^.^.^.^.^.^.^.^.^.^.^.^.^.^.^.^.^.^.^.^.^.^.^.^.^.^.^.^.^.^.^.^.^.^.^.. o # % * * > 4 7 q t u f k v m B D H P E E E Q Q Q ^ ^ ( ( ) ) ' ' ' ' ' ' ' ' ' ' } }  . . . . . . . . . . . . . . . . .O.O.O.O.#.#.#.#.#.#.#.#.#.#.#.#.O.O.O.O.O.O.O.O.O.O.O.O.O.O.O. . . . . . . . . . . . . . . .}  .} } } } } ' } } ' ' ' ' ' ' ' ) ) ( ^ ^ ^ ^ Q Q Q Q W W E E E E E E E E E E E E W W E E E E E E E U U P P P L H H D B m m b b v v k z k f f p p p u u e e 0 0 0 8 6 4 4 1 > > * * * * * * * * * * * * * * > > > > > 1 1 4 4 8 8 8 4 4 4 4 1 1 1 1 > 1 1 1 > * * * * * * * % # @ . ^.^.^.^.^.^.^.^.^.^.^.^.^.^.^.^.^.^.^.^.^.^.^.^.^.^.^.^.^.^.^.^.^.^.^.^.^.^.^.^.^.^.^.^.^.^.^.^.^.^.^.^.^.^.^.^.^.^.^.^.^.^.^.^.^.^.^.^.^.^.^.^.^.^.^.^.^.^.^.^.^.^.^.^.^.^.^.^.^.^.^.^.^.^.^.^.^.^.^.^.^.^.^.^.^.^.^.^.^.^.^.^.^.^.^.^.^.^.^.^.^.^.^.^.^.^.^.^.^.^.^.^.^.^.^.^.^.^.^.^.^.^.^.^.^.^.^.^.^.^.^.^.^.^.^.^.^.^.^.^.^.^.^.^.^.^.^.^.^.^.^.^.^.^.^.^.^.^.^.^.^.^.^.^.^.^.^.^.^.^.^.^.^.^.^.^.^.^.^.^.^.^.^.^.^.^.^.^.^.^.^.^.^.^.^.^.^.^.^.",
"^.^.^.^.^.^.^.^.^.^.^.^.^.^.^.^.^.^.^.^.^.^.^.^.^.^.^.^.^.^.^.^.^.^.^.^.^.^.^.^.^.^.^.^.^.^.^.^.^.^.^.^.^.^.^.^.^.^.^.^.^.^.^.^.^.^.^.^.^.^.^.^.^.^.^.^.^.^.^.^.^.^.^.^.^.^.^.^.^.^.^.^.^.^.^.^.^.^.^.^.^.^.^.^.^.^.^.^.^.^.^.^.^.^.^.^.^.^.^.^.^.^.^.^.^.^.^.^.^.^.^.^.^.^.^.^.^.^.^.^.^.^.^.^.^.^.^.^.^.^.^.^.^.^.^.^.^.^.^.^.^.^.^.^.^.^.^.^.^.. o + $ % * > 4 8 q e u f k v m B D H P E E E Q Q ^ Q ^ ( ) ) ' ' ' ' ' ' ' ' ' ' } }  . . . . . . . . .O. . . . . . .O.O.O.O.O.O.#.#.#.#.#.=.#.#.#.#.#.#.#.#.#.O.#.#.O.O.O.O.O.O.O.O.O.O. . . . . . . . . . . . . . . . . . .} }  .} } } } } } } ' ' ' ' ) ) ( ( ^ ^ Q Q Q Q Q Q W Q E E E E E E E Q W Q Q Q W E E E E E E E E E E E U P K H D D B m m b b x v z z z k f f p p u u e q q q 7 6 4 4 1 > > > > * * * * * * * * > > > > > > > > 1 4 4 6 6 0 6 4 4 4 4 4 4 4 4 4 4 4 4 1 > > > > > > > * % $ o . ^.. ^.^.^.^.^.^.^.^.^.^.^.^.^.^.^.^.^.^.^.^.^.^.^.^.^.^.^.^.^.^.^.^.^.^.^.^.^.^.^.^.^.^.^.^.^.^.^.^.^.^.^.^.^.^.^.^.^.^.^.^.^.^.^.^.^.^.^.^.^.^.^.^.^.^.^.^.^.^.^.^.^.^.^.^.^.^.^.^.^.^.^.^.^.^.^.^.^.^.^.^.^.^.^.^.^.^.^.^.^.^.^.^.^.^.^.^.^.^.^.^.^.^.^.^.^.^.^.^.^.^.^.^.^.^.^.^.^.^.^.^.^.^.^.^.^.^.^.^.^.^.^.^.^.^.^.^.^.^.^.^.^.^.^.^.^.^.^.^.^.^.^.^.^.^.^.^.^.^.^.^.^.^.^.^.^.^.^.^.^.^.^.^.^.^.^.^.^.^.^.^.^.^.^.^.^.^.^.^.^.^.^.^.^.^.^.^.",
"^.^.^.^.^.^.^.^.^.^.^.^.^.^.^.^.^.^.^.^.^.^.^.^.^.^.^.^.^.^.^.^.^.^.^.^.^.^.^.^.^.^.^.^.^.^.^.^.^.^.^.^.^.^.^.^.^.^.^.^.^.^.^.^.^.^.^.^.^.^.^.^.^.^.^.^.^.^.^.^.^.^.^.^.^.^.^.^.^.^.^.^.^.^.^.^.^.^.^.^.^.^.^.^.^.^.^.^.^.^.^.^.^.^.^.^.^.^.^.^.^.^.^.^.^.^.^.^.^.^.^.^.^.^.^.^.^.^.^.^.^.^.^.^.^.^.^.^.^.^.^.^.^.^.^.^.^.^.^.^.^.^.^.^.^.^.^.^.^.o o # % * > > 4 8 q e u f k x m B D H P E E E Q Q Q ^ ^ ( ) ) ' ' ' ' ' ' ' ' ' ' }  . . . .O.O. .O. .O.O.O. . . . . . .O.O.O.#.#.#.#.#.#.=.=.=.=.#.#.#.#.#.#.#.#.#.#.#.O.O.O.O.O.O.O.O.O.O. .O. . . . . . . . . . . . . . . . . . . . . . . .} } } ' ' ' ' ) ) ( ( ( ( ^ Q Q Q Q Q Q Q Q Q W W Q Q Q Q Q Q Q E E E E E E E E E E E E E E U L H D Z B B B m b b b v x v k k k f p p u e e e 0 8 6 4 4 1 > > > * * * % * * > > * > > > > > > > 4 4 4 6 6 6 4 4 4 6 8 8 6 6 6 6 4 6 8 4 4 > > 1 1 1 > > * % $ + o o o o . ^.^.^.^.^.^.^.^.^.^.^.^.^.^.^.^.^.^.^.^.^.^.^.^.^.^.^.^.^.^.^.^.^.^.^.^.^.^.^.^.^.^.^.^.^.^.^.^.^.^.^.^.^.^.^.^.^.^.^.^.^.^.^.^.^.^.^.^.^.^.^.^.^.^.^.^.^.^.^.^.^.^.^.^.^.^.^.^.^.^.^.^.^.^.^.^.^.^.^.^.^.^.^.^.^.^.^.^.^.^.^.^.^.^.^.^.^.^.^.^.^.^.^.^.^.^.^.^.^.^.^.^.^.^.^.^.^.^.^.^.^.^.^.^.^.^.^.^.^.^.^.^.^.^.^.^.^.^.^.^.^.^.^.^.^.^.^.^.^.^.^.^.^.^.^.^.^.^.^.^.^.^.^.^.^.^.^.^.^.^.^.^.^.^.^.^.^.^.^.^.^.^.^.^.^.^.^.^.^.^.^.^.^.",
"^.^.^.^.^.^.^.^.^.^.^.^.^.^.^.^.^.^.^.^.^.^.^.^.^.^.^.^.^.^.^.^.^.^.^.^.^.^.^.^.^.^.^.^.^.^.^.^.^.^.^.^.^.^.^.^.^.^.^.^.^.^.^.^.^.^.^.^.^.^.^.^.^.^.^.^.^.^.^.^.^.^.^.^.^.^.^.^.^.^.^.^.^.^.^.^.^.^.^.^.^.^.^.^.^.^.^.^.^.^.^.^.^.^.^.^.^.^.^.^.^.^.^.^.^.^.^.^.^.^.^.^.^.^.^.^.^.^.^.^.^.^.^.^.^.^.^.^.^.^.^.^.^.^.^.^.^.^.^.^.^.^.^.^.^.^.^.^.. . o + % * * 1 1 6 q e u f k v b B Z H P E E E W Q Q Q ^ ^ ( ) ' ' ' ' ' } } } } } }  . . . .O.O.O.O.O.O.O.O.O.O. . .O.O.O.O.#.#.#.#.#.#.=.=.=.=.#.=.=.=.=.=.=.=.#.#.#.#.#.#.#.#.#.#.O.O.O.O.O.O.O.O. . . .O.O. . . .O.O.O.O. . . . . . . . . . . .} } } ' ' ' ' ) ) ( ( ^ ^ Q Q Q Q Q Q Q Q Q Q Q Q Q Q Q Q Q Q W E E E E E E E E E E E E E P L H D D D Z B B m m m m b v x z k k f p u u e q 0 7 8 6 4 1 1 > * * * * * * > > > > > 1 > > > 1 4 4 6 6 6 6 4 4 4 6 8 7 0 0 0 q 0 0 8 4 4 4 4 4 1 1 1 1 > * * % # # @ o o . ^.. ^.^.^.^.^.^.^.^.^.^.^.^.^.^.^.^.^.^.^.^.^.^.^.^.^.^.^.^.^.^.^.^.^.^.^.^.^.^.^.^.^.^.^.^.^.^.^.^.^.^.^.^.^.^.^.^.^.^.^.^.^.^.^.^.^.^.^.^.^.^.^.^.^.^.^.^.^.^.^.^.^.^.^.^.^.^.^.^.^.^.^.^.^.^.^.^.^.^.^.^.^.^.^.^.^.^.^.^.^.^.^.^.^.^.^.^.^.^.^.^.^.^.^.^.^.^.^.^.^.^.^.^.^.^.^.^.^.^.^.^.^.^.^.^.^.^.^.^.^.^.^.^.^.^.^.^.^.^.^.^.^.^.^.^.^.^.^.^.^.^.^.^.^.^.^.^.^.^.^.^.^.^.^.^.^.^.^.^.^.^.^.^.^.^.^.^.^.^.^.^.^.^.^.^.^.^.^.^.^.^.",
"^.^.^.^.^.^.^.^.^.^.^.^.^.^.^.^.^.^.^.^.^.^.^.^.^.^.^.^.^.^.^.^.^.^.^.^.^.^.^.^.^.^.^.^.^.^.^.^.^.^.^.^.^.^.^.^.^.^.^.^.^.^.^.^.^.^.^.^.^.^.^.^.^.^.^.^.^.^.^.^.^.^.^.^.^.^.^.^.^.^.^.^.^.^.^.^.^.^.^.^.^.^.^.^.^.^.^.^.^.^.^.^.^.^.^.^.^.^.^.^.^.^.^.^.^.^.^.^.^.^.^.^.^.^.^.^.^.^.^.^.^.^.^.^.^.^.^.^.^.^.^.^.^.^.^.^.^.^.^.^.^.^.^.^.^.^.^.^.. . o @ % * > > 1 4 0 e u f k v b B D H P E E E Q Q Q Q ^ ( ( ) ' ' } } } } }  .} }  . . . . .O.O.O.O.O.O.O.O.O.O.O.O.O.O.O.O.#.@.#.#.#.=.=.=.=.=.#.=.=.=.=.=.=.=.=.#.#.#.#.#.#.#.#.#.#.#.O.O.O.O.O.O.O. .O.O.O.O.O.O.O.O.O.O.O.O.O.O.O.O.O.O. . . . . .} } } ' ' ' ' ) ) ( ^ ^ ^ ^ ^ Q Q Q ^ Q Q ^ Q Q Q Q Q Q Q Q W E E E E E E E E E E E E E U L H H H D D D D Z B B B m b v v k k f p u e e e q 0 7 6 4 1 > > > * * * > > 1 > > > > 1 > > 1 4 4 4 6 6 6 4 4 4 4 7 q q e e t e q 0 7 6 4 4 4 4 4 1 1 > * * % % $ # # + + @ o o o o . ^.^.^.^.^.. . . . . ^.^.^.^.^.^.^.^.^.^.^.^.^.. o . . ^.^.^.^.^.^.^.^.^.^.^.^.^.^.^.^.^.^.^.^.^.^.^.^.^.^.^.^.^.^.^.^.^.^.^.^.^.^.^.^.^.^.^.^.^.^.^.^.^.^.^.^.^.^.^.^.^.^.^.^.^.^.^.^.^.^.^.^.^.^.^.^.^.^.^.^.^.^.^.^.^.^.^.^.^.^.^.^.^.^.^.^.^.^.^.^.^.^.^.^.^.^.^.^.^.^.^.^.^.^.^.^.^.^.^.^.^.^.^.^.^.^.^.^.^.^.^.^.^.^.^.^.^.^.^.^.^.^.^.^.^.^.^.^.^.^.^.^.^.^.^.^.^.^.^.^.^.^.^.^.^.^.^.^.^.^.^.^.^.^.^.^.^.^.^.^.^.^.^.",
"^.^.^.^.^.^.^.^.^.^.^.^.^.^.^.^.^.^.^.^.^.^.^.^.^.^.^.^.^.^.^.^.^.^.^.^.^.^.^.^.^.^.^.^.^.^.^.^.^.^.^.^.^.^.^.^.^.^.^.^.^.^.^.^.^.^.^.^.^.^.^.^.^.^.^.^.^.^.^.^.^.^.^.^.^.^.^.^.^.^.^.^.^.^.^.^.^.^.^.^.^.^.^.^.^.^.^.^.^.^.^.^.^.^.^.^.^.^.^.^.^.^.^.^.^.^.^.^.^.^.^.^.^.^.^.^.^.^.^.^.^.^.^.^.^.^.^.^.^.^.^.^.^.^.^.^.^.^.^.^.^.^.^.^.^.^.^.^.^.o o o % * > 1 4 6 0 t u f k x m B D H P E E E Q Q Q ^ ( ( ) ) ' ' ' } } } }  . . . . . .O.O.O.O.O.O.O.O.O.O.O.O.O.O.O.O.O.O.#.#.#.#.#.=.=.=.=.=.=.=.=.=.=.=.=.=.=.=.#.#.#.#.#.#.#.#.#.#.#.O.O.O.O.O.O.O.O.O.O.#.O.#.O.#.#.#.O.O.O.O.O.O.O.O.O.O.O. . . . .} } ' ' ' ' ' ' ( ( ( ( ^ ( ^ ( ^ ^ ^ ^ ^ Q ^ ^ ^ Q Q Q W Q W W E E E W E E E E E E E U L H H H D D D D D D Z B m m v z k f p p u t t e q 0 8 4 4 1 1 > * * * > 1 1 > * > 1 > > > > 1 4 4 4 4 6 4 6 4 6 7 q e t t u u t e q 8 4 4 4 4 1 1 1 > > > * * % * % % % $ % $ % % @ o . o o o o o o o o o . . . . . o o . . . o o o o o o o . . ^.^.^.^.^.^.^.^.^.^.^.^.^.^.^.^.^.^.^.^.^.^.^.^.^.^.^.^.^.^.^.^.^.^.^.^.^.^.^.^.^.^.^.^.^.^.^.^.^.^.^.^.^.^.^.^.^.^.^.^.^.^.^.^.^.^.^.^.^.^.^.^.^.^.^.^.^.^.^.^.^.^.^.^.^.^.^.^.^.^.^.^.^.^.^.^.^.^.^.^.^.^.^.^.^.^.^.^.^.^.^.^.^.^.^.^.^.^.^.^.^.^.^.^.^.^.^.^.^.^.^.^.^.^.^.^.^.^.^.^.^.^.^.^.^.^.^.^.^.^.^.^.^.^.^.^.^.^.^.^.^.^.^.^.^.^.^.^.^.^.^.^.^.^.^.^.",
"^.^.^.^.^.^.^.^.^.^.^.^.^.^.^.^.^.^.^.^.^.^.^.^.^.^.^.^.^.^.^.^.^.^.^.^.^.^.^.^.^.^.^.^.^.^.^.^.^.^.^.^.^.^.^.^.^.^.^.^.^.^.^.^.^.^.^.^.^.^.^.^.^.^.^.^.^.^.^.^.^.^.^.^.^.^.^.^.^.^.^.^.^.^.^.^.^.^.^.^.^.^.^.^.^.^.^.^.^.^.^.^.^.^.^.^.^.^.^.^.^.^.^.^.^.^.^.^.^.^.^.^.^.^.^.^.^.^.^.^.^.^.^.^.^.^.^.^.^.^.^.^.^.^.^.^.^.^.^.^.^.^.^.^.^.^.^.^.^.. o + % * > 4 4 8 0 e p f k v m B D K P E E E Q Q Q ^ ^ ( ( ) ' ' ' } } }  .}  . . . . . .O.O.O.O.O.O.O.O.O.O.O.O.+.O.O.O.#.#.@.#.#.#.=.=.=.=.=.=.=.=.=.=.=.=.=.=.=.=.=.#.#.=.#.=.#.#.#.#.O.#.O.O.O.O.O.O.O.#.O.#.#.#.#.#.#.#.#.#.#.#.#.#.#.#.O.O.O.O.O. . .} } ' ' ' ' ' ) ) ( ( ( ( ) ( ( ^ ^ ^ ^ ^ ^ ^ ^ Q Q Q Q Q W W E W E E E E E E E E E E U K H H H H H D H D D Z B m b x z k f p u u u e e 0 0 4 4 4 1 1 * * * > 1 1 > > * > 1 1 > > 1 1 4 4 4 4 4 4 4 6 0 e e u u u u u e e 0 4 4 4 4 4 1 1 > > * > > * * * > * * * * * * % % # + @ @ o + @ @ o o o o o o o o o o o o @ @ @ @ @ @ o o o o o . . ^.^.^.^.^.^.^.^.^.^.^.^.^.^.^.^.^.^.^.^.^.^.^.^.^.^.^.^.^.^.^.^.^.^.^.^.^.^.^.^.^.^.^.^.^.^.^.^.^.^.^.^.^.^.^.^.^.^.^.^.^.^.^.^.^.^.^.^.^.^.^.^.^.^.^.^.^.^.^.^.^.^.^.^.^.^.^.^.^.^.^.^.^.^.^.^.^.^.^.^.^.^.^.^.^.^.^.^.^.^.^.^.^.^.^.^.^.^.^.^.^.^.^.^.^.^.^.^.^.^.^.^.^.^.^.^.^.^.^.^.^.^.^.^.^.^.^.^.^.^.^.^.^.^.^.^.^.^.^.^.^.^.^.^.^.^.^.^.^.^.^.^.",
"^.^.^.^.^.^.^.^.^.^.^.^.^.^.^.^.^.^.^.^.^.^.^.^.^.^.^.^.^.^.^.^.^.^.^.^.^.^.^.^.^.^.^.^.^.^.^.^.^.^.^.^.^.^.^.^.^.^.^.^.^.^.^.^.^.^.^.^.^.^.^.^.^.^.^.^.^.^.^.^.^.^.^.^.^.^.^.^.^.^.^.^.^.^.^.^.^.^.^.^.^.^.^.^.^.^.^.^.^.^.^.^.^.^.^.^.^.^.^.^.^.^.^.^.^.^.^.^.^.^.^.^.^.^.^.^.^.^.^.^.^.^.^.^.^.^.^.^.^.^.^.^.^.^.^.^.^.^.^.^.^.^.^.^.^.^.^.^.^.^.. @ % * > 4 4 8 q e p f z x b B D H P E E E W Q Q ^ ^ ( ) ) ) ' ' ' } } }  . . . . . . . .O.O.O.O.O.O.O.O.#.O.#.+.#.O.#.+.#.#.#.#.=.=.=.=.=.=.=.=.=.=.=.=.=.=.=.=.=.=.=.=.=.=.=.#.#.#.#.#.#.#.#.#.O.#.#.#.#.#.#.#.=.=.=.=.=.=.=.#.=.#.#.#.#.#.#.#.O.O.O. . . .} } ' ' ' ' ' ) ) ) ) ) ) ) ) ( ( ( ( ^ ^ ^ ^ ^ Q Q Q Q Q Q E E E W E E E E E E E E P L L L K K K H H D D B B b v z k f f p p u t e e q 0 6 4 4 1 1 > > 1 1 1 1 > > > > 1 1 1 1 1 4 4 4 4 4 6 8 0 q t u u u p p u u e q 7 6 6 4 1 1 4 > > > * > > > 1 > > > > > > > > * * % % $ $ # # + + # + # o @ + + # # # $ # $ $ $ $ # @ o @ + @ o o . . . ^.^.^.^.. ^.. ^.. . . ^.. ^.^.^.^.^.^.^.^.^.^.^.^.^.^.^.^.^.^.^.^.^.^.^.^.^.^.^.^.^.^.^.^.^.^.^.^.^.^.^.^.^.^.^.^.^.^.^.^.^.^.^.^.^.^.^.^.^.^.^.^.^.^.^.^.^.^.^.^.^.^.^.^.^.^.^.^.^.^.^.^.^.^.^.^.^.^.^.^.^.^.^.^.^.^.^.^.^.^.^.^.^.^.^.^.^.^.^.^.^.^.^.^.^.^.^.^.^.^.^.^.^.^.^.^.^.^.^.^.^.^.^.^.^.^.^.^.^.^.^.^.^.^.^.^.^.^.^.^.^.^.^.^.^.^.^.^.",
"^.^.^.^.^.^.^.^.^.^.^.^.^.^.^.^.^.^.^.^.^.^.^.^.^.^.^.^.^.^.^.^.^.^.^.^.^.^.^.^.^.^.^.^.^.^.^.^.^.^.^.^.^.^.^.^.^.^.^.^.^.^.^.^.^.^.^.^.^.^.^.^.^.^.^.^.^.^.^.^.^.^.^.^.^.^.^.^.^.^.^.^.^.^.^.^.^.^.^.^.^.^.^.^.^.^.^.^.^.^.^.^.^.^.^.^.^.^.^.^.^.^.^.^.^.^.^.^.^.^.^.^.^.^.^.^.^.^.^.^.^.^.^.^.^.^.^.^.^.^.^.^.^.^.^.^.^.^.^.^.^.^.^.^.^.^.^.^.^.^.. o % * > 1 4 6 0 t p f z v b m B H L E E E Q Q ^ ^ ^ ( ) ) ) ) ' ' ' } }  . . . . .O. .O.O.O.O.O.O.O.O.O.+.#.O.#.#.#.#.#.#.#.#.=.=.=.=.=.=.=.=.=.;.;.=.=.=.=.=.=.=.=.=.=.=.=.=.=.#.#.#.#.#.#.#.#.#.#.#.#.#.#.=.=.=.=.=.=.=.=.=.=.=.=.=.#.=.=.=.#.#.#.O.O. . . . . .} } ' ' ' ' ' ' ' ' ' ) ) ) ) ) ^ ( ^ ^ ^ Q Q Q Q Q Q Q Q W Q W Q E W E E E E E E E U U U P K H D D B B m b x z k f f p u u t e e q 7 7 6 4 4 1 1 1 4 1 1 1 > > 1 4 4 1 4 4 1 1 1 4 6 6 0 q e u u u u u u u u t e 0 0 7 4 1 4 1 > > > > > > > 1 1 4 > > 4 4 4 1 > * * % % % % % % $ $ $ $ $ $ $ % % $ % % % % % % % $ # # + $ % + o o o o . . . o o . . . o o . o o o . . ^.^.^.^.^.^.^.^.^.^.^.^.^.^.^.^.^.^.^.^.^.^.^.^.^.^.^.^.^.^.^.^.^.^.^.^.^.^.^.^.^.^.^.^.^.^.^.^.^.^.^.^.^.^.^.^.^.^.^.^.^.^.^.^.^.^.^.^.^.^.^.^.^.^.^.^.^.^.^.^.^.^.^.^.^.^.^.^.^.^.^.^.^.^.^.^.^.^.^.^.^.^.^.^.^.^.^.^.^.^.^.^.^.^.^.^.^.^.^.^.^.^.^.^.^.^.^.^.^.^.^.^.^.^.^.^.^.^.^.^.^.^.^.^.^.^.^.^.^.^.^.^.^.",
"^.^.^.^.^.^.^.^.^.^.^.^.^.^.^.^.^.^.^.^.^.^.^.^.^.^.^.^.^.^.^.^.^.^.^.^.^.^.^.^.^.^.^.^.^.^.^.^.^.^.^.^.^.^.^.^.^.^.^.^.^.^.^.^.^.^.^.^.^.^.^.^.^.^.^.^.^.^.^.^.^.^.^.^.^.^.^.^.^.^.^.^.^.^.^.^.^.^.^.^.^.^.^.^.^.^.^.^.^.^.^.^.^.^.^.^.^.^.^.^.^.^.^.^.^.^.^.^.^.^.^.^.^.^.^.^.^.^.^.^.^.^.^.^.^.^.^.^.^.^.^.^.^.^.^.^.^.^.^.^.^.^.^.^.^.^.^.^.^.^.o @ $ * > 4 4 6 0 u p f k z v b B D K E E E E Q ^ ^ ^ ( ) ) ) ) ' ' ' } }  . . . . . .O.O.O.O.O.O.O.O.O.O.O.O.#.#.#.#.#.#.#.#.=.=.=.=.=.=.;.;.=.;.;.;.;.;.=.=.=.=.=.=.=.=.=.=.=.=.=.#.#.#.=.#.#.#.#.#.#.=.=.=.=.=.=.=.=.;.;.;.;.;.;.=.=.=.=.=.=.=.=.#.#.O.O.O.O.O. . . .} } ' ' ' ' ' ' ' ' ) ) ) ) ) ( ^ ^ ^ ^ ^ Q Q Q Q Q Q Q Q Q Q W Q E E E E E E E E E E U L K H D D B m b v z k f f p u u u u u e e e 0 6 4 4 4 4 4 4 1 1 1 1 1 4 4 4 4 4 4 1 1 4 8 0 q e e u u p p u u u u u u e e 0 6 4 4 4 1 1 > > > > 1 4 4 4 4 4 6 6 4 4 1 > > * * * * * * * % % % % % % * * * * * * * % % % % % $ % % % % # # @ o o o o o o o o o o o o o o o o o . ^.^.^.^.^.^.^.^.^.^.^.^.^.^.^.^.^.^.^.^.^.^.^.^.^.^.^.^.^.^.^.^.^.^.^.^.^.^.^.^.^.^.^.^.^.^.^.^.^.^.^.^.^.^.^.^.^.^.^.^.^.^.^.^.^.^.^.^.^.^.^.^.^.^.^.^.^.^.^.^.^.^.^.^.^.^.^.^.^.^.^.^.^.^.^.^.^.^.^.^.^.^.^.^.^.^.^.^.^.^.^.^.^.^.^.^.^.^.^.^.^.^.^.^.^.^.^.^.^.^.^.^.^.^.^.^.^.^.^.^.^.^.^.^.^.^.^.^.^.^.^.^.",
"^.^.^.^.^.^.^.^.^.^.^.^.^.^.^.^.^.^.^.^.^.^.^.^.^.^.^.^.^.^.^.^.^.^.^.^.^.^.^.^.^.^.^.^.^.^.^.^.^.^.^.^.^.^.^.^.^.^.^.^.^.^.^.^.^.^.^.^.^.^.^.^.^.^.^.^.^.^.^.^.^.^.^.^.^.^.^.^.^.^.^.^.^.^.^.^.^.^.^.^.^.^.^.^.^.^.^.^.^.^.^.^.^.^.^.^.^.^.^.^.^.^.^.^.^.^.^.^.^.^.^.^.^.^.^.^.^.^.^.^.^.^.^.^.^.^.^.^.^.^.^.^.^.^.^.^.^.^.^.^.^.^.^.^.^.^.^.^.^.^.o @ $ * > 4 4 7 q u p f z z x b m D H P E E E Q Q Q ( ( ( ) ) ' ' ' } }  . . . .O.O.O.O.O.O.O.O.O.O.O.O.O.O.O.#.#.#.#.#.#.#.=.=.=.=.=.=.;.;.:.;.;.;.:.;.;.;.=.=.;.;.;.;.=.=.=.=.=.=.#.#.#.=.#.=.=.=.=.=.=.=.=.=.=.;.;.:.:.:.:.:.:.:.;.;.=.=.=.=.=.=.#.#.#.#.#.O.O.O. . . .} } ' ' ' ' ' ' ' ' ' ) ) ) ) ) ( ^ ^ ^ Q Q Q Q Q Q Q Q Q Q Q Q E W E E E E E E E E U P L K H D B m m v x z k f f f p p p p p u t e 0 8 8 6 6 4 4 4 1 1 1 4 4 4 4 4 4 4 4 4 4 0 q e u u p f f p u u u u u u u u q 4 4 4 4 4 4 1 1 1 1 4 6 6 6 6 0 0 0 0 8 6 4 4 1 1 > > > > > * * * * * * * * * * * > * * % * % % % % * * * % % % # $ + # # # + @ @ @ @ o o o o o o . ^.^.^.^.^.^.^.^.^.^.^.^.^.^.^.^.^.^.^.^.^.^.^.^.^.^.^.^.^.^.^.^.^.^.^.^.^.^.^.^.^.^.^.^.^.^.^.^.^.^.^.^.^.^.^.^.^.^.^.^.^.^.^.^.^.^.^.^.^.^.^.^.^.^.^.^.^.^.^.^.^.^.^.^.^.^.^.^.^.^.^.^.^.^.^.^.^.^.^.^.^.^.^.^.^.^.^.^.^.^.^.^.^.^.^.^.^.^.^.^.^.^.^.^.^.^.^.^.^.^.^.^.^.^.^.^.^.^.^.^.^.^.^.^.^.^.^.^.^.^.^.^.",
"^.^.^.^.^.^.^.^.^.^.^.^.^.^.^.^.^.^.^.^.^.^.^.^.^.^.^.^.^.^.^.^.^.^.^.^.^.^.^.^.^.^.^.^.^.^.^.^.^.^.^.^.^.^.^.^.^.^.^.^.^.^.^.^.^.^.^.^.^.^.^.^.^.^.^.^.^.^.^.^.^.^.^.^.^.^.^.^.^.^.^.^.^.^.^.^.^.^.^.^.^.^.^.^.^.^.^.^.^.^.^.^.^.^.^.^.^.^.^.^.^.^.^.^.^.^.^.^.^.^.^.^.^.^.^.^.^.^.^.^.^.^.^.^.^.^.^.^.^.^.^.^.^.^.^.^.^.^.^.^.^.^.^.^.^.^.^.^.^.^.o # % * > 4 4 0 q u p f z v x b m D H K U E E Q Q Q ^ ( ( ) ) ' ' ' ' } }  . . . .O.O.O.O.O.O.O.O.O.O.O.O.O.#.#.#.#.#.#.#.=.=.=.=.;.;.;.;.;.;.:.;.:.;.;.;.;.;.;.;.;.;.;.=.=.=.=.=.=.#.#.=.=.#.=.=.#.=.=.=.=.;.;.;.:.:.:.:.,.,.,.,.:.:.:.:.:.:.:.;.;.=.=.=.#.#.#.#.#.O.O. . . .} } } } ' ' ' ' ' ' ) ) ) ) ) ( ( ^ ^ ^ ^ ^ Q Q Q Q Q Q Q Q Q E E E E E E E E E E E P H H D B m m b v x k z k f f p f f p p u e e e 0 0 8 4 4 4 4 1 4 4 4 4 4 4 6 4 4 6 0 e e u u p f f f f p p u u u u u u e 0 6 6 6 8 4 6 4 4 6 8 0 0 0 q q e q 0 0 0 6 4 4 4 1 1 1 1 1 1 1 1 1 > > * * * > > > > > * * * * * * * * * * * * % % % % % $ $ $ $ $ + @ @ + o o o o . ^.^.^.^.^.^.^.^.^.^.^.^.^.^.^.^.^.^.^.^.^.^.^.^.^.^.^.^.^.^.^.^.^.^.^.^.^.^.^.^.^.^.^.^.^.^.^.^.^.^.^.^.^.^.^.^.^.^.^.^.^.^.^.^.^.^.^.^.^.^.^.^.^.^.^.^.^.^.^.^.^.^.^.^.^.^.^.^.^.^.^.^.^.^.^.^.^.^.^.^.^.^.^.^.^.^.^.^.^.^.^.^.^.^.^.^.^.^.^.^.^.^.^.^.^.^.^.^.^.^.^.^.^.^.^.^.^.^.^.^.^.^.^.^.^.^.^.^.^.^.^.",
"^.^.^.^.^.^.^.^.^.^.^.^.^.^.^.^.^.^.^.^.^.^.^.^.^.^.^.^.^.^.^.^.^.^.^.^.^.^.^.^.^.^.^.^.^.^.^.^.^.^.^.^.^.^.^.^.^.^.^.^.^.^.^.^.^.^.^.^.^.^.^.^.^.^.^.^.^.^.^.^.^.^.^.^.^.^.^.^.^.^.^.^.^.^.^.^.^.^.^.^.^.^.^.^.^.^.^.^.^.^.^.^.^.^.^.^.^.^.^.^.^.^.^.^.^.^.^.^.^.^.^.^.^.^.^.^.^.^.^.^.^.^.^.^.^.^.^.^.^.^.^.^.^.^.^.^.^.^.^.^.^.^.^.^.^.^.^.^.^.^.o + % * > 1 4 7 q t p f z k x b m B D H P E E Q Q Q ^ ( ( ) ) ' ' ' ' } }  . . . .O.O.O.O.O.+.O.O.O.O.O.O.#.#.#.#.#.#.#.=.=.=.=.=.;.;.;.;.;.:.:.;.;.;.:.:.;.:.;.:.:.;.;.=.=.=.=.=.=.#.=.=.=.=.=.=.=.=.;.=.;.;.:.:.:.,.,.,.,.,.1.1.,.,.,.,.,.,.:.:.:.:.;.=.=.=.=.=.#.#.O.O.O. . . . .} } } ' ' ' ' ' ' ' ) ) ) ( ^ ^ ^ ^ ^ ^ ^ ^ Q ^ ^ Q Q Q Q E E E E E E E E E E U K H D D B m m b b x v z k k f f f f f p u u e e q q 0 0 8 6 4 4 4 4 4 4 4 6 0 0 q e e u u p f f f f f f f p p p u p p u e q 0 0 0 0 0 q 0 0 q e e e t t u t e e q q 0 6 4 4 4 4 4 4 4 4 4 4 4 > > > > > > 1 1 > > > > * * > > > > * * * * * * * * % % % % $ $ # # + @ @ o o o . ^.^.^.^.^.^.^.^.^.^.^.^.^.^.^.^.^.^.^.^.^.^.^.^.^.^.^.^.^.^.^.^.^.^.^.^.^.^.^.^.^.^.^.^.^.^.^.^.^.^.^.^.^.^.^.^.^.^.^.^.^.^.^.^.^.^.^.^.^.^.^.^.^.^.^.^.^.^.^.^.^.^.^.^.^.^.^.^.^.^.^.^.^.^.^.^.^.^.^.^.^.^.^.^.^.^.^.^.^.^.^.^.^.^.^.^.^.^.^.^.^.^.^.^.^.^.^.^.^.^.^.^.^.^.^.^.^.^.^.^.^.^.^.^.^.^.^.^.^.^.",
"^.^.^.^.^.^.^.^.^.^.^.^.^.^.^.^.^.^.^.^.^.^.^.^.^.^.^.^.^.^.^.^.^.^.^.^.^.^.^.^.^.^.^.^.^.^.^.^.^.^.^.^.^.^.^.^.^.^.^.^.^.^.^.^.^.^.^.^.^.^.^.^.^.^.^.^.^.^.^.^.^.^.^.^.^.^.^.^.^.^.^.^.^.^.^.^.^.^.^.^.^.^.^.^.^.^.^.^.^.^.^.^.^.^.^.^.^.^.^.^.^.^.^.^.^.^.^.^.^.^.^.^.^.^.^.^.^.^.^.^.^.^.^.^.^.^.^.^.^.^.^.^.^.^.^.^.^.^.^.^.^.^.^.^.^.^.^.^.^.^.o @ % * > 1 4 8 q t p f k k v v m B D H L E E Q Q Q ^ ( ( ) ' ' ' ' ' }  . . . .O.O.O.O.O.O.O.+.O.O.O.O.#.#.#.#.=.=.=.=.=.=.=.=.;.;.:.;.:.:.:.;.:.;.:.;.:.:.;.:.:.;.;.;.;.=.=.=.=.=.=.=.=.=.=.=.;.;.;.:.:.:.:.:.:.,.,.,.1.1.1.1.1.1.1.,.1.1.,.,.,.,.,.:.;.;.=.=.=.=.#.#.O.O.O.O. . . .} } } } ' ' ' ' ' ) ) ) ( ( ( ^ ^ ^ ^ ^ ^ ^ ^ ^ ^ Q Q Q Q W W E E E E E E E U L H H D B B m m m b v v z k k k f f f p p u u e e e e e q q 0 0 0 8 8 8 7 q e e e t u p p f k k k f k f f f f f f f f p p u t u u e t e t e t u u u p p p u u u e e e 0 7 6 6 8 0 0 8 8 6 6 4 4 1 1 1 1 1 4 4 4 1 1 1 1 > > 1 1 > > > > > > > > > > * * % % $ # $ % $ # @ @ o o . ^.^.^.^.^.^.^.^.^.^.^.^.^.^.^.^.^.^.^.^.^.^.^.^.^.^.^.^.^.^.^.^.^.^.^.^.^.^.^.^.^.^.^.^.^.^.^.^.^.^.^.^.^.^.^.^.^.^.^.^.^.^.^.^.^.^.^.^.^.^.^.^.^.^.^.^.^.^.^.^.^.^.^.^.^.^.^.^.^.^.^.^.^.^.^.^.^.^.^.^.^.^.^.^.^.^.^.^.^.^.^.^.^.^.^.^.^.^.^.^.^.^.^.^.^.^.^.^.^.^.^.^.^.^.^.^.^.^.^.^.^.^.^.^.^.^.^.^.^.",
"^.^.^.^.^.^.^.^.^.^.^.^.^.^.^.^.^.^.^.^.^.^.^.^.^.^.^.^.^.^.^.^.^.^.^.^.^.^.^.^.^.^.^.^.^.^.^.^.^.^.^.^.^.^.^.^.^.^.^.^.^.^.^.^.^.^.^.^.^.^.^.^.^.^.^.^.^.^.^.^.^.^.^.^.^.^.^.^.^.^.^.^.^.^.^.^.^.^.^.^.^.^.^.^.^.^.^.^.^.^.^.^.^.^.^.^.^.^.^.^.^.^.^.^.^.^.^.^.^.^.^.^.^.^.^.^.^.^.^.^.^.^.^.^.^.^.^.^.^.^.^.^.^.^.^.^.^.^.^.^.^.^.^.^.^.^.^.^.^.^.. @ $ * > 1 4 8 0 e u f f z v v m B D D L E E E Q Q ^ ^ ) ) ) ' ' ' } } }  . . . .O.O.O.O.O.O.O.O.O.O.O.+.#.#.#.#.#.=.=.=.=.=.=.;.;.;.:.;.:.:.:.;.;.;.;.:.:.:.:.;.;.;.=.=.=.=.=.=.=.=.=.=.=.;.;.:.:.:.:.:.:.:.,.,.,.,.1.1.1.1.1.1.1.1.1.1.1.1.1.1.1.,.,.:.:.:.;.=.=.=.#.#.O.O.O.O. . . . . .} } ' ' ' ' ' ' ) ) ( ( ( ^ ^ ^ ^ ^ ^ ^ ^ ^ ^ Q Q Q Q Q E E E E E E E U P K H D D B B m m m b x v v z k k k k f f p p u u t t e u e e e q q e e e e u u p p p f f k k k z k k k z z k z v v z k f f p p p u p u u p p p f f f p f p p p p u e e e q q q 0 0 0 7 8 8 6 4 4 4 4 4 4 4 6 4 4 4 4 4 4 1 4 4 4 4 1 4 4 4 1 > > > > * * * % % % * % % $ # @ o o . ^.^.^.^.^.^.^.^.^.^.^.^.^.^.^.^.^.^.^.^.^.^.^.^.^.^.^.^.^.^.^.^.^.^.^.^.^.^.^.^.^.^.^.^.^.^.^.^.^.^.^.^.^.^.^.^.^.^.^.^.^.^.^.^.^.^.^.^.^.^.^.^.^.^.^.^.^.^.^.^.^.^.^.^.^.^.^.^.^.^.^.^.^.^.^.^.^.^.^.^.^.^.^.^.^.^.^.^.^.^.^.^.^.^.^.^.^.^.^.^.^.^.^.^.^.^.^.^.^.^.^.^.^.^.^.^.^.^.^.^.^.^.^.^.^.^.^.^.",
"^.^.^.^.^.^.^.^.^.^.^.^.^.^.^.^.^.^.^.^.^.^.^.^.^.^.^.^.^.^.^.^.^.^.^.^.^.^.^.^.^.^.^.^.^.^.^.^.^.^.^.^.^.^.^.^.^.^.^.^.^.^.^.^.^.^.^.^.^.^.^.^.^.^.^.^.^.^.^.^.^.^.^.^.^.^.^.^.^.^.^.^.^.^.^.^.^.^.^.^.^.^.^.^.^.^.^.^.^.^.^.^.^.^.^.^.^.^.^.^.^.^.^.^.^.^.^.^.^.^.^.^.^.^.^.^.^.^.^.^.^.^.^.^.^.^.^.^.^.^.^.^.^.^.^.^.^.^.^.^.^.^.^.^.^.^.^.^.^.^.o @ % * > 1 4 8 0 e u p f k v v m B D H K U E E W Q ^ ( ) ) ' ' ' } ' }  . . . .O.O.O.O.O.O.O.O.O.O.O.O.#.#.#.#.#.=.=.=.=.=.=.=.;.:.;.:.;.:.:.:.:.:.;.;.;.:.:.:.;.:.;.;.=.=.=.=.=.=.=.=.=.;.;.:.:.:.:.:.,.,.,.,.,.1.,.1.1.1.1.1.1.4.1.1.1.1.1.1.1.1.1.,.,.,.:.;.;.=.=.=.#.#.#.O.O.O. . . . . .} } ' ' ' ' ' ' ) ) ( ) ^ ^ ^ ^ ^ ^ ^ ^ ^ ^ ^ Q Q Q Q Q W E E E E E E U P L H H D B B B m m v x x v z z k k k f f p p u u u u u u u t e u t u u u p p p p f k z z z z v k k z v x b b b v v v z k k k k k f f f f f k k k k k k k f f f p p u u t t e e e e q 0 0 0 0 8 6 8 8 7 7 0 0 0 8 4 4 4 4 6 6 6 4 4 4 4 4 4 1 1 1 > > > * * * * * * % % $ # @ o o . ^.^.^.^.^.^.^.^.^.^.^.^.^.^.^.^.^.^.^.^.^.^.^.^.^.^.^.^.^.^.^.^.^.^.^.^.^.^.^.^.^.^.^.^.^.^.^.^.^.^.^.^.^.^.^.^.^.^.^.^.^.^.^.^.^.^.^.^.^.^.^.^.^.^.^.^.^.^.^.^.^.^.^.^.^.^.^.^.^.^.^.^.^.^.^.^.^.^.^.^.^.^.^.^.^.^.^.^.^.^.^.^.^.^.^.^.^.^.^.^.^.^.^.^.^.^.^.^.^.^.^.^.^.^.^.^.^.^.^.^.^.^.^.^.^.^.^.",
"^.^.^.^.^.^.^.^.^.^.^.^.^.^.^.^.^.^.^.^.^.^.^.^.^.^.^.^.^.^.^.^.^.^.^.^.^.^.^.^.^.^.^.^.^.^.^.^.^.^.^.^.^.^.^.^.^.^.^.^.^.^.^.^.^.^.^.^.^.^.^.^.^.^.^.^.^.^.^.^.^.^.^.^.^.^.^.^.^.^.^.^.^.^.^.^.^.^.^.^.^.^.^.^.^.^.^.^.^.^.^.^.^.^.^.^.^.^.^.^.^.^.^.^.^.^.^.^.^.^.^.^.^.^.^.^.^.^.^.^.^.^.^.^.^.^.^.^.^.^.^.^.^.^.^.^.^.^.^.^.^.^.^.^.^.^.^.^.^.^.o # * > 1 4 4 8 0 e u p f k v b m B D H K U E E Q Q ^ ^ ( ) ) ' ' } }  . . . . . .O.O.O.O.O.O.O.+.O.O.O.+.#.#.#.#.#.=.=.=.=.=.;.;.;.;.;.:.:.:.:.:.;.;.;.:.:.:.:.:.:.;.;.=.=.=.=.=.=.;.;.;.;.:.:.:.:.,.,.,.,.,.,.,.1.1.1.1.1.4.4.4.4.4.4.4.4.4.4.1.1.1.,.,.,.:.,.:.;.;.=.=.=.#.#.O.O. .O. . . . .} } } ' ' ' ' ' ) ) ) ( ( ( ( ( ^ ^ ( ^ ^ Q ^ Q Q Q Q Q W E E E E E E E U P K H D D B B m b v v v z z k k k k k f f p p p p p p p u u u u p f f f f f k z v v x x x v v x b b b m m m m b b x v z v x z k f f z k k k k k z k z z k k f f f f p p u u t e e e e e q q 0 q q e q e q q 0 7 8 6 6 7 7 0 7 8 6 6 6 6 4 4 4 1 1 > > > > > * * * % % $ # @ o o . ^.^.^.^.^.^.^.^.^.^.^.^.^.^.^.^.^.^.^.^.^.^.^.^.^.^.^.^.^.^.^.^.^.^.^.^.^.^.^.^.^.^.^.^.^.^.^.^.^.^.^.^.^.^.^.^.^.^.^.^.^.^.^.^.^.^.^.^.^.^.^.^.^.^.^.^.^.^.^.^.^.^.^.^.^.^.^.^.^.^.^.^.^.^.^.^.^.^.^.^.^.^.^.^.^.^.^.^.^.^.^.^.^.^.^.^.^.^.^.^.^.^.^.^.^.^.^.^.^.^.^.^.^.^.^.^.^.^.^.^.^.^.^.^.^.^.",
"^.^.^.^.^.^.^.^.^.^.^.^.^.^.^.^.^.^.^.^.^.^.^.^.^.^.^.^.^.^.^.^.^.^.^.^.^.^.^.^.^.^.^.^.^.^.^.^.^.^.^.^.^.^.^.^.^.^.^.^.^.^.^.^.^.^.^.^.^.^.^.^.^.^.^.^.^.^.^.^.^.^.^.^.^.^.^.^.^.^.^.^.^.^.^.^.^.^.^.^.^.^.^.^.^.^.^.^.^.^.^.^.^.^.^.^.^.^.^.^.^.^.^.^.^.^.^.^.^.^.^.^.^.^.^.^.^.^.^.^.^.^.^.^.^.^.^.^.^.^.^.^.^.^.^.^.^.^.^.^.^.^.^.^.^.^.^.^.^.. o $ * > 1 4 8 8 0 e u p f k v b B B D H K P E E E Q ^ ^ ( ) ' ' ' ' } }  . . . . .O.O.O.O.O.O.+.O.+.O.O.+.#.#.#.#.#.=.=.=.=.=.;.;.;.;.:.:.:.:.:.:.:.;.;.;.:.:.:.:.:.;.;.;.=.=.=.;.;.;.;.;.;.:.:.:.,.,.,.,.1.1.1.1.1.1.1.4.4.4.4.4.4.4.4.4.4.4.4.4.1.1.1.1.,.,.:.:.:.:.;.=.=.=.#.#.O.O.O.O.O. . . .} } } } ' ' ' ' ' ) ) ( ) ( ( ( ( ( ^ ( ^ ^ ^ Q Q Q Q W E E E E E E E E U P H H D D B m b b v v v z z z k k z j k k f f f k f f p p p p f k k k k z v v b b b m m m b m m B B B Z B Z B m b b v b b x v k k v v v x x x x x v v z z z z z z k f f p p p u u t u e e e e e e e e e e e q 0 0 0 0 q q 0 0 0 0 0 8 8 6 4 1 1 1 1 1 1 > > > * * % $ # + o o . ^.^.^.^.^.^.^.^.^.^.^.^.^.^.^.^.^.^.^.^.^.^.^.^.^.^.^.^.^.^.^.^.^.^.^.^.^.^.^.^.^.^.^.^.^.^.^.^.^.^.^.^.^.^.^.^.^.^.^.^.^.^.^.^.^.^.^.^.^.^.^.^.^.^.^.^.^.^.^.^.^.^.^.^.^.^.^.^.^.^.^.^.^.^.^.^.^.^.^.^.^.^.^.^.^.^.^.^.^.^.^.^.^.^.^.^.^.^.^.^.^.^.^.^.^.^.^.^.^.^.^.^.^.^.^.^.^.^.^.^.^.^.^.^.^.^.",
"^.^.^.^.^.^.^.^.^.^.^.^.^.^.^.^.^.^.^.^.^.^.^.^.^.^.^.^.^.^.^.^.^.^.^.^.^.^.^.^.^.^.^.^.^.^.^.^.^.^.^.^.^.^.^.^.^.^.^.^.^.^.^.^.^.^.^.^.^.^.^.^.^.^.^.^.^.^.^.^.^.^.^.^.^.^.^.^.^.^.^.^.^.^.^.^.^.^.^.^.^.^.^.^.^.^.^.^.^.^.^.^.^.^.^.^.^.^.^.^.^.^.^.^.^.^.^.^.^.^.^.^.^.^.^.^.^.^.^.^.^.^.^.^.^.^.^.^.^.^.^.^.^.^.^.^.^.^.^.^.^.^.^.^.^.^.^.^.^.. o $ * > 4 4 6 0 0 e u p f k v b B B D H K U E E E Q ^ ^ ) ) ' ' ' } }  . . . . . .O.O.O.O.O.O.O.O.O.O.#.O.#.#.#.#.#.=.=.=.=.=.;.;.;.:.:.:.:.:.:.:.:.;.:.;.:.:.:.:.:.:.;.;.;.=.=.=.;.;.:.;.:.:.:.:.,.,.,.1.1.1.1.1.1.4.4.4.4.8.8.8.4.8.8.8.8.8.4.4.4.1.1.1.,.,.,.,.:.:.;.;.=.=.=.#.#.#.#.O.O.O. . . . .} } } } ' ' ' ' ' ) ) ) ( ) ( ) ( ( ^ ^ Q ^ Q Q Q Q Q E E E E E E E E U P K H D B B m b v x x z z z k z z z z z k k v z k z k k k z z z v z v v b m m m m B B D Z B D D H H H K K H D B m m m m m b v x v x v b b b b b b b v x x x x x v z k k k f p p p u u u u u u u u u e t e e e q q q e e e e e 0 0 0 0 7 4 4 4 4 4 1 1 > 1 > > * * % $ # @ @ o . ^.^.^.^.^.^.^.^.^.^.^.^.^.^.^.^.^.^.^.^.^.^.^.^.^.^.^.^.^.^.^.^.^.^.^.^.^.^.^.^.^.^.^.^.^.^.^.^.^.^.^.^.^.^.^.^.^.^.^.^.^.^.^.^.^.^.^.^.^.^.^.^.^.^.^.^.^.^.^.^.^.^.^.^.^.^.^.^.^.^.^.^.^.^.^.^.^.^.^.^.^.^.^.^.^.^.^.^.^.^.^.^.^.^.^.^.^.^.^.^.^.^.^.^.^.^.^.^.^.^.^.^.^.^.^.^.^.^.^.^.^.^.^.^.^.",
"^.^.^.^.^.^.^.^.^.^.^.^.^.^.^.^.^.^.^.^.^.^.^.^.^.^.^.^.^.^.^.^.^.^.^.^.^.^.^.^.^.^.^.^.^.^.^.^.^.^.^.^.^.^.^.^.^.^.^.^.^.^.^.^.^.^.^.^.^.^.^.^.^.^.^.^.^.^.^.^.^.^.^.^.^.^.^.^.^.^.^.^.^.^.^.^.^.^.^.^.^.^.^.^.^.^.^.^.^.^.^.^.^.^.^.^.^.^.^.^.^.^.^.^.^.^.^.^.^.^.^.^.^.^.^.^.^.^.^.^.^.^.^.^.^.^.^.^.^.^.^.^.^.^.^.^.^.^.^.^.^.^.^.^.^.^.^.^.^.. @ % * > 4 4 6 7 q e u p f k x m B Z D H L U E E W Q Q ^ ( ) ' ' ' } }  . . . . .O.O.O.O.O.O.O.+.O.+.O.O.#.O.O.#.#.#.=.=.=.=.;.;.:.;.:.:.:.:.,.:.:.:.:.:.:.:.:.:.:.:.:.:.;.;.;.;.;.;.:.:.:.:.:.:.:.,.,.1.1.1.1.1.1.4.4.4.8.8.8.8.8.8.8.8.8.8.4.8.4.4.4.1.1.1.1.1.1.,.:.:.:.;.=.=.=.#.#.#.#.O.O. . . . . . . .} } ' ' ' ' ) ) ) ) ) ) ( ) ( ^ ^ ^ ^ Q Q Q Q Q E E E E E E E E E U U L H D B m b v x x v z z z z z z z z v x b b v v v v z x v b b x x b m B B B D D D H H H K L U U E E E U K D D B B m m m b b b m m B B m m m B m m m b m m m b v x v v z k f f p p p p u u u u u u u u u u e e e e e e t e e e e q 0 7 4 4 4 4 1 1 1 1 1 > * * % % % # @ o o ^.^.^.^.^.^.^.^.^.^.^.^.^.^.^.^.^.^.^.^.^.^.^.^.^.^.^.^.^.^.^.^.^.^.^.^.^.^.^.^.^.^.^.^.^.^.^.^.^.^.^.^.^.^.^.^.^.^.^.^.^.^.^.^.^.^.^.^.^.^.^.^.^.^.^.^.^.^.^.^.^.^.^.^.^.^.^.^.^.^.^.^.^.^.^.^.^.^.^.^.^.^.^.^.^.^.^.^.^.^.^.^.^.^.^.^.^.^.^.^.^.^.^.^.^.^.^.^.^.^.^.^.^.^.^.^.^.^.^.^.^.^.^.^.^.",
"^.^.^.^.^.^.^.^.^.^.^.^.^.^.^.^.^.^.^.^.^.^.^.^.^.^.^.^.^.^.^.^.^.^.^.^.^.^.^.^.^.^.^.^.^.^.^.^.^.^.^.^.^.^.^.^.^.^.^.^.^.^.^.^.^.^.^.^.^.^.^.^.^.^.^.^.^.^.^.^.^.^.^.^.^.^.^.^.^.^.^.^.^.^.^.^.^.^.^.^.^.^.^.^.^.^.^.^.^.^.^.^.^.^.^.^.^.^.^.^.^.^.^.^.^.^.^.^.^.^.^.^.^.^.^.^.^.^.^.^.^.^.^.^.^.^.^.^.^.^.^.^.^.^.^.^.^.^.^.^.^.^.^.^.^.^.^.^.^.o # % * 1 4 4 0 0 q e u p f k x m B D H K U E E E E Q Q ( ( ) ' ' ' ' }  . . . . .O.O.O.O.O.O.O.O.O.O.O.O.#.O.#.#.#.#.=.=.=.=.;.:.;.;.:.:.:.:.:.:.:.:.:.:.:.:.:.:.:.:.:.:.;.:.;.;.:.:.:.:.:.:.:.,.,.,.1.1.1.1.1.4.4.4.4.4.8.8.8.8.8.8.8.8.8.8.8.4.4.4.4.4.4.1.1.1.1.,.,.:.:.:.;.=.=.=.=.#.#.#.O.O.O. . . . . . .} } } ' ' ' ' ) ) ) ) ( ) ( ^ ^ ^ ^ Q Q Q ^ Q Q W W E E E E E E E E L H D Z B m b b b v x v v v v v v v x v b m b b b b b m m m m b m m B D H H H H K P P U U E E E E E E E E P H H D B B m m m B Z Z D D D D D D D Z Z B B B B B m b b b x x k z f f f f f f p f f f p p p u u t e e e t u u u t e q q 0 8 6 4 4 4 4 1 1 > > > * * % % $ + + o o . ^.^.^.^.^.^.^.^.^.^.^.^.^.^.^.^.^.^.^.^.^.^.^.^.^.^.^.^.^.^.^.^.^.^.^.^.^.^.^.^.^.^.^.^.^.^.^.^.^.^.^.^.^.^.^.^.^.^.^.^.^.^.^.^.^.^.^.^.^.^.^.^.^.^.^.^.^.^.^.^.^.^.^.^.^.^.^.^.^.^.^.^.^.^.^.^.^.^.^.^.^.^.^.^.^.^.^.^.^.^.^.^.^.^.^.^.^.^.^.^.^.^.^.^.^.^.^.^.^.^.^.^.^.^.^.^.^.^.^.^.^.^.^.",
"^.^.^.^.^.^.^.^.^.^.^.^.^.^.^.^.^.^.^.^.^.^.^.^.^.^.^.^.^.^.^.^.^.^.^.^.^.^.^.^.^.^.^.^.^.^.^.^.^.^.^.^.^.^.^.^.^.^.^.^.^.^.^.^.^.^.^.^.^.^.^.^.^.^.^.^.^.^.^.^.^.^.^.^.^.^.^.^.^.^.^.^.^.^.^.^.^.^.^.^.^.^.^.^.^.^.^.^.^.^.^.^.^.^.^.^.^.^.^.^.^.^.^.^.^.^.^.^.^.^.^.^.^.^.^.^.^.^.^.^.^.^.^.^.^.^.^.^.^.^.^.^.^.^.^.^.^.^.^.^.^.^.^.^.^.^.^.^.. + % * > 4 4 7 q e e u p p f z x m B D H P E E E E W Q ^ ^ ) ) ' ' ' ' } }  .}  . .O.O.O.O.O.O.O.O.O.O.#.#.#.#.#.#.#.=.=.=.=.;.;.:.:.:.:.:.:.,.,.,.:.:.:.:.:.:.:.:.:.:.:.:.:.:.:.:.:.:.:.:.:.,.,.,.,.1.1.1.1.1.4.4.4.4.4.8.8.8.8.q.q.q.8.8.8.8.8.8.8.8.8.4.4.4.1.1.,.,.,.,.,.:.:.;.=.=.=.#.#.#.#.#.O.O.O.O. . . . . .} } ' ' ' ' ' ' ' ) ) ) ( ( ^ ^ ^ Q Q Q Q Q Q Q E E E E E E E E U L H D Z B m m m b b v v v x x x v b b m B B B B B B B B B B B B B H H K L L U E E E E E E E E W Q E E E E E P L H H D D D D H H H H H K K H D D D D D D D Z B B m m b b v v v k k k k k k k k f f f p p p u u u u u u u u u t e e q 0 7 8 6 4 4 4 4 1 > > > * * % % # + @ o o . ^.^.^.^.^.^.^.^.^.^.^.^.^.^.^.^.^.^.^.^.^.^.^.^.^.^.^.^.^.^.^.^.^.^.^.^.^.^.^.^.^.^.^.^.^.^.^.^.^.^.^.^.^.^.^.^.^.^.^.^.^.^.^.^.^.^.^.^.^.^.^.^.^.^.^.^.^.^.^.^.^.^.^.^.^.^.^.^.^.^.^.^.^.^.^.^.^.^.^.^.^.^.^.^.^.^.^.^.^.^.^.^.^.^.^.^.^.^.^.^.^.^.^.^.^.^.^.^.^.^.^.^.^.^.^.^.^.^.^.^.^.^.",
"^.^.^.^.^.^.^.^.^.^.^.^.^.^.^.^.^.^.^.^.^.^.^.^.^.^.^.^.^.^.^.^.^.^.^.^.^.^.^.^.^.^.^.^.^.^.^.^.^.^.^.^.^.^.^.^.^.^.^.^.^.^.^.^.^.^.^.^.^.^.^.^.^.^.^.^.^.^.^.^.^.^.^.^.^.^.^.^.^.^.^.^.^.^.^.^.^.^.^.^.^.^.^.^.^.^.^.^.^.^.^.^.^.^.^.^.^.^.^.^.^.^.^.^.^.^.^.^.^.^.^.^.^.^.^.^.^.^.^.^.^.^.^.^.^.^.^.^.^.^.^.^.^.^.^.^.^.^.^.^.^.^.^.^.^.^.^.^.o $ * > 4 6 0 q e u u p f f k z b m Z D L U E E E E W Q Q ^ ) ) ' ' ' ' } } } }  . . .O.O.O.O.O.#.O.#.O.#.#.#.#.#.#.=.=.=.=.;.;.:.:.:.:.:.:.,.:.:.,.:.:.:.:.:.:.:.:.:.:.:.:.:.:.:.:.:.:.:.,.,.,.1.1.1.1.1.1.1.4.4.4.8.8.8.8.q.q.8.q.q.q.q.8.q.8.8.8.8.8.8.8.4.4.4.1.1.1.1.,.,.,.:.:.;.=.=.=.=.#.#.#.#.#.O.O.O. . . . . .} } ' ' ' ' ' ' ' ) ) ) ( ^ ^ Q Q Q Q Q Q Q Q Q W E E E E E E E U P H D D B B B m m b v b v v b b m m B Z D D D H D D H H D D D H P U U E E E E E E E E E Q Q Q Q Q Q E E E E E E U P P P U E E E U U E U L K H K K H H D H D D B B B m m b v x v v v v z z z k k k k k f p p p p p p p p p u u e e 0 0 q 0 8 4 4 4 4 1 > > > * * % % # @ o o . ^.^.^.^.^.^.^.^.^.^.^.^.^.^.^.^.^.^.^.^.^.^.^.^.^.^.^.^.^.^.^.^.^.^.^.^.^.^.^.^.^.^.^.^.^.^.^.^.^.^.^.^.^.^.^.^.^.^.^.^.^.^.^.^.^.^.^.^.^.^.^.^.^.^.^.^.^.^.^.^.^.^.^.^.^.^.^.^.^.^.^.^.^.^.^.^.^.^.^.^.^.^.^.^.^.^.^.^.^.^.^.^.^.^.^.^.^.^.^.^.^.^.^.^.^.^.^.^.^.^.^.^.^.^.^.^.^.^.^.^.^.^.",
"^.^.^.^.^.^.^.^.^.^.^.^.^.^.^.^.^.^.^.^.^.^.^.^.^.^.^.^.^.^.^.^.^.^.^.^.^.^.^.^.^.^.^.^.^.^.^.^.^.^.^.^.^.^.^.^.^.^.^.^.^.^.^.^.^.^.^.^.^.^.^.^.^.^.^.^.^.^.^.^.^.^.^.^.^.^.^.^.^.^.^.^.^.^.^.^.^.^.^.^.^.^.^.^.^.^.^.^.^.^.^.^.^.^.^.^.^.^.^.^.^.^.^.^.^.^.^.^.^.^.^.^.^.^.^.^.^.^.^.^.^.^.^.^.^.^.^.^.^.^.^.^.^.^.^.^.^.^.^.^.^.^.^.^.^.^.^.. @ $ * 1 4 6 q e u p p f f f k x b m D H P E E E E E E Q Q ^ ) ) ) ' ' ' ' } } }  . .O.O.O.O.O.O.O.O.O.O.#.#.#.#.#.#.=.=.=.=.;.:.:.:.,.,.:.:.,.,.,.,.:.:.:.:.:.:.:.:.:.:.:.:.:.:.:.:.,.,.,.,.,.1.1.1.1.1.1.1.4.4.4.8.8.8.q.q.8.q.q.q.8.q.q.8.q.q.q.8.q.8.8.8.4.4.4.1.1.1.1.1.1.,.,.:.:.:.;.=.=.#.#.#.#.#.#.O.O.O. . . .} } } } ' ' ' ' ' ' ) ) ) ( ( ( ^ ^ ^ Q Q Q Q Q Q Q Q W W Q E E E E E U K D D D D B B m m m m m m m B Z D H H K L K K L P L K K L U E E E E E E E E E E W Q Q Q ^ Q Q Q Q W Q W W E E E E E E E E E E E E E E E U U P P L K K K H D D D Z B m m m b v v v v x v v v z z z k f f f f p p p p p p p u e e e e q 0 8 4 4 4 4 1 > > * * % % $ + @ o o . ^.^.^.^.^.^.^.^.^.^.^.^.^.^.^.^.^.^.^.^.^.^.^.^.^.^.^.^.^.^.^.^.^.^.^.^.^.^.^.^.^.^.^.^.^.^.^.^.^.^.^.^.^.^.^.^.^.^.^.^.^.^.^.^.^.^.^.^.^.^.^.^.^.^.^.^.^.^.^.^.^.^.^.^.^.^.^.^.^.^.^.^.^.^.^.^.^.^.^.^.^.^.^.^.^.^.^.^.^.^.^.^.^.^.^.^.^.^.^.^.^.^.^.^.^.^.^.^.^.^.^.^.^.^.^.^.^.^.^.^.^.",
"^.^.^.^.^.^.^.^.^.^.^.^.^.^.^.^.^.^.^.^.^.^.^.^.^.^.^.^.^.^.^.^.^.^.^.^.^.^.^.^.^.^.^.^.^.^.^.^.^.^.^.^.^.^.^.^.^.^.^.^.^.^.^.^.^.^.^.^.^.^.^.^.^.^.^.^.^.^.^.^.^.^.^.^.^.^.^.^.^.^.^.^.^.^.^.^.^.^.^.^.^.^.^.^.^.^.^.^.^.^.^.^.^.^.^.^.^.^.^.^.^.^.^.^.^.^.^.^.^.^.^.^.^.^.^.^.^.^.^.^.^.^.^.^.^.^.^.^.^.^.^.^.^.^.^.^.^.^.^.^.^.^.^.^.^.^.^.. @ % * 1 4 7 e e u f f f f k z v b B D H P W E E E E W Q Q ^ ( ( ) ' ' ' ' ' } }  . . . .O.O.O.O.O.O.O.O.#.#.#.#.#.=.=.=.=.;.;.:.,.,.,.,.,.,.,.,.,.:.,.:.:.:.:.:.:.:.:.:.:.,.:.:.:.,.,.,.,.,.1.1.1.1.1.1.1.4.4.4.4.8.8.q.q.q.e.q.e.q.q.q.q.q.e.q.q.q.8.q.8.q.8.4.4.1.1.1.1.1.1.1.1.,.,.:.:.:.=.=.=.#.#.#.#.O.O.O.O.O. . . . .} } ' ' ' ' ' ' ' ) ( ) ( ^ ^ ^ ^ Q ^ Q Q Q Q Q Q Q Q Q W E E E E P K H H H D D B B B B B B Z D H H L P U E U E E E E E E E E E E E E E E E E W Q Q Q ^ ^ ( ( ^ Q Q Q Q Q Q W W E E E E E E E E E E E E E E E E E E E U L K H H H D D Z B B m m m m m b b b v v v x k z k k f f f f f f f p p u u t e q 0 0 8 4 4 4 1 1 > > * * % % # + @ o o . ^.^.^.^.^.^.^.^.^.^.^.^.^.^.^.^.^.^.^.^.^.^.^.^.^.^.^.^.^.^.^.^.^.^.^.^.^.^.^.^.^.^.^.^.^.^.^.^.^.^.^.^.^.^.^.^.^.^.^.^.^.^.^.^.^.^.^.^.^.^.^.^.^.^.^.^.^.^.^.^.^.^.^.^.^.^.^.^.^.^.^.^.^.^.^.^.^.^.^.^.^.^.^.^.^.^.^.^.^.^.^.^.^.^.^.^.^.^.^.^.^.^.^.^.^.^.^.^.^.^.^.^.^.^.^.^.^.^.^.^.",
"^.^.^.^.^.^.^.^.^.^.^.^.^.^.^.^.^.^.^.^.^.^.^.^.^.^.^.^.^.^.^.^.^.^.^.^.^.^.^.^.^.^.^.^.^.^.^.^.^.^.^.^.^.^.^.^.^.^.^.^.^.^.^.^.^.^.^.^.^.^.^.^.^.^.^.^.^.^.^.^.^.^.^.^.^.^.^.^.^.^.^.^.^.^.^.^.^.^.^.^.^.^.^.^.^.^.^.^.^.^.^.^.^.^.^.^.^.^.^.^.^.^.^.^.^.^.^.^.^.^.^.^.^.^.^.^.^.^.^.^.^.^.^.^.^.^.^.^.^.^.^.^.^.^.^.^.^.^.^.^.^.^.^.^.^.^.^.o # * > > 4 8 e u p f f f k k k v b B Z H L U E E E E Q Q Q ^ ^ ( ) ' ' ' ' ' ' }  . . .O.O.O.#.O.O.O.O.O.O.#.#.#.#.=.=.=.=.;.;.:.,.,.,.,.,.,.,.,.,.:.:.:.:.:.:.:.:.:.:.:.:.:.,.,.:.:.,.,.,.,.1.1.1.1.4.4.4.4.4.4.8.q.q.q.e.e.e.e.e.q.e.e.q.e.e.e.e.q.q.q.q.8.8.8.4.4.4.1.1.1.1.1.1.1.1.,.,.:.;.=.=.#.#.#.#.#.O.O.O.O. . . . . .} } } } ' ' ' ' ) ) ) ( ^ ^ ^ ^ ^ ^ ^ Q Q Q Q Q Q Q Q Q E E E E E U U U P K H D D D D D D H H L U E E E E E E E E E E E E E E E Q Q W Q Q Q Q Q ^ ^ ^ ( ) ) ( ( ^ ^ ^ Q ^ Q Q Q Q Q Q E W Q Q Q W E E E E E E E E E E U U L L L H H D D D Z B B B m B B m b b b b x x z z k k k k k k f f p p u u t e e q 7 8 4 4 4 4 1 > > * * % $ $ # + o o . ^.^.^.^.^.^.^.^.^.^.^.^.^.^.^.^.^.^.^.^.^.^.^.^.^.^.^.^.^.^.^.^.^.^.^.^.^.^.^.^.^.^.^.^.^.^.^.^.^.^.^.^.^.^.^.^.^.^.^.^.^.^.^.^.^.^.^.^.^.^.^.^.^.^.^.^.^.^.^.^.^.^.^.^.^.^.^.^.^.^.^.^.^.^.^.^.^.^.^.^.^.^.^.^.^.^.^.^.^.^.^.^.^.^.^.^.^.^.^.^.^.^.^.^.^.^.^.^.^.^.^.^.^.^.^.^.^.^.^.",
"^.^.^.^.^.^.^.^.^.^.^.^.^.^.^.^.^.^.^.^.^.^.^.^.^.^.^.^.^.^.^.^.^.^.^.^.^.^.^.^.^.^.^.^.^.^.^.^.^.^.^.^.^.^.^.^.^.^.^.^.^.^.^.^.^.^.^.^.^.^.^.^.^.^.^.^.^.^.^.^.^.^.^.^.^.^.^.^.^.^.^.^.^.^.^.^.^.^.^.^.^.^.^.^.^.^.^.^.^.^.^.^.^.^.^.^.^.^.^.^.^.^.^.^.^.^.^.^.^.^.^.^.^.^.^.^.^.^.^.^.^.^.^.^.^.^.^.^.^.^.^.^.^.^.^.^.^.^.^.^.^.^.^.^.^.^.. o $ * > 1 4 8 e u p p f f k z z v b m B D H P E E E E W Q Q ^ ( ( ) ) ' ' ' ' } }  . . .O.O.O.#.O.+.+.O.#.#.#.#.#.=.=.=.=.;.:.:.:.,.,.,.,.,.,.1.,.,.,.:.:.:.:.:.:.:.,.:.:.,.,.,.,.,.,.,.,.,.1.1.1.4.4.4.4.4.4.4.8.q.8.e.e.e.e.t.e.e.e.e.e.e.e.e.e.e.e.q.e.q.q.8.8.8.4.4.1.4.1.1.1.1.1.1.1.,.,.:.;.=.=.#.#.#.#.#.#.O.O.O.O. . . . . .} } ' ' ' ' ' ' ) ( ( ^ ^ ^ ^ ^ ^ ^ ^ Q ^ Q ^ ^ Q Q W E E E E E E E E U P L H H H H H L P U E E E E E E W W E Q E W Q W Q Q Q ^ ^ Q ^ Q ^ ( ( ) ) ' ' ) ) ) ( ( ^ ^ ^ ^ ^ Q ^ Q Q Q Q Q Q Q Q W W W Q W Q E E E E E E E E E P K H H H D D D D D D B B m m m m b b v x v v k k z z k f f p p u u u e e 0 0 6 4 4 4 4 1 > > * * % % $ # @ o o . ^.^.^.^.^.^.^.^.^.^.^.^.^.^.^.^.^.^.^.^.^.^.^.^.^.^.^.^.^.^.^.^.^.^.^.^.^.^.^.^.^.^.^.^.^.^.^.^.^.^.^.^.^.^.^.^.^.^.^.^.^.^.^.^.^.^.^.^.^.^.^.^.^.^.^.^.^.^.^.^.^.^.^.^.^.^.^.^.^.^.^.^.^.^.^.^.^.^.^.^.^.^.^.^.^.^.^.^.^.^.^.^.^.^.^.^.^.^.^.^.^.^.^.^.^.^.^.^.^.^.^.^.^.^.^.^.^.^.",
"^.^.^.^.^.^.^.^.^.^.^.^.^.^.^.^.^.^.^.^.^.^.^.^.^.^.^.^.^.^.^.^.^.^.^.^.^.^.^.^.^.^.^.^.^.^.^.^.^.^.^.^.^.^.^.^.^.^.^.^.^.^.^.^.^.^.^.^.^.^.^.^.^.^.^.^.^.^.^.^.^.^.^.^.^.^.^.^.^.^.^.^.^.^.^.^.^.^.^.^.^.^.^.^.^.^.^.^.^.^.^.^.^.^.^.^.^.^.^.^.^.^.^.^.^.^.^.^.^.^.^.^.^.^.^.^.^.^.^.^.^.^.^.^.^.^.^.^.^.^.^.^.^.^.^.^.^.^.^.^.^.^.^.^.^.. . o $ * > 4 4 8 e u u f f f z z z x b m B D H K U E E E Q Q Q ^ ^ ( ) ) ' ' ' ' ' }  . . .O.O.#.#.#.#.+.#.O.#.#.=.=.#.=.=.=.;.:.:.,.,.,.1.,.1.1.,.1.1.,.,.:.:.:.:.:.:.,.,.:.,.,.,.,.,.1.1.1.1.1.1.4.4.4.4.4.8.8.8.q.e.e.e.e.e.e.t.t.t.t.e.e.e.q.e.e.e.e.e.e.q.q.8.8.8.8.4.4.4.4.4.4.1.1.1.1.1.,.,.:.;.=.=.=.=.=.#.#.#.O.O.O.O.O. . . . .} } ' ' ' ' ' ) ) ( ( ^ ( ( ( ( ( ^ ^ ^ ^ ^ ^ Q Q W Q E E E E E E E E E E P L P U P U E E E E E W W Q Q Q Q Q Q Q Q Q Q ^ ^ ^ ^ ^ ^ ^ ( ) ) ' ' ' ' ' ' ' ) ) ) ) ) ( ) ^ ^ ^ ^ ^ Q ^ Q Q Q Q Q Q Q Q Q Q Q Q E E E E E E U P K H H H H H H H H H D Z B B B m m m b b v x v z z k k f p p p p p u e e 0 7 8 8 6 4 4 4 1 > * * % % $ + @ o . ^.^.^.^.^.^.^.^.^.^.^.^.^.^.^.^.^.^.^.^.^.^.^.^.^.^.^.^.^.^.^.^.^.^.^.^.^.^.^.^.^.^.^.^.^.^.^.^.^.^.^.^.^.^.^.^.^.^.^.^.^.^.^.^.^.^.^.^.^.^.^.^.^.^.^.^.^.^.^.^.^.^.^.^.^.^.^.^.^.^.^.^.^.^.^.^.^.^.^.^.^.^.^.^.^.^.^.^.^.^.^.^.^.^.^.^.^.^.^.^.^.^.^.^.^.^.^.^.^.^.^.^.^.^.^.^.^.^.",
"^.^.^.^.^.^.^.^.^.^.^.^.^.^.^.^.^.^.^.^.^.^.^.^.^.^.^.^.^.^.^.^.^.^.^.^.^.^.^.^.^.^.^.^.^.^.^.^.^.^.^.^.^.^.^.^.^.^.^.^.^.^.^.^.^.^.^.^.^.^.^.^.^.^.^.^.^.^.^.^.^.^.^.^.^.^.^.^.^.^.^.^.^.^.^.^.^.^.^.^.^.^.^.^.^.^.^.^.^.^.^.^.^.^.^.^.^.^.^.^.^.^.^.^.^.^.^.^.^.^.^.^.^.^.^.^.^.^.^.^.^.^.^.^.^.^.^.^.^.^.^.^.^.^.^.^.^.^.^.^.^.^.^.^.. o o @ $ * 1 4 6 6 0 e u p f k z z z v v m m D D H P E E E E Q Q Q ^ ^ ) ) ) ' ' ' ' }  . . .O.O.#.#.#.+.#.O.#.#.#.=.=.=.=.=.;.:.:.,.,.1.1.1.1.1.1.1.1.1.,.,.,.:.:.:.,.,.,.,.,.,.,.,.1.1.1.1.1.1.4.4.4.4.4.4.8.8.q.e.e.e.t.t.t.t.t.t.t.e.t.t.e.e.e.e.t.e.t.e.e.e.q.q.8.8.8.8.4.4.4.4.4.4.4.4.1.1.1.,.:.:.;.;.=.=.=.#.#.#.#.#.O.O.O.O.O. . . . .} } ' ' ' ' ' ) ) ) ) ) ( ) ) ( ( ( ^ ^ ^ ^ Q Q W W W E E E E E E E E E E E E E E E E E E E Q Q Q Q Q Q ^ Q ^ ^ ^ ^ ( ( ) ( ( ) ( ) ' ' ' ' ' ' ' ' ' ' ' ' ' ' ) ) ) ) ( ( ^ ^ ^ ^ ^ ^ ^ Q Q ^ ^ ^ ^ Q Q W W E E E E E U U U U U U U U U U L K H D D D B B B m m b b v x z z k f f f f f p u u e e 0 0 0 0 6 4 4 4 1 > * * % % $ # o o . ^.^.^.^.^.^.^.^.^.^.^.^.^.^.^.^.^.^.^.^.^.^.^.^.^.^.^.^.^.^.^.^.^.^.^.^.^.^.^.^.^.^.^.^.^.^.^.^.^.^.^.^.^.^.^.^.^.^.^.^.^.^.^.^.^.^.^.^.^.^.^.^.^.^.^.^.^.^.^.^.^.^.^.^.^.^.^.^.^.^.^.^.^.^.^.^.^.^.^.^.^.^.^.^.^.^.^.^.^.^.^.^.^.^.^.^.^.^.^.^.^.^.^.^.^.^.^.^.^.^.^.^.^.^.^.^.^.",
"^.^.^.^.^.^.^.^.^.^.^.^.^.^.^.^.^.^.^.^.^.^.^.^.^.^.^.^.^.^.^.^.^.^.^.^.^.^.^.^.^.^.^.^.^.^.^.^.^.^.^.^.^.^.^.^.^.^.^.^.^.^.^.^.^.^.^.^.^.^.^.^.^.^.^.^.^.^.^.^.^.^.^.^.^.^.^.^.^.^.^.^.^.^.^.^.^.^.^.^.^.^.^.^.^.^.^.^.^.^.^.^.^.^.^.^.^.^.^.^.^.^.^.^.^.^.^.^.^.^.^.^.^.^.^.^.^.^.^.^.^.^.^.^.^.^.^.^.^.^.^.^.^.^.^.^.^.^.^.^.^.^.^.. o o @ $ * * > 1 4 6 7 e u u p f k z k z v b m B D D L E E E E W Q Q ^ ^ ( ( ) ) ' ' ' }  . .O.O.O.O.#.O.#.#.#.#.#.#.=.=.=.=.=.:.:.,.,.,.1.1.1.1.1.1.1.1.1.1.,.,.,.,.,.:.,.,.,.,.,.1.,.1.1.1.1.4.4.4.4.4.8.8.8.q.q.q.e.e.e.t.t.t.t.t.t.t.t.t.t.t.e.t.e.t.e.e.e.e.e.e.e.q.q.8.8.8.4.4.4.4.4.4.1.1.1.1.1.,.:.:.;.;.=.=.=.=.#.#.#.#.#.#.O.O.O.O. . . .} } ' ' ' ' ' ' ) ) ) ) ) ) ) ) ( ( ( ^ ^ Q Q Q Q E W E W Q W E E E E E E E E E E E E Q W Q Q Q Q ^ ^ ^ ^ ^ ^ ( ( ) ) ) ) ) ) ) ' ' ' } } } } } } ' ' ' ' ' ' ' ' ' ' ) ) ) ) ) ( ( ( ( ( ^ ( ^ ^ ^ ^ Q Q W E E E E E E E E E E E E E E E E U L H H D D D B B B B m b v x v k k k k f f f p u u t e e q q 0 6 6 4 4 1 > > * * % $ # o o . ^.^.^.^.^.^.^.^.^.^.^.^.^.^.^.^.^.^.^.^.^.^.^.^.^.^.^.^.^.^.^.^.^.^.^.^.^.^.^.^.^.^.^.^.^.^.^.^.^.^.^.^.^.^.^.^.^.^.^.^.^.^.^.^.^.^.^.^.^.^.^.^.^.^.^.^.^.^.^.^.^.^.^.^.^.^.^.^.^.^.^.^.^.^.^.^.^.^.^.^.^.^.^.^.^.^.^.^.^.^.^.^.^.^.^.^.^.^.^.^.^.^.^.^.^.^.^.^.^.^.^.^.^.^.^.^.",
"^.^.^.^.^.^.^.^.^.^.^.^.^.^.^.^.^.^.^.^.^.^.^.^.^.^.^.^.^.^.^.^.^.^.^.^.^.^.^.^.^.^.^.^.^.^.^.^.^.^.^.^.^.^.^.^.^.^.^.^.^.^.^.^.^.^.^.^.^.^.^.^.^.^.^.^.^.^.^.^.^.^.^.^.^.^.^.^.^.^.^.^.^.^.^.^.^.^.^.^.^.^.^.^.^.^.^.^.^.^.^.^.^.^.^.^.^.^.^.^.^.^.^.^.^.^.^.^.^.^.^.^.^.^.^.^.^.^.^.^.^.^.^.^.^.^.^.^.^.^.^.^.^.^.^.^.^.^.^.^.^.^.^.. o @ # % * > > 1 4 4 8 0 e u p p f k z v x b m B D D K E E E Q Q Q Q Q ^ ^ ^ ) ) ' ' ' } }  . .O.O.O.O.#.#.#.#.#.#.#.=.=.=.;.:.:.:.,.,.1.1.1.1.1.1.1.1.1.1.1.1.,.,.,.,.,.,.,.1.,.1.1.1.1.1.4.4.4.8.8.8.8.8.8.q.q.e.e.t.t.t.t.t.t.i.t.t.t.t.t.t.t.t.t.e.t.e.t.e.e.e.e.e.q.q.q.8.8.4.4.4.4.4.4.4.1.1.1.1.,.,.:.:.;.=.=.=.=.=.#.#.#.#.#.O.O.O.O. . . . .} } } } ' ' ' ' ' ' ' ) ) ) ( ) ( ^ ^ ^ Q Q Q Q W W Q Q Q Q W Q E E E E E W Q W Q Q Q Q Q Q ^ ^ ^ ^ ^ ^ ^ ^ ) ) ' ' ' ' ' ' ' } } } }  . .} } } } } } } } } ' ' ' ' ' ) ) ) ) ) ) ) ) ) ( ( ( ( ^ ^ ^ Q Q W Q E E E E E E E E E E E E E E E E U P K H H D D Z B B m m b v v v k k k f f f p p u t e e e q 0 8 6 4 4 1 > > * * % $ # o o . ^.^.^.^.^.^.^.^.^.^.^.^.^.^.^.^.^.^.^.^.^.^.^.^.^.^.^.^.^.^.^.^.^.^.^.^.^.^.^.^.^.^.^.^.^.^.^.^.^.^.^.^.^.^.^.^.^.^.^.^.^.^.^.^.^.^.^.^.^.^.^.^.^.^.^.^.^.^.^.^.^.^.^.^.^.^.^.^.^.^.^.^.^.^.^.^.^.^.^.^.^.^.^.^.^.^.^.^.^.^.^.^.^.^.^.^.^.^.^.^.^.^.^.^.^.^.^.^.^.^.^.^.^.^.^.",
"^.^.^.^.^.^.^.^.^.^.^.^.^.^.^.^.^.^.^.^.^.^.^.^.^.^.^.^.^.^.^.^.^.^.^.^.^.^.^.^.^.^.^.^.^.^.^.^.^.^.^.^.^.^.^.^.^.^.^.^.^.^.^.^.^.^.^.^.^.^.^.^.^.^.^.^.^.^.^.^.^.^.^.^.^.^.^.^.^.^.^.^.^.^.^.^.^.^.^.^.^.^.^.^.^.^.^.^.^.^.^.^.^.^.^.^.^.^.^.^.^.^.^.^.^.^.^.^.^.^.^.^.^.^.^.^.^.^.^.^.^.^.^.^.^.^.^.^.^.^.^.^.^.^.^.^.^.^.^.^.^.^.^.o @ # % * * > 1 1 1 4 4 0 q e u p f k z z v b m m B D K E E E E Q Q Q Q ^ ^ ^ ( ) ' ' ' } }  . .O.O.O.O.#.#.#.#.=.=.=.=.=.=.;.:.:.:.,.1.1.1.1.1.4.4.1.1.1.1.1.1.1.,.,.,.1.,.,.1.1.1.1.1.4.4.4.4.4.8.8.8.8.8.q.q.e.e.t.t.t.t.t.i.i.i.t.i.i.t.t.t.t.t.t.t.t.e.t.t.t.e.t.e.e.e.q.q.q.8.8.8.8.4.4.4.4.4.4.1.1.1.,.:.:.;.=.=.=.=.=.=.=.#.#.#.#.O.O.O. . . . . . .} } } ' ' ' ' ' ' ' ) ) ) ( ( ( ^ ^ Q Q Q Q W Q Q Q Q Q Q Q Q W Q W Q Q Q Q Q Q ^ ^ ^ ^ ^ ^ ^ ( ( ( ) ) ' ' ' ' ' ' } } }  . . . . . . . . . . .}  .} } ' ' ' ' ' ' ' ' ' ' ' ' ' ) ) ) ( ) ^ ^ ^ Q Q Q Q Q Q W W Q E W E W E E E E E E E E U P P K H D D B B m m b v x v z z k f f p p p u u u e e q 0 0 8 4 4 1 1 > * * % $ + o o . . ^.^.^.^.^.^.^.^.^.^.^.^.^.^.^.^.^.^.^.^.^.^.^.^.^.^.^.^.^.^.^.^.^.^.^.^.^.^.^.^.^.^.^.^.^.^.^.^.^.^.^.^.^.^.^.^.^.^.^.^.^.^.^.^.^.^.^.^.^.^.^.^.^.^.^.^.^.^.^.^.^.^.^.^.^.^.^.^.^.^.^.^.^.^.^.^.^.^.^.^.^.^.^.^.^.^.^.^.^.^.^.^.^.^.^.^.^.^.^.^.^.^.^.^.^.^.^.^.^.^.^.^.^.",
"^.^.^.^.^.^.^.^.^.^.^.^.^.^.^.^.^.^.^.^.^.^.^.^.^.^.^.^.^.^.^.^.^.^.^.^.^.^.^.^.^.^.^.^.^.^.^.^.^.^.^.^.^.^.^.^.^.^.^.^.^.^.^.^.^.^.^.^.^.^.^.^.^.^.^.^.^.^.^.^.^.^.^.^.^.^.^.^.^.^.^.^.^.^.^.^.^.^.^.^.^.^.^.^.^.^.^.^.^.^.^.^.^.^.^.^.^.^.^.^.^.^.^.^.^.^.^.^.^.^.^.^.^.^.^.^.^.^.^.^.^.^.^.^.^.^.^.^.^.^.^.^.^.^.^.^.^.^.^.^.^.^.. @ $ % % * * > 1 1 1 1 4 6 0 e u u p f k c v b m B B D K E E E E W Q Q Q Q ^ ( ( ) ' ' ' ' }  . . .O.O.#.#.#.#.=.#.=.=.=.=.;.;.:.:.,.,.1.1.1.1.1.4.4.4.1.1.1.1.1.1.1.1.,.,.1.1.1.1.4.4.4.4.4.4.8.8.q.8.q.q.q.e.e.e.t.t.t.i.i.i.i.i.i.i.i.i.i.t.i.t.t.t.t.t.t.t.t.t.t.e.t.e.q.q.q.8.q.8.8.8.8.8.8.4.4.4.4.4.1.1.,.:.:.;.=.=.=.=.=.=.#.#.#.#.O.#.O.O.O. . . . . .}  .} } ' ' ' ' ' ' ) ) ) ( ( ( ^ ^ ^ Q Q Q Q Q Q Q Q Q Q Q Q Q Q Q Q ^ ^ Q ^ ^ ^ ( ( ( ( ( ) ) ) ) ' ' } } } } } }  . . . . . . . . . . . . . . . . .} } } } } } } ' ' ' ' ' ' ' ' ' ) ) ( ( ^ ^ Q Q Q Q Q Q Q Q Q W Q Q Q Q W E W E E E E E E U P K H D D B B m b v x v z z k f f p p p p u t e e q 0 8 6 4 4 1 1 > > * % $ @ o o . ^.^.^.^.^.^.^.^.^.^.^.^.^.^.^.^.^.^.^.^.^.^.^.^.^.^.^.^.^.^.^.^.^.^.^.^.^.^.^.^.^.^.^.^.^.^.^.^.^.^.^.^.^.^.^.^.^.^.^.^.^.^.^.^.^.^.^.^.^.^.^.^.^.^.^.^.^.^.^.^.^.^.^.^.^.^.^.^.^.^.^.^.^.^.^.^.^.^.^.^.^.^.^.^.^.^.^.^.^.^.^.^.^.^.^.^.^.^.^.^.^.^.^.^.^.^.^.^.^.^.^.^.^.",
"^.^.^.^.^.^.^.^.^.^.^.^.^.^.^.^.^.^.^.^.^.^.^.^.^.^.^.^.^.^.^.^.^.^.^.^.^.^.^.^.^.^.^.^.^.^.^.^.^.^.^.^.^.^.^.^.^.^.^.^.^.^.^.^.^.^.^.^.^.^.^.^.^.^.^.^.^.^.^.^.^.^.^.^.^.^.^.^.^.^.^.^.^.^.^.^.^.^.^.^.^.^.^.^.^.^.^.^.^.^.^.^.^.^.^.^.^.^.^.^.^.^.^.^.^.^.^.^.^.^.^.^.^.^.^.^.^.^.^.^.^.^.^.^.^.^.^.^.^.^.^.^.^.^.^.^.^.^.^.^.^.^.o + % % * > > > 1 1 1 1 1 4 6 q u u p f z c v b m B B D K E E E E Q Q Q Q Q ^ ( ( ) ' ' ' } }  . .O.O.#.#.#.#.#.=.=.=.=.=.;.;.:.:.,.,.1.1.1.4.4.4.4.4.4.4.4.4.4.1.1.1.1.1.1.1.1.1.1.4.4.4.8.8.8.8.q.q.e.q.e.e.e.t.t.t.t.i.i.i.i.a.a.a.a.i.s.i.i.i.i.i.t.t.t.t.t.t.t.t.t.e.e.e.q.e.q.q.q.q.8.8.8.8.8.8.4.4.4.1.1.1.,.:.;.;.=.=.=.=.=.=.=.#.#.#.#.O.O.O.O.O.O. . . . .} } } } } ' ' ' ' ) ) ) ( ( ( ^ ^ ^ ^ Q Q Q Q Q Q ^ ^ ^ ^ Q Q ^ ^ ^ ^ ^ ( ( ( ( ) ) ) ) ) ' ' ' ' }  . . . . . . . .O. .O. .O.O. .O. .O. .O. . . .} }  .} } } } } } } } } } ' ' ' ' ) ) ( ) ^ ^ ^ ^ ^ Q Q Q ^ ^ Q Q Q Q Q Q Q Q Q W E E E E E E U P K H D D B m b v v z k k f f f f p p p u t e e q 0 8 4 4 4 4 1 > > * % # @ o o . ^.^.^.^.^.^.^.^.^.^.^.^.^.^.^.^.^.^.^.^.^.^.^.^.^.^.^.^.^.^.^.^.^.^.^.^.^.^.^.^.^.^.^.^.^.^.^.^.^.^.^.^.^.^.^.^.^.^.^.^.^.^.^.^.^.^.^.^.^.^.^.^.^.^.^.^.^.^.^.^.^.^.^.^.^.^.^.^.^.^.^.^.^.^.^.^.^.^.^.^.^.^.^.^.^.^.^.^.^.^.^.^.^.^.^.^.^.^.^.^.^.^.^.^.^.^.^.^.^.^.^.^.",
"^.^.^.^.^.^.^.^.^.^.^.^.^.^.^.^.^.^.^.^.^.^.^.^.^.^.^.^.^.^.^.^.^.^.^.^.^.^.^.^.^.^.^.^.^.^.^.^.^.^.^.^.^.^.^.^.^.^.^.^.^.^.^.^.^.^.^.^.^.^.^.^.^.^.^.^.^.^.^.^.^.^.^.^.^.^.^.^.^.^.^.^.^.^.^.^.^.^.^.^.^.^.^.^.^.^.^.^.^.^.^.^.^.^.^.^.^.^.^.^.^.^.^.^.^.^.^.^.^.^.^.^.^.^.^.^.^.^.^.^.^.^.^.^.^.^.^.^.^.^.^.^.^.^.^.^.^.^.^.^.. . o # % * > > > > 1 1 1 1 1 4 4 0 t u p f k v v b m B B H K E E E W Q Q Q ^ ^ ^ ( ( ) ) ' ' } }  . . .O.O.#.#.=.=.=.=.=.;.;.;.:.:.:.,.1.1.1.1.4.4.4.4.4.4.4.4.4.4.4.1.1.1.1.1.1.1.4.4.4.4.4.8.8.q.q.e.e.e.e.e.t.t.t.i.t.i.i.i.i.a.s.s.s.s.s.s.i.i.i.i.i.t.t.t.t.t.t.t.t.t.t.t.e.e.e.e.e.e.e.q.q.8.8.8.8.8.4.4.4.1.1.,.,.:.:.;.=.=.=.=.=.=.=.#.#.#.#.#.O.O.O.O.O. . . . . . .} } } ' ' ' ' ) ) ) ) ( ( ( ^ ^ ^ Q Q ^ ^ ^ ^ ^ ( ^ ^ ^ ^ ( ( ) ( ) ) ) ) ' ' ' ' ' ' ' } }  . . . . .O. .O.O.O.O.O.O.O.O.O.O.O.O.O.O.O. . . . . . . . . . .}  . . .} } ' ' ' ' ) ) ) ) ( ( ^ ^ ^ ^ ^ ^ ^ ^ ^ Q Q Q Q Q Q Q Q Q E E E E E E E U L H D Z B m b v z z k k f f f f f p p u e e e 0 0 8 4 6 4 4 1 > * * % # @ o o . ^.^.^.^.^.^.^.^.^.^.^.^.^.^.^.^.^.^.^.^.^.^.^.^.^.^.^.^.^.^.^.^.^.^.^.^.^.^.^.^.^.^.^.^.^.^.^.^.^.^.^.^.^.^.^.^.^.^.^.^.^.^.^.^.^.^.^.^.^.^.^.^.^.^.^.^.^.^.^.^.^.^.^.^.^.^.^.^.^.^.^.^.^.^.^.^.^.^.^.^.^.^.^.^.^.^.^.^.^.^.^.^.^.^.^.^.^.^.^.^.^.^.^.^.^.^.^.^.^.^.^.",
"^.^.^.^.^.^.^.^.^.^.^.^.^.^.^.^.^.^.^.^.^.^.^.^.^.^.^.^.^.^.^.^.^.^.^.^.^.^.^.^.^.^.^.^.^.^.^.^.^.^.^.^.^.^.^.^.^.^.^.^.^.^.^.^.^.^.^.^.^.^.^.^.^.^.^.^.^.^.^.^.^.^.^.^.^.^.^.^.^.^.^.^.^.^.^.^.^.^.^.^.^.^.^.^.^.^.^.^.^.^.^.^.^.^.^.^.^.^.^.^.^.^.^.^.^.^.^.^.^.^.^.^.^.^.^.^.^.^.^.^.^.^.^.^.^.^.^.^.^.^.^.^.^.^.^.^.^.^.^.^.o o @ $ * * > > > > > 1 1 1 1 4 4 0 e u p f k v b b m B D H L E E E Q Q Q Q ^ ^ ^ ( ( ) ' ' ' ' } }  .O.O.O.#.#.=.=.=.=.;.;.;.:.:.:.:.,.1.1.1.4.4.4.4.4.4.4.4.8.8.4.4.4.1.1.1.1.4.4.4.4.4.4.8.8.q.e.e.e.t.e.t.t.t.t.i.t.i.i.a.s.s.s.s.s.s.s.s.s.a.i.i.i.i.t.t.t.i.t.t.t.t.t.e.t.e.e.e.e.e.e.e.e.e.q.8.q.8.8.8.8.4.4.1.1.,.,.:.;.;.=.=.=.=.=.=.=.=.#.#.#.#.#.O.#.O.O.O. . . . . . .} } ' ' ' ' ) ) ) ) ) ( ( ( ^ ^ ^ ^ ^ ^ ^ ^ ( ( ( ( ) ( ( ) ) ) ) ' ' ' ' ' ' ' } } } }  . . .O.O.O.O.O.O.O.O.O.O.O.O.#.#.#.O.#.O.O.O.O. . . . . . . . . . . . . .} } } } ' ' ' ) ( ) ( ( ( ( ( ( ( ( ^ ^ ^ ^ ^ ^ ^ ^ Q Q Q Q W W E E E E E U L H D B B m v v z z k f f f f f p p u t e e q 0 8 8 6 4 4 1 > > * % $ # o o . . ^.^.^.^.^.^.^.^.^.^.^.^.^.^.^.^.^.^.^.^.^.^.^.^.^.^.^.^.^.^.^.^.^.^.^.^.^.^.^.^.^.^.^.^.^.^.^.^.^.^.^.^.^.^.^.^.^.^.^.^.^.^.^.^.^.^.^.^.^.^.^.^.^.^.^.^.^.^.^.^.^.^.^.^.^.^.^.^.^.^.^.^.^.^.^.^.^.^.^.^.^.^.^.^.^.^.^.^.^.^.^.^.^.^.^.^.^.^.^.^.^.^.^.^.^.^.^.^.^.^.",
"^.^.^.^.^.^.^.^.^.^.^.^.^.^.^.^.^.^.^.^.^.^.^.^.^.^.^.^.^.^.^.^.^.^.^.^.^.^.^.^.^.^.^.^.^.^.^.^.^.^.^.^.^.^.^.^.^.^.^.^.^.^.^.^.^.^.^.^.^.^.^.^.^.^.^.^.^.^.^.^.^.^.^.^.^.^.^.^.^.^.^.^.^.^.^.^.^.^.^.^.^.^.^.^.^.^.^.^.^.^.^.^.^.^.^.^.^.^.^.^.^.^.^.^.^.^.^.^.^.^.^.^.^.^.^.^.^.^.^.^.^.^.^.^.^.^.^.^.^.^.^.^.^.^.^.^.^.^.^.^.o @ $ % * * > > > > > 1 4 4 4 4 6 0 e u u f k v b m m B D H L E E E W Q Q Q Q ^ ^ ( ( ) ) ' ' ' ' }  . .O.#.#.=.=.=.;.;.;.;.:.:.:.:.,.,.1.1.4.4.4.4.4.4.4.8.8.8.8.8.4.4.4.1.4.4.4.4.4.4.8.8.8.q.e.e.t.t.t.t.t.t.t.i.i.a.i.a.a.s.s.s.s.s.s.s.s.s.s.s.i.i.i.i.t.i.i.i.i.t.t.t.t.e.t.e.e.e.t.t.t.e.e.e.e.8.q.q.8.8.4.4.4.1.1.1.,.,.:.;.;.=.;.=.=.=.=.=.=.=.#.#.#.#.O.O.O. . . . . . . .} } } ' ' ' ) ) ) ) ) ( ( ^ ^ ^ ^ ^ ^ ( ^ ( ( ( ) ) ) ) ) ' ' ' ' ' } } } } } } }  . . . . .O.O.#.O.O.O.O.#.#.O.#.#.#.#.#.#.#.#.#.#.O.O.O.O.O. . .O.O. . . . . . . .} } } ' ' ' ' ) ) ) ) ) ) ) ) ( ( ( ( ^ ^ ^ ^ ( ^ ^ ^ Q Q Q Q E E E E E U L H D B m b x z z z k k f f f p p p u t e e q 0 0 8 6 4 4 1 > * * % # @ o . . ^.^.^.^.^.^.^.^.^.^.^.^.^.^.^.^.^.^.^.^.^.^.^.^.^.^.^.^.^.^.^.^.^.^.^.^.^.^.^.^.^.^.^.^.^.^.^.^.^.^.^.^.^.^.^.^.^.^.^.^.^.^.^.^.^.^.^.^.^.^.^.^.^.^.^.^.^.^.^.^.^.^.^.^.^.^.^.^.^.^.^.^.^.^.^.^.^.^.^.^.^.^.^.^.^.^.^.^.^.^.^.^.^.^.^.^.^.^.^.^.^.^.^.^.^.^.^.^.^.^.",
"^.^.^.^.^.^.^.^.^.^.^.^.^.^.^.^.^.^.^.^.^.^.^.^.^.^.^.^.^.^.^.^.^.^.^.^.^.^.^.^.^.^.^.^.^.^.^.^.^.^.^.^.^.^.^.^.^.^.^.^.^.^.^.^.^.^.^.^.^.^.^.^.^.^.^.^.^.^.^.^.^.^.^.^.^.^.^.^.^.^.^.^.^.^.^.^.^.^.^.^.^.^.^.^.^.^.^.^.^.^.^.^.^.^.^.^.^.^.^.^.^.^.^.^.^.^.^.^.^.^.^.^.^.^.^.^.^.^.^.^.^.^.^.^.^.^.^.^.^.^.^.^.^.^.^.^.^.^.^.o @ # $ % * * > > > > > 1 1 4 4 6 7 e t u p f z v b m B B D D K E E E W W Q Q ^ Q ^ ^ ( ) ) ' ' ' '  . . .O.#.#.=.=.=.=.;.;.;.:.:.:.,.,.,.1.1.4.4.8.4.8.8.4.8.8.8.8.4.4.4.4.4.4.4.4.4.8.4.8.8.e.e.e.e.t.t.i.i.i.i.i.s.a.s.s.s.s.s.s.s.s.s.h.h.h.s.s.s.s.i.a.i.i.i.i.i.i.t.t.t.t.t.t.t.e.t.t.t.t.t.t.e.e.e.e.q.8.8.4.4.4.4.1.1.1.,.:.:.:.;.;.;.=.=.=.=.=.=.=.#.#.#.#.O.O.O.O. . . . . . .} } ' ' ' ' ' ' ) ) ) ( ( ( ( ^ ^ ( ( ( ( ) ) ) ' ' ' ' ' ' ' } }  . . . .}  . . . . .O.O.O.O.#.#.#.#.#.#.#.#.#.=.=.=.#.=.=.=.=.#.#.#.#.#.O.O.O.O.O.O.O.O. . . . . . . .} ' ' ' ' ) ) ) ) ) ) ) ) ) ) ( ( ( ( ) ( ^ ^ ^ ^ ^ Q Q Q Q E E E E U K D Z B b v x z z z k k f f f p p u u u e e q 0 0 8 6 4 1 > * * % $ # o o . ^.^.^.^.^.^.^.^.^.^.^.^.^.^.^.^.^.^.^.^.^.^.^.^.^.^.^.^.^.^.^.^.^.^.^.^.^.^.^.^.^.^.^.^.^.^.^.^.^.^.^.^.^.^.^.^.^.^.^.^.^.^.^.^.^.^.^.^.^.^.^.^.^.^.^.^.^.^.^.^.^.^.^.^.^.^.^.^.^.^.^.^.^.^.^.^.^.^.^.^.^.^.^.^.^.^.^.^.^.^.^.^.^.^.^.^.^.^.^.^.^.^.^.^.^.^.^.^.^.^.",
"^.^.^.^.^.^.^.^.^.^.^.^.^.^.^.^.^.^.^.^.^.^.^.^.^.^.^.^.^.^.^.^.^.^.^.^.^.^.^.^.^.^.^.^.^.^.^.^.^.^.^.^.^.^.^.^.^.^.^.^.^.^.^.^.^.^.^.^.^.^.^.^.^.^.^.^.^.^.^.^.^.^.^.^.^.^.^.^.^.^.^.^.^.^.^.^.^.^.^.^.^.^.^.^.^.^.^.^.^.^.^.^.^.^.^.^.^.^.^.^.^.^.^.^.^.^.^.^.^.^.^.^.^.^.^.^.^.^.^.^.^.^.^.^.^.^.^.^.^.^.^.^.^.^.^.^.^.^.^.o + $ % % * * * * > > > 1 1 4 6 7 q e u p f k v v b m B D D H K E E E E W Q Q Q ^ Q ^ ( ( ) ) ' ' } }  .O.O.#.#.=.=.=.;.;.:.:.:.,.,.,.1.1.1.4.4.4.8.4.4.8.8.8.8.8.8.8.8.4.4.4.4.4.8.8.8.8.q.q.e.t.t.t.i.i.i.i.i.a.s.s.s.s.s.s.s.h.s.h.h.h.h.s.s.h.s.s.s.s.s.i.i.s.i.i.i.i.t.t.t.t.t.t.t.t.t.t.t.t.t.t.e.e.e.t.q.8.8.8.4.4.4.1.1.1.,.,.:.:.:.:.:.;.;.=.=.=.=.=.=.#.#.#.O.O.O.O.O. . . . . .} } ' ' ' ' ' ' ) ) ) ( ( ( ( ( ) ( ( ) ) ) ' ' ' ' ' ' ' }  . . . . . . . . . . .O.O.O.O.O.#.#.#.#.#.#.#.#.=.=.=.=.=.=.=.=.=.=.=.=.#.#.#.#.#.O.O.O.O.O.O.O. . . . . . .} } ' ' ' ' ) ' ' ' ' ' ' ' ) ) ( ) ) ) ) ( ( ( ( ^ ^ Q Q E E E E U L H D B m b v v z k z k k f f p p u u u t e q 0 0 8 6 4 1 > > * % $ # @ o o . ^.^.^.^.^.^.^.^.^.^.^.^.^.^.^.^.^.^.^.^.^.^.^.^.^.^.^.^.^.^.^.^.^.^.^.^.^.^.^.^.^.^.^.^.^.^.^.^.^.^.^.^.^.^.^.^.^.^.^.^.^.^.^.^.^.^.^.^.^.^.^.^.^.^.^.^.^.^.^.^.^.^.^.^.^.^.^.^.^.^.^.^.^.^.^.^.^.^.^.^.^.^.^.^.^.^.^.^.^.^.^.^.^.^.^.^.^.^.^.^.^.^.^.^.^.^.^.^.^.",
"^.^.^.^.^.^.^.^.^.^.^.^.^.^.^.^.^.^.^.^.^.^.^.^.^.^.^.^.^.^.^.^.^.^.^.^.^.^.^.^.^.^.^.^.^.^.^.^.^.^.^.^.^.^.^.^.^.^.^.^.^.^.^.^.^.^.^.^.^.^.^.^.^.^.^.^.^.^.^.^.^.^.^.^.^.^.^.^.^.^.^.^.^.^.^.^.^.^.^.^.^.^.^.^.^.^.^.^.^.^.^.^.^.^.^.^.^.^.^.^.^.^.^.^.^.^.^.^.^.^.^.^.^.^.^.^.^.^.^.^.^.^.^.^.^.^.^.^.^.^.^.^.^.^.^.^.^.^.. @ # % % % % * > > > > > 1 1 4 6 0 q e u p f k x b m m B D H H L U E E E W W Q Q Q Q ^ ^ ( ( ) ) ' '  . .O.O.#.#.=.=.=.;.:.:.,.,.,.,.,.1.1.4.4.4.4.8.8.8.8.8.8.8.q.8.8.8.8.8.4.4.8.8.8.q.q.e.e.e.t.t.t.i.i.i.i.s.s.s.s.s.s.s.s.s.h.h.h.h.h.h.h.h.h.h.h.s.s.s.s.s.s.s.a.a.i.i.t.t.t.t.t.t.t.t.t.t.t.t.t.t.t.t.t.e.e.q.8.8.4.4.1.1.1.1.,.,.,.,.:.:.:.:.;.;.;.=.=.=.#.#.#.O.O.O.O.O.O.O. . . .} } } ' ' ' ' ' ' ' ) ) ) ) ) ) ( ) ) ) ' ' ' ' ' ' ' } }  . . . . . . . . . . . .O.O.O.#.#.#.#.#.=.=.#.#.=.=.;.;.;.;.;.;.;.=.=.=.=.=.#.#.#.#.#.#.O.O.O.O.O.O.O. . . . . .} } ' ' ' ' ' ' ' ' ' ' ' ' ) ) ) ) ) ( ) ( ( ( ^ ^ Q Q Q W E E U L H D D m m b v v v z z k f f p p u u u t e q 0 7 8 4 4 1 > > * * % # # o o . ^.^.^.^.^.^.^.^.^.^.^.^.^.^.^.^.^.^.^.^.^.^.^.^.^.^.^.^.^.^.^.^.^.^.^.^.^.^.^.^.^.^.^.^.^.^.^.^.^.^.^.^.^.^.^.^.^.^.^.^.^.^.^.^.^.^.^.^.^.^.^.^.^.^.^.^.^.^.^.^.^.^.^.^.^.^.^.^.^.^.^.^.^.^.^.^.^.^.^.^.^.^.^.^.^.^.^.^.^.^.^.^.^.^.^.^.^.^.^.^.^.^.^.^.^.^.^.^.^.",
"^.^.^.^.^.^.^.^.^.^.^.^.^.^.^.^.^.^.^.^.^.^.^.^.^.^.^.^.^.^.^.^.^.^.^.^.^.^.^.^.^.^.^.^.^.^.^.^.^.^.^.^.^.^.^.^.^.^.^.^.^.^.^.^.^.^.^.^.^.^.^.^.^.^.^.^.^.^.^.^.^.^.^.^.^.^.^.^.^.^.^.^.^.^.^.^.^.^.^.^.^.^.^.^.^.^.^.^.^.^.^.^.^.^.^.^.^.^.^.^.^.^.^.^.^.^.^.^.^.^.^.^.^.^.^.^.^.^.^.^.^.^.^.^.^.^.^.^.^.^.^.^.^.^.. o o o @ # % * * * > > > 1 1 1 1 1 4 6 8 0 e u p f k z v m m m B D H K P E E E E E W Q Q Q Q Q ^ ( ( ) ' ' ' }  .O.O.#.#.=.=.;.;.:.,.,.,.,.,.1.1.4.4.4.8.8.8.8.8.8.q.8.q.q.8.8.8.8.4.8.8.8.q.8.e.e.e.t.t.i.i.i.a.s.s.s.s.s.s.s.h.s.h.h.h.h.h.h.h.k.h.h.h.h.h.h.h.s.s.s.s.s.s.a.i.i.i.i.i.i.t.t.t.t.i.t.i.i.t.t.t.t.t.t.t.e.q.q.4.8.4.4.1.1.1.1.1.,.,.,.:.:.:.:.;.;.;.=.=.=.#.#.#.#.#.O.O.O.O. . . . . .} } ' ' ' ' ' ' ' ' ) ) ) ) ) ) ) ' ' ' ' ' } } } }  . . . . . . . . . .O.O.O.+.#.#.#.#.#.#.=.=.=.=.=.=.=.;.;.;.:.:.;.;.;.;.;.=.=.=.=.=.=.#.#.#.#.O.O.O.O.O.O. . . . . . .} ' ' ' ' ' ' ' ' ' ' ' ' ' ' ) ) ) ) ) ) ( ^ ^ Q Q Q E E E E P H H D B m m b x v z k f f p p p u u u t e 0 8 8 4 4 4 1 1 > * * % % # @ o o . ^.^.^.^.^.^.^.^.^.^.^.^.^.^.^.^.^.^.^.^.^.^.^.^.^.^.^.^.^.^.^.^.^.^.^.^.^.^.^.^.^.^.^.^.^.^.^.^.^.^.^.^.^.^.^.^.^.^.^.^.^.^.^.^.^.^.^.^.^.^.^.^.^.^.^.^.^.^.^.^.^.^.^.^.^.^.^.^.^.^.^.^.^.^.^.^.^.^.^.^.^.^.^.^.^.^.^.^.^.^.^.^.^.^.^.^.^.^.^.^.^.^.^.^.^.^.^.^.",
"^.^.^.^.^.^.^.^.^.^.^.^.^.^.^.^.^.^.^.^.^.^.^.^.^.^.^.^.^.^.^.^.^.^.^.^.^.^.^.^.^.^.^.^.^.^.^.^.^.^.^.^.^.^.^.^.^.^.^.^.^.^.^.^.^.^.^.^.^.^.^.^.^.^.^.^.^.^.^.^.^.^.^.^.^.^.^.^.^.^.^.^.^.^.^.^.^.^.^.^.^.^.^.^.^.^.^.^.^.^.^.^.^.^.^.^.^.^.^.^.^.^.^.^.^.^.^.^.^.^.^.^.^.^.^.^.^.^.^.^.^.^.^.^.^.^.^.^.^.^.^.^.^.o @ $ # # $ % * > * > > > > 1 1 1 4 4 6 7 0 q e u p f k z x b m B B D H K P U E E E E Q Q Q Q Q Q ^ ( ) ) ) ' } }  . .O.#.#.=.=.;.:.,.,.,.,.,.1.1.1.4.4.8.8.8.8.8.8.q.q.q.q.q.q.8.q.8.8.8.8.q.q.q.t.t.t.t.i.i.i.a.s.s.s.s.s.h.s.s.h.h.h.h.h.k.k.k.k.k.k.h.h.h.h.h.h.h.s.s.s.s.s.a.a.a.i.t.i.i.t.i.i.i.i.i.i.i.t.t.t.t.t.t.t.t.e.q.q.8.8.4.4.4.4.1.1.1.,.,.,.,.,.:.:.:.;.=.=.=.=.=.#.#.#.#.O.O.O.O. . . . . .} } } ' ' ' ' ' ) ) ) ) ) ) ) ' ' ' } ' } }  . . . . . .O. . .O.O.O.O.O.O.+.#.#.#.#.#.#.#.#.=.=.=.=.=.;.;.:.:.:.,.:.:.:.:.:.:.;.=.=.=.=.=.#.#.#.#.O.#.#.O.O.O.O. . . . . .} ' ' } ' } ' ' } ' ' ' ' ' ' ' ) ) ) ( ( ( ^ ^ Q Q W E E E P K D D B m b b v v v z f f p p u u u u u e 0 8 6 4 4 4 1 1 > * * % % $ + @ o . ^.^.^.^.^.^.^.^.^.^.^.^.^.^.^.^.^.^.^.^.^.^.^.^.^.^.^.^.^.^.^.^.^.^.^.^.^.^.^.^.^.^.^.^.^.^.^.^.^.^.^.^.^.^.^.^.^.^.^.^.^.^.^.^.^.^.^.^.^.^.^.^.^.^.^.^.^.^.^.^.^.^.^.^.^.^.^.^.^.^.^.^.^.^.^.^.^.^.^.^.^.^.^.^.^.^.^.^.^.^.^.^.^.^.^.^.^.^.^.^.^.^.^.^.^.^.^.^.",
"^.^.^.^.^.^.^.^.^.^.^.^.^.^.^.^.^.^.^.^.^.^.^.^.^.^.^.^.^.^.^.^.^.^.^.^.^.^.^.^.^.^.^.^.^.^.^.^.^.^.^.^.^.^.^.^.^.^.^.^.^.^.^.^.^.^.^.^.^.^.^.^.^.^.^.^.^.^.^.^.^.^.^.^.^.^.^.^.^.^.^.^.^.^.^.^.^.^.^.^.^.^.^.^.^.^.^.^.^.^.^.^.^.^.^.^.^.^.^.^.^.^.^.^.^.^.^.^.^.^.^.^.^.^.^.^.^.^.^.^.^.^.^.^.^.^.^.^.^.^.^.o o % % % % % % * > > > > > > 1 4 4 4 4 4 8 0 q e u f f k k z v b m B B D D H L P E E E E E Q Q Q Q Q ^ ( ) ) ' ' ' }  .O.O.#.#.=.=.;.:.:.,.,.,.1.1.1.1.4.4.4.8.8.8.8.8.q.q.e.e.q.q.q.q.8.q.8.q.e.e.e.t.t.i.i.i.s.s.s.s.s.s.s.h.s.h.h.h.h.k.k.k.k.k.k.k.k.k.k.k.k.k.h.h.s.h.h.s.s.s.s.s.a.i.i.i.i.i.i.i.i.i.i.i.i.i.i.i.i.i.t.t.t.e.q.q.8.8.8.4.4.4.4.1.1.1.1.,.,.,.:.:.:.;.;.=.=.=.=.#.#.#.#.#.O.O.O.O. . . . .} } ' ' ' ' ' ' ' ' ' ' ' ) ' ' ' ' ' ' } }  . . . . . .O.O.O.O.O.O.O.O.#.O.#.#.#.#.#.#.#.=.=.=.=.=.=.;.;.:.:.,.,.,.,.,.,.:.:.:.;.;.=.=.=.=.=.=.#.#.#.#.#.O.O.O.O. . . . .} } } } } } } ' } } ' ' ' ) ) ) ) ) ) ( ( ( ^ ^ Q Q W E E E U K H D B B m b v v v z k f f p u u u u e e 0 8 6 4 4 4 1 1 > * * % % $ + @ o o . ^.^.^.^.^.^.^.^.^.^.^.^.^.^.^.^.^.^.^.^.^.^.^.^.^.^.^.^.^.^.^.^.^.^.^.^.^.^.^.^.^.^.^.^.^.^.^.^.^.^.^.^.^.^.^.^.^.^.^.^.^.^.^.^.^.^.^.^.^.^.^.^.^.^.^.^.^.^.^.^.^.^.^.^.^.^.^.^.^.^.^.^.^.^.^.^.^.^.^.^.^.^.^.^.^.^.^.^.^.^.^.^.^.^.^.^.^.^.^.^.^.^.^.^.^.^.^.",
"^.^.^.^.^.^.^.^.^.^.^.^.^.^.^.^.^.^.^.^.^.^.^.^.^.^.^.^.^.^.^.^.^.^.^.^.^.^.^.^.^.^.^.^.^.^.^.^.^.^.^.^.^.^.^.^.^.^.^.^.^.^.^.^.^.^.^.^.^.^.^.^.^.^.^.^.^.^.^.^.^.^.^.^.^.^.^.^.^.^.^.^.^.^.^.^.^.^.^.^.^.^.^.^.^.^.^.^.^.^.^.^.^.^.^.^.^.^.^.^.^.^.^.^.^.^.^.^.^.^.^.^.^.^.^.^.^.^.^.^.^.^.^.^.^.^.^.^.. . o @ + % * * * * > > 1 4 4 4 1 1 4 4 4 4 4 6 0 e e u p f k k z z x b m B B D D H K U E E E E E W Q Q Q ^ ^ ( ) ) ' ' ' }  .O.O.#.#.#.=.;.:.,.,.1.1.1.1.1.1.4.4.4.8.8.8.8.q.q.q.q.e.q.q.q.q.q.q.8.e.e.e.t.t.i.i.i.i.s.s.s.s.s.s.s.s.h.s.h.h.h.k.k.k.k.k.k.z.k.k.k.k.k.k.k.h.h.h.h.s.s.s.s.s.a.a.a.i.i.i.i.i.i.i.i.i.i.i.i.i.i.i.i.i.t.t.e.q.8.8.8.4.4.4.4.4.1.1.1.1.1.,.,.:.:.:.;.=.=.=.=.=.=.=.#.#.#.#.O.O.O. . . . .} } } ' ' ' ' ' ' ' ' ' ' ' ' ' ' } ' }  . . . . .O.O.O.O.O.O.O.#.O.#.#.#.#.#.#.#.#.#.#.=.=.=.=.=.;.;.:.:.,.,.,.1.,.,.,.,.:.:.:.:.;.;.=.=.=.=.=.=.#.=.#.#.#.O.O.O. . . . . .} } } } } } } ' ' ' ' ' ' ) ' ) ) ( ( ( ( ^ Q Q W E E E U K H D B B m b b b x z f f f p u u u u e 0 0 8 4 4 4 4 1 1 > * * * % % # + o o o . ^.^.^.^.^.^.^.^.^.^.^.^.^.^.^.^.^.^.^.^.^.^.^.^.^.^.^.^.^.^.^.^.^.^.^.^.^.^.^.^.^.^.^.^.^.^.^.^.^.^.^.^.^.^.^.^.^.^.^.^.^.^.^.^.^.^.^.^.^.^.^.^.^.^.^.^.^.^.^.^.^.^.^.^.^.^.^.^.^.^.^.^.^.^.^.^.^.^.^.^.^.^.^.^.^.^.^.^.^.^.^.^.^.^.^.^.^.^.^.^.^.^.^.^.^.^.",
"^.^.^.^.^.^.^.^.^.^.^.^.^.^.^.^.^.^.^.^.^.^.^.^.^.^.^.^.^.^.^.^.^.^.^.^.^.^.^.^.^.^.^.^.^.^.^.^.^.^.^.^.^.^.^.^.^.^.^.^.^.^.^.^.^.^.^.^.^.^.^.^.^.^.^.^.^.^.^.^.^.^.^.^.^.^.^.^.^.^.^.^.^.^.^.^.^.^.^.^.^.^.^.^.^.^.^.^.^.^.^.^.^.^.^.^.^.^.^.^.^.^.^.^.^.^.^.^.^.^.^.^.^.^.^.^.^.^.^.^.^.^.^.^.^.^.^.o o o # % % % * * > 1 1 4 4 6 6 4 4 4 6 6 8 7 8 7 0 e t p f k k k z v v b m m B D H K P E E E E W W E Q Q ^ ^ ( ( ) ) ' ' }  . .O.O.#.#.=.=.;.:.,.,.1.1.1.1.1.4.4.4.4.4.8.8.8.8.q.q.e.q.q.q.q.e.q.e.e.e.e.t.t.t.i.a.s.s.s.s.s.h.h.h.h.h.h.h.h.h.k.k.k.k.k.z.z.k.k.k.k.k.k.k.k.k.h.h.h.h.h.s.s.s.s.s.s.a.s.a.i.i.i.i.t.i.i.i.i.i.s.i.i.i.t.t.e.e.q.q.8.8.8.8.4.4.4.4.1.1.1.1.,.,.,.:.:.;.;.;.=.=.=.=.=.=.#.#.#.O.O. . . . . . .} } ' ' ' ' ' ' ' ' ' ' ' ' ' } } } }  . . . .O.O.O.O.#.#.#.#.#.#.#.#.=.#.#.#.#.#.#.#.=.=.=.=.;.;.:.,.,.1.1.1.1.1.,.,.,.,.:.:.:.:.;.;.;.;.=.=.=.=.=.#.#.O.O.O.O. . . . . . .} } } } ' ' ' ' ' ' ' ' ) ) ) ) ) ( ^ ^ Q Q W E E E U K H D D Z m m b b x k k f f p u u u t e 0 7 8 6 4 4 1 1 1 > * * * % % $ # @ o o . . ^.^.^.^.^.^.^.^.^.^.^.^.^.^.^.^.^.^.^.^.^.^.^.^.^.^.^.^.^.^.^.^.^.^.^.^.^.^.^.^.^.^.^.^.^.^.^.^.^.^.^.^.^.^.^.^.^.^.^.^.^.^.^.^.^.^.^.^.^.^.^.^.^.^.^.^.^.^.^.^.^.^.^.^.^.^.^.^.^.^.^.^.^.^.^.^.^.^.^.^.^.^.^.^.^.^.^.^.^.^.^.^.^.^.^.^.^.^.^.^.^.^.^.^.^.",
"^.^.^.^.^.^.^.^.^.^.^.^.^.^.^.^.^.^.^.^.^.^.^.^.^.^.^.^.^.^.^.^.^.^.^.^.^.^.^.^.^.^.^.^.^.^.^.^.^.^.^.^.^.^.^.^.^.^.^.^.^.^.^.^.^.^.^.^.^.^.^.^.^.^.^.^.^.^.^.^.^.^.^.^.^.^.^.^.^.^.^.^.^.^.^.^.^.^.^.^.^.^.^.^.^.^.^.^.^.^.^.^.^.^.^.^.^.^.^.^.^.^.^.^.^.^.^.^.^.^.^.^.^.^.^.^.^.^.^.^.^.^.^.^.^.. o o @ $ % * * * * > > 1 4 4 8 0 0 0 0 7 0 7 0 q 0 0 0 e t p f k k k z v x b m B D H K P E E E E E E Q Q Q Q Q ^ ( ) ) ' ' ' }  . .O.O.#.#.=.=.;.:.,.,.1.1.1.1.1.1.4.4.4.8.8.q.q.q.q.e.q.e.e.e.e.e.e.e.e.t.t.t.t.i.i.i.s.s.s.s.s.s.h.h.h.h.h.h.h.h.k.k.k.k.z.k.z.z.k.k.k.k.k.k.k.k.k.h.h.h.h.s.s.s.s.s.s.s.s.s.a.i.i.i.i.i.i.a.i.s.i.i.i.i.i.t.t.e.e.q.q.8.8.8.8.4.4.4.4.1.1.1.1.,.,.,.,.:.:.;.;.;.;.=.=.=.=.#.#.#.O.O. . . . . .} } ' ' ' ' ' ' ' ' ' ' ' } ' } } } }  . . . .O.O.O.#.#.#.#.#.=.=.=.=.=.#.#.#.#.#.#.#.#.=.=.=.;.;.:.,.,.,.1.1.1.1.1.1.1.1.,.,.:.:.:.:.;.;.=.=.=.=.=.=.#.#.O.O.O.O. . . . . . .} } } } ' ' ' ' ' ' ' ) ) ) ) ( ( ( ^ ^ Q W E E E U L H H D Z m m b v v z k k f p p u t e e q 7 8 8 4 4 4 4 1 > > * * % % $ # @ @ o o . . ^.^.^.^.^.^.^.^.^.^.^.^.^.^.^.^.^.^.^.^.^.^.^.^.^.^.^.^.^.^.^.^.^.^.^.^.^.^.^.^.^.^.^.^.^.^.^.^.^.^.^.^.^.^.^.^.^.^.^.^.^.^.^.^.^.^.^.^.^.^.^.^.^.^.^.^.^.^.^.^.^.^.^.^.^.^.^.^.^.^.^.^.^.^.^.^.^.^.^.^.^.^.^.^.^.^.^.^.^.^.^.^.^.^.^.^.^.^.^.^.^.^.^.^.",
"^.^.^.^.^.^.^.^.^.^.^.^.^.^.^.^.^.^.^.^.^.^.^.^.^.^.^.^.^.^.^.^.^.^.^.^.^.^.^.^.^.^.^.^.^.^.^.^.^.^.^.^.^.^.^.^.^.^.^.^.^.^.^.^.^.^.^.^.^.^.^.^.^.^.^.^.^.^.^.^.^.^.^.^.^.^.^.^.^.^.^.^.^.^.^.^.^.^.^.^.^.^.^.^.^.^.^.^.^.^.^.^.^.^.^.^.^.^.^.^.^.^.^.^.^.^.^.^.^.^.^.^.^.^.^.^.^.^.^.^.^.^.^.. o + $ $ % * * * * > * > 1 4 6 8 0 q q e e q q q e e t e e u u f k z z v z z v b m B D H K U E E E E E W Q Q Q Q ^ ^ ( ' ' ' } } }  . .O.O.#.#.=.=.:.,.,.,.1.1.1.4.1.4.4.4.8.8.q.8.q.q.q.e.e.e.e.e.e.t.t.t.t.t.t.t.i.i.a.s.s.s.s.s.s.h.h.h.h.h.h.k.k.k.k.k.k.z.k.z.z.k.z.k.k.k.k.k.k.k.k.k.h.h.h.h.s.h.s.h.s.s.s.s.s.i.s.i.i.i.a.a.s.s.s.i.i.i.i.i.t.t.e.e.q.q.8.8.8.8.8.4.4.4.4.1.1.1.1.,.,.,.,.:.:.:.;.;.;.=.=.=.#.#.#.O.O.O. .O. . .} ' ' ' ' ' ' ' ' ' ' ' ' } } } } }  . . . .O.O.+.#.#.#.#.#.=.=.=.=.=.#.#.#.#.#.#.#.=.=.=.;.;.:.:.,.1.1.1.1.1.1.1.1.1.1.1.,.,.:.:.:.:.;.;.;.=.=.=.=.=.#.#.#.O.O.O. . . . . . . .} } ' ' ' ' ' ' ' ' ' ) ) ) ( ( ^ ^ ^ W E E E E P K H D Z m m b v v z z k f f p u u e e q 0 7 8 6 4 4 1 1 1 > * * * % $ # + # @ o o . . ^.^.^.^.^.^.^.^.^.^.^.^.^.^.^.^.^.^.^.^.^.^.^.^.^.^.^.^.^.^.^.^.^.^.^.^.^.^.^.^.^.^.^.^.^.^.^.^.^.^.^.^.^.^.^.^.^.^.^.^.^.^.^.^.^.^.^.^.^.^.^.^.^.^.^.^.^.^.^.^.^.^.^.^.^.^.^.^.^.^.^.^.^.^.^.^.^.^.^.^.^.^.^.^.^.^.^.^.^.^.^.^.^.^.^.^.^.^.^.^.^.^.^.",
"^.^.^.^.^.^.^.^.^.^.^.^.^.^.^.^.^.^.^.^.^.^.^.^.^.^.^.^.^.^.^.^.^.^.^.^.^.^.^.^.^.^.^.^.^.^.^.^.^.^.^.^.^.^.^.^.^.^.^.^.^.^.^.^.^.^.^.^.^.^.^.^.^.^.^.^.^.^.^.^.^.^.^.^.^.^.^.^.^.^.^.^.^.^.^.^.^.^.^.^.^.^.^.^.^.^.^.^.^.^.^.^.^.^.^.^.^.^.^.^.^.^.^.^.^.^.^.^.^.^.^.^.^.^.^.^.^.^.^.^.^.^.o # $ % * * * > > > > > > 1 1 4 8 0 q e e u t u t e t u u u u p f f k z v v x v v b B D H K U E E E E E W Q Q Q Q ^ ^ ^ ) ) ' ' }  . . . .O.#.#.#.=.;.;.,.,.1.1.1.4.1.4.4.8.4.8.q.8.q.q.e.e.e.e.e.t.t.t.t.t.t.i.t.t.i.i.s.s.s.s.s.h.h.h.h.h.h.k.k.k.k.k.k.k.k.k.k.z.z.z.z.z.k.k.k.k.k.k.z.k.k.h.h.h.h.h.h.h.h.h.s.s.s.s.s.s.a.a.s.s.s.s.s.s.s.s.i.i.i.i.t.t.t.e.e.e.q.q.8.8.8.4.4.4.4.4.1.1.1.1.,.,.,.,.,.:.;.;.=.=.=.=.#.#.O.O.O.O. . . . .} } ' ' ' ' ' ' ' ' ' ' } } }  .}  . . .O.O.O.#.#.#.#.#.=.#.=.=.=.=.#.#.=.#.#.#.#.=.=.=.;.:.:.,.,.1.1.1.1.1.4.1.4.1.1.1.1.,.,.,.,.:.:.:.;.;.=.=.=.=.=.#.#.#.O.O.O.O.O. . . . . .} ' ' ' ' ' ' ' ' ' ' ) ) ( ( ^ Q Q Q E E E E U K H D B m b v v v z z k f f f p u t e e q q 0 8 4 4 1 1 > > * * * % % $ # + + @ o o . ^.^.^.^.^.^.^.^.^.^.^.^.^.^.^.^.^.^.^.^.^.^.^.^.^.^.^.^.^.^.^.^.^.^.^.^.^.^.^.^.^.^.^.^.^.^.^.^.^.^.^.^.^.^.^.^.^.^.^.^.^.^.^.^.^.^.^.^.^.^.^.^.^.^.^.^.^.^.^.^.^.^.^.^.^.^.^.^.^.^.^.^.^.^.^.^.^.^.^.^.^.^.^.^.^.^.^.^.^.^.^.^.^.^.^.^.^.^.^.^.^.^.^.",
"^.^.^.^.^.^.^.^.^.^.^.^.^.^.^.^.^.^.^.^.^.^.^.^.^.^.^.^.^.^.^.^.^.^.^.^.^.^.^.^.^.^.^.^.^.^.^.^.^.^.^.^.^.^.^.^.^.^.^.^.^.^.^.^.^.^.^.^.^.^.^.^.^.^.^.^.^.^.^.^.^.^.^.^.^.^.^.^.^.^.^.^.^.^.^.^.^.^.^.^.^.^.^.^.^.^.^.^.^.^.^.^.^.^.^.^.^.^.^.^.^.^.^.^.^.^.^.^.^.^.^.^.^.^.^.^.^.^.^.^.^.o @ $ * * * * > 1 1 1 1 1 1 4 6 0 e e t u u u u p p p u p p u p f k k v v x v b b m B D H K P E E E E E Q Q Q Q Q Q ^ ^ ( ) ) ' ' } } }  . .O.O.#.#.=.=.;.:.,.1.1.1.4.4.4.4.4.8.8.q.q.e.q.e.e.t.t.t.t.t.t.i.i.i.i.i.i.i.a.s.s.s.h.h.h.h.h.h.h.h.k.k.k.k.z.k.z.k.z.k.z.z.z.z.z.k.z.k.k.k.k.z.z.k.k.k.h.h.h.s.h.s.s.s.s.s.s.s.s.s.s.s.s.s.s.s.s.s.a.i.i.i.i.i.t.e.t.e.e.q.q.q.8.8.8.8.8.4.4.4.1.1.1.1.,.1.,.,.:.:.;.;.;.=.=.=.#.#.O.O.O. . . . . .} } ' ' ' ' ' ' ' } } } } } }  . . . . .O.O.#.#.=.#.#.#.=.=.=.=.#.#.#.#.#.#.#.=.=.=.=.;.,.,.,.1.1.1.1.4.4.4.4.1.4.1.1.1.1.1.1.,.,.,.,.:.:.;.;.=.=.=.=.#.#.#.O.O.O.O. . . . . .} } ' ' ' ' ' ' ' ' ' ) ) ) ( ^ ^ Q Q E E E E U K H D B B b b v x z z k f f f p u u u t e q 0 7 6 4 4 1 > > * * * * % % # # @ o o o . . ^.^.^.^.^.^.^.^.^.^.^.^.^.^.^.^.^.^.^.^.^.^.^.^.^.^.^.^.^.^.^.^.^.^.^.^.^.^.^.^.^.^.^.^.^.^.^.^.^.^.^.^.^.^.^.^.^.^.^.^.^.^.^.^.^.^.^.^.^.^.^.^.^.^.^.^.^.^.^.^.^.^.^.^.^.^.^.^.^.^.^.^.^.^.^.^.^.^.^.^.^.^.^.^.^.^.^.^.^.^.^.^.^.^.^.^.^.^.^.^.^.^.",
"^.^.^.^.^.^.^.^.^.^.^.^.^.^.^.^.^.^.^.^.^.^.^.^.^.^.^.^.^.^.^.^.^.^.^.^.^.^.^.^.^.^.^.^.^.^.^.^.^.^.^.^.^.^.^.^.^.^.^.^.^.^.^.^.^.^.^.^.^.^.^.^.^.^.^.^.^.^.^.^.^.^.^.^.^.^.^.^.^.^.^.^.^.^.^.^.^.^.^.^.^.^.^.^.^.^.^.^.^.^.^.^.^.^.^.^.^.^.^.^.^.^.^.^.^.^.^.^.^.^.^.^.^.^.^.^.^.^.^.. o @ $ % * > > > 1 4 4 4 4 4 6 8 0 e u u u p p p p p f f f p p p f z k v x v b m m B B D K L U E E E E E W Q Q Q Q Q ^ ^ ^ ( ) ) ' ' } }  . . . .O.#.#.#.=.;.:.,.1.1.1.4.4.4.8.8.8.q.q.e.e.e.e.t.t.t.t.t.i.i.s.i.i.s.i.s.s.s.s.s.h.h.h.h.k.h.k.h.k.k.k.k.z.z.z.z.z.z.z.z.z.z.z.z.z.z.k.z.z.z.k.k.k.k.k.k.k.h.h.h.h.s.h.s.s.s.s.s.s.s.s.s.s.s.s.s.s.a.i.i.i.i.i.i.t.e.t.t.e.q.q.q.q.q.q.8.4.4.4.4.4.1.1.1.,.,.,.,.:.,.;.;.=.=.=.#.#.#.#.O.O. . . . . .} } ' ' ' ' ' ' } } } } }  . . . .O.O.O.O.#.+.#.#.#.#.#.#.=.=.#.=.=.#.#.#.#.=.=.=.;.;.,.,.,.1.1.4.4.4.4.4.4.4.4.4.4.4.1.1.1.1.,.,.,.,.:.:.;.;.=.=.=.=.#.#.#.O.O.O.O. . . . . .} } ' } ' ' ' ' ' ' ' ) ) ( ^ ^ Q Q W E E E E L H D Z m b b v v z k k f f p p u u u u e e q 0 8 4 4 1 > > * * * * * % $ # + @ o o o . . ^.^.^.^.^.^.^.^.^.^.^.^.^.^.^.^.^.^.^.^.^.^.^.^.^.^.^.^.^.^.^.^.^.^.^.^.^.^.^.^.^.^.^.^.^.^.^.^.^.^.^.^.^.^.^.^.^.^.^.^.^.^.^.^.^.^.^.^.^.^.^.^.^.^.^.^.^.^.^.^.^.^.^.^.^.^.^.^.^.^.^.^.^.^.^.^.^.^.^.^.^.^.^.^.^.^.^.^.^.^.^.^.^.^.^.^.^.^.^.^.^.",
"^.^.^.^.^.^.^.^.^.^.^.^.^.^.^.^.^.^.^.^.^.^.^.^.^.^.^.^.^.^.^.^.^.^.^.^.^.^.^.^.^.^.^.^.^.^.^.^.^.^.^.^.^.^.^.^.^.^.^.^.^.^.^.^.^.^.^.^.^.^.^.^.^.^.^.^.^.^.^.^.^.^.^.^.^.^.^.^.^.^.^.^.^.^.^.^.^.^.^.^.^.^.^.^.^.^.^.^.^.^.^.^.^.^.^.^.^.^.^.^.^.^.^.^.^.^.^.^.^.^.^.^.^.^.^.^.^.^.o @ # $ * * 1 1 4 4 4 4 4 4 4 8 0 e e u p f f f f f f f f k k f f f k x x b b m m B B D H L E E E E E W Q Q Q Q Q Q Q ^ ^ ^ ( ) ) ' ' ' }  . . . .O.O.#.#.#.=.;.:.,.1.1.1.4.4.4.8.8.8.q.e.e.e.e.e.t.t.t.t.i.a.i.s.s.s.s.s.s.s.s.s.s.h.h.h.h.h.k.k.k.k.k.k.z.z.z.z.z.z.z.z.z.z.z.z.z.z.z.z.z.k.z.z.z.k.k.k.k.k.h.h.h.h.h.s.s.s.s.s.s.s.s.s.s.s.s.s.s.s.a.i.i.i.i.i.i.t.t.t.e.e.e.e.e.e.q.q.q.8.4.4.4.4.4.1.1.1.1.,.,.,.:.:.;.=.=.=.#.#.#.#.O.O.O. . . . . .} } ' ' ' ' ' } } }  . . . . . .O.O.O.O.#.#.#.#.#.#.#.#.=.=.#.=.=.=.#.#.#.=.=.=.;.:.,.,.,.1.1.4.4.4.4.4.4.4.8.4.4.4.4.4.1.1.1.1.1.,.,.:.:.:.;.=.=.=.=.#.#.#.O.O.O. . . . . . .} } } } ' ' ' ' ' ' ' ) ) ( ^ Q Q W E E E E P H D Z B m b v v v z k k f f p p p u u t e e 0 7 8 4 4 1 > > > > * % % $ $ + + @ @ o o . ^.^.^.^.^.^.^.^.^.^.^.^.^.^.^.^.^.^.^.^.^.^.^.^.^.^.^.^.^.^.^.^.^.^.^.^.^.^.^.^.^.^.^.^.^.^.^.^.^.^.^.^.^.^.^.^.^.^.^.^.^.^.^.^.^.^.^.^.^.^.^.^.^.^.^.^.^.^.^.^.^.^.^.^.^.^.^.^.^.^.^.^.^.^.^.^.^.^.^.^.^.^.^.^.^.^.^.^.^.^.^.^.^.^.^.^.^.^.^.^.^.",
"^.^.^.^.^.^.^.^.^.^.^.^.^.^.^.^.^.^.^.^.^.^.^.^.^.^.^.^.^.^.^.^.^.^.^.^.^.^.^.^.^.^.^.^.^.^.^.^.^.^.^.^.^.^.^.^.^.^.^.^.^.^.^.^.^.^.^.^.^.^.^.^.^.^.^.^.^.^.^.^.^.^.^.^.^.^.^.^.^.^.^.^.^.^.^.^.^.^.^.^.^.^.^.^.^.^.^.^.^.^.^.^.^.^.^.^.^.^.^.^.^.^.^.^.^.^.^.^.^.^.^.^.^.^.^.^.. o # $ % * 1 1 4 4 6 6 6 6 4 6 7 0 e u u f f k k k f f f f k z k k z k z x v m m B B Z D K E E E E E Q W Q Q Q ^ ^ ^ ^ ^ ^ ^ ^ ( ) ) ' ' }  . . . .O.O.#.#.#.=.=.=.:.,.1.1.1.4.4.4.8.8.q.q.e.e.e.e.t.t.i.i.i.i.s.s.s.s.s.s.s.s.s.s.s.h.h.h.h.h.k.k.k.k.k.z.z.z.z.z.z.z.z.z.z.z.z.z.z.z.z.z.z.k.z.z.z.k.z.k.k.k.k.k.h.h.h.h.h.h.s.s.s.s.s.s.s.s.s.s.s.s.a.i.a.i.i.i.i.i.t.t.t.e.t.e.e.e.e.e.e.q.q.8.4.8.4.4.4.4.1.1.1.,.,.:.:.:.;.=.=.=.#.#.#.O.O.O.O. . . . . .} } ' ' } } }  . . . . . . .O.O.O.O.#.O.#.#.#.=.#.#.#.#.#.#.=.=.=.=.=.=.=.=.=.;.:.:.,.,.1.1.4.4.4.4.8.8.8.8.4.4.4.4.4.4.1.4.1.1.1.,.,.:.:.:.;.=.=.=.=.#.#.#.O.O.O.O. . . .} } } } } } } ' ' ' ' ' ) ( ( ^ ^ Q Q E E E E P H D D B m b b v x z z k k f f p p p u u e e q 0 8 6 4 4 1 > > > * * * % % $ # + @ @ o o . ^.^.^.^.^.^.^.^.^.^.^.^.^.^.^.^.^.^.^.^.^.^.^.^.^.^.^.^.^.^.^.^.^.^.^.^.^.^.^.^.^.^.^.^.^.^.^.^.^.^.^.^.^.^.^.^.^.^.^.^.^.^.^.^.^.^.^.^.^.^.^.^.^.^.^.^.^.^.^.^.^.^.^.^.^.^.^.^.^.^.^.^.^.^.^.^.^.^.^.^.^.^.^.^.^.^.^.^.^.^.^.^.^.^.^.^.^.^.^.^.",
"^.^.^.^.^.^.^.^.^.^.^.^.^.^.^.^.^.^.^.^.^.^.^.^.^.^.^.^.^.^.^.^.^.^.^.^.^.^.^.^.^.^.^.^.^.^.^.^.^.^.^.^.^.^.^.^.^.^.^.^.^.^.^.^.^.^.^.^.^.^.^.^.^.^.^.^.^.^.^.^.^.^.^.^.^.^.^.^.^.^.^.^.^.^.^.^.^.^.^.^.^.^.^.^.^.^.^.^.^.^.^.^.^.^.^.^.^.^.^.^.^.^.^.^.^.^.^.^.^.^.^.^.^.^.^.^.o + % * * 1 4 6 8 8 7 8 7 7 8 q e t u p f k z k z z k z k z z v z k z v x v b m B D D H L E E E E W W Q Q Q ^ ^ ^ ^ ( ( ( ( ( ( ) ' ' ' ' }  . .O.O.O.O.#.#.=.=.=.;.:.,.1.1.1.4.4.4.4.8.q.e.e.t.t.t.t.i.i.i.a.s.s.s.s.s.s.s.h.s.s.s.s.h.h.h.h.k.k.k.k.k.z.z.z.z.z.z.z.z.z.z.z.z.z.z.z.z.z.z.k.k.k.k.z.k.k.k.k.k.k.k.h.h.h.h.h.s.s.s.s.s.s.s.s.s.s.s.s.s.s.a.i.a.i.i.i.i.t.t.t.t.t.t.e.t.e.e.e.e.q.q.8.8.8.4.4.4.4.1.1.,.,.,.:.:.;.=.=.=.#.#.#.#.O.O.O.O.O. . . .} } } } } } }  . . . . . .O.O.O.O.O.#.#.#.#.#.#.#.#.#.#.#.#.#.=.=.=.=.=.=.=.=.=.;.:.:.,.1.1.4.4.4.8.8.8.8.8.8.4.4.4.4.4.4.4.4.1.1.1.,.,.,.:.:.;.=.=.=.=.#.#.#.O.O.O.O. . . .} } } } } } ' ' ' ' ' ) ( ( ( ^ Q Q Q E E E U K H D B B m b v x x z z k f f p p p u t e e e 0 0 8 6 4 1 > > > * * * * % % $ # # @ o o . ^.^.^.^.^.^.^.^.^.^.^.^.^.^.^.^.^.^.^.^.^.^.^.^.^.^.^.^.^.^.^.^.^.^.^.^.^.^.^.^.^.^.^.^.^.^.^.^.^.^.^.^.^.^.^.^.^.^.^.^.^.^.^.^.^.^.^.^.^.^.^.^.^.^.^.^.^.^.^.^.^.^.^.^.^.^.^.^.^.^.^.^.^.^.^.^.^.^.^.^.^.^.^.^.^.^.^.^.^.^.^.^.^.^.^.^.^.^.^.^.",
"^.^.^.^.^.^.^.^.^.^.^.^.^.^.^.^.^.^.^.^.^.^.^.^.^.^.^.^.^.^.^.^.^.^.^.^.^.^.^.^.^.^.^.^.^.^.^.^.^.^.^.^.^.^.^.^.^.^.^.^.^.^.^.^.^.^.^.^.^.^.^.^.^.^.^.^.^.^.^.^.^.^.^.^.^.^.^.^.^.^.^.^.^.^.^.^.^.^.^.^.^.^.^.^.^.^.^.^.^.^.^.^.^.^.^.^.^.^.^.^.^.^.^.^.^.^.^.^.^.^.^.^.^.^.o @ # $ * > 4 8 7 0 0 0 q q q q e e u p f k v x b v v v x x v x v v v z v x v m m B D H H L U E E Q Q Q Q Q Q ^ ^ ^ ^ ( ( ) ) ) ) ) ' ' ' ' } }  . .O.O.O.O.#.#.=.=.=.;.:.,.1.1.4.4.4.4.8.q.q.e.t.t.t.t.t.i.s.s.s.s.s.h.h.h.h.h.s.h.s.s.h.h.h.k.k.k.k.k.k.k.k.z.z.z.z.z.z.z.z.v.v.z.z.z.z.z.z.z.z.k.k.k.z.k.k.k.k.k.k.k.h.h.h.h.s.h.s.s.s.s.s.s.s.s.s.a.a.s.s.s.a.a.i.i.i.i.i.t.t.t.t.t.t.t.t.e.e.e.q.q.8.8.8.4.8.4.4.1.1.,.1.,.,.:.:.=.=.=.#.#.#.#.#.+.O.O. . . . . .} } } } } }  . . . . . .O.O.O.O.O.#.#.#.#.#.#.#.#.#.#.#.#.#.=.=.=.=.=.=.=.=.=.;.;.:.,.1.1.4.4.8.8.8.8.8.8.8.4.4.4.8.8.4.4.4.1.1.1.1.1.,.,.:.:.;.=.=.=.=.#.#.#.O.O.O.O. . . . .} } } } } ' ' ' ' ) ) ) ( ^ ^ ^ Q W E E E P H D B B m m b b v v k k k f f p u u e e e e q 0 0 6 6 4 1 1 > > * * * * % % % # @ o o o ^.^.^.^.^.^.^.^.^.^.^.^.^.^.^.^.^.^.^.^.^.^.^.^.^.^.^.^.^.^.^.^.^.^.^.^.^.^.^.^.^.^.^.^.^.^.^.^.^.^.^.^.^.^.^.^.^.^.^.^.^.^.^.^.^.^.^.^.^.^.^.^.^.^.^.^.^.^.^.^.^.^.^.^.^.^.^.^.^.^.^.^.^.^.^.^.^.^.^.^.^.^.^.^.^.^.^.^.^.^.^.^.^.^.^.^.^.^.^.^.",
"^.^.^.^.^.^.^.^.^.^.^.^.^.^.^.^.^.^.^.^.^.^.^.^.^.^.^.^.^.^.^.^.^.^.^.^.^.^.^.^.^.^.^.^.^.^.^.^.^.^.^.^.^.^.^.^.^.^.^.^.^.^.^.^.^.^.^.^.^.^.^.^.^.^.^.^.^.^.^.^.^.^.^.^.^.^.^.^.^.^.^.^.^.^.^.^.^.^.^.^.^.^.^.^.^.^.^.^.^.^.^.^.^.^.^.^.^.^.^.^.^.^.^.^.^.^.^.^.^.^.^.^.^.. o % * * > 4 6 0 e e e e e e t t u u p f k v b m m m m m m m m b b v b x b b b B D D H K U U E E W Q Q Q Q Q ^ ^ ( ( ( ) ) ' ' ' ' ' ' ' } } }  . . .O.O.O.#.#.#.#.=.=.;.,.,.1.1.4.4.4.8.8.q.e.e.t.t.t.i.i.s.s.s.s.s.h.h.h.h.h.h.h.s.h.s.h.h.h.k.k.k.k.k.k.z.z.z.z.z.z.z.z.v.z.v.v.v.v.v.v.z.z.z.z.z.z.k.k.k.k.k.k.h.k.k.h.h.h.h.h.h.s.s.s.s.s.s.s.s.a.a.s.s.s.a.a.i.a.i.i.i.i.i.t.t.t.t.t.t.e.e.e.e.e.q.8.8.8.8.8.4.4.1.1.1.,.,.,.:.:.;.=.=.=.#.#.#.#.#.O.O.O.O. . . . . . . .} }  . .}  . .O.O.O.O.O.O.#.#.#.#.=.#.=.=.#.=.=.=.#.=.=.=.=.=.=.=.=.=.=.;.:.,.1.1.4.4.8.8.8.8.8.8.8.8.8.8.8.8.4.4.4.4.1.1.1.1.,.,.,.:.:.;.;.=.=.=.#.#.#.O.O.O. . . . . . . .} } } ' ' ' ' ) ) ( ^ ^ ^ Q Q E E E U H D D B B m m b b x v z k k f p p u u e e e q 0 0 8 6 4 4 1 > > > > * * * % % % # @ o o ^.^.^.^.^.^.^.^.^.^.^.^.^.^.^.^.^.^.^.^.^.^.^.^.^.^.^.^.^.^.^.^.^.^.^.^.^.^.^.^.^.^.^.^.^.^.^.^.^.^.^.^.^.^.^.^.^.^.^.^.^.^.^.^.^.^.^.^.^.^.^.^.^.^.^.^.^.^.^.^.^.^.^.^.^.^.^.^.^.^.^.^.^.^.^.^.^.^.^.^.^.^.^.^.^.^.^.^.^.^.^.^.^.^.^.^.^.^.^.^.",
"^.^.^.^.^.^.^.^.^.^.^.^.^.^.^.^.^.^.^.^.^.^.^.^.^.^.^.^.^.^.^.^.^.^.^.^.^.^.^.^.^.^.^.^.^.^.^.^.^.^.^.^.^.^.^.^.^.^.^.^.^.^.^.^.^.^.^.^.^.^.^.^.^.^.^.^.^.^.^.^.^.^.^.^.^.^.^.^.^.^.^.^.^.^.^.^.^.^.^.^.^.^.^.^.^.^.^.^.^.^.^.^.^.^.^.^.^.^.^.^.^.^.^.^.^.^.^.^.^.^.^.^.^.o $ * > 1 4 4 0 e u u u u e e t u p f f k z x b m B Z B B Z B B m m m b b m m B D H K P U E E E W Q Q Q Q ^ ^ ^ ( ( ) ) ) ' ' ' ' ' ' ' } }  . . . . .O.O.#.#.#.=.=.=.=.:.,.,.1.4.4.4.4.4.q.e.t.t.t.t.i.i.i.s.s.s.s.h.h.h.k.k.k.k.h.h.h.h.h.h.k.k.k.k.k.z.k.k.z.z.z.z.v.v.v.v.v.v.v.v.v.v.v.v.v.z.z.z.k.k.k.k.k.k.h.k.h.k.h.h.h.h.h.s.s.s.s.s.s.a.i.s.s.s.a.i.s.a.i.a.i.i.i.i.i.i.i.t.t.t.t.t.t.t.t.e.e.q.q.8.q.8.8.8.4.4.1.1.1.1.,.,.:.:.;.=.=.=.#.#.#.#.#.O.O.O.O. . . . .}  . .} }  . . .O.O.O.+.+.O.#.O.#.#.#.#.#.=.=.=.=.=.#.#.#.=.=.#.=.=.=.=.=.=.;.:.:.1.1.4.4.4.8.8.8.8.8.8.8.8.8.8.8.4.4.4.4.4.1.1.1.1.1.,.,.:.:.;.;.;.=.=.#.#.#.O.O.O. . . . . .}  .} } } ' ' ' ' ) ) ) ( ^ Q Q W E E E L H D Z B B m m b x v z z k f f p p u e e q q 0 0 7 6 4 4 4 1 > > > > * * * * % $ # @ o . ^.^.^.^.^.^.^.^.^.^.^.^.^.^.^.^.^.^.^.^.^.^.^.^.^.^.^.^.^.^.^.^.^.^.^.^.^.^.^.^.^.^.^.^.^.^.^.^.^.^.^.^.^.^.^.^.^.^.^.^.^.^.^.^.^.^.^.^.^.^.^.^.^.^.^.^.^.^.^.^.^.^.^.^.^.^.^.^.^.^.^.^.^.^.^.^.^.^.^.^.^.^.^.^.^.^.^.^.^.^.^.^.^.^.^.^.^.^.^.",
"^.^.^.^.^.^.^.^.^.^.^.^.^.^.^.^.^.^.^.^.^.^.^.^.^.^.^.^.^.^.^.^.^.^.^.^.^.^.^.^.^.^.^.^.^.^.^.^.^.^.^.^.^.^.^.^.^.^.^.^.^.^.^.^.^.^.^.^.^.^.^.^.^.^.^.^.^.^.^.^.^.^.^.^.^.^.^.^.^.^.^.^.^.^.^.^.^.^.^.^.^.^.^.^.^.^.^.^.^.^.^.^.^.^.^.^.^.^.^.^.^.^.^.^.^.^.^.^.^.^.^.. o # % > 4 4 8 0 q u p p u u u u u p f z z v v b B B D D D D D D D Z B B B B B B D H P E E E E E Q Q Q ^ ^ ^ ^ ( ( ) ) ) ' ' ' ' ' ' ' ' ' }  . . . . . .O.O.#.#.=.=.=.=.;.:.,.,.1.4.4.4.4.8.q.e.t.t.t.i.i.i.s.s.s.h.h.h.h.k.k.k.k.k.k.k.h.h.h.h.h.k.k.k.k.z.k.z.z.z.z.v.n.m.n.n.v.v.n.n.v.n.n.v.z.z.z.z.z.z.k.k.k.k.h.h.h.h.h.h.h.h.h.s.s.s.s.s.s.s.a.s.a.a.a.a.s.i.a.a.i.s.i.i.i.i.t.t.i.i.t.t.t.t.t.e.e.e.e.q.8.q.8.4.4.4.4.1.1.1.1.,.,.,.;.;.=.=.=.=.#.#.#.#.O.O.O. . . . . .}  . . . . .O.O.O.O.#.+.#.O.#.#.#.#.#.#.=.=.=.=.=.#.#.=.#.=.=.=.=.=.=.=.=.=.;.:.,.1.1.1.4.4.8.8.8.8.8.8.8.8.8.8.8.8.8.4.4.4.4.1.1.1.,.,.:.:.:.:.;.;.=.=.#.#.#.O.O.O.O. . . . . . .} } } } ' ' ' ) ) ( ( ^ Q W E E E U K D D D B B m m v v z z k k f f p u u e e q 0 0 7 8 4 4 4 1 > > > > > > * * % % $ + o . ^.^.^.^.^.^.^.^.^.^.^.^.^.^.^.^.^.^.^.^.^.^.^.^.^.^.^.^.^.^.^.^.^.^.^.^.^.^.^.^.^.^.^.^.^.^.^.^.^.^.^.^.^.^.^.^.^.^.^.^.^.^.^.^.^.^.^.^.^.^.^.^.^.^.^.^.^.^.^.^.^.^.^.^.^.^.^.^.^.^.^.^.^.^.^.^.^.^.^.^.^.^.^.^.^.^.^.^.^.^.^.^.^.^.^.^.^.^.^.",
"^.^.^.^.^.^.^.^.^.^.^.^.^.^.^.^.^.^.^.^.^.^.^.^.^.^.^.^.^.^.^.^.^.^.^.^.^.^.^.^.^.^.^.^.^.^.^.^.^.^.^.^.^.^.^.^.^.^.^.^.^.^.^.^.^.^.^.^.^.^.^.^.^.^.^.^.^.^.^.^.^.^.^.^.^.^.^.^.^.^.^.^.^.^.^.^.^.^.^.^.^.^.^.^.^.^.^.^.^.^.^.^.^.^.^.^.^.^.^.^.^.^.^.^.^.^.^.^.^.^.^.o $ % * > 4 8 0 q e u p f f p u u p f k k v v b m Z D H H H K H K H H H H D D D D H P E E E E E E Q Q ^ ^ ^ ( ( ( ) ) ' ' ' ' ' ' ' } } } } }  . . . . . .O.#.#.#.=.=.=.=.:.,.,.,.1.1.4.4.8.8.q.e.t.t.t.i.i.a.s.h.s.h.h.h.k.k.k.k.k.k.k.k.k.h.k.k.k.k.k.k.k.z.z.z.z.v.v.v.m.m.m.n.n.n.v.n.n.n.n.n.v.v.z.z.k.k.k.k.k.k.h.h.h.h.h.h.h.h.s.s.s.s.s.s.s.s.s.s.i.i.s.a.s.a.a.a.a.i.i.i.i.i.i.i.t.i.i.t.t.t.e.t.e.e.q.q.q.8.8.4.4.4.4.1.1.1.1.1.,.,.,.;.=.=.=.=.=.#.#.#.O.O.O.O. . . . . . . . . .O.O.O.O.O.#.#.#.O.#.#.#.#.#.#.=.=.=.=.#.=.#.#.#.#.=.=.=.=.=.=.=.=.;.:.,.1.1.1.4.4.8.4.8.8.8.8.8.8.q.8.q.8.8.8.8.4.4.4.1.1.1.,.,.,.,.:.:.:.;.=.=.#.#.#.O.O.O.O.O. . . . . . .} } } ' ' ' ) ) ( ^ ^ Q Q E E E P H H D B B m m b v v z k k f f p u u t e e 0 0 0 6 4 4 4 1 1 1 1 1 > > > * * % % # o o ^.^.^.^.^.^.^.^.^.^.^.^.^.^.^.^.^.^.^.^.^.^.^.^.^.^.^.^.^.^.^.^.^.^.^.^.^.^.^.^.^.^.^.^.^.^.^.^.^.^.^.^.^.^.^.^.^.^.^.^.^.^.^.^.^.^.^.^.^.^.^.^.^.^.^.^.^.^.^.^.^.^.^.^.^.^.^.^.^.^.^.^.^.^.^.^.^.^.^.^.^.^.^.^.^.^.^.^.^.^.^.^.^.^.^.^.^.^.^.",
"^.^.^.^.^.^.^.^.^.^.^.^.^.^.^.^.^.^.^.^.^.^.^.^.^.^.^.^.^.^.^.^.^.^.^.^.^.^.^.^.^.^.^.^.^.^.^.^.^.^.^.^.^.^.^.^.^.^.^.^.^.^.^.^.^.^.^.^.^.^.^.^.^.^.^.^.^.^.^.^.^.^.^.^.^.^.^.^.^.^.^.^.^.^.^.^.^.^.^.^.^.^.^.^.^.^.^.^.^.^.^.^.^.^.^.^.^.^.^.^.^.^.^.^.^.^.^.^.^.^.. @ % * > 4 6 0 e t u p f f f f p p f k z x v b m B Z D H L U U U U U U P L H H H K E E E E E E Q Q Q ^ ^ ( ) ( ) ) ' ' ' ' } ' ' } } } }  .}  . . . . .O.O.O.#.=.=.=.=.;.:.:.,.1.1.1.1.4.4.4.q.q.e.t.t.i.i.a.s.s.s.h.h.k.k.k.z.k.k.z.k.k.k.k.k.k.k.k.k.z.z.z.z.z.z.v.v.n.n.m.m.n.m.n.n.n.n.n.m.n.n.n.v.z.z.z.z.k.k.k.h.h.h.h.h.h.h.h.s.h.s.s.s.s.a.i.i.i.i.i.a.s.s.s.a.s.s.s.s.s.i.i.i.i.i.i.i.t.t.t.t.t.e.t.e.q.q.8.q.8.4.8.8.4.4.4.1.1.1.,.,.:.:.;.;.=.=.=.#.#.#.#.O.O.O.O. . . . . . .O. .O.O.O.O.O.#.#.#.O.O.#.O.#.#.#.=.=.=.=.=.=.#.#.#.#.=.=.=.=.=.=.=.;.:.:.,.1.1.1.4.4.4.4.8.8.8.8.q.q.8.q.q.8.8.8.8.8.4.4.1.1.1.1.,.,.,.,.,.:.:.;.=.=.#.#.#.O.O.O.O.O. . . . . . .} } } ' ' ' ) ( ( ^ Q Q E E E E L K H D B B m b b x v k k k f p p u t t e q 0 0 6 4 4 4 1 1 1 1 1 1 > > > * * * $ o o ^.^.^.^.^.^.^.^.^.^.^.^.^.^.^.^.^.^.^.^.^.^.^.^.^.^.^.^.^.^.^.^.^.^.^.^.^.^.^.^.^.^.^.^.^.^.^.^.^.^.^.^.^.^.^.^.^.^.^.^.^.^.^.^.^.^.^.^.^.^.^.^.^.^.^.^.^.^.^.^.^.^.^.^.^.^.^.^.^.^.^.^.^.^.^.^.^.^.^.^.^.^.^.^.^.^.^.^.^.^.^.^.^.^.^.^.^.^.^.",
"^.^.^.^.^.^.^.^.^.^.^.^.^.^.^.^.^.^.^.^.^.^.^.^.^.^.^.^.^.^.^.^.^.^.^.^.^.^.^.^.^.^.^.^.^.^.^.^.^.^.^.^.^.^.^.^.^.^.^.^.^.^.^.^.^.^.^.^.^.^.^.^.^.^.^.^.^.^.^.^.^.^.^.^.^.^.^.^.^.^.^.^.^.^.^.^.^.^.^.^.^.^.^.^.^.^.^.^.^.^.^.^.^.^.^.^.^.^.^.^.^.^.^.^.^.^.^.^.^.. @ % * > 1 4 6 q e u u p f f f f f f f z x v b b m B D H K U E E E E E E E E U P U E E E E W Q Q ^ Q ^ ( ) ) ) ) ) ' ' ' ' ' } } } }  . . . . . . .O.O.O.O.#.#.#.=.=.=.;.:.:.,.,.1.1.1.4.4.8.8.8.q.e.t.i.i.a.s.s.s.h.h.h.k.k.k.k.z.k.z.k.z.k.z.k.k.z.z.z.z.z.z.z.z.v.n.n.n.m.m.m.m.m.m.n.m.m.m.m.n.m.n.n.v.v.z.z.k.k.k.h.h.h.h.h.h.h.h.h.s.s.s.s.s.a.i.i.s.i.a.i.s.s.a.s.s.a.s.s.i.i.i.i.i.i.i.i.i.i.t.t.t.t.e.t.e.q.q.8.8.8.8.8.4.4.4.4.1.1.1.,.:.:.;.;.=.=.=.=.#.#.#.#.O.O.O. . . . . . . .O.O.O.O.O.O.#.O.#.#.O.#.#.#.#.#.=.=.=.=.=.=.#.#.#.#.#.=.=.=.=.=.=.;.:.:.,.,.1.1.1.4.4.8.8.8.8.8.8.q.q.q.q.q.q.8.8.8.4.4.4.1.1.1.1.1.1.,.,.,.:.;.;.=.=.=.#.#.#.O.O.O. .O. . . . . .} } } ' ' ' ) ( ( ^ Q Q E E E U L H D D B m m b b v c z k f f p u u u e e q 0 8 4 4 4 1 1 1 1 1 > > > > * * % $ + o ^.^.^.^.^.^.^.^.^.^.^.^.^.^.^.^.^.^.^.^.^.^.^.^.^.^.^.^.^.^.^.^.^.^.^.^.^.^.^.^.^.^.^.^.^.^.^.^.^.^.^.^.^.^.^.^.^.^.^.^.^.^.^.^.^.^.^.^.^.^.^.^.^.^.^.^.^.^.^.^.^.^.^.^.^.^.^.^.^.^.^.^.^.^.^.^.^.^.^.^.^.^.^.^.^.^.^.^.^.^.^.^.^.^.^.^.^.^.^.",
"^.^.^.^.^.^.^.^.^.^.^.^.^.^.^.^.^.^.^.^.^.^.^.^.^.^.^.^.^.^.^.^.^.^.^.^.^.^.^.^.^.^.^.^.^.^.^.^.^.^.^.^.^.^.^.^.^.^.^.^.^.^.^.^.^.^.^.^.^.^.^.^.^.^.^.^.^.^.^.^.^.^.^.^.^.^.^.^.^.^.^.^.^.^.^.^.^.^.^.^.^.^.^.^.^.^.^.^.^.^.^.^.^.^.^.^.^.^.^.^.^.^.^.^.^.^.^.. o o $ * * > 1 4 8 0 e u p f f f k f f k z v v b b m B D D H L E E E E E E E E E E E E E E E E Q Q ^ ^ ( ( ) ) ' ' ' ' ' ' } } } } }  . . . . .O.O.O.O.O.O.#.#.#.=.=.;.;.;.:.:.,.1.1.1.1.1.4.4.8.8.q.e.e.t.i.i.a.s.s.s.h.h.h.k.k.k.z.z.z.z.z.z.z.z.z.z.z.z.z.z.z.z.z.v.v.n.m.m.m.m.N.m.m.m.m.m.m.m.m.m.m.n.n.n.v.z.z.k.k.h.h.h.h.h.h.h.h.h.s.s.s.s.s.s.s.i.i.i.s.i.a.s.s.s.i.s.a.a.a.a.i.i.i.i.i.i.i.i.i.t.t.t.t.t.e.e.q.q.8.8.8.8.8.4.4.4.4.1.1.1.1.,.:.:.;.=.=.=.=.=.=.#.#.#.#.O.O.O.O.O.O.O. .O.O.O.O.O.#.O.#.#.#.#.#.#.#.#.#.=.=.=.=.=.=.=.=.=.=.=.=.#.=.=.=.=.;.:.,.,.1.1.1.1.1.4.4.8.8.8.q.q.q.q.q.q.q.8.8.8.4.4.4.4.4.1.1.1.1.1.1.1.,.:.:.;.;.=.=.=.#.#.#.O.O.O.O.O. . . . . . .} } ' ' ) ) ( ^ ^ Q W E E E E K H D Z B m b b v x z k k f p p u u e e 0 0 8 6 4 4 4 4 1 1 1 > > > > * * % $ + o . ^.^.^.^.^.^.^.^.^.^.^.^.^.^.^.^.^.^.^.^.^.^.^.^.^.^.^.^.^.^.^.^.^.^.^.^.^.^.^.^.^.^.^.^.^.^.^.^.^.^.^.^.^.^.^.^.^.^.^.^.^.^.^.^.^.^.^.^.^.^.^.^.^.^.^.^.^.^.^.^.^.^.^.^.^.^.^.^.^.^.^.^.^.^.^.^.^.^.^.^.^.^.^.^.^.^.^.^.^.^.^.^.^.^.^.^.^.^.",
"^.^.^.^.^.^.^.^.^.^.^.^.^.^.^.^.^.^.^.^.^.^.^.^.^.^.^.^.^.^.^.^.^.^.^.^.^.^.^.^.^.^.^.^.^.^.^.^.^.^.^.^.^.^.^.^.^.^.^.^.^.^.^.^.^.^.^.^.^.^.^.^.^.^.^.^.^.^.^.^.^.^.^.^.^.^.^.^.^.^.^.^.^.^.^.^.^.^.^.^.^.^.^.^.^.^.^.^.^.^.^.^.^.^.^.^.^.^.^.^.^.^.^.^.^.^.o @ $ % * > 1 4 4 4 6 q e u f k k k k f k z x v b m m B B D D H L U E E E E E E E E E E E E W W Q Q Q ^ ( ( ) ' ' ' ' ' ' ' } } } }  . . . . .O.O.O.O.O.O.#.O.#.=.=.=.;.;.:.:.,.,.,.,.,.1.1.4.4.8.8.8.q.e.e.t.i.i.a.s.s.h.h.h.h.k.k.k.k.z.z.z.z.z.z.z.z.z.z.z.z.z.z.z.v.v.n.m.m.m.m.N.N.m.m.m.N.m.m.m.m.m.m.m.n.n.v.z.z.k.k.k.k.k.h.h.h.h.h.h.s.s.s.s.s.s.s.s.s.i.s.a.s.s.s.s.s.s.a.s.a.a.a.i.i.s.s.s.i.i.i.i.t.t.t.t.e.e.e.q.q.8.8.8.8.8.4.4.4.4.1.1.1.,.,.:.:.;.=.=.=.=.=.#.#.#.#.#.O.O.O.O.O.O.O.O.O.O.O.O.#.#.#.#.#.#.#.#.#.#.=.=.=.=.=.=.=.=.=.=.=.=.=.=.=.=.=.=.;.:.,.,.,.1.1.1.1.4.4.8.8.8.8.q.q.q.e.q.q.q.8.8.4.4.4.4.4.4.4.4.1.1.1.1.1.,.:.:.;.;.=.=.=.#.#.#.O.O.O.O.O.O. . . . .} } } ' ' ) ) ( ^ Q Q W E E E U K H D B m m b b x z z k f p p u u t e q 0 7 6 6 4 4 4 4 1 1 > > > > * % % # @ o . ^.^.^.^.^.^.^.^.^.^.^.^.^.^.^.^.^.^.^.^.^.^.^.^.^.^.^.^.^.^.^.^.^.^.^.^.^.^.^.^.^.^.^.^.^.^.^.^.^.^.^.^.^.^.^.^.^.^.^.^.^.^.^.^.^.^.^.^.^.^.^.^.^.^.^.^.^.^.^.^.^.^.^.^.^.^.^.^.^.^.^.^.^.^.^.^.^.^.^.^.^.^.^.^.^.^.^.^.^.^.^.^.^.^.^.^.^.^.",
"^.^.^.^.^.^.^.^.^.^.^.^.^.^.^.^.^.^.^.^.^.^.^.^.^.^.^.^.^.^.^.^.^.^.^.^.^.^.^.^.^.^.^.^.^.^.^.^.^.^.^.^.^.^.^.^.^.^.^.^.^.^.^.^.^.^.^.^.^.^.^.^.^.^.^.^.^.^.^.^.^.^.^.^.^.^.^.^.^.^.^.^.^.^.^.^.^.^.^.^.^.^.^.^.^.^.^.^.^.^.^.^.^.^.^.^.^.^.^.^.^.^.^.o @ # $ % * > 1 4 4 4 8 8 0 q t u f k z z k k z x b b m m B B Z D D H P E E E E E W E E W Q Q W Q Q Q Q ^ ^ ) ) ' ' ' ' ' ' ' } } } }  . . . .O.O.O.O.O.#.O.#.#.#.#.=.=.=.;.:.:.,.,.,.1.1.1.1.1.1.4.8.8.8.q.q.e.e.t.t.i.a.s.h.s.h.h.h.k.k.k.z.k.z.z.z.z.z.z.z.z.z.z.z.z.z.v.v.n.n.m.m.m.m.N.N.N.m.N.N.N.N.m.m.m.m.n.n.v.v.z.z.z.k.k.k.k.h.h.h.h.h.s.s.s.s.s.s.s.s.s.s.s.s.s.s.s.s.s.s.s.s.s.s.s.s.s.s.i.s.s.i.a.i.t.t.t.t.t.t.e.e.q.q.8.8.8.8.8.4.4.4.4.4.1.1.1.,.,.:.:.;.;.=.=.=.=.=.#.#.#.#.#.#.#.#.O.O.O.O.O.#.#.#.#.#.#.#.#.#.#.#.=.=.=.=.=.=.=.=.=.=.=.=.=.=.=.=.=.=.=.;.:.:.,.,.1.1.1.1.4.4.8.8.8.q.q.q.q.q.q.q.q.8.8.4.8.8.8.4.4.4.4.4.1.1.1.1.,.,.:.:.:.;.=.=.=.#.#.#.#.O.O.O.O.O.O. . . .} } ' ' ' ) ) ^ ^ Q Q E E E E P K D D B m m b x v z k f f p u u u e e q 0 6 6 4 4 4 1 1 1 > > * * * % $ + o . ^.^.^.^.^.^.^.^.^.^.^.^.^.^.^.^.^.^.^.^.^.^.^.^.^.^.^.^.^.^.^.^.^.^.^.^.^.^.^.^.^.^.^.^.^.^.^.^.^.^.^.^.^.^.^.^.^.^.^.^.^.^.^.^.^.^.^.^.^.^.^.^.^.^.^.^.^.^.^.^.^.^.^.^.^.^.^.^.^.^.^.^.^.^.^.^.^.^.^.^.^.^.^.^.^.^.^.^.^.^.^.^.^.^.^.^.^.^.^.",
"^.^.^.^.^.^.^.^.^.^.^.^.^.^.^.^.^.^.^.^.^.^.^.^.^.^.^.^.^.^.^.^.^.^.^.^.^.^.^.^.^.^.^.^.^.^.^.^.^.^.^.^.^.^.^.^.^.^.^.^.^.^.^.^.^.^.^.^.^.^.^.^.^.^.^.^.^.^.^.^.^.^.^.^.^.^.^.^.^.^.^.^.^.^.^.^.^.^.^.^.^.^.^.^.^.^.^.^.^.^.^.^.^.^.^.^.^.^.^.^.^.^.o @ $ % * * > > 4 4 8 0 0 q e e u p f k v x v v x v m m B Z Z D H D H H U E E E E E Q Q Q Q Q Q Q Q Q ^ ^ ^ ) ( ) ' ' ' ' } } } } } }  . . . .O.O.O.#.#.#.#.#.#.=.#.=.=.;.:.:.:.,.,.1.1.1.1.1.1.4.4.4.8.8.q.q.e.t.t.t.i.i.a.s.h.h.h.h.h.k.k.k.k.z.z.z.z.z.v.z.v.v.z.v.v.v.v.v.v.n.n.m.m.m.m.N.N.N.N.N.N.N.N.N.N.m.m.n.n.v.z.z.z.z.k.k.k.k.h.h.h.h.h.s.s.s.s.s.s.s.s.s.s.s.s.s.s.s.s.s.s.s.s.s.s.s.s.s.s.s.s.s.a.i.i.i.t.t.t.t.e.e.e.e.q.q.8.8.8.8.4.8.4.4.4.4.1.1.1.,.:.:.:.;.;.;.=.=.=.=.=.#.#.#.#.#.#.#.#.#.#.O.#.#.#.#.#.#.#.#.#.=.=.=.=.=.=.;.=.;.;.;.;.;.=.=.=.=.=.=.=.;.;.:.:.1.1.1.1.1.1.4.4.4.8.8.q.q.q.q.q.8.q.q.q.8.8.8.8.8.8.4.4.4.4.4.4.1.1.1.1.,.:.:.:.;.=.=.=.#.#.#.#.O.O.O.O.O.O. . . . .} ' ' ' ( ( ^ Q Q Q E E E U K H D Z B m b x v z k f p p u u u t e q 7 6 6 4 4 4 1 1 1 > * * % % $ # o o . ^.^.^.^.^.^.^.^.^.^.^.^.^.^.^.^.^.^.^.^.^.^.^.^.^.^.^.^.^.^.^.^.^.^.^.^.^.^.^.^.^.^.^.^.^.^.^.^.^.^.^.^.^.^.^.^.^.^.^.^.^.^.^.^.^.^.^.^.^.^.^.^.^.^.^.^.^.^.^.^.^.^.^.^.^.^.^.^.^.^.^.^.^.^.^.^.^.^.^.^.^.^.^.^.^.^.^.^.^.^.^.^.^.^.^.^.^.^.^.",
"^.^.^.^.^.^.^.^.^.^.^.^.^.^.^.^.^.^.^.^.^.^.^.^.^.^.^.^.^.^.^.^.^.^.^.^.^.^.^.^.^.^.^.^.^.^.^.^.^.^.^.^.^.^.^.^.^.^.^.^.^.^.^.^.^.^.^.^.^.^.^.^.^.^.^.^.^.^.^.^.^.^.^.^.^.^.^.^.^.^.^.^.^.^.^.^.^.^.^.^.^.^.^.^.^.^.^.^.^.^.^.^.^.^.^.^.^.^.^.^.^.o @ $ % * * > 1 4 6 6 0 q e e u u p f k z v v v v b b m B Z D H H H K H P E E E E W Q Q Q ^ ^ ^ ^ ^ ^ ^ ^ ( ( ) ) ' ' } } } } } } } }  . . . . .O.O.#.#.#.#.#.=.=.=.=.=.=.;.:.:.,.,.1.1.1.4.4.4.4.4.4.8.8.8.8.e.e.t.t.t.t.i.i.s.h.h.h.h.k.k.k.k.z.z.z.z.z.z.v.z.v.v.v.v.v.z.v.v.n.n.n.m.m.m.m.N.N.N.N.N.N.N.N.N.N.m.m.n.n.v.z.z.z.z.z.k.k.k.k.h.h.h.h.h.h.s.s.s.s.s.s.s.s.s.s.s.s.s.s.s.s.s.s.s.s.s.s.s.s.s.s.s.a.i.i.i.i.i.i.t.t.t.e.q.e.q.8.8.8.8.8.8.4.4.4.4.1.1.1.,.,.,.,.:.:.;.;.;.=.=.=.=.=.#.#.#.#.#.#.#.#.#.#.#.#.#.#.#.#.#.#.=.=.=.=.=.;.;.;.;.;.;.;.;.;.;.=.=.=.=.=.;.:.:.,.,.,.1.1.4.4.4.4.8.8.8.8.8.q.q.q.q.q.q.8.q.8.8.8.8.4.8.4.4.4.4.4.4.1.1.1.1.,.,.,.:.;.=.=.#.#.#.#.#.#.O.O.O.O.O. . . .} } ' ' ) ( ( ^ Q Q E E E E L H D D Z B m v z k f f p p u u u e e 0 8 6 4 4 4 1 > > > > * * % % # @ o o ^.^.^.^.^.^.^.^.^.^.^.^.^.^.^.^.^.^.^.^.^.^.^.^.^.^.^.^.^.^.^.^.^.^.^.^.^.^.^.^.^.^.^.^.^.^.^.^.^.^.^.^.^.^.^.^.^.^.^.^.^.^.^.^.^.^.^.^.^.^.^.^.^.^.^.^.^.^.^.^.^.^.^.^.^.^.^.^.^.^.^.^.^.^.^.^.^.^.^.^.^.^.^.^.^.^.^.^.^.^.^.^.^.^.^.^.^.^.^.^.",
"^.^.^.^.^.^.^.^.^.^.^.^.^.^.^.^.^.^.^.^.^.^.^.^.^.^.^.^.^.^.^.^.^.^.^.^.^.^.^.^.^.^.^.^.^.^.^.^.^.^.^.^.^.^.^.^.^.^.^.^.^.^.^.^.^.^.^.^.^.^.^.^.^.^.^.^.^.^.^.^.^.^.^.^.^.^.^.^.^.^.^.^.^.^.^.^.^.^.^.^.^.^.^.^.^.^.^.^.^.^.^.^.^.^.^.^.^.^.. . o @ % % * > > 1 4 8 0 0 e e e u p p f z z x v v b b m m m B D D H H H H K U E E E E Q Q Q ^ ^ ^ ^ ( ( ( ) ) ) ) ' ' ' }  . .} } } } }  . . . . .O.O.O.#.#.#.#.=.=.=.=.=.;.:.:.,.,.,.1.1.1.4.4.4.4.4.4.4.8.8.q.q.e.e.t.t.t.t.i.a.s.h.h.h.k.k.k.k.z.z.z.z.z.z.z.z.z.v.v.n.v.n.n.v.n.n.n.n.n.m.m.m.m.N.N.N.N.N.N.N.N.N.m.m.m.n.v.v.z.z.z.z.z.z.k.k.k.h.h.h.h.h.h.s.s.h.h.h.h.s.h.h.s.s.h.s.s.h.s.s.s.s.s.s.s.s.s.s.s.s.a.i.i.i.i.i.i.t.t.e.e.e.q.q.q.8.8.8.8.4.4.4.4.4.1.1.1.,.,.,.,.:.:.:.:.;.;.=.=.=.=.=.#.#.=.=.#.#.#.#.#.#.#.#.#.#.#.#.=.=.=.=.=.;.:.:.:.;.:.;.;.:.;.;.=.=.;.;.;.:.:.,.,.,.1.1.4.4.4.4.8.8.8.8.8.8.8.8.8.q.q.q.q.8.8.8.8.8.4.8.8.4.8.4.4.4.1.1.1.1.,.,.:.;.=.=.=.#.#.#.#.#.O.#.O.O.O.O. . . .} } ' ' ) ( ( ^ Q W E E E P L H D B B b v z k k f f p p u u e e q 8 4 4 4 1 1 > > > * * * % $ @ o o . ^.^.^.^.^.^.^.^.^.^.^.^.^.^.^.^.^.^.^.^.^.^.^.^.^.^.^.^.^.^.^.^.^.^.^.^.^.^.^.^.^.^.^.^.^.^.^.^.^.^.^.^.^.^.^.^.^.^.^.^.^.^.^.^.^.^.^.^.^.^.^.^.^.^.^.^.^.^.^.^.^.^.^.^.^.^.^.^.^.^.^.^.^.^.^.^.^.^.^.^.^.^.^.^.^.^.^.^.^.^.^.^.^.^.^.^.^.^.^.^.",
"^.^.^.^.^.^.^.^.^.^.^.^.^.^.^.^.^.^.^.^.^.^.^.^.^.^.^.^.^.^.^.^.^.^.^.^.^.^.^.^.^.^.^.^.^.^.^.^.^.^.^.^.^.^.^.^.^.^.^.^.^.^.^.^.^.^.^.^.^.^.^.^.^.^.^.^.^.^.^.^.^.^.^.^.^.^.^.^.^.^.^.^.^.^.^.^.^.^.^.^.^.^.^.^.^.^.^.^.^.^.^.^.^.^.^.^.^.. o @ + $ * > > 1 4 6 0 q q e u u p p f k k z x b b b m m B m B Z D H H H H K P E E E E E Q Q ^ ^ ( ) ) ) ) ) ) ) ' ' ' ' } }  . . . . . . . . . . .O.O.O.#.#.=.=.=.=.=.;.;.;.:.:.:.,.1.1.1.4.1.4.4.4.4.4.8.4.8.q.q.q.e.t.t.t.t.t.i.a.s.s.h.h.k.k.k.z.z.z.z.n.v.v.z.z.v.v.v.n.n.n.n.n.n.n.n.n.m.m.m.m.N.N.N.N.N.N.N.N.N.m.m.m.m.n.n.v.z.z.z.z.z.z.k.k.k.k.k.h.h.h.h.h.s.h.s.h.h.h.h.h.h.h.h.h.h.s.h.s.s.h.s.h.s.s.s.s.s.s.s.i.i.i.i.t.t.t.t.t.e.e.q.q.8.8.8.8.8.8.8.4.4.4.1.1.1.1.1.,.,.,.,.:.:.:.;.;.;.=.=.=.=.=.=.=.=.=.=.=.=.=.=.#.=.=.=.=.=.=.=.;.;.:.:.:.,.:.:.:.:.:.:.;.;.;.;.:.:.:.,.,.,.,.1.1.4.4.4.4.8.8.8.8.8.8.q.q.q.q.e.e.q.q.q.8.8.q.8.8.8.8.4.4.4.4.4.1.1.1.,.,.,.:.;.=.=.#.#.#.#.#.#.#.O.O.O.O. . . .} } ' ' ) ) ^ ^ Q Q E E E U L H D Z m b v v z k f f p p u u e e q 7 4 4 4 1 > > > * * % % $ # @ o . ^.^.^.^.^.^.^.^.^.^.^.^.^.^.^.^.^.^.^.^.^.^.^.^.^.^.^.^.^.^.^.^.^.^.^.^.^.^.^.^.^.^.^.^.^.^.^.^.^.^.^.^.^.^.^.^.^.^.^.^.^.^.^.^.^.^.^.^.^.^.^.^.^.^.^.^.^.^.^.^.^.^.^.^.^.^.^.^.^.^.^.^.^.^.^.^.^.^.^.^.^.^.^.^.^.^.^.^.^.^.^.^.^.^.^.^.^.^.^.^.^.",
"^.^.^.^.^.^.^.^.^.^.^.^.^.^.^.^.^.^.^.^.^.^.^.^.^.^.^.^.^.^.^.^.^.^.^.^.^.^.^.^.^.^.^.^.^.^.^.^.^.^.^.^.^.^.^.^.^.^.^.^.^.^.^.^.^.^.^.^.^.^.^.^.^.^.^.^.^.^.^.^.^.^.^.^.^.^.^.^.^.^.^.^.^.^.^.^.^.^.^.^.^.^.^.^.^.^.^.^.^.^.^.^.^.^.o o o o # % * * > 4 4 4 0 q e u u p p f f f k z z x b m m m m B Z B D D H H H K P U E E E E E E Q Q ^ ( ) ' ' ' ' ' ' ' ' ' } }  . . . . . . . . . .O.O.O.O.O.#.#.=.=.=.=.=.;.;.;.:.:.,.,.,.1.1.1.4.4.4.4.4.4.4.8.8.q.q.e.e.e.t.t.t.t.i.i.a.s.s.h.h.h.k.k.z.z.z.z.z.z.z.v.v.n.n.n.n.n.m.n.n.n.n.n.n.m.m.m.m.m.N.N.N.N.N.N.N.N.m.m.m.m.m.n.v.v.z.z.z.z.z.z.z.k.k.k.k.h.h.h.h.h.h.h.h.h.h.h.h.h.h.h.h.h.h.h.s.h.s.h.h.s.h.s.s.s.s.s.s.i.i.i.i.t.t.t.e.e.e.q.q.8.q.8.8.8.8.8.4.4.4.4.1.1.1.1.1.1.1.,.,.,.:.:.:.;.;.=.=.=.=.=.=.=.=.=.=.=.=.=.=.=.=.=.=.=.;.;.;.:.:.:.:.:.,.,.,.:.:.:.:.;.:.:.:.,.:.,.,.,.1.1.1.4.4.4.4.8.8.8.8.8.8.q.8.e.q.e.q.e.q.8.q.q.q.8.8.8.8.8.8.4.8.4.4.4.1.1.,.,.:.;.=.=.=.=.#.#.#.#.#.#.O.O. . . . . .} ' ' ' ) ( ^ Q Q W E E E P H D Z B m v v z k k f f p u u t e q 0 6 4 4 > > * * * % % $ + @ o . ^.^.^.^.^.^.^.^.^.^.^.^.^.^.^.^.^.^.^.^.^.^.^.^.^.^.^.^.^.^.^.^.^.^.^.^.^.^.^.^.^.^.^.^.^.^.^.^.^.^.^.^.^.^.^.^.^.^.^.^.^.^.^.^.^.^.^.^.^.^.^.^.^.^.^.^.^.^.^.^.^.^.^.^.^.^.^.^.^.^.^.^.^.^.^.^.^.^.^.^.^.^.^.^.^.^.^.^.^.^.^.^.^.^.^.^.^.^.^.^.^.^.",
"^.^.^.^.^.^.^.^.^.^.^.^.^.^.^.^.^.^.^.^.^.^.^.^.^.^.^.^.^.^.^.^.^.^.^.^.^.^.^.^.^.^.^.^.^.^.^.^.^.^.^.^.^.^.^.^.^.^.^.^.^.^.^.^.^.^.^.^.^.^.^.^.^.^.^.^.^.^.^.^.^.^.^.^.^.^.^.^.^.^.^.^.^.^.^.^.^.^.^.^.^.^.^.^.^.^.^.^.^.^.^.. o o @ $ % % * * > 1 4 0 7 0 q e u p p f k z v v v x v b m B B B B D H H H K L U U U E E E E E E W Q Q ^ ( ) ' ' ' ' ' ' } } } }  . . .O. . . .O.O.O.O.O.O.O.O.#.#.=.=.=.;.;.;.:.:.:.:.:.,.,.,.1.1.1.4.4.8.8.4.8.4.4.8.8.q.e.e.e.t.i.t.t.t.i.i.i.s.s.h.h.h.k.k.z.z.z.z.z.z.v.v.v.n.v.n.n.m.m.n.m.m.m.m.m.m.m.m.m.m.m.N.N.N.N.N.N.N.m.m.m.m.n.n.n.v.z.z.z.z.z.z.z.k.k.k.k.k.k.h.k.h.h.h.h.h.k.h.k.h.h.h.h.h.h.s.h.s.h.s.s.s.s.s.s.s.s.s.s.a.i.i.i.t.t.t.t.t.e.q.e.q.8.q.8.8.8.8.8.8.4.4.4.4.1.1.1.1.1.1.,.,.,.:.:.:.:.;.;.;.;.;.=.=.=.=.=.;.;.;.;.;.;.;.;.;.:.,.:.:.:.:.,.,.,.,.,.,.,.:.:.:.:.:.:.,.,.,.,.1.1.1.1.4.4.4.4.4.8.8.q.8.q.q.q.e.e.e.e.e.q.q.8.q.q.q.q.q.8.8.8.8.8.4.4.4.4.1.1.,.:.:.;.=.=.=.=.#.#.#.#.#.O.O.O. . . .} } ' ' ' ) ( ^ Q Q E E E E P H D D B m b x z k f f f p p u u e 0 8 4 4 1 > * * * % % # + @ o o . ^.^.^.^.^.^.^.^.^.^.^.^.^.^.^.^.^.^.^.^.^.^.^.^.^.^.^.^.^.^.^.^.^.^.^.^.^.^.^.^.^.^.^.^.^.^.^.^.^.^.^.^.^.^.^.^.^.^.^.^.^.^.^.^.^.^.^.^.^.^.^.^.^.^.^.^.^.^.^.^.^.^.^.^.^.^.^.^.^.^.^.^.^.^.^.^.^.^.^.^.^.^.^.^.^.^.^.^.^.^.^.^.^.^.^.^.^.^.^.^.^.^.",
"^.^.^.^.^.^.^.^.^.^.^.^.^.^.^.^.^.^.^.^.^.^.^.^.^.^.^.^.^.^.^.^.^.^.^.^.^.^.^.^.^.^.^.^.^.^.^.^.^.^.^.^.^.^.^.^.^.^.^.^.^.^.^.^.^.^.^.^.^.^.^.^.^.^.^.^.^.^.^.^.^.^.^.^.^.^.^.^.^.^.^.^.^.^.^.^.^.^.^.^.^.^.^.^.^.^.^.^.^.^.o + # $ $ % * * > 1 4 6 e e e e e u p f f z v v b b b m m m B D D D H H L P U E E E E E E E E E E W Q Q ^ ^ ( ) ' ' } } } } } }  . . . .O.O.O.O.O.O.O.O.O.O.#.#.#.=.=.=.=.;.:.:.:.:.:.:.:.,.,.,.1.1.1.4.4.4.8.8.8.8.8.8.8.q.q.e.e.t.t.t.t.t.t.t.i.s.s.s.h.h.h.k.k.z.z.z.z.z.z.v.v.v.n.n.n.n.m.m.m.m.m.m.m.m.m.m.m.m.m.m.N.N.N.N.N.N.N.m.m.m.m.m.n.v.n.v.n.n.z.z.z.z.k.k.k.k.k.k.k.k.k.h.k.k.k.h.k.h.h.h.h.h.h.h.h.s.h.h.s.h.h.h.h.s.s.s.s.s.s.i.i.i.i.t.t.t.t.e.e.e.q.8.q.8.q.8.8.8.8.8.4.4.4.4.4.4.4.4.1.1.,.,.,.,.:.:.:.:.:.:.:.;.;.;.;.;.;.:.;.:.:.:.:.:.:.:.,.:.,.,.,.,.,.1.,.,.,.,.,.:.:.:.,.,.,.,.1.,.1.1.1.1.4.4.4.4.8.8.8.q.8.q.q.q.e.q.e.e.e.q.q.e.q.e.q.q.q.q.8.8.8.8.8.4.4.4.1.1.,.:.:.;.;.=.=.=.=.#.#.#.#.O.O. . . . . .} ' ' ' ) ( ^ Q Q W E E E U H D Z B m b x z k k f f p p u e e 0 8 4 4 1 > * * % % $ @ o o . . ^.^.^.^.^.^.^.^.^.^.^.^.^.^.^.^.^.^.^.^.^.^.^.^.^.^.^.^.^.^.^.^.^.^.^.^.^.^.^.^.^.^.^.^.^.^.^.^.^.^.^.^.^.^.^.^.^.^.^.^.^.^.^.^.^.^.^.^.^.^.^.^.^.^.^.^.^.^.^.^.^.^.^.^.^.^.^.^.^.^.^.^.^.^.^.^.^.^.^.^.^.^.^.^.^.^.^.^.^.^.^.^.^.^.^.^.^.^.^.^.^.^.^.",
"^.^.^.^.^.^.^.^.^.^.^.^.^.^.^.^.^.^.^.^.^.^.^.^.^.^.^.^.^.^.^.^.^.^.^.^.^.^.^.^.^.^.^.^.^.^.^.^.^.^.^.^.^.^.^.^.^.^.^.^.^.^.^.^.^.^.^.^.^.^.^.^.^.^.^.^.^.^.^.^.^.^.^.^.^.^.^.^.^.^.^.^.^.^.^.^.^.^.^.^.^.^.^.^.^.^.^.^.. o # % % % % % * > 4 4 8 q t u u u u p f k z x b m m m B B B B B D D H P E E E E E E E E E E E Q W Q Q Q ^ ^ ) ) ' ' } }  . . . . . .O.O.O.O.O.#.#.#.#.#.#.#.#.#.#.=.=.=.;.;.:.:.:.,.,.:.,.:.,.,.1.1.1.1.4.4.8.8.8.8.q.8.q.8.q.e.e.t.t.t.t.t.t.t.i.i.s.s.s.s.h.h.k.k.z.z.z.z.z.z.n.n.n.n.n.m.m.m.m.m.m.m.m.N.m.m.m.m.m.m.m.m.m.N.N.N.N.m.m.m.m.m.n.n.n.v.v.z.v.v.z.z.k.z.k.k.k.k.k.k.k.k.k.k.k.k.k.k.k.k.k.h.h.k.h.h.h.h.s.h.h.h.h.h.h.h.s.s.s.s.s.i.i.t.t.t.t.e.e.e.e.e.q.q.q.8.q.8.8.8.8.8.8.4.4.4.4.4.4.4.1.1.1.,.,.,.,.,.:.:.:.,.,.:.:.:.:.:.:.:.:.:.:.:.:.:.:.,.,.1.,.1.1.1.1.1.1.,.,.,.:.,.,.,.,.1.1.1.1.1.1.1.1.1.4.8.4.8.8.8.8.q.q.q.e.q.e.q.e.q.e.q.e.e.q.e.q.q.8.q.q.8.8.8.8.4.4.1.1.,.,.,.:.;.;.=.=.=.#.#.#.#.O.O.O. . . .} } ' ' ' ) ( ^ ^ Q W E E E U K D D B m b x v z k f f p u u e e 0 8 4 1 > > * * % $ + o . ^.^.^.^.^.^.^.^.^.^.^.^.^.^.^.^.^.^.^.^.^.^.^.^.^.^.^.^.^.^.^.^.^.^.^.^.^.^.^.^.^.^.^.^.^.^.^.^.^.^.^.^.^.^.^.^.^.^.^.^.^.^.^.^.^.^.^.^.^.^.^.^.^.^.^.^.^.^.^.^.^.^.^.^.^.^.^.^.^.^.^.^.^.^.^.^.^.^.^.^.^.^.^.^.^.^.^.^.^.^.^.^.^.^.^.^.^.^.^.^.^.^.^.^.^.^.",
"^.^.^.^.^.^.^.^.^.^.^.^.^.^.^.^.^.^.^.^.^.^.^.^.^.^.^.^.^.^.^.^.^.^.^.^.^.^.^.^.^.^.^.^.^.^.^.^.^.^.^.^.^.^.^.^.^.^.^.^.^.^.^.^.^.^.^.^.^.^.^.^.^.^.^.^.^.^.^.^.^.^.^.^.^.^.^.^.^.^.^.^.^.^.^.^.^.^.^.^.^.^.^.^.^.^.. o $ % % * * * * > 1 1 6 8 0 e u p p p f f k z v b m B B B Z D D D D H K P E E E E E E E E Q W Q Q Q Q Q Q ^ ( ) ) ' ' ' } }  . . . .O.O.O.O.#.#.#.#.#.#.=.=.=.=.=.=.=.=.;.;.:.:.,.,.,.,.,.,.,.,.1.1.1.1.4.4.4.4.8.8.q.q.q.q.e.q.e.e.e.e.t.t.i.i.i.i.i.a.s.s.s.h.h.h.k.k.z.z.z.v.v.v.n.n.n.n.m.m.m.m.m.m.m.m.m.m.m.m.m.m.m.m.m.m.m.N.N.m.m.m.m.m.m.m.n.n.n.n.v.v.z.z.z.z.z.z.k.z.k.z.k.z.k.k.k.k.k.k.k.k.k.k.k.k.k.k.k.h.h.h.h.h.s.h.h.s.h.s.s.s.s.s.s.i.i.i.i.t.t.e.e.q.e.q.e.q.q.q.8.q.8.8.8.8.8.8.8.8.4.4.4.4.4.1.1.1.1.1.,.,.,.,.,.,.,.,.,.:.,.:.:.:.:.:.:.:.,.,.,.,.1.1.1.1.1.1.1.1.1.1.,.,.,.,.,.,.1.1.1.1.1.1.1.1.1.4.4.8.8.8.8.8.q.q.q.e.e.q.e.e.e.e.q.q.e.e.e.e.e.q.q.q.8.q.8.8.8.4.4.1.1.,.,.:.:.;.;.=.=.=.#.#.#.#.O.O.O. . . .} } ' ' ' ' ) ( ^ Q Q E E E U K D D B m b x z z k f f p u t e e 0 6 4 1 > > * % % # o o ^.^.^.^.^.^.^.^.^.^.^.^.^.^.^.^.^.^.^.^.^.^.^.^.^.^.^.^.^.^.^.^.^.^.^.^.^.^.^.^.^.^.^.^.^.^.^.^.^.^.^.^.^.^.^.^.^.^.^.^.^.^.^.^.^.^.^.^.^.^.^.^.^.^.^.^.^.^.^.^.^.^.^.^.^.^.^.^.^.^.^.^.^.^.^.^.^.^.^.^.^.^.^.^.^.^.^.^.^.^.^.^.^.^.^.^.^.^.^.^.^.^.^.^.^.^.^.",
"^.^.^.^.^.^.^.^.^.^.^.^.^.^.^.^.^.^.^.^.^.^.^.^.^.^.^.^.^.^.^.^.^.^.^.^.^.^.^.^.^.^.^.^.^.^.^.^.^.^.^.^.^.^.^.^.^.^.^.^.^.^.^.^.^.^.^.^.^.^.^.^.^.^.^.^.^.^.^.^.^.^.^.^.^.^.^.^.^.^.^.^.^.^.^.^.^.^.^.^.^.^.^.^.^.o # % * > > > > > 1 4 4 4 6 7 q t u p f f f f k x b m B D D D D H H H K K L E E E E E E Q W Q Q Q Q Q ^ ^ ^ ( ( ) ' ' ' ' }  . . . .O.O.O.#.#.#.#.#.=.=.=.=.=.=.=.;.;.;.;.:.:.,.,.,.,.,.,.1.1.,.,.,.,.1.1.1.4.4.8.8.8.q.q.q.q.e.e.e.e.e.t.t.t.t.i.i.i.i.i.a.s.s.s.h.h.h.k.z.z.z.v.v.n.v.n.n.n.m.m.m.m.m.m.m.N.m.m.m.m.m.N.N.N.N.m.m.m.m.m.m.m.m.m.m.m.n.m.n.n.v.v.z.v.z.z.z.z.z.z.z.z.z.z.k.z.k.k.k.z.k.k.k.z.z.k.k.k.k.k.h.h.h.h.h.h.s.s.h.s.s.s.s.s.s.s.i.i.i.t.t.e.e.e.e.e.q.e.q.e.q.q.q.q.q.8.q.8.8.8.8.8.4.8.8.4.4.4.1.1.1.1.1.,.,.,.,.,.,.,.,.,.,.,.,.,.:.,.,.,.1.1.1.1.1.1.1.1.1.1.1.1.1.1.1.,.,.,.1.1.1.1.1.4.1.1.4.4.4.8.8.8.8.8.q.8.q.q.q.e.q.e.e.e.q.e.e.q.e.e.e.e.e.e.8.q.8.8.8.8.4.4.4.1.1.,.,.:.:.;.=.=.=.#.#.#.O.O.O. . . .} } } ' ' ' ) ( ( ^ Q Q Q E E E K H D B m b x z z k f f p u u e q 0 4 4 1 > * % % # @ o . ^.^.^.^.^.^.^.^.^.^.^.^.^.^.^.^.^.^.^.^.^.^.^.^.^.^.^.^.^.^.^.^.^.^.^.^.^.^.^.^.^.^.^.^.^.^.^.^.^.^.^.^.^.^.^.^.^.^.^.^.^.^.^.^.^.^.^.^.^.^.^.^.^.^.^.^.^.^.^.^.^.^.^.^.^.^.^.^.^.^.^.^.^.^.^.^.^.^.^.^.^.^.^.^.^.^.^.^.^.^.^.^.^.^.^.^.^.^.^.^.^.^.^.^.^.^.^.",
"^.^.^.^.^.^.^.^.^.^.^.^.^.^.^.^.^.^.^.^.^.^.^.^.^.^.^.^.^.^.^.^.^.^.^.^.^.^.^.^.^.^.^.^.^.^.^.^.^.^.^.^.^.^.^.^.^.^.^.^.^.^.^.^.^.^.^.^.^.^.^.^.^.^.^.^.^.^.^.^.^.^.^.^.^.^.^.^.^.^.^.^.^.^.^.^.^.^.^.^.^.^.^.^.o # * > 1 4 4 1 > 1 4 6 8 7 0 q e u u p p f f k z v b B D H H H K P P P U U U E E E E Q W Q Q Q Q ^ ^ ^ ^ ( ( ) ' ' ' } } }  . .O.O.O.O.O.#.=.=.=.=.=.=.=.;.;.=.=.;.:.:.:.:.:.,.1.1.1.1.1.1.1.1.1.1.1.1.1.1.4.4.4.4.8.q.q.e.e.e.e.e.e.e.e.t.t.t.i.i.i.a.a.a.s.s.s.h.h.h.k.k.k.z.z.n.v.n.n.n.m.m.m.m.N.N.m.m.N.N.m.m.m.N.N.m.N.N.N.m.m.m.m.m.m.m.m.m.m.m.m.n.n.n.n.v.v.v.z.v.z.z.z.z.z.z.z.z.z.z.z.z.z.z.k.z.z.z.z.z.z.z.k.k.k.k.k.h.h.h.s.h.s.h.h.s.s.s.s.s.i.t.i.t.t.t.e.e.e.e.e.e.e.e.e.e.e.e.q.8.q.q.8.q.8.q.8.8.8.8.4.4.4.4.1.1.1.1.1.1.1.1.1.1.1.1.1.1.,.,.,.,.,.,.1.1.1.4.4.4.4.1.1.1.1.1.1.1.1.1.1.1.1.1.1.1.4.4.4.4.4.4.4.8.8.8.8.8.8.8.q.q.e.q.e.e.e.e.e.e.e.e.e.e.e.e.e.e.q.8.8.8.8.4.4.4.4.1.1.,.,.:.:.;.;.=.=.#.#.#.#.O.O. . . .} } } ' ' ' ) ( ( ^ Q Q E E E E L H D B m b x z k k f f p u u e q 0 4 4 > > * % # @ o o ^.^.^.^.^.^.^.^.^.^.^.^.^.^.^.^.^.^.^.^.^.^.^.^.^.^.^.^.^.^.^.^.^.^.^.^.^.^.^.^.^.^.^.^.^.^.^.^.^.^.^.^.^.^.^.^.^.^.^.^.^.^.^.^.^.^.^.^.^.^.^.^.^.^.^.^.^.^.^.^.^.^.^.^.^.^.^.^.^.^.^.^.^.^.^.^.^.^.^.^.^.^.^.^.^.^.^.^.^.^.^.^.^.^.^.^.^.^.^.^.^.^.^.^.^.^.^.^.",
"^.^.^.^.^.^.^.^.^.^.^.^.^.^.^.^.^.^.^.^.^.^.^.^.^.^.^.^.^.^.^.^.^.^.^.^.^.^.^.^.^.^.^.^.^.^.^.^.^.^.^.^.^.^.^.^.^.^.^.^.^.^.^.^.^.^.^.^.^.^.^.^.^.^.^.^.^.^.^.^.^.^.^.^.^.^.^.^.^.^.^.^.^.^.^.^.^.^.^.^.^.^.^.o $ % * 1 6 6 6 4 4 8 0 e q 0 q t u u p p p f k k v b m D D K P U E E E E E E E E E E E W Q Q Q Q ^ ^ ^ ( ( ) ) ' ' ' ' } }  . . .O.O.#.#.#.=.=.=.=.;.=.;.:.:.:.:.:.:.,.,.,.,.1.1.1.1.1.1.1.4.1.1.1.1.1.1.1.1.4.4.4.8.q.q.e.e.e.t.t.e.e.e.t.t.t.t.i.s.s.s.s.s.s.s.s.s.h.k.k.k.z.z.n.v.v.n.n.m.m.m.m.m.N.N.N.N.N.m.N.N.N.N.N.m.m.m.m.m.m.m.m.m.m.N.m.m.n.m.n.n.n.n.v.v.v.v.v.v.v.z.z.z.v.v.z.z.z.z.z.z.z.z.z.z.z.z.z.z.z.z.k.k.k.k.k.h.h.h.h.s.h.s.h.s.s.s.i.i.i.i.t.t.t.t.e.e.e.e.e.e.e.e.e.e.e.e.e.e.q.q.e.e.q.q.q.q.8.8.8.4.4.4.4.1.4.1.1.1.1.1.1.1.1.1.1.1.1.1.,.,.1.1.1.1.4.4.4.4.4.4.4.1.1.1.1.1.1.1.1.1.1.1.4.4.4.4.4.4.4.4.8.8.8.8.8.8.8.8.q.8.q.q.q.e.e.q.e.e.e.e.e.e.e.e.e.e.e.q.8.8.4.4.4.4.1.1.1.1.,.:.:.;.;.=.=.#.#.#.#.O.O. . . . .} } ' ' ' ) ) ^ ^ Q Q W E E E P H D m m b x z z f f p p u u e q 7 4 1 > * % $ + o o . ^.^.^.^.^.^.^.^.^.^.^.^.^.^.^.^.^.^.^.^.^.^.^.^.^.^.^.^.^.^.^.^.^.^.^.^.^.^.^.^.^.^.^.^.^.^.^.^.^.^.^.^.^.^.^.^.^.^.^.^.^.^.^.^.^.^.^.^.^.^.^.^.^.^.^.^.^.^.^.^.^.^.^.^.^.^.^.^.^.^.^.^.^.^.^.^.^.^.^.^.^.^.^.^.^.^.^.^.^.^.^.^.^.^.^.^.^.^.^.^.^.^.^.^.^.^.^.^.",
"^.^.^.^.^.^.^.^.^.^.^.^.^.^.^.^.^.^.^.^.^.^.^.^.^.^.^.^.^.^.^.^.^.^.^.^.^.^.^.^.^.^.^.^.^.^.^.^.^.^.^.^.^.^.^.^.^.^.^.^.^.^.^.^.^.^.^.^.^.^.^.^.^.^.^.^.^.^.^.^.^.^.^.^.^.^.^.^.^.^.^.^.^.^.^.^.^.^.^.^.^.^.^.@ % * > 4 8 8 0 0 0 e t e e t t u p f f f f f k z b m B D H L E E E E E E E E E E E Q Q Q Q ^ ^ ( ( ( ( ( ) ' ' ' ' } }  . . .O.O.O.#.#.=.=.=.=.;.;.:.:.:.:.,.,.,.,.,.,.1.1.1.1.1.1.1.4.4.4.4.4.4.4.1.1.1.4.4.4.4.8.q.q.e.e.e.e.t.t.t.t.e.t.t.t.i.a.s.s.s.s.s.s.s.s.s.h.k.k.k.k.z.n.n.v.n.m.m.m.N.m.N.N.N.N.N.N.N.N.m.N.N.N.N.m.m.m.m.m.m.m.N.N.m.m.m.m.m.n.n.n.v.n.n.v.v.n.v.v.v.v.v.v.v.v.z.v.z.z.z.z.z.z.z.z.z.z.z.z.z.z.k.k.k.k.h.h.h.h.h.s.s.s.s.s.s.a.i.i.i.t.t.t.t.t.e.t.e.e.e.e.e.e.e.e.e.e.e.e.e.e.e.e.e.q.q.e.8.q.8.8.4.4.4.4.4.4.1.1.1.1.1.1.1.1.1.1.1.1.1.1.1.4.4.4.4.4.8.4.4.4.4.1.4.1.1.1.1.4.4.4.4.4.4.4.4.4.4.4.4.4.4.8.8.8.8.8.8.q.q.8.q.q.q.e.e.e.e.e.e.e.e.e.e.e.e.q.q.8.8.4.4.4.4.4.1.1.1.,.:.:.;.=.=.=.#.#.#.O.O.O. . . .} } ' ' ' ) ( ( ^ Q Q Q Q E E E U H D B m b x z z f f p p u u e 0 8 4 1 > * % $ + o . ^.^.^.^.^.^.^.^.^.^.^.^.^.^.^.^.^.^.^.^.^.^.^.^.^.^.^.^.^.^.^.^.^.^.^.^.^.^.^.^.^.^.^.^.^.^.^.^.^.^.^.^.^.^.^.^.^.^.^.^.^.^.^.^.^.^.^.^.^.^.^.^.^.^.^.^.^.^.^.^.^.^.^.^.^.^.^.^.^.^.^.^.^.^.^.^.^.^.^.^.^.^.^.^.^.^.^.^.^.^.^.^.^.^.^.^.^.^.^.^.^.^.^.^.^.^.^.^.^.",
"^.^.^.^.^.^.^.^.^.^.^.^.^.^.^.^.^.^.^.^.^.^.^.^.^.^.^.^.^.^.^.^.^.^.^.^.^.^.^.^.^.^.^.^.^.^.^.^.^.^.^.^.^.^.^.^.^.^.^.^.^.^.^.^.^.^.^.^.^.^.^.^.^.^.^.^.^.^.^.^.^.^.^.^.^.^.^.^.^.^.^.^.^.^.^.^.^.^.^.^.^.^.. + % > 1 4 4 0 0 e u u u u p p p p f k k k k k k v m B D D H L E E E E E E E E E E Q Q Q ^ ( ( ( ( ) ) ) ' ' ' ' } }  .}  . .O.O.O.O.#.#.=.;.;.;.:.,.,.,.,.,.,.1.1.1.1.1.1.1.1.4.4.4.4.4.4.8.4.8.4.4.4.4.4.4.4.4.4.8.q.e.e.t.t.t.t.i.t.t.t.t.t.i.i.s.s.s.s.s.s.s.s.s.h.h.k.k.z.k.z.z.z.v.n.m.m.N.N.N.N.N.N.N.N.N.N.N.N.N.N.N.N.m.m.m.m.m.m.m.m.m.m.m.m.m.m.m.n.v.n.n.v.n.n.n.n.n.v.n.v.n.n.n.z.v.z.v.z.v.z.z.v.v.v.z.z.z.z.z.k.k.k.k.k.h.h.h.h.s.s.s.s.s.s.a.i.i.t.t.t.t.t.t.e.t.e.e.e.e.e.e.e.e.e.e.t.e.t.t.t.e.t.t.e.e.q.q.q.q.8.8.8.4.4.4.4.4.1.1.1.1.4.4.1.1.1.1.1.4.1.4.4.4.4.8.8.4.8.4.4.4.1.1.4.1.4.4.4.4.4.4.4.4.4.4.4.4.4.4.8.8.8.8.8.q.q.8.q.q.q.q.e.q.e.e.e.e.e.e.e.e.e.e.e.q.q.8.8.8.8.4.4.4.1.1.,.,.,.:.;.=.=.=.#.#.#.#.O.O. . . .} } ' ' ) ) ( ( ^ Q Q W E E E E U H D B m b x z k f f p u u t e 7 6 4 1 > * % $ + o . ^.^.^.^.^.^.^.^.^.^.^.^.^.^.^.^.^.^.^.^.^.^.^.^.^.^.^.^.^.^.^.^.^.^.^.^.^.^.^.^.^.^.^.^.^.^.^.^.^.^.^.^.^.^.^.^.^.^.^.^.^.^.^.^.^.^.^.^.^.^.^.^.^.^.^.^.^.^.^.^.^.^.^.^.^.^.^.^.^.^.^.^.^.^.^.^.^.^.^.^.^.^.^.^.^.^.^.^.^.^.^.^.^.^.^.^.^.^.^.^.^.^.^.^.^.^.^.^.^.",
"^.^.^.^.^.^.^.^.^.^.^.^.^.^.^.^.^.^.^.^.^.^.^.^.^.^.^.^.^.^.^.^.^.^.^.^.^.^.^.^.^.^.^.^.^.^.^.^.^.^.^.^.^.^.^.^.^.^.^.^.^.^.^.^.^.^.^.^.^.^.^.^.^.^.^.^.^.^.^.^.^.^.^.^.^.^.^.^.^.^.^.^.^.^.^.^.^.^.^.^.^.^.o $ * > 1 4 8 q e u u p p p f f f f k z v z z v v b B D H H K U E E E E E E E E Q W Q Q ^ ( ( ) ) ) ) ' ' ' ' } } } }  . . . .O.O.#.#.#.=.;.;.:.:.,.,.,.1.1.1.1.1.1.1.4.4.4.4.4.4.4.4.4.8.8.8.8.8.8.8.8.4.4.4.4.8.8.q.e.t.t.t.t.t.t.t.i.i.i.i.i.i.s.s.s.s.s.s.s.s.s.h.h.h.k.k.k.z.z.z.v.n.n.m.m.N.N.N.N.N.N.N.N.N.N.N.N.m.N.N.m.N.m.m.m.N.m.m.m.m.m.m.m.m.m.n.n.v.v.n.n.n.n.n.n.n.n.n.n.n.n.n.n.v.n.v.v.v.z.v.z.v.v.v.z.z.z.z.k.z.k.k.k.k.h.h.h.h.s.s.s.s.i.i.i.t.t.t.t.t.t.e.t.e.t.t.t.e.e.e.t.e.e.t.e.t.t.t.t.t.t.t.e.t.e.e.e.q.q.q.8.8.8.8.4.4.4.4.4.4.4.4.4.4.4.4.4.4.4.4.4.8.8.8.8.4.8.4.4.4.4.4.4.4.4.4.4.4.4.4.4.4.4.4.4.4.4.4.4.8.8.8.q.8.q.q.8.q.q.q.q.q.e.e.q.e.e.e.q.e.e.e.q.q.8.8.8.8.4.4.4.1.1.1.1.,.,.:.;.=.=.=.#.#.#.O.O.O. . . . .} ' ' ' ) ( ^ ^ Q Q Q E E E E L H Z B b b x z k f f p u u e q 0 4 4 > > * % $ + o . ^.^.^.^.^.^.^.^.^.^.^.^.^.^.^.^.^.^.^.^.^.^.^.^.^.^.^.^.^.^.^.^.^.^.^.^.^.^.^.^.^.^.^.^.^.^.^.^.^.^.^.^.^.^.^.^.^.^.^.^.^.^.^.^.^.^.^.^.^.^.^.^.^.^.^.^.^.^.^.^.^.^.^.^.^.^.^.^.^.^.^.^.^.^.^.^.^.^.^.^.^.^.^.^.^.^.^.^.^.^.^.^.^.^.^.^.^.^.^.^.^.^.^.^.^.^.^.^.^.",
"^.^.^.^.^.^.^.^.^.^.^.^.^.^.^.^.^.^.^.^.^.^.^.^.^.^.^.^.^.^.^.^.^.^.^.^.^.^.^.^.^.^.^.^.^.^.^.^.^.^.^.^.^.^.^.^.^.^.^.^.^.^.^.^.^.^.^.^.^.^.^.^.^.^.^.^.^.^.^.^.^.^.^.^.^.^.^.^.^.^.^.^.^.^.^.^.^.^.^.^.o o @ $ * 1 4 7 q t u p p p p p f f f k z z x b b b m B D H U U U E E E E W W E W Q Q Q Q Q ^ ( ) ' ' ' ' ' ' } }  . . . . . . .O.O.#.#.#.=.;.:.:.:.,.,.1.1.1.1.1.4.4.4.4.4.8.8.4.4.4.8.q.8.q.q.q.q.8.q.8.8.8.8.8.8.8.e.e.e.t.t.t.i.i.i.i.i.i.s.a.i.s.s.s.s.h.s.h.s.s.h.h.h.h.k.k.z.z.z.z.v.v.n.m.m.N.N.N.N.N.V.N.N.N.N.N.N.N.N.N.N.N.N.N.N.m.N.m.m.m.m.m.m.m.m.n.n.n.n.n.n.n.n.n.n.n.n.m.m.m.n.n.n.m.n.n.n.v.v.v.v.n.v.v.v.z.z.z.z.z.k.k.k.k.k.h.h.h.h.s.s.s.i.i.t.i.t.i.t.t.t.t.e.t.e.e.e.t.e.t.e.t.t.t.t.t.t.t.t.t.t.t.t.t.t.e.e.e.e.e.q.q.8.8.4.8.8.4.4.4.4.4.4.4.4.4.4.4.4.4.4.4.8.8.4.8.8.8.4.4.4.4.4.4.4.4.4.4.4.4.4.4.4.4.4.4.4.8.8.8.8.8.8.8.q.8.q.q.q.q.e.e.q.e.e.q.e.e.q.q.e.q.q.q.8.8.8.4.4.4.1.1.1.1.1.1.:.:.:.;.=.=.#.#.#.#.O.O.O. . .} } ' ' ' ( ( ^ Q Q W E E E E P K D B m b x v z k f p p u e q 0 8 4 1 > > * % $ @ o . ^.^.^.^.^.^.^.^.^.^.^.^.^.^.^.^.^.^.^.^.^.^.^.^.^.^.^.^.^.^.^.^.^.^.^.^.^.^.^.^.^.^.^.^.^.^.^.^.^.^.^.^.^.^.^.^.^.^.^.^.^.^.^.^.^.^.^.^.^.^.^.^.^.^.^.^.^.^.^.^.^.^.^.^.^.^.^.^.^.^.^.^.^.^.^.^.^.^.^.^.^.^.^.^.^.^.^.^.^.^.^.^.^.^.^.^.^.^.^.^.^.^.^.^.^.^.^.^.^.",
"^.^.^.^.^.^.^.^.^.^.^.^.^.^.^.^.^.^.^.^.^.^.^.^.^.^.^.^.^.^.^.^.^.^.^.^.^.^.^.^.^.^.^.^.^.^.^.^.^.^.^.^.^.^.^.^.^.^.^.^.^.^.^.^.^.^.^.^.^.^.^.^.^.^.^.^.^.^.^.^.^.^.^.^.^.^.^.^.^.^.^.^.^.^.^.^.^.^.^.o @ @ $ % * 1 4 q t u p f f p f f f k k z z x b m m B Z D H P E E E E E E W Q Q Q Q Q Q ^ ^ ^ ) ) ' ' ' ' } } }  . . . . . . . .O.#.#.#.=.=.;.;.:.,.,.1.1.1.1.4.4.4.4.4.4.8.8.8.8.8.8.8.q.q.q.e.q.q.q.e.e.e.q.q.q.8.8.q.e.t.t.t.i.t.i.i.a.i.a.i.s.s.s.s.s.h.h.h.h.h.h.h.h.h.k.k.k.k.k.z.z.v.v.n.m.m.m.N.N.N.N.V.N.N.N.N.N.N.N.N.N.N.N.N.N.m.N.N.N.m.m.N.m.m.m.m.m.n.m.n.n.n.n.m.n.m.m.m.m.m.m.m.m.m.m.n.m.n.n.n.n.n.n.n.n.n.v.v.z.z.z.z.k.z.k.k.k.h.h.h.h.h.s.s.i.i.i.t.t.i.t.t.t.e.t.e.t.t.e.t.e.t.t.t.t.t.t.t.t.i.i.i.t.t.t.t.t.t.t.e.t.e.e.e.e.q.8.q.8.8.8.8.8.8.4.4.4.4.8.8.8.8.4.8.8.8.8.8.8.8.4.4.4.4.4.4.4.4.4.4.4.4.4.4.4.4.4.4.8.8.8.8.8.8.8.8.8.q.8.q.8.q.q.q.q.q.e.q.q.q.q.q.q.q.8.8.8.8.4.8.4.4.1.1.1.1.1.,.:.:.:.;.=.=.=.#.#.#.O.O. . . .} } ' ' ' ) ( ^ ^ Q Q E E E U K H Z m b b x z k k f p u t e q 7 6 4 1 > > * % # @ o ^.^.^.^.^.^.^.^.^.^.^.^.^.^.^.^.^.^.^.^.^.^.^.^.^.^.^.^.^.^.^.^.^.^.^.^.^.^.^.^.^.^.^.^.^.^.^.^.^.^.^.^.^.^.^.^.^.^.^.^.^.^.^.^.^.^.^.^.^.^.^.^.^.^.^.^.^.^.^.^.^.^.^.^.^.^.^.^.^.^.^.^.^.^.^.^.^.^.^.^.^.^.^.^.^.^.^.^.^.^.^.^.^.^.^.^.^.^.^.^.^.^.^.^.^.^.^.^.^.^.",
"^.^.^.^.^.^.^.^.^.^.^.^.^.^.^.^.^.^.^.^.^.^.^.^.^.^.^.^.^.^.^.^.^.^.^.^.^.^.^.^.^.^.^.^.^.^.^.^.^.^.^.^.^.^.^.^.^.^.^.^.^.^.^.^.^.^.^.^.^.^.^.^.^.^.^.^.^.^.^.^.^.^.^.^.^.^.^.^.^.^.^.^.^.^.^.^.^.^.o o # # % * * 1 4 q u p f f f k k z z k z z v v b m B D D K U E E E E E E Q Q Q Q Q Q Q ^ ^ ( ) ) ' ' ' } } }  . . . .O. . .O. .O.O.#.#.=.=.;.:.:.,.1.1.1.4.4.4.4.4.8.8.8.8.8.q.8.q.e.e.q.e.e.e.t.e.e.e.e.t.t.e.q.q.e.e.t.t.t.t.t.t.i.i.a.s.s.s.s.s.s.s.s.h.h.h.h.h.h.h.h.h.k.k.k.k.k.z.z.z.v.v.n.m.m.N.N.N.N.V.V.V.V.N.N.N.N.N.N.N.N.N.N.N.N.N.N.N.N.N.m.m.m.m.m.m.m.n.m.n.n.m.n.m.m.m.m.m.m.m.m.m.m.n.n.m.m.m.n.n.n.n.n.m.n.n.v.z.z.z.z.z.z.z.k.k.k.h.h.s.s.s.s.a.i.i.t.t.t.t.t.t.t.e.t.e.t.e.t.t.t.t.t.t.i.i.i.i.i.i.i.i.i.i.i.t.t.t.t.t.e.t.e.e.e.q.q.8.q.8.8.8.8.8.8.8.4.8.4.8.8.8.8.8.q.8.8.q.8.4.4.4.4.4.4.4.4.4.8.4.4.4.4.4.4.4.8.8.8.8.8.8.8.8.8.8.8.8.8.q.8.q.q.q.q.q.q.q.8.8.q.8.8.8.8.8.4.4.4.4.4.4.1.1.1.1.,.,.:.:.;.=.=.=.#.#.#.O.O. . . .} ' ' ' ) ) ( ^ Q Q W E E E L H D B m b x v k k f f p u e q 0 8 4 4 1 > * * % # @ o ^.^.^.^.^.^.^.^.^.^.^.^.^.^.^.^.^.^.^.^.^.^.^.^.^.^.^.^.^.^.^.^.^.^.^.^.^.^.^.^.^.^.^.^.^.^.^.^.^.^.^.^.^.^.^.^.^.^.^.^.^.^.^.^.^.^.^.^.^.^.^.^.^.^.^.^.^.^.^.^.^.^.^.^.^.^.^.^.^.^.^.^.^.^.^.^.^.^.^.^.^.^.^.^.^.^.^.^.^.^.^.^.^.^.^.^.^.^.^.^.^.^.^.^.^.^.^.^.^.^.",
"^.^.^.^.^.^.^.^.^.^.^.^.^.^.^.^.^.^.^.^.^.^.^.^.^.^.^.^.^.^.^.^.^.^.^.^.^.^.^.^.^.^.^.^.^.^.^.^.^.^.^.^.^.^.^.^.^.^.^.^.^.^.^.^.^.^.^.^.^.^.^.^.^.^.^.^.^.^.^.^.^.^.^.^.^.^.^.^.^.^.^.^.^.^.^.^.^.. o o + # * > 1 4 8 e u p f f f k k x v v v x b b m B D H L E E E E Q W W Q Q Q Q Q ^ ^ ^ ( ( ( ) ' ' ' } }  . . . . . .O.O.O.O.O.O.#.#.=.=.;.:.:.,.1.1.1.4.4.4.4.8.8.8.8.q.q.q.e.e.e.e.t.t.t.t.t.t.t.t.t.t.t.t.t.t.e.e.t.t.t.t.i.i.i.i.s.s.s.s.s.s.s.h.h.h.h.h.k.k.k.h.k.k.k.k.k.k.z.k.z.z.z.n.n.n.m.m.N.N.N.N.V.V.V.V.V.V.N.V.N.V.N.N.N.N.N.N.N.N.N.N.N.N.N.m.m.m.m.m.m.m.n.m.m.m.m.m.m.m.m.m.m.m.m.m.m.m.m.m.m.m.m.n.m.m.m.n.n.n.v.v.z.z.z.z.k.k.k.h.h.h.h.s.s.s.i.i.i.t.t.t.t.t.e.t.e.t.t.t.t.t.t.t.t.t.t.i.i.i.i.a.i.s.i.i.i.i.i.t.i.i.t.t.e.t.e.e.e.q.q.q.q.q.q.q.q.8.8.8.8.8.8.8.8.q.q.8.q.q.8.8.8.4.4.4.4.4.4.8.8.4.4.4.4.4.4.4.4.8.8.8.8.8.8.8.8.8.8.8.8.8.8.8.8.8.8.8.8.8.8.8.8.8.8.8.8.8.8.4.4.4.4.4.4.1.1.1.1.,.,.:.:.;.=.=.=.#.#.#.O.O.O. . .} } ' ' ) ) ( ^ ^ Q E E E P K H Z m b v v z k f f p u u e q 0 6 4 1 > * * % $ + o . ^.^.^.^.^.^.^.^.^.^.^.^.^.^.^.^.^.^.^.^.^.^.^.^.^.^.^.^.^.^.^.^.^.^.^.^.^.^.^.^.^.^.^.^.^.^.^.^.^.^.^.^.^.^.^.^.^.^.^.^.^.^.^.^.^.^.^.^.^.^.^.^.^.^.^.^.^.^.^.^.^.^.^.^.^.^.^.^.^.^.^.^.^.^.^.^.^.^.^.^.^.^.^.^.^.^.^.^.^.^.^.^.^.^.^.^.^.^.^.^.^.^.^.^.^.^.^.^.^.^.",
"^.^.^.^.^.^.^.^.^.^.^.^.^.^.^.^.^.^.^.^.^.^.^.^.^.^.^.^.^.^.^.^.^.^.^.^.^.^.^.^.^.^.^.^.^.^.^.^.^.^.^.^.^.^.^.^.^.^.^.^.^.^.^.^.^.^.^.^.^.^.^.^.^.^.^.^.^.^.^.^.^.^.^.^.^.^.^.^.^.^.^.^.^.^.^.^.^.. @ @ $ % > 1 4 4 0 e p p k k z z x b b b m m m B D D K U E E W W Q Q Q Q Q Q ^ ^ ^ ^ ^ ) ) ) ) ' ' ' } }  . . .O. .O.O.O.O.O.O.#.O.#.=.=.;.:.:.,.1.1.4.4.4.4.8.8.8.q.q.e.e.e.e.t.t.t.t.t.t.t.t.i.i.t.i.t.t.t.t.t.t.t.t.t.t.t.i.i.i.a.a.s.s.s.s.h.h.h.h.h.k.k.k.k.k.k.k.k.k.k.k.k.z.k.z.z.z.v.v.n.n.m.m.N.N.N.V.V.C.V.V.V.V.N.V.V.N.V.V.V.V.N.V.N.V.N.N.N.N.m.N.m.m.m.m.m.m.m.m.m.m.N.N.N.N.m.m.N.N.m.m.m.m.m.m.m.m.m.m.m.m.m.m.n.n.n.v.z.z.z.z.z.k.k.k.k.h.h.s.s.s.a.i.i.i.t.t.t.t.t.t.t.e.t.t.t.t.t.t.t.t.i.i.s.s.s.s.s.s.i.s.a.a.i.i.i.i.t.t.t.t.t.e.e.e.e.e.e.e.e.e.q.q.q.8.q.8.8.8.q.q.q.q.q.q.8.8.8.8.4.4.4.4.4.4.4.4.4.4.4.4.4.4.4.4.8.8.8.8.8.8.8.8.8.8.8.8.8.8.8.8.8.8.8.8.8.8.8.8.8.8.8.8.8.8.8.4.4.4.4.1.1.1.1.1.,.:.:.:.;.=.=.#.#.#.O.O. . . .} } ' ' ) ) ( ^ Q Q W E E L H D B m b x z z f f p p u t e 0 8 4 1 1 > * * % # @ o . ^.^.^.^.^.^.^.^.^.^.^.^.^.^.^.^.^.^.^.^.^.^.^.^.^.^.^.^.^.^.^.^.^.^.^.^.^.^.^.^.^.^.^.^.^.^.^.^.^.^.^.^.^.^.^.^.^.^.^.^.^.^.^.^.^.^.^.^.^.^.^.^.^.^.^.^.^.^.^.^.^.^.^.^.^.^.^.^.^.^.^.^.^.^.^.^.^.^.^.^.^.^.^.^.^.^.^.^.^.^.^.^.^.^.^.^.^.^.^.^.^.^.^.^.^.^.^.^.^.^.",
"^.^.^.^.^.^.^.^.^.^.^.^.^.^.^.^.^.^.^.^.^.^.^.^.^.^.^.^.^.^.^.^.^.^.^.^.^.^.^.^.^.^.^.^.^.^.^.^.^.^.^.^.^.^.^.^.^.^.^.^.^.^.^.^.^.^.^.^.^.^.^.^.^.^.^.^.^.^.^.^.^.^.^.^.^.^.^.^.^.^.^.^.^.^.^.^.^.o o $ % * > 4 8 0 q u f k z z x b m m B B Z D D H K P E E E Q Q Q ^ ^ ^ ^ ^ ^ ^ ( ) ) ) ' ' ' ' ' ' } }  . . .O.O.O.O.O.#.#.#.=.#.#.=.=.;.:.:.,.1.1.4.4.4.4.8.q.q.e.e.e.t.t.t.t.t.t.i.i.i.i.i.a.a.i.i.i.i.i.i.i.i.i.t.i.i.i.i.i.i.i.a.s.s.h.h.h.h.h.h.h.k.k.k.k.k.k.k.k.k.k.k.k.z.k.z.z.z.z.v.n.n.m.m.m.N.N.N.V.V.V.V.C.V.V.V.V.C.V.V.C.V.V.V.V.V.N.N.N.N.N.N.N.N.N.m.m.m.m.m.m.m.N.N.N.N.N.N.N.N.N.N.N.N.N.N.N.N.m.m.m.m.m.m.m.m.n.n.v.v.z.z.z.z.k.k.k.k.h.h.s.s.s.a.i.i.i.t.t.t.t.t.e.e.t.e.t.t.t.t.t.t.i.i.i.i.s.s.s.s.s.s.s.s.s.a.s.i.i.i.i.t.t.t.t.e.t.e.e.e.t.e.e.e.e.q.q.q.q.q.q.8.q.q.q.q.8.8.8.8.4.4.4.4.4.4.4.4.4.4.4.4.4.4.4.4.4.4.8.8.8.8.8.8.8.8.8.8.8.8.4.4.8.8.8.8.8.8.8.8.8.8.8.8.8.8.4.4.4.4.4.4.1.1.1.1.1.,.,.:.:.;.=.=.=.#.#.O.O.O. . .} ' ' ' ) ) ( ^ Q Q E E E K D Z B m v v z k f p p u u e e 0 8 4 1 1 > * % $ + o o ^.^.^.^.^.^.^.^.^.^.^.^.^.^.^.^.^.^.^.^.^.^.^.^.^.^.^.^.^.^.^.^.^.^.^.^.^.^.^.^.^.^.^.^.^.^.^.^.^.^.^.^.^.^.^.^.^.^.^.^.^.^.^.^.^.^.^.^.^.^.^.^.^.^.^.^.^.^.^.^.^.^.^.^.^.^.^.^.^.^.^.^.^.^.^.^.^.^.^.^.^.^.^.^.^.^.^.^.^.^.^.^.^.^.^.^.^.^.^.^.^.^.^.^.^.^.^.^.^.^.^.",
"^.^.^.^.^.^.^.^.^.^.^.^.^.^.^.^.^.^.^.^.^.^.^.^.^.^.^.^.^.^.^.^.^.^.^.^.^.^.^.^.^.^.^.^.^.^.^.^.^.^.^.^.^.^.^.^.^.^.^.^.^.^.^.^.^.^.^.^.^.^.^.^.^.^.^.^.^.^.^.^.^.^.^.^.^.^.^.^.^.^.^.^.^.^.^.^.. o + $ % > 4 6 0 e t p f k x x b m B B D D H U U E E E E Q Q Q ^ ( ( ( ( ( ) ) ) ) ' ' ' ' ' ' } } }  . . . .O.O.#.#.#.#.#.#.#.=.=.=.=.;.:.,.,.1.1.4.4.4.8.8.q.e.e.t.t.t.t.t.t.i.i.i.a.s.s.a.s.s.s.s.s.s.s.s.s.s.a.i.a.i.i.i.i.a.a.s.s.s.h.h.h.h.h.k.k.k.k.k.z.z.z.k.k.z.k.k.k.z.k.k.z.z.v.v.v.n.n.n.m.m.N.N.V.V.V.V.V.V.V.C.V.C.C.V.C.V.V.C.V.V.N.V.V.N.V.N.N.N.N.N.N.N.N.N.N.N.N.N.N.N.N.N.N.N.N.N.N.N.N.N.N.N.N.N.N.N.N.N.m.m.m.m.m.n.v.z.z.z.z.z.k.k.k.h.h.h.s.s.s.i.i.i.t.t.t.t.t.t.t.e.t.t.t.t.t.t.i.i.s.s.s.s.s.s.s.s.s.s.s.s.s.s.s.s.i.i.i.t.t.t.t.t.t.t.e.t.e.e.e.t.e.e.e.q.e.e.q.q.q.q.8.8.8.8.8.4.4.4.4.4.4.4.8.4.4.4.4.4.4.4.4.4.4.8.8.8.8.8.8.8.8.8.8.8.8.4.4.4.4.4.8.8.8.8.8.8.4.8.8.8.4.4.4.4.4.4.4.4.1.1.1.1.1.,.:.;.;.=.=.=.#.#.O.O.O. . .} } ' ' ) ( ( ^ Q Q E E E K D B m b v z k f f p p u u e q 0 8 4 1 > * * % # @ o ^.^.^.^.^.^.^.^.^.^.^.^.^.^.^.^.^.^.^.^.^.^.^.^.^.^.^.^.^.^.^.^.^.^.^.^.^.^.^.^.^.^.^.^.^.^.^.^.^.^.^.^.^.^.^.^.^.^.^.^.^.^.^.^.^.^.^.^.^.^.^.^.^.^.^.^.^.^.^.^.^.^.^.^.^.^.^.^.^.^.^.^.^.^.^.^.^.^.^.^.^.^.^.^.^.^.^.^.^.^.^.^.^.^.^.^.^.^.^.^.^.^.^.^.^.^.^.^.^.^.^.^.",
"^.^.^.^.^.^.^.^.^.^.^.^.^.^.^.^.^.^.^.^.^.^.^.^.^.^.^.^.^.^.^.^.^.^.^.^.^.^.^.^.^.^.^.^.^.^.^.^.^.^.^.^.^.^.^.^.^.^.^.^.^.^.^.^.^.^.^.^.^.^.^.^.^.^.^.^.^.^.^.^.^.^.^.^.^.^.^.^.^.^.^.^.^.^.^.. o @ # % * 1 4 0 q e u f z x b m m B D H H L E E E W E Q Q Q ^ ( ( ) ) ' ) ) ' ' ' ' } } } } }  . . . . . . .O.O.O.#.#.#.#.#.#.=.=.=.=.;.;.:.,.1.1.4.4.4.8.q.e.e.t.t.i.i.i.i.i.i.s.s.s.s.s.s.s.h.s.s.h.s.s.s.s.s.s.s.s.s.s.s.s.s.s.s.s.s.h.h.h.k.k.k.k.k.k.k.k.k.z.z.z.k.z.k.z.z.k.z.z.z.z.z.v.v.n.n.m.m.m.N.N.N.V.V.C.V.C.C.C.C.C.C.C.C.C.C.C.C.V.C.C.C.V.V.V.N.N.N.N.N.N.N.N.N.N.N.V.N.V.C.V.V.N.V.V.N.N.V.N.N.N.N.N.N.N.N.N.m.m.m.m.m.n.n.v.v.z.z.z.k.k.k.h.h.s.s.s.s.i.i.i.t.t.t.t.e.t.e.t.t.t.t.i.i.i.i.i.s.s.s.s.s.s.s.s.s.s.s.s.s.s.s.s.a.i.i.i.i.t.i.t.i.t.t.t.t.e.t.e.e.t.e.e.e.e.e.e.q.q.8.8.8.4.8.8.4.4.4.4.4.4.4.4.4.4.4.4.4.4.4.4.4.8.8.8.8.8.8.8.8.8.8.8.8.8.4.4.4.4.4.8.8.8.8.4.4.8.8.4.4.4.4.4.4.4.4.4.4.1.1.1.,.:.:.;.=.=.=.#.#.#.O.O. . . .} } ' ' ) ( ^ ^ Q Q E E U K D B m b v k k f f p u u t e 0 7 6 4 1 > * * % + o . ^.^.^.^.^.^.^.^.^.^.^.^.^.^.^.^.^.^.^.^.^.^.^.^.^.^.^.^.^.^.^.^.^.^.^.^.^.^.^.^.^.^.^.^.^.^.^.^.^.^.^.^.^.^.^.^.^.^.^.^.^.^.^.^.^.^.^.^.^.^.^.^.^.^.^.^.^.^.^.^.^.^.^.^.^.^.^.^.^.^.^.^.^.^.^.^.^.^.^.^.^.^.^.^.^.^.^.^.^.^.^.^.^.^.^.^.^.^.^.^.^.^.^.^.^.^.^.^.^.^.^.^.",
"^.^.^.^.^.^.^.^.^.^.^.^.^.^.^.^.^.^.^.^.^.^.^.^.^.^.^.^.^.^.^.^.^.^.^.^.^.^.^.^.^.^.^.^.^.^.^.^.^.^.^.^.^.^.^.^.^.^.^.^.^.^.^.^.^.^.^.^.^.^.^.^.^.^.^.^.^.^.^.^.^.^.^.^.^.^.^.^.^.^.^.^.^.. o @ # % % * > 4 6 q e u f k z v m B B D H L U E E E Q Q Q ^ ^ ( ( ) ' ' ' ' ' ' } } } }  . . . . . . .O.O.O.O.O.O.#.#.#.#.=.=.=.=.=.;.;.:.:.:.:.,.1.4.4.4.8.q.e.t.t.t.i.i.i.i.s.s.s.s.s.h.h.h.h.s.h.h.h.h.h.h.h.h.h.h.s.h.s.h.h.h.s.s.s.s.h.h.h.k.k.k.k.k.z.k.k.k.z.z.z.z.z.z.z.k.z.k.z.z.z.z.z.v.v.n.n.n.m.m.N.N.N.N.N.V.C.C.C.C.C.C.C.C.C.C.C.C.C.C.V.V.C.C.C.C.C.V.V.V.V.C.V.N.V.V.V.V.V.C.C.C.C.C.V.C.V.V.V.N.N.N.V.N.N.N.N.N.N.N.m.m.m.n.n.v.z.v.z.z.z.k.k.h.h.h.s.s.s.s.i.t.i.t.t.t.t.t.t.t.t.t.t.t.t.i.i.i.i.s.s.s.s.s.s.s.s.s.s.s.s.s.s.s.s.s.i.a.i.i.i.t.t.t.t.t.t.t.t.t.t.e.e.e.e.e.e.q.8.8.8.4.8.8.4.8.4.4.4.8.4.4.4.4.4.4.4.4.4.4.4.4.4.4.8.8.8.8.8.8.8.8.8.8.8.8.8.4.4.4.4.4.4.8.8.4.4.4.4.4.4.4.4.4.4.4.4.4.4.1.1.1.,.:.:.;.=.=.=.#.#.#.O.O. . . .} } ' ' ) ( ^ ^ Q W E E U H D B m b x k k f f p u u t e q 8 6 4 > > * % # # o . ^.^.^.^.^.^.^.^.^.^.^.^.^.^.^.^.^.^.^.^.^.^.^.^.^.^.^.^.^.^.^.^.^.^.^.^.^.^.^.^.^.^.^.^.^.^.^.^.^.^.^.^.^.^.^.^.^.^.^.^.^.^.^.^.^.^.^.^.^.^.^.^.^.^.^.^.^.^.^.^.^.^.^.^.^.^.^.^.^.^.^.^.^.^.^.^.^.^.^.^.^.^.^.^.^.^.^.^.^.^.^.^.^.^.^.^.^.^.^.^.^.^.^.^.^.^.^.^.^.^.^.^.",
"^.^.^.^.^.^.^.^.^.^.^.^.^.^.^.^.^.^.^.^.^.^.^.^.^.^.^.^.^.^.^.^.^.^.^.^.^.^.^.^.^.^.^.^.^.^.^.^.^.^.^.^.^.^.^.^.^.^.^.^.^.^.^.^.^.^.^.^.^.^.^.^.^.^.^.^.^.^.^.^.^.^.^.^.^.^.^.^.^.^.^.^.^.o # $ % % * > 1 4 8 e u p k z x b m D H K U E E E E Q Q ^ ^ ^ ( ) ' ' } } } } } }  . . . . . . . .O.O.O.O.O.#.#.#.#.#.=.=.=.=.=.=.;.;.;.:.:.:.,.,.1.4.4.8.8.q.q.e.t.t.i.i.i.s.s.s.s.s.h.h.h.h.h.h.h.h.h.k.k.k.k.k.k.h.h.k.h.h.h.h.h.h.h.h.h.h.k.k.k.k.z.z.z.z.z.z.z.z.z.z.z.z.z.z.z.z.z.z.z.z.z.z.v.v.n.n.n.m.m.N.N.N.V.N.V.C.C.C.C.C.C.C.C.C.A.C.C.C.C.C.C.C.C.C.C.C.C.V.V.C.C.V.C.C.V.C.V.C.C.C.C.C.C.C.C.C.C.C.C.V.V.V.V.V.V.N.N.N.N.N.m.m.m.n.n.n.v.z.z.z.k.k.h.h.h.s.s.s.a.i.i.i.i.t.t.t.t.t.t.t.t.t.t.t.i.i.a.s.s.s.s.s.h.h.h.h.s.s.s.s.h.h.s.s.s.s.s.a.i.i.i.i.i.t.t.t.t.t.t.t.t.e.e.e.e.q.q.q.8.8.8.4.4.4.4.4.4.8.4.8.4.4.4.4.4.4.4.4.4.4.4.4.8.4.8.4.8.8.8.8.8.8.8.8.8.8.8.4.4.4.4.4.4.4.4.4.4.4.4.4.4.4.4.4.4.4.4.1.1.1.1.,.,.:.;.=.=.=.#.#.#.O.O.O. . .} } } ' ) ) ^ Q Q W E E U H D B m b x k k f f p p u u e 0 6 4 1 > * * % # o o ^.^.^.^.^.^.^.^.^.^.^.^.^.^.^.^.^.^.^.^.^.^.^.^.^.^.^.^.^.^.^.^.^.^.^.^.^.^.^.^.^.^.^.^.^.^.^.^.^.^.^.^.^.^.^.^.^.^.^.^.^.^.^.^.^.^.^.^.^.^.^.^.^.^.^.^.^.^.^.^.^.^.^.^.^.^.^.^.^.^.^.^.^.^.^.^.^.^.^.^.^.^.^.^.^.^.^.^.^.^.^.^.^.^.^.^.^.^.^.^.^.^.^.^.^.^.^.^.^.^.^.^.^.",
"^.^.^.^.^.^.^.^.^.^.^.^.^.^.^.^.^.^.^.^.^.^.^.^.^.^.^.^.^.^.^.^.^.^.^.^.^.^.^.^.^.^.^.^.^.^.^.^.^.^.^.^.^.^.^.^.^.^.^.^.^.^.^.^.^.^.^.^.^.^.^.^.^.^.^.^.^.^.^.^.^.^.^.^.^.^.^.^.^.^.^.^.o o $ * * > 1 1 1 6 0 e p f z v v m D H U E E E E Q Q Q ^ ( ) ) ) ' } }  . . . . . . .O.O. . .O.O.O.#.O.#.#.#.#.#.=.#.=.=.=.=.;.;.,.,.:.,.,.,.,.1.1.1.4.8.8.q.q.e.e.t.t.i.s.s.s.s.h.h.h.h.h.k.k.k.k.k.k.k.k.k.k.k.k.k.k.k.k.k.k.k.k.k.k.h.h.h.k.k.k.k.z.z.z.z.z.z.z.z.z.z.z.z.z.z.z.z.z.z.z.z.z.v.n.n.n.v.n.m.m.m.N.N.N.N.N.V.C.C.C.C.A.C.A.A.A.A.A.C.A.C.C.C.C.A.C.C.C.C.C.C.C.C.C.C.C.C.C.C.C.C.C.C.C.C.C.C.C.C.C.C.C.C.V.C.V.V.V.N.N.N.N.m.m.m.n.n.n.v.z.z.z.k.k.k.h.h.s.s.s.s.a.i.i.t.t.t.t.t.t.t.t.i.t.i.i.i.i.a.s.s.s.h.h.s.h.h.s.h.h.h.h.s.s.s.s.s.s.s.s.s.i.i.i.i.i.i.t.t.t.t.t.t.e.e.e.e.e.q.8.8.8.4.8.8.4.4.8.8.8.8.8.4.4.4.4.4.4.4.4.4.4.4.4.4.4.8.8.8.8.8.8.8.8.8.8.8.8.4.4.8.4.4.4.4.4.4.4.4.4.4.4.4.4.4.4.4.4.1.1.1.1.,.,.:.:.;.=.=.=.#.#.O.O.O.O. . .} } ' ' ) ( ^ Q Q W E E U K D B m b v z k f f f p u t e 0 6 4 1 > * % $ # o o ^.^.^.^.^.^.^.^.^.^.^.^.^.^.^.^.^.^.^.^.^.^.^.^.^.^.^.^.^.^.^.^.^.^.^.^.^.^.^.^.^.^.^.^.^.^.^.^.^.^.^.^.^.^.^.^.^.^.^.^.^.^.^.^.^.^.^.^.^.^.^.^.^.^.^.^.^.^.^.^.^.^.^.^.^.^.^.^.^.^.^.^.^.^.^.^.^.^.^.^.^.^.^.^.^.^.^.^.^.^.^.^.^.^.^.^.^.^.^.^.^.^.^.^.^.^.^.^.^.^.^.^.^.",
"^.^.^.^.^.^.^.^.^.^.^.^.^.^.^.^.^.^.^.^.^.^.^.^.^.^.^.^.^.^.^.^.^.^.^.^.^.^.^.^.^.^.^.^.^.^.^.^.^.^.^.^.^.^.^.^.^.^.^.^.^.^.^.^.^.^.^.^.^.^.^.^.^.^.^.^.^.^.^.^.^.^.^.^.^.^.^.^.^.^.^.. o @ % > 1 4 6 6 0 q e u p f z v b B D P E E E Q Q Q ^ ( ) ' ' ' ' }  . . .O.O.O.O.O.O.O.O.O.O.#.#.#.#.#.#.=.=.=.=.=.=.;.;.;.:.:.:.,.,.,.1.1.1.1.1.1.4.4.8.8.q.e.e.t.t.i.i.s.s.s.s.h.h.h.k.k.k.k.k.z.k.z.k.k.z.z.z.z.z.z.z.z.z.k.k.k.k.k.k.k.k.k.z.k.z.z.z.z.z.n.z.z.z.z.z.v.v.v.z.z.z.z.z.z.z.z.v.n.v.n.n.n.m.m.m.N.N.N.N.V.V.C.C.C.A.A.A.A.A.A.A.A.A.A.A.A.A.A.C.A.C.C.C.C.C.C.C.C.C.C.C.C.C.C.C.C.C.A.A.A.A.C.A.C.C.C.C.V.C.C.V.V.V.V.N.N.N.m.m.m.n.v.v.z.z.z.z.z.k.k.h.h.s.s.s.i.a.i.i.t.t.t.t.t.t.t.t.t.t.t.i.i.s.s.s.s.s.h.h.s.h.h.h.h.h.h.h.s.h.s.s.s.s.s.s.s.a.i.i.i.i.i.i.t.i.t.t.t.e.e.e.q.q.8.8.4.8.4.4.4.4.4.4.8.8.8.4.4.8.4.8.4.4.4.4.4.4.4.4.8.8.8.8.8.8.8.8.q.8.8.8.8.8.8.8.4.4.4.1.1.1.1.4.1.4.4.1.4.4.1.4.1.1.1.1.1.,.,.:.:.;.=.=.=.#.#.#.O.O. . . .} } ' ' ) ( ^ Q Q E E E E K D B m b x z k f f f p u e e 0 4 4 1 > * % $ # o . ^.^.^.^.^.^.^.^.^.^.^.^.^.^.^.^.^.^.^.^.^.^.^.^.^.^.^.^.^.^.^.^.^.^.^.^.^.^.^.^.^.^.^.^.^.^.^.^.^.^.^.^.^.^.^.^.^.^.^.^.^.^.^.^.^.^.^.^.^.^.^.^.^.^.^.^.^.^.^.^.^.^.^.^.^.^.^.^.^.^.^.^.^.^.^.^.^.^.^.^.^.^.^.^.^.^.^.^.^.^.^.^.^.^.^.^.^.^.^.^.^.^.^.^.^.^.^.^.^.^.^.^.^.",
"^.^.^.^.^.^.^.^.^.^.^.^.^.^.^.^.^.^.^.^.^.^.^.^.^.^.^.^.^.^.^.^.^.^.^.^.^.^.^.^.^.^.^.^.^.^.^.^.^.^.^.^.^.^.^.^.^.^.^.^.^.^.^.^.^.^.^.^.^.^.^.^.^.^.^.^.^.^.^.^.^.^.^.^.^.^.^.^.^.^.^.. @ $ * 1 4 0 e e e e u p p f z b B D P E E E Q Q ^ ( ) ) ' ' ' }  . . .O.O.O.#.#.#.#.#.#.#.#.#.#.#.#.=.=.=.=.;.;.;.;.:.:.:.,.,.,.,.,.1.1.1.1.1.4.4.4.4.8.8.q.e.e.e.t.t.i.i.s.s.s.s.h.h.k.k.k.k.k.k.z.z.z.z.z.z.z.z.z.z.z.z.z.z.z.z.z.z.z.k.k.z.z.z.z.z.z.z.v.v.n.z.v.v.z.v.v.n.v.z.v.z.z.z.z.z.z.v.v.n.n.n.n.m.m.m.m.N.N.N.V.C.C.C.C.A.A.A.A.A.A.A.A.A.A.A.A.A.A.A.A.A.A.A.A.A.A.A.A.A.A.A.C.A.A.A.A.A.A.A.A.A.A.C.C.A.C.C.C.C.C.C.V.C.V.N.V.N.N.m.m.n.n.v.z.z.z.z.k.k.k.h.h.h.s.s.s.a.i.i.i.t.t.t.t.t.t.t.i.t.i.i.i.s.s.s.s.s.h.s.h.h.h.h.h.h.h.h.h.s.s.s.s.s.s.s.i.i.i.i.i.i.i.t.t.t.t.t.e.e.e.q.q.8.8.8.8.4.4.4.4.4.4.4.4.4.4.4.4.4.4.8.4.4.4.4.4.4.4.4.8.8.8.8.8.8.q.8.8.8.8.8.8.8.8.8.4.4.4.1.1.1.1.1.1.1.1.1.1.1.1.1.1.1.1.1.,.,.,.:.;.;.=.=.=.#.#.O.O. . . . .} ' ' ' ) ( ^ Q Q E E E E K D Z m b x z k f f p u u e q 8 4 4 > > * % $ + o . ^.^.^.^.^.^.^.^.^.^.^.^.^.^.^.^.^.^.^.^.^.^.^.^.^.^.^.^.^.^.^.^.^.^.^.^.^.^.^.^.^.^.^.^.^.^.^.^.^.^.^.^.^.^.^.^.^.^.^.^.^.^.^.^.^.^.^.^.^.^.^.^.^.^.^.^.^.^.^.^.^.^.^.^.^.^.^.^.^.^.^.^.^.^.^.^.^.^.^.^.^.^.^.^.^.^.^.^.^.^.^.^.^.^.^.^.^.^.^.^.^.^.^.^.^.^.^.^.^.^.^.^.^.",
"^.^.^.^.^.^.^.^.^.^.^.^.^.^.^.^.^.^.^.^.^.^.^.^.^.^.^.^.^.^.^.^.^.^.^.^.^.^.^.^.^.^.^.^.^.^.^.^.^.^.^.^.^.^.^.^.^.^.^.^.^.^.^.^.^.^.^.^.^.^.^.^.^.^.^.^.^.^.^.^.^.^.^.^.^.^.^.^.^.^.^.. @ % > 4 0 e u u e u p f k z v B D H U E E Q Q ^ ( ) ' ' ' } }  . .O.O.#.#.=.=.=.=.=.=.=.=.=.=.=.=.=.;.;.:.:.:.:.:.:.:.,.,.,.1.1.1.1.1.1.4.4.4.4.8.8.8.8.q.e.t.t.t.t.i.i.s.s.s.h.h.h.k.k.k.k.z.z.z.z.z.z.z.z.z.v.v.v.z.z.z.z.z.z.z.z.z.z.z.z.z.z.z.z.v.z.v.v.v.v.n.n.v.n.v.v.v.n.n.v.v.z.z.z.z.v.v.v.n.n.n.n.m.m.m.m.N.N.V.C.C.C.C.A.A.A.A.A.A.A.A.A.A.A.A.A.A.A.A.A.A.A.A.A.A.A.A.A.A.A.A.A.A.A.A.A.A.A.A.A.A.A.A.A.A.A.C.C.C.C.C.C.V.V.V.N.N.N.m.m.m.n.v.v.z.z.z.z.z.k.h.h.h.s.s.s.a.a.i.i.i.t.t.t.t.t.t.i.i.t.i.i.a.s.s.s.s.s.h.h.h.h.h.h.h.h.h.h.h.s.s.s.s.s.s.s.i.i.i.i.i.i.i.t.t.t.t.e.q.q.q.q.8.8.8.8.4.4.4.4.4.8.4.4.4.4.8.4.4.4.8.4.4.4.8.8.4.8.8.8.8.8.8.8.8.8.8.8.8.8.8.8.8.8.8.4.4.1.1.1.1.1.1.1.1.1.1.1.1.1.1.1.1.1.1.,.,.:.:.;.=.=.=.#.#.#.O.O. . . .} } ' ' ' ) ( ^ Q Q W E E E K H Z m b x k k f f p u t e 0 8 4 1 > > * % # + o . ^.^.^.^.^.^.^.^.^.^.^.^.^.^.^.^.^.^.^.^.^.^.^.^.^.^.^.^.^.^.^.^.^.^.^.^.^.^.^.^.^.^.^.^.^.^.^.^.^.^.^.^.^.^.^.^.^.^.^.^.^.^.^.^.^.^.^.^.^.^.^.^.^.^.^.^.^.^.^.^.^.^.^.^.^.^.^.^.^.^.^.^.^.^.^.^.^.^.^.^.^.^.^.^.^.^.^.^.^.^.^.^.^.^.^.^.^.^.^.^.^.^.^.^.^.^.^.^.^.^.^.^.^.",
"^.^.^.^.^.^.^.^.^.^.^.^.^.^.^.^.^.^.^.^.^.^.^.^.^.^.^.^.^.^.^.^.^.^.^.^.^.^.^.^.^.^.^.^.^.^.^.^.^.^.^.^.^.^.^.^.^.^.^.^.^.^.^.^.^.^.^.^.^.^.^.^.^.^.^.^.^.^.^.^.^.^.^.^.^.^.^.^.^.^.^.o $ % > 4 q t u u u p f z x b m Z H L E E E Q ^ ( ) ' ' ' }  . .O.O.O.#.#.=.=.;.;.;.;.=.;.;.;.;.;.:.:.:.,.,.,.,.,.,.,.,.,.1.1.4.4.4.4.4.4.4.4.8.8.8.8.q.e.e.t.t.t.i.i.i.s.s.s.s.h.h.k.k.k.k.z.z.z.z.z.z.z.z.v.z.v.v.v.v.v.v.v.z.z.z.z.z.z.z.z.z.v.z.v.v.v.v.n.n.n.n.n.m.n.v.n.v.v.v.z.v.z.z.v.z.v.v.n.n.m.n.m.m.m.m.N.N.V.V.C.C.A.A.A.A.D.A.A.A.A.A.A.A.A.A.A.A.A.D.D.D.D.A.A.A.A.A.A.A.A.A.A.A.A.D.D.A.A.A.A.A.A.A.A.A.A.A.A.C.C.A.C.C.C.C.V.N.N.N.m.m.n.v.v.z.z.z.z.k.k.h.h.h.s.s.s.s.a.i.i.i.i.i.i.i.t.t.i.i.t.t.i.a.s.s.s.s.h.h.h.h.h.h.h.h.h.h.h.h.h.s.s.s.s.s.i.i.i.i.i.i.i.i.t.t.e.t.q.e.q.8.8.8.8.8.8.4.4.4.4.4.4.4.4.4.8.4.8.4.4.4.4.4.4.4.4.4.8.8.8.8.q.8.8.8.q.8.8.8.8.4.8.8.8.4.4.4.1.1.1.1.1.1.1.1.1.1.1.1.1.1.1.,.,.,.,.:.:.:.;.=.=.=.#.#.#.O.O.O. . .} } ' ' ) ) ( ^ Q Q W E E E L H B m b x k k k f p u e e 0 8 4 4 > * * % # @ o . ^.^.^.^.^.^.^.^.^.^.^.^.^.^.^.^.^.^.^.^.^.^.^.^.^.^.^.^.^.^.^.^.^.^.^.^.^.^.^.^.^.^.^.^.^.^.^.^.^.^.^.^.^.^.^.^.^.^.^.^.^.^.^.^.^.^.^.^.^.^.^.^.^.^.^.^.^.^.^.^.^.^.^.^.^.^.^.^.^.^.^.^.^.^.^.^.^.^.^.^.^.^.^.^.^.^.^.^.^.^.^.^.^.^.^.^.^.^.^.^.^.^.^.^.^.^.^.^.^.^.^.^.^.",
"^.^.^.^.^.^.^.^.^.^.^.^.^.^.^.^.^.^.^.^.^.^.^.^.^.^.^.^.^.^.^.^.^.^.^.^.^.^.^.^.^.^.^.^.^.^.^.^.^.^.^.^.^.^.^.^.^.^.^.^.^.^.^.^.^.^.^.^.^.^.^.^.^.^.^.^.^.^.^.^.^.^.^.^.^.^.^.^.^.^.o # % * > 4 q u p p f f z v b B Z H K U E E Q Q ( ) ' ' }  . . . .O.O.#.=.=.;.:.:.:.:.:.:.:.:.,.,.:.,.,.,.1.1.1.1.1.1.1.1.1.4.4.4.4.4.8.8.8.8.8.q.q.q.e.e.t.t.t.i.i.i.i.s.s.s.s.s.h.k.k.k.z.z.z.z.z.v.z.v.v.v.z.v.n.n.n.v.v.v.v.z.v.z.z.z.v.v.v.v.v.n.v.n.n.n.n.n.m.m.m.n.n.n.n.v.v.v.v.v.v.z.v.z.v.v.v.n.m.m.m.m.m.N.N.N.V.C.C.C.A.A.A.A.A.F.F.F.F.A.D.F.D.F.A.F.A.A.A.A.D.A.F.F.D.A.F.A.F.A.A.A.A.D.A.A.A.F.A.D.D.A.A.A.A.A.A.A.A.C.C.C.C.V.C.V.N.N.N.m.n.m.v.z.z.z.z.z.k.k.h.h.h.s.s.s.s.i.i.i.i.i.i.t.i.i.i.i.t.i.i.i.s.s.s.s.h.s.h.h.h.h.h.h.h.h.h.h.s.s.s.s.s.s.i.i.i.i.t.i.t.t.t.t.e.t.q.q.8.8.8.8.4.8.8.4.4.4.4.4.4.4.4.4.8.8.8.4.4.8.8.4.4.4.4.8.4.8.8.8.8.8.8.8.8.8.8.8.8.4.8.8.8.4.4.4.1.1.1.1.1.,.1.1.,.1.1.1.,.,.,.,.,.,.:.:.:.;.=.=.=.=.#.#.O.O.O. . . .} } ' ' ) ) ( ^ Q Q E E E E L D B m b v k k f f p u e q 0 8 4 1 > * * % # @ o ^.^.^.^.^.^.^.^.^.^.^.^.^.^.^.^.^.^.^.^.^.^.^.^.^.^.^.^.^.^.^.^.^.^.^.^.^.^.^.^.^.^.^.^.^.^.^.^.^.^.^.^.^.^.^.^.^.^.^.^.^.^.^.^.^.^.^.^.^.^.^.^.^.^.^.^.^.^.^.^.^.^.^.^.^.^.^.^.^.^.^.^.^.^.^.^.^.^.^.^.^.^.^.^.^.^.^.^.^.^.^.^.^.^.^.^.^.^.^.^.^.^.^.^.^.^.^.^.^.^.^.^.^.^.",
"^.^.^.^.^.^.^.^.^.^.^.^.^.^.^.^.^.^.^.^.^.^.^.^.^.^.^.^.^.^.^.^.^.^.^.^.^.^.^.^.^.^.^.^.^.^.^.^.^.^.^.^.^.^.^.^.^.^.^.^.^.^.^.^.^.^.^.^.^.^.^.^.^.^.^.^.^.^.^.^.^.^.^.^.^.^.^.^.^.^.o % * > 4 6 e u p f f z v b m D D K E E E Q Q ^ ( ' ' }  . . . .O.#.#.=.=.:.:.,.,.,.,.,.,.1.1.,.,.,.1.1.1.1.1.4.4.4.4.4.4.4.4.4.8.8.8.q.8.e.e.e.e.e.e.t.t.t.t.i.i.i.a.s.s.s.h.h.h.h.k.k.k.z.z.z.z.v.z.v.v.v.v.v.n.n.n.n.n.v.v.v.n.v.v.v.v.v.n.n.v.v.n.n.n.n.n.m.m.m.m.m.m.m.n.v.n.n.v.n.v.v.v.z.v.v.n.n.n.m.m.m.m.N.N.N.V.C.C.C.A.A.A.A.A.F.F.F.F.F.F.F.F.F.F.H.F.F.F.F.F.F.F.F.F.F.F.F.F.F.F.F.F.F.F.F.F.F.F.F.F.D.F.A.A.A.A.A.A.A.A.C.C.C.C.V.C.N.N.N.m.m.m.n.v.z.z.z.z.k.k.k.h.h.s.s.s.s.i.i.i.i.i.i.t.t.t.i.t.t.i.i.i.s.s.s.s.s.s.h.h.h.h.h.h.h.h.h.s.h.h.s.s.s.s.i.i.i.i.i.t.t.t.t.t.e.e.e.q.q.8.4.8.4.4.4.4.4.4.4.4.4.4.4.8.8.8.8.4.8.4.8.4.4.8.8.8.8.8.8.8.8.8.8.8.8.8.8.8.4.4.4.8.8.4.4.1.1.1.1.1.,.1.,.,.,.,.,.,.,.,.,.:.:.:.:.:.;.;.=.=.=.#.#.#.O.O.O. . . .} } ' ' ) ) ( ^ Q Q E E E E L D B m v v z k f f p u e e 0 8 4 1 > > * % # o o ^.^.^.^.^.^.^.^.^.^.^.^.^.^.^.^.^.^.^.^.^.^.^.^.^.^.^.^.^.^.^.^.^.^.^.^.^.^.^.^.^.^.^.^.^.^.^.^.^.^.^.^.^.^.^.^.^.^.^.^.^.^.^.^.^.^.^.^.^.^.^.^.^.^.^.^.^.^.^.^.^.^.^.^.^.^.^.^.^.^.^.^.^.^.^.^.^.^.^.^.^.^.^.^.^.^.^.^.^.^.^.^.^.^.^.^.^.^.^.^.^.^.^.^.^.^.^.^.^.^.^.^.^.^.",
"^.^.^.^.^.^.^.^.^.^.^.^.^.^.^.^.^.^.^.^.^.^.^.^.^.^.^.^.^.^.^.^.^.^.^.^.^.^.^.^.^.^.^.^.^.^.^.^.^.^.^.^.^.^.^.^.^.^.^.^.^.^.^.^.^.^.^.^.^.^.^.^.^.^.^.^.^.^.^.^.^.^.^.^.^.^.^.^.^.o @ % * > 4 8 e u f f k x v m Z H L E E E E Q Q ( ) ' } }  . . .O.#.#.=.;.;.:.,.1.,.1.1.1.1.1.1.1.1.1.1.4.4.4.4.8.8.8.8.8.8.8.8.8.q.e.e.e.e.e.e.e.t.t.t.t.i.t.i.i.a.a.s.s.s.h.h.h.k.k.k.z.z.z.z.v.z.v.v.z.v.v.v.n.n.n.m.n.n.n.v.v.n.n.n.n.n.n.n.n.n.n.n.n.n.m.m.m.m.m.m.m.m.m.n.n.n.n.v.n.n.n.n.v.v.v.n.n.n.m.m.m.N.N.N.V.C.C.A.A.A.A.A.A.A.F.F.F.F.F.F.F.F.F.H.F.F.F.F.F.F.F.F.F.H.H.H.F.H.F.H.H.H.F.F.H.F.F.F.F.F.F.F.A.A.A.A.A.A.A.A.A.A.C.C.C.V.V.N.N.N.m.m.v.n.v.z.z.z.z.k.k.h.h.s.s.s.i.i.i.i.i.t.t.t.t.t.i.t.t.i.i.i.i.a.s.s.s.s.h.h.h.h.h.h.h.h.h.h.h.h.s.s.s.i.i.i.i.i.i.i.i.t.t.t.e.e.q.q.8.4.8.8.8.4.4.4.4.4.4.4.4.4.4.4.8.8.8.4.4.4.4.4.4.4.8.8.8.8.8.8.8.8.8.8.8.8.8.4.4.4.4.8.4.4.4.1.1.1.1.,.1.,.,.,.,.,.:.,.:.,.:.:.:.:.;.;.;.=.=.=.#.#.#.#.O.O. . . . . .} ' ' ) ) ^ ^ Q Q W E E E K D B m b v k k f f p u e e 0 8 4 1 > * * % + o . ^.^.^.^.^.^.^.^.^.^.^.^.^.^.^.^.^.^.^.^.^.^.^.^.^.^.^.^.^.^.^.^.^.^.^.^.^.^.^.^.^.^.^.^.^.^.^.^.^.^.^.^.^.^.^.^.^.^.^.^.^.^.^.^.^.^.^.^.^.^.^.^.^.^.^.^.^.^.^.^.^.^.^.^.^.^.^.^.^.^.^.^.^.^.^.^.^.^.^.^.^.^.^.^.^.^.^.^.^.^.^.^.^.^.^.^.^.^.^.^.^.^.^.^.^.^.^.^.^.^.^.^.^.^.",
"^.^.^.^.^.^.^.^.^.^.^.^.^.^.^.^.^.^.^.^.^.^.^.^.^.^.^.^.^.^.^.^.^.^.^.^.^.^.^.^.^.^.^.^.^.^.^.^.^.^.^.^.^.^.^.^.^.^.^.^.^.^.^.^.^.^.^.^.^.^.^.^.^.^.^.^.^.^.^.^.^.^.^.^.^.^.^.^.. o # % * > 4 0 e p f z v v b m D K E E E E Q Q ( ) ' ' }  . .O.O.#.#.=.=.;.:.,.,.1.1.1.1.1.4.4.4.4.4.4.4.4.4.8.8.8.8.q.q.q.q.q.q.e.e.e.t.e.t.t.t.i.t.t.i.t.i.i.a.s.s.s.s.h.h.h.k.k.k.k.z.z.z.z.v.v.v.v.z.z.v.v.n.n.v.n.n.n.n.v.v.v.v.v.n.n.n.n.n.m.m.m.m.m.m.m.m.N.m.m.m.m.m.m.n.n.n.n.n.n.n.n.n.v.n.n.n.n.m.m.m.N.N.N.V.V.C.C.A.A.A.D.D.F.F.F.F.H.H.F.H.H.F.F.F.F.F.F.F.H.F.H.F.F.F.F.H.H.H.F.F.H.H.F.F.F.F.F.F.F.F.F.F.F.F.A.D.D.A.D.A.A.A.C.C.C.C.V.N.N.N.m.m.n.n.v.z.z.z.k.k.k.h.h.s.s.s.s.i.i.i.t.i.t.t.i.t.t.t.t.i.i.i.i.a.s.s.s.s.s.h.h.h.s.h.h.h.s.h.s.h.s.s.s.i.i.i.i.t.t.t.t.t.t.e.e.e.q.q.8.8.8.8.4.4.4.4.4.4.4.4.4.4.4.4.8.4.8.4.8.4.8.4.4.4.8.8.8.8.8.8.8.8.4.4.8.8.4.4.4.4.4.4.4.4.4.1.1.1.1.,.,.,.:.:.:.:.:.:.:.:.:.:.:.;.;.;.=.=.=.=.#.#.#.O.O.O. .O. . .} } ' ' ) ( ^ ^ Q Q W E E U K D B m b x z k f f p u e e 0 6 4 1 > * % $ + o . ^.^.^.^.^.^.^.^.^.^.^.^.^.^.^.^.^.^.^.^.^.^.^.^.^.^.^.^.^.^.^.^.^.^.^.^.^.^.^.^.^.^.^.^.^.^.^.^.^.^.^.^.^.^.^.^.^.^.^.^.^.^.^.^.^.^.^.^.^.^.^.^.^.^.^.^.^.^.^.^.^.^.^.^.^.^.^.^.^.^.^.^.^.^.^.^.^.^.^.^.^.^.^.^.^.^.^.^.^.^.^.^.^.^.^.^.^.^.^.^.^.^.^.^.^.^.^.^.^.^.^.^.^.^.",
"^.^.^.^.^.^.^.^.^.^.^.^.^.^.^.^.^.^.^.^.^.^.^.^.^.^.^.^.^.^.^.^.^.^.^.^.^.^.^.^.^.^.^.^.^.^.^.^.^.^.^.^.^.^.^.^.^.^.^.^.^.^.^.^.^.^.^.^.^.^.^.^.^.^.^.^.^.^.^.^.^.^.^.^.^.^.^.^.o + % * * > 4 0 u p k z v b m Z H U E E E Q Q ( ) ' ' }  . .O.O.#.#.=.=.;.:.,.1.1.1.4.4.4.4.4.8.4.4.4.8.8.8.8.8.8.q.q.q.q.e.e.e.t.t.t.t.t.t.t.i.t.i.i.i.i.i.i.s.s.s.s.s.h.h.h.k.k.k.k.k.z.z.z.z.v.v.v.v.z.v.v.n.n.n.n.n.n.n.n.n.n.v.n.n.n.n.n.m.m.m.m.m.m.m.m.m.m.m.N.N.m.m.N.m.m.n.n.n.n.v.n.n.n.n.n.n.n.m.m.m.N.N.N.V.C.C.C.C.A.A.A.D.F.F.F.F.F.F.H.H.F.F.H.H.H.H.F.H.F.H.H.H.H.H.F.H.H.F.H.F.H.H.H.H.H.H.F.F.F.H.F.F.F.F.F.F.D.D.D.A.A.A.A.A.C.C.C.C.N.N.N.m.m.m.n.v.v.z.z.z.k.k.h.h.s.s.s.a.i.i.i.i.t.t.t.t.t.i.i.t.i.t.t.i.i.i.s.s.s.s.s.h.s.h.s.h.h.h.s.h.s.s.s.s.i.i.i.t.t.t.t.t.t.t.t.e.e.q.q.8.8.8.8.8.4.4.4.4.4.4.4.4.4.4.4.4.4.8.8.8.4.8.4.4.8.8.8.8.8.8.8.4.8.8.8.8.8.4.4.4.4.4.4.4.4.1.1.1.1.1.,.,.,.:.:.:.:.;.;.;.;.;.;.;.;.;.=.=.=.=.#.#.#.#.O.O.O.O. . . .} } ' ' ) ( ^ ^ Q Q Q E E U K D B m b v v k k f p u t e 0 6 4 1 > * % $ @ o ^.^.^.^.^.^.^.^.^.^.^.^.^.^.^.^.^.^.^.^.^.^.^.^.^.^.^.^.^.^.^.^.^.^.^.^.^.^.^.^.^.^.^.^.^.^.^.^.^.^.^.^.^.^.^.^.^.^.^.^.^.^.^.^.^.^.^.^.^.^.^.^.^.^.^.^.^.^.^.^.^.^.^.^.^.^.^.^.^.^.^.^.^.^.^.^.^.^.^.^.^.^.^.^.^.^.^.^.^.^.^.^.^.^.^.^.^.^.^.^.^.^.^.^.^.^.^.^.^.^.^.^.^.^.^.",
"^.^.^.^.^.^.^.^.^.^.^.^.^.^.^.^.^.^.^.^.^.^.^.^.^.^.^.^.^.^.^.^.^.^.^.^.^.^.^.^.^.^.^.^.^.^.^.^.^.^.^.^.^.^.^.^.^.^.^.^.^.^.^.^.^.^.^.^.^.^.^.^.^.^.^.^.^.^.^.^.^.^.^.^.^.^.^.^.o $ % * * > 4 0 u p f z v b B D K E E E Q Q ( ) ' ' }  .O.O.#.#.#.=.=.;.:.,.1.1.1.4.4.4.4.4.8.8.8.8.8.q.q.8.q.q.q.e.e.t.t.t.t.t.t.t.t.t.t.i.i.i.i.i.a.a.s.s.s.s.s.s.s.h.h.h.k.k.z.k.z.z.z.z.z.v.z.v.v.n.v.v.v.n.n.n.n.n.n.m.n.n.n.n.n.n.n.n.m.m.m.m.N.m.m.m.N.m.N.N.N.N.m.N.N.m.m.n.m.n.n.v.n.n.n.n.n.n.n.m.m.m.N.N.V.V.C.C.A.A.A.A.A.F.F.F.H.H.F.F.F.H.H.H.H.H.H.F.H.H.H.H.H.H.H.H.H.H.H.H.F.H.H.H.H.H.H.H.H.H.F.H.F.F.F.F.F.F.D.D.F.D.A.A.A.A.C.C.C.V.V.N.N.m.m.n.n.n.v.z.z.z.k.k.h.h.s.s.s.a.i.i.i.t.i.t.i.i.t.i.t.i.i.t.t.i.i.i.a.a.s.s.s.s.s.s.h.h.s.h.h.s.s.s.s.s.i.i.i.t.t.t.t.t.t.e.t.e.q.q.q.8.8.8.4.4.4.4.4.1.1.4.4.4.4.4.4.4.4.4.8.8.8.8.8.8.4.4.4.8.8.8.8.8.8.8.8.8.8.4.8.8.8.8.4.4.4.1.1.1.1.,.,.,.,.:.:.:.;.;.;.=.;.=.;.=.=.=.=.#.#.#.#.#.O.O.O.O.O.O. . . .} } ' ' ) ( ^ ^ Q Q W E E U K D B m b v x k k f p u e q 0 4 4 1 > * % # o . ^.^.^.^.^.^.^.^.^.^.^.^.^.^.^.^.^.^.^.^.^.^.^.^.^.^.^.^.^.^.^.^.^.^.^.^.^.^.^.^.^.^.^.^.^.^.^.^.^.^.^.^.^.^.^.^.^.^.^.^.^.^.^.^.^.^.^.^.^.^.^.^.^.^.^.^.^.^.^.^.^.^.^.^.^.^.^.^.^.^.^.^.^.^.^.^.^.^.^.^.^.^.^.^.^.^.^.^.^.^.^.^.^.^.^.^.^.^.^.^.^.^.^.^.^.^.^.^.^.^.^.^.^.^.^.",
"^.^.^.^.^.^.^.^.^.^.^.^.^.^.^.^.^.^.^.^.^.^.^.^.^.^.^.^.^.^.^.^.^.^.^.^.^.^.^.^.^.^.^.^.^.^.^.^.^.^.^.^.^.^.^.^.^.^.^.^.^.^.^.^.^.^.^.^.^.^.^.^.^.^.^.^.^.^.^.^.^.^.^.^.^.^.^.. o % % * > 1 8 e u p f z v m B D P E E W Q ^ ( ' '  . .O.O.#.=.=.=.;.:.,.,.1.1.4.4.4.4.4.8.8.8.q.q.q.e.e.e.t.e.e.t.t.t.t.t.t.t.t.t.t.i.i.i.i.i.i.i.a.s.s.s.s.s.s.s.s.s.h.h.k.k.k.z.z.z.z.z.z.v.v.v.v.v.n.v.n.n.n.n.n.m.n.n.n.n.n.n.n.n.n.n.n.m.m.m.m.N.m.N.m.N.N.N.N.N.m.m.m.m.m.m.m.m.n.n.n.n.n.n.n.n.m.m.m.m.N.N.V.C.C.C.A.A.A.D.A.A.F.F.F.F.F.H.H.H.H.H.H.H.H.H.H.H.H.H.H.H.H.H.H.H.H.H.H.H.H.H.H.H.H.H.H.H.H.H.H.F.F.F.F.F.F.F.F.A.D.A.A.A.A.A.C.C.C.V.N.N.N.m.m.n.n.v.z.z.z.k.k.h.h.h.s.s.s.i.a.i.i.i.i.i.i.t.t.i.i.i.i.t.i.i.i.i.a.s.s.s.s.s.h.s.s.h.h.s.s.s.s.s.a.i.i.i.t.t.t.t.t.t.t.e.e.q.q.q.8.8.8.4.4.4.4.4.4.4.4.4.4.4.4.4.4.4.8.8.8.8.8.8.8.4.4.8.4.8.8.8.4.8.8.8.8.8.8.8.4.8.8.4.4.4.1.1.1.1.,.,.,.:.:.:.;.;.;.=.=.=.=.=.=.=.=.#.#.#.#.#.#.#.O.O.O.O. . . . .} ' ' ' ) ( ^ ^ Q Q W E E U K D B m m v x z k f p u e q 0 4 4 > * * % + o . ^.^.^.^.^.^.^.^.^.^.^.^.^.^.^.^.^.^.^.^.^.^.^.^.^.^.^.^.^.^.^.^.^.^.^.^.^.^.^.^.^.^.^.^.^.^.^.^.^.^.^.^.^.^.^.^.^.^.^.^.^.^.^.^.^.^.^.^.^.^.^.^.^.^.^.^.^.^.^.^.^.^.^.^.^.^.^.^.^.^.^.^.^.^.^.^.^.^.^.^.^.^.^.^.^.^.^.^.^.^.^.^.^.^.^.^.^.^.^.^.^.^.^.^.^.^.^.^.^.^.^.^.^.^.^.",
"^.^.^.^.^.^.^.^.^.^.^.^.^.^.^.^.^.^.^.^.^.^.^.^.^.^.^.^.^.^.^.^.^.^.^.^.^.^.^.^.^.^.^.^.^.^.^.^.^.^.^.^.^.^.^.^.^.^.^.^.^.^.^.^.^.^.^.^.^.^.^.^.^.^.^.^.^.^.^.^.^.^.^.^.^.^.^.. @ $ * * > 4 0 t p f z z v m B D U E E Q Q ^ ( ' }  .O.O.#.=.=.;.,.,.,.1.1.4.4.4.4.8.8.8.q.q.q.e.e.e.t.t.t.t.t.t.t.t.i.i.i.i.i.i.i.i.i.a.s.a.a.s.s.s.s.s.s.h.s.s.s.s.h.h.h.k.k.z.z.z.z.z.z.v.v.v.v.v.v.n.n.n.n.n.n.n.m.n.n.n.v.n.n.n.n.m.n.m.n.m.m.m.m.m.N.m.N.N.N.N.N.m.m.m.m.m.m.m.m.m.m.n.m.n.m.m.m.m.m.m.N.N.C.V.C.C.A.A.A.A.A.F.F.F.F.F.H.H.H.H.H.H.H.H.H.H.H.H.H.H.H.H.H.H.H.H.H.H.H.H.H.H.H.H.H.H.H.H.H.H.H.H.H.H.F.F.F.F.F.F.A.F.A.A.A.A.C.C.C.V.V.N.N.N.m.m.m.n.v.v.z.z.z.k.k.h.h.s.s.s.s.i.i.i.i.i.i.i.i.i.i.i.t.t.t.t.i.i.i.i.i.s.s.s.s.s.s.h.h.s.s.s.s.s.a.i.i.i.t.i.t.t.t.e.t.e.e.e.q.q.8.8.8.4.4.4.4.4.1.4.4.4.4.1.4.4.4.4.8.8.8.8.8.4.4.4.4.8.4.8.8.8.8.8.8.8.8.4.8.8.4.8.8.8.4.4.4.1.1.1.1.,.,.:.:.:.:.;.=.=.=.=.=.=.=.=.=.#.#.#.#.#.O.#.O.O.O.O.O. . . .} } ' ' ) ) ( ^ Q Q Q W E E E P H D B m v v z k f p u e 0 8 4 4 1 > % % + o . ^.^.^.^.^.^.^.^.^.^.^.^.^.^.^.^.^.^.^.^.^.^.^.^.^.^.^.^.^.^.^.^.^.^.^.^.^.^.^.^.^.^.^.^.^.^.^.^.^.^.^.^.^.^.^.^.^.^.^.^.^.^.^.^.^.^.^.^.^.^.^.^.^.^.^.^.^.^.^.^.^.^.^.^.^.^.^.^.^.^.^.^.^.^.^.^.^.^.^.^.^.^.^.^.^.^.^.^.^.^.^.^.^.^.^.^.^.^.^.^.^.^.^.^.^.^.^.^.^.^.^.^.^.^.^.",
"^.^.^.^.^.^.^.^.^.^.^.^.^.^.^.^.^.^.^.^.^.^.^.^.^.^.^.^.^.^.^.^.^.^.^.^.^.^.^.^.^.^.^.^.^.^.^.^.^.^.^.^.^.^.^.^.^.^.^.^.^.^.^.^.^.^.^.^.^.^.^.^.^.^.^.^.^.^.^.^.^.^.^.^.^.^.^.o # * * > 1 6 e u f k z v b B D H E E W Q ^ ^ ) ' }  .O.O.#.=.;.:.,.,.1.1.4.4.8.8.q.q.q.e.e.e.e.t.t.i.i.i.i.i.i.i.i.i.a.a.s.s.s.s.a.s.s.s.s.s.s.s.s.s.s.h.h.h.h.s.s.h.h.k.h.k.k.z.z.z.z.z.z.v.v.n.v.n.n.n.n.n.n.n.n.n.m.n.n.n.n.n.n.n.n.n.n.m.n.m.m.m.m.m.m.m.N.N.N.N.N.N.N.m.N.N.m.N.m.m.m.m.m.m.m.m.m.m.m.m.N.C.C.C.C.A.A.A.A.A.F.F.F.F.F.H.H.H.H.H.H.H.L.L.H.H.H.H.H.L.H.H.H.H.L.H.L.L.H.H.H.H.H.H.H.H.H.H.H.H.H.H.H.H.F.H.F.F.F.F.A.A.A.A.A.A.A.C.C.C.C.N.N.N.m.m.m.m.v.v.z.z.z.k.k.h.h.s.s.s.s.i.a.i.i.i.i.i.i.i.i.i.i.i.i.t.i.i.i.i.i.a.s.s.s.s.s.s.s.s.s.s.s.i.a.a.i.i.t.t.t.t.e.e.e.e.q.q.q.8.8.8.8.8.4.4.4.4.4.4.1.4.4.4.4.4.4.4.4.4.8.8.4.4.4.4.4.8.4.8.8.8.8.8.8.8.8.8.8.4.8.8.8.8.8.4.1.1.1.1.1.,.,.:.:.:.;.=.=.=.=.=.=.=.=.=.#.#.#.#.O.O.O.O.O.O.O.O. . . . .} } ' ' ' ) ^ ^ Q Q Q Q W E E U H D B m v v z f p p u e 0 8 4 4 > * * % # o . ^.^.^.^.^.^.^.^.^.^.^.^.^.^.^.^.^.^.^.^.^.^.^.^.^.^.^.^.^.^.^.^.^.^.^.^.^.^.^.^.^.^.^.^.^.^.^.^.^.^.^.^.^.^.^.^.^.^.^.^.^.^.^.^.^.^.^.^.^.^.^.^.^.^.^.^.^.^.^.^.^.^.^.^.^.^.^.^.^.^.^.^.^.^.^.^.^.^.^.^.^.^.^.^.^.^.^.^.^.^.^.^.^.^.^.^.^.^.^.^.^.^.^.^.^.^.^.^.^.^.^.^.^.^.^.",
"^.^.^.^.^.^.^.^.^.^.^.^.^.^.^.^.^.^.^.^.^.^.^.^.^.^.^.^.^.^.^.^.^.^.^.^.^.^.^.^.^.^.^.^.^.^.^.^.^.^.^.^.^.^.^.^.^.^.^.^.^.^.^.^.^.^.^.^.^.^.^.^.^.^.^.^.^.^.^.^.^.^.^.^.^.^.o + % * > 1 4 7 e p f z v b m Z H U E E W Q ^ ( ) '  . .O.#.#.=.:.,.1.1.4.4.4.8.q.e.e.e.t.t.t.i.t.i.i.i.a.a.s.s.s.a.s.s.s.s.s.s.s.s.s.s.h.s.h.s.s.s.h.h.h.h.h.h.h.h.h.h.k.k.k.z.z.z.v.v.z.v.v.v.v.v.v.v.n.n.n.v.n.n.n.n.n.n.n.n.n.n.v.v.v.n.n.n.m.m.m.n.m.m.m.N.N.N.N.N.N.N.N.N.N.N.m.m.m.m.m.m.m.m.m.m.N.N.N.N.N.C.C.C.A.A.A.A.F.F.F.F.H.H.H.H.H.H.H.H.H.H.L.L.L.H.L.H.L.L.L.H.H.L.H.H.H.H.L.H.H.H.H.H.H.H.L.L.L.L.H.H.H.H.H.H.H.F.F.F.F.A.D.D.A.A.C.C.C.C.V.V.N.N.m.m.m.m.n.v.v.z.z.k.k.k.h.s.s.s.s.s.i.i.i.i.i.i.i.i.i.i.i.i.i.i.i.i.i.i.i.a.i.s.s.s.s.s.s.s.s.s.s.s.i.i.i.i.i.t.e.e.e.e.e.e.q.q.8.8.8.8.8.4.4.4.4.4.4.4.4.4.4.4.1.4.4.4.4.4.4.4.4.4.4.4.8.8.8.8.8.8.8.8.8.8.8.8.4.8.8.8.8.8.4.4.1.1.1.1.,.,.,.:.:.:.;.=.=.=.=.=.=.=.#.#.#.#.#.O.O.O.O.O.O.O.O.O. . . .}  .} ' ' ) ( ( ^ ^ Q Q Q E E E E K D B m b v k f p u t e 0 8 4 1 > * * % + o . ^.^.^.^.^.^.^.^.^.^.^.^.^.^.^.^.^.^.^.^.^.^.^.^.^.^.^.^.^.^.^.^.^.^.^.^.^.^.^.^.^.^.^.^.^.^.^.^.^.^.^.^.^.^.^.^.^.^.^.^.^.^.^.^.^.^.^.^.^.^.^.^.^.^.^.^.^.^.^.^.^.^.^.^.^.^.^.^.^.^.^.^.^.^.^.^.^.^.^.^.^.^.^.^.^.^.^.^.^.^.^.^.^.^.^.^.^.^.^.^.^.^.^.^.^.^.^.^.^.^.^.^.^.^.^.",
"^.^.^.^.^.^.^.^.^.^.^.^.^.^.^.^.^.^.^.^.^.^.^.^.^.^.^.^.^.^.^.^.^.^.^.^.^.^.^.^.^.^.^.^.^.^.^.^.^.^.^.^.^.^.^.^.^.^.^.^.^.^.^.^.^.^.^.^.^.^.^.^.^.^.^.^.^.^.^.^.^.^.^.^.^.. o $ * > 1 4 6 q u f k z v b B D K E E E Q Q ^ ) ' }  .O.O.#.=.;.,.,.1.4.8.4.q.e.e.t.t.t.t.i.i.s.s.s.s.s.s.s.s.s.s.s.s.h.s.h.h.h.s.h.h.h.h.h.h.h.h.h.h.h.k.h.k.k.k.h.k.k.k.k.z.z.z.z.v.v.v.v.z.z.v.n.v.v.v.v.v.v.v.n.n.n.n.n.n.n.n.n.n.v.v.v.v.v.n.m.n.n.n.m.m.N.N.N.N.N.N.N.N.N.N.N.N.N.N.N.N.N.m.m.N.N.N.N.V.V.C.C.C.A.A.A.D.A.F.F.F.H.H.H.H.H.L.L.H.H.H.L.L.L.L.L.L.L.L.L.L.L.L.L.L.L.H.L.H.H.H.H.H.H.H.H.L.L.L.L.H.H.H.H.H.H.H.F.F.F.F.A.D.A.A.A.A.C.C.C.V.N.N.N.m.m.m.n.n.v.v.z.z.k.k.h.h.s.h.s.s.s.s.a.i.i.i.i.i.t.i.i.i.i.i.i.i.i.i.i.i.i.a.a.s.s.s.s.s.s.s.s.i.s.i.i.i.i.t.t.t.e.e.q.e.q.8.8.8.8.8.8.8.8.4.4.4.4.4.4.4.4.4.4.4.4.4.4.4.4.4.4.4.4.4.4.8.8.8.8.8.8.q.8.q.8.8.8.8.8.8.8.8.8.4.4.1.1.1.,.,.,.:.:.:.;.;.=.=.=.=.=.#.#.#.#.#.#.O.O.O.O.O.O.O.O.O.O. . . . .} } ' ' ) ) ( ^ Q Q Q W E E E E L H B m b v k f p u t e 0 6 4 1 > * * $ @ o . ^.^.^.^.^.^.^.^.^.^.^.^.^.^.^.^.^.^.^.^.^.^.^.^.^.^.^.^.^.^.^.^.^.^.^.^.^.^.^.^.^.^.^.^.^.^.^.^.^.^.^.^.^.^.^.^.^.^.^.^.^.^.^.^.^.^.^.^.^.^.^.^.^.^.^.^.^.^.^.^.^.^.^.^.^.^.^.^.^.^.^.^.^.^.^.^.^.^.^.^.^.^.^.^.^.^.^.^.^.^.^.^.^.^.^.^.^.^.^.^.^.^.^.^.^.^.^.^.^.^.^.^.^.^.^.",
"^.^.^.^.^.^.^.^.^.^.^.^.^.^.^.^.^.^.^.^.^.^.^.^.^.^.^.^.^.^.^.^.^.^.^.^.^.^.^.^.^.^.^.^.^.^.^.^.^.^.^.^.^.^.^.^.^.^.^.^.^.^.^.^.^.^.^.^.^.^.^.^.^.^.^.^.^.^.^.^.^.^.^.^.^.. # % * 1 4 4 q u p f k x b m D H U E E W Q ^ ( ) ' }  .O.#.#.=.:.,.1.1.4.8.q.e.e.t.i.i.i.i.s.s.s.s.s.h.h.s.h.h.h.h.s.h.h.k.k.k.h.h.k.k.k.k.k.k.k.h.k.k.k.k.k.k.k.k.k.k.k.k.z.k.z.z.z.v.v.n.n.v.v.n.n.n.v.n.n.n.v.v.n.n.n.n.n.n.n.n.n.v.v.z.v.z.v.v.n.v.v.n.n.m.m.m.m.m.N.N.N.N.N.N.N.N.N.N.N.N.N.N.N.N.N.C.C.V.C.C.C.A.A.A.F.F.F.H.F.H.H.H.H.H.H.H.H.H.H.H.L.L.L.L.L.L.L.L.I.I.I.I.L.I.L.L.H.H.L.H.L.H.H.H.L.H.H.L.H.L.H.H.H.H.H.F.F.F.F.F.D.D.A.A.A.C.C.C.C.V.N.N.N.m.m.m.m.n.v.v.z.z.k.k.k.h.h.h.s.s.s.s.a.s.i.i.i.i.i.i.i.i.i.i.i.i.i.i.i.s.s.a.a.i.a.a.s.s.s.s.s.s.i.i.i.t.i.t.t.e.e.e.e.q.q.q.8.8.8.8.8.4.8.4.4.4.4.4.4.4.4.4.4.4.4.4.4.4.4.8.4.4.4.4.4.4.8.8.8.8.8.8.8.8.8.8.8.8.8.8.4.8.8.4.4.4.1.1.,.,.,.:.:.:.;.;.=.=.=.#.=.#.#.#.#.#.O.O.O.O.O.O.O.O.O.O. . . . . .} ' ' ' ) ( ( ^ ^ Q Q W W E E E P H B m b x k f p u t q 0 4 4 1 > * % # o o ^.^.^.^.^.^.^.^.^.^.^.^.^.^.^.^.^.^.^.^.^.^.^.^.^.^.^.^.^.^.^.^.^.^.^.^.^.^.^.^.^.^.^.^.^.^.^.^.^.^.^.^.^.^.^.^.^.^.^.^.^.^.^.^.^.^.^.^.^.^.^.^.^.^.^.^.^.^.^.^.^.^.^.^.^.^.^.^.^.^.^.^.^.^.^.^.^.^.^.^.^.^.^.^.^.^.^.^.^.^.^.^.^.^.^.^.^.^.^.^.^.^.^.^.^.^.^.^.^.^.^.^.^.^.^.^.",
"^.^.^.^.^.^.^.^.^.^.^.^.^.^.^.^.^.^.^.^.^.^.^.^.^.^.^.^.^.^.^.^.^.^.^.^.^.^.^.^.^.^.^.^.^.^.^.^.^.^.^.^.^.^.^.^.^.^.^.^.^.^.^.^.^.^.^.^.^.^.^.^.^.^.^.^.^.^.^.^.^.^.^.^.. o @ % > 1 4 0 e u f z x b m D H K E E E W Q ^ ( ) ' }  .O.#.#.=.:.,.1.1.4.8.q.e.i.i.i.s.s.s.s.s.h.h.h.h.h.h.h.h.k.h.h.k.k.k.k.k.k.k.k.k.k.z.k.k.k.k.k.k.k.k.k.z.z.z.z.k.z.k.k.z.z.z.v.v.n.v.v.v.n.n.n.n.n.v.v.n.z.v.n.n.v.n.v.n.n.n.v.z.z.z.z.z.v.v.n.v.v.v.n.n.m.m.m.m.N.N.N.N.N.N.V.V.V.V.V.C.C.V.C.C.C.C.C.C.A.A.A.A.A.A.F.F.F.H.H.H.H.H.H.H.H.L.L.L.H.L.L.L.L.L.L.I.L.I.L.I.I.I.I.I.I.L.L.L.L.H.H.L.L.H.L.L.L.H.L.H.L.H.L.H.H.F.F.F.F.D.D.A.A.A.A.C.C.C.C.C.N.N.m.m.m.m.m.n.v.v.z.z.z.k.k.k.h.h.h.s.s.s.s.s.s.i.i.i.i.i.i.i.i.i.i.i.i.i.i.s.s.i.s.a.i.s.a.s.s.s.s.i.i.i.i.i.i.t.t.e.e.e.q.q.8.8.8.8.8.8.8.8.8.4.4.4.4.4.4.4.4.4.4.4.4.4.4.4.4.4.4.4.4.4.4.8.8.8.8.8.q.8.q.8.8.8.8.8.8.8.8.8.8.4.4.4.1.1.1.,.:.:.:.:.;.=.=.=.=.=.=.#.#.#.#.#.+.O.O.O.O.O.O.O.O. . . . .} } ' ' ' ' ) ( ( ^ Q Q Q W E E E E P H Z m b c k f p u t e 0 6 4 > * % % + o . ^.^.^.^.^.^.^.^.^.^.^.^.^.^.^.^.^.^.^.^.^.^.^.^.^.^.^.^.^.^.^.^.^.^.^.^.^.^.^.^.^.^.^.^.^.^.^.^.^.^.^.^.^.^.^.^.^.^.^.^.^.^.^.^.^.^.^.^.^.^.^.^.^.^.^.^.^.^.^.^.^.^.^.^.^.^.^.^.^.^.^.^.^.^.^.^.^.^.^.^.^.^.^.^.^.^.^.^.^.^.^.^.^.^.^.^.^.^.^.^.^.^.^.^.^.^.^.^.^.^.^.^.^.^.^.^.",
"^.^.^.^.^.^.^.^.^.^.^.^.^.^.^.^.^.^.^.^.^.^.^.^.^.^.^.^.^.^.^.^.^.^.^.^.^.^.^.^.^.^.^.^.^.^.^.^.^.^.^.^.^.^.^.^.^.^.^.^.^.^.^.^.^.^.^.^.^.^.^.^.^.^.^.^.^.^.^.^.^.^.^.^.o @ $ * > 1 4 q t p k v b m D D H P E E E W Q ^ ) ) ' }  .O.#.=.=.:.,.1.4.8.q.e.t.t.i.s.s.s.h.h.h.h.h.k.k.k.k.k.k.k.k.k.k.k.k.k.k.z.z.z.z.z.z.z.z.z.z.z.z.z.z.z.z.z.z.z.z.z.z.z.z.z.v.v.v.v.n.n.n.n.n.n.n.n.n.v.v.v.z.z.v.n.n.n.n.v.v.z.z.z.z.v.z.v.z.z.v.v.v.n.n.n.m.m.m.m.m.N.N.N.V.V.C.C.V.C.C.C.C.C.C.C.C.A.A.A.A.A.D.F.F.F.H.F.H.H.H.H.H.H.H.H.H.L.H.L.L.L.L.L.L.L.L.L.L.I.I.I.I.I.I.I.I.I.I.L.I.L.L.I.I.L.L.L.L.L.L.L.H.L.H.H.H.F.F.F.F.A.A.A.A.A.C.C.C.C.V.N.N.N.m.m.m.m.n.n.v.z.z.z.k.k.k.h.h.h.s.s.s.s.s.a.s.i.a.i.a.i.i.i.i.i.i.i.i.i.i.i.a.s.a.a.a.i.s.s.s.i.a.a.i.i.i.t.t.t.e.e.e.q.q.q.8.8.8.8.8.8.8.8.8.4.4.4.4.4.4.4.4.4.4.4.8.8.4.4.4.4.4.4.4.4.8.8.8.8.8.q.8.q.8.q.8.8.8.8.8.8.8.4.4.4.4.1.1.1.,.,.:.:.:.;.;.=.=.=.=.#.#.#.#.#.#.O.O.O.O.O.O.O.O.O. . . . . .} } ' ' ' ) ( ^ ^ Q Q Q Q W E E E P H D m b x k f p u e e 0 4 1 > * % $ @ o . ^.^.^.^.^.^.^.^.^.^.^.^.^.^.^.^.^.^.^.^.^.^.^.^.^.^.^.^.^.^.^.^.^.^.^.^.^.^.^.^.^.^.^.^.^.^.^.^.^.^.^.^.^.^.^.^.^.^.^.^.^.^.^.^.^.^.^.^.^.^.^.^.^.^.^.^.^.^.^.^.^.^.^.^.^.^.^.^.^.^.^.^.^.^.^.^.^.^.^.^.^.^.^.^.^.^.^.^.^.^.^.^.^.^.^.^.^.^.^.^.^.^.^.^.^.^.^.^.^.^.^.^.^.^.^.^.",
"^.^.^.^.^.^.^.^.^.^.^.^.^.^.^.^.^.^.^.^.^.^.^.^.^.^.^.^.^.^.^.^.^.^.^.^.^.^.^.^.^.^.^.^.^.^.^.^.^.^.^.^.^.^.^.^.^.^.^.^.^.^.^.^.^.^.^.^.^.^.^.^.^.^.^.^.^.^.^.^.^.^.^.. @ $ % * > 1 6 e u p z x b B Z H K U E E W Q Q ^ ( ' '  . .O.#.=.;.:.1.4.4.4.q.t.t.i.s.s.s.h.h.h.k.k.k.k.k.k.k.k.k.z.k.k.k.z.z.z.z.z.z.z.z.v.z.z.z.z.z.z.z.z.z.z.z.z.z.z.z.z.z.z.z.z.z.v.v.n.n.v.n.n.n.n.n.n.v.z.z.z.n.z.v.z.v.v.n.n.v.z.v.z.z.z.z.z.z.v.v.z.v.n.n.n.m.m.m.m.m.N.N.V.V.C.C.C.C.C.C.C.C.A.A.A.A.A.A.A.A.F.F.H.F.F.H.H.H.H.L.H.H.H.L.H.H.L.L.L.L.L.L.I.L.L.I.I.L.I.I.I.I.I.U.I.U.I.I.I.I.I.I.L.I.L.L.L.L.L.L.L.L.L.H.H.H.H.F.F.A.A.A.A.A.A.C.C.C.V.V.N.N.m.m.m.m.m.n.n.v.v.z.z.k.k.k.h.h.h.h.s.s.s.s.s.s.s.s.a.a.a.a.i.i.i.i.i.i.i.i.s.s.a.a.i.a.a.a.i.s.s.i.i.i.i.t.t.t.e.e.e.e.q.q.8.8.8.8.8.8.8.4.8.8.8.8.4.8.4.4.4.4.4.4.8.8.8.8.8.4.4.4.4.4.8.8.8.8.8.8.8.q.8.q.q.8.8.8.8.8.8.8.8.4.4.4.1.1.1.,.,.:.:.;.;.;.=.=.=.=.=.#.#.#.#.#.#.O.O.O.O.O.O. . . . . . . .} ' ' ' ) ) ( ^ ^ Q Q Q W E E E E P H D m b x z k p u e q 7 4 1 > * % # o . ^.^.^.^.^.^.^.^.^.^.^.^.^.^.^.^.^.^.^.^.^.^.^.^.^.^.^.^.^.^.^.^.^.^.^.^.^.^.^.^.^.^.^.^.^.^.^.^.^.^.^.^.^.^.^.^.^.^.^.^.^.^.^.^.^.^.^.^.^.^.^.^.^.^.^.^.^.^.^.^.^.^.^.^.^.^.^.^.^.^.^.^.^.^.^.^.^.^.^.^.^.^.^.^.^.^.^.^.^.^.^.^.^.^.^.^.^.^.^.^.^.^.^.^.^.^.^.^.^.^.^.^.^.^.^.^.^.",
"^.^.^.^.^.^.^.^.^.^.^.^.^.^.^.^.^.^.^.^.^.^.^.^.^.^.^.^.^.^.^.^.^.^.^.^.^.^.^.^.^.^.^.^.^.^.^.^.^.^.^.^.^.^.^.^.^.^.^.^.^.^.^.^.^.^.^.^.^.^.^.^.^.^.^.^.^.^.^.^.^.^.^.o @ $ % * 1 4 0 e u f z x b m B D K E E E W Q ^ ( ) ' '  . .O.#.=.:.,.1.1.4.8.e.t.i.i.s.s.h.h.k.k.k.z.k.z.z.z.z.z.z.z.z.z.z.z.z.z.z.v.z.v.v.v.z.v.v.z.z.z.z.z.z.v.z.v.v.v.z.z.z.v.v.v.v.v.n.n.n.n.n.n.n.n.n.n.z.z.z.z.z.z.z.v.v.v.n.n.v.v.v.n.z.z.v.z.v.z.v.v.n.n.n.m.m.m.m.m.m.N.N.V.V.C.C.C.C.C.C.C.A.A.A.A.A.D.D.F.F.F.H.H.F.H.H.H.H.H.H.L.L.H.H.H.H.L.L.L.I.L.I.L.L.L.L.I.I.I.I.I.I.I.U.I.U.I.I.U.I.U.I.U.I.I.I.I.I.I.L.L.L.L.H.L.H.H.F.F.D.A.A.A.A.A.C.C.C.C.V.N.N.N.m.m.m.m.m.n.v.v.z.z.z.k.k.k.h.h.h.s.s.s.s.s.s.s.s.a.s.a.i.s.i.i.i.i.i.a.s.i.s.s.s.a.a.a.i.s.i.i.i.i.i.i.t.t.t.e.e.e.e.q.q.q.8.8.8.4.4.4.8.8.8.8.8.8.4.8.4.4.4.4.4.4.8.8.8.8.4.4.4.8.8.8.8.8.8.8.q.8.q.8.8.8.8.8.8.8.8.8.8.8.4.4.4.4.1.1.1.,.:.:.;.;.=.=.=.=.=.=.=.#.#.#.#.O.O.O.O.O.O. . . . . . . . .} } ' ' ) ) ( ^ ^ ^ Q Q Q W E E E P H D B b v z f p u e q 7 4 1 > * $ @ o . ^.^.^.^.^.^.^.^.^.^.^.^.^.^.^.^.^.^.^.^.^.^.^.^.^.^.^.^.^.^.^.^.^.^.^.^.^.^.^.^.^.^.^.^.^.^.^.^.^.^.^.^.^.^.^.^.^.^.^.^.^.^.^.^.^.^.^.^.^.^.^.^.^.^.^.^.^.^.^.^.^.^.^.^.^.^.^.^.^.^.^.^.^.^.^.^.^.^.^.^.^.^.^.^.^.^.^.^.^.^.^.^.^.^.^.^.^.^.^.^.^.^.^.^.^.^.^.^.^.^.^.^.^.^.^.^.^.",
"^.^.^.^.^.^.^.^.^.^.^.^.^.^.^.^.^.^.^.^.^.^.^.^.^.^.^.^.^.^.^.^.^.^.^.^.^.^.^.^.^.^.^.^.^.^.^.^.^.^.^.^.^.^.^.^.^.^.^.^.^.^.^.^.^.^.^.^.^.^.^.^.^.^.^.^.^.^.^.^.^.^.. o # % * > 4 8 0 t u f k v b m B D K E E E Q Q ^ ( ) ' } }  .O.#.=.:.,.,.1.4.8.e.t.i.s.s.h.h.k.k.k.z.z.z.z.z.z.z.z.z.v.z.z.z.z.v.z.v.v.n.n.n.v.n.n.v.v.z.z.v.v.v.v.v.v.v.z.v.v.v.v.n.v.n.n.n.v.n.n.n.n.n.n.n.v.z.z.z.z.z.z.z.z.v.z.n.n.v.v.v.v.z.v.z.v.n.v.v.v.v.n.n.n.n.m.m.m.N.N.N.V.C.C.C.C.A.C.A.A.A.A.A.A.A.F.F.H.H.H.H.H.H.H.H.H.H.H.H.L.H.H.H.H.L.L.L.L.I.I.I.L.I.L.I.L.I.I.I.I.I.I.I.I.U.I.U.I.U.I.U.I.U.I.I.I.I.I.I.I.L.L.L.H.H.H.H.F.A.A.A.A.A.A.C.C.C.V.V.N.N.N.m.m.m.m.m.n.n.v.v.z.z.z.z.k.k.h.h.h.h.s.s.s.s.s.s.s.s.s.s.a.i.s.a.i.a.a.i.s.s.a.a.i.i.a.i.i.i.i.i.i.i.t.t.t.e.t.e.e.e.e.q.q.8.8.8.4.8.8.4.4.8.8.8.8.4.8.4.4.8.4.4.8.8.8.8.8.8.8.8.8.8.8.4.8.8.8.8.q.8.8.q.q.8.8.8.8.8.8.8.8.8.4.4.1.1.1.,.,.:.:.;.=.=.=.=.#.=.#.#.#.#.#.#.O.O.O.O.O. . . . . . . . . .} } ' ' ) ( ( ^ ^ Q Q Q Q E E E E L H D B b x k f p u e 0 6 4 1 * % # o . ^.^.^.^.^.^.^.^.^.^.^.^.^.^.^.^.^.^.^.^.^.^.^.^.^.^.^.^.^.^.^.^.^.^.^.^.^.^.^.^.^.^.^.^.^.^.^.^.^.^.^.^.^.^.^.^.^.^.^.^.^.^.^.^.^.^.^.^.^.^.^.^.^.^.^.^.^.^.^.^.^.^.^.^.^.^.^.^.^.^.^.^.^.^.^.^.^.^.^.^.^.^.^.^.^.^.^.^.^.^.^.^.^.^.^.^.^.^.^.^.^.^.^.^.^.^.^.^.^.^.^.^.^.^.^.^.^.^.",
"^.^.^.^.^.^.^.^.^.^.^.^.^.^.^.^.^.^.^.^.^.^.^.^.^.^.^.^.^.^.^.^.^.^.^.^.^.^.^.^.^.^.^.^.^.^.^.^.^.^.^.^.^.^.^.^.^.^.^.^.^.^.^.^.^.^.^.^.^.^.^.^.^.^.^.^.^.^.^.^.^.^.o @ % * > 1 4 8 q e p f z b m m B D K E E E Q Q ^ ( ) ' }  . .O.#.=.:.,.1.1.4.8.e.t.i.a.s.h.k.k.k.k.z.z.z.z.z.z.z.z.v.v.z.z.v.z.n.n.v.n.n.n.n.n.m.n.n.n.v.v.z.v.n.n.n.n.n.v.z.v.v.v.v.n.n.n.n.v.n.n.n.v.n.n.v.v.z.v.z.z.z.z.z.z.z.v.n.v.v.v.n.n.n.v.z.v.z.v.v.n.n.n.n.n.n.n.m.N.N.N.V.C.C.C.C.A.A.A.A.A.A.A.F.F.F.F.F.H.H.H.H.L.H.H.L.H.L.L.L.L.L.L.H.L.H.L.L.L.L.I.I.L.I.I.I.I.I.L.I.I.I.I.I.U.I.U.U.U.U.U.U.U.U.U.U.U.I.I.I.I.I.L.L.L.H.H.F.F.F.A.A.A.A.C.C.C.C.C.N.N.N.N.N.m.m.m.n.n.n.n.v.v.z.z.k.k.k.h.h.h.h.h.s.s.s.s.s.s.s.s.s.s.s.s.s.i.a.a.a.a.a.a.i.a.i.i.i.i.i.i.i.i.i.i.t.t.t.e.e.e.q.q.q.8.q.8.8.8.8.8.8.8.4.8.8.8.8.8.8.8.8.8.8.8.8.8.8.8.8.8.4.8.8.8.8.8.8.q.q.8.q.8.q.8.q.8.8.8.q.8.8.8.4.4.4.1.1.1.,.,.:.:.;.;.=.=.=.#.=.=.#.#.#.#.#.O.O.O.O.O.O. . . . . . . . .} ' ' ' ) ( ^ ^ ^ Q Q Q E E E E U K D Z m b x z f p u e 0 6 4 > * % + o ^.^.^.^.^.^.^.^.^.^.^.^.^.^.^.^.^.^.^.^.^.^.^.^.^.^.^.^.^.^.^.^.^.^.^.^.^.^.^.^.^.^.^.^.^.^.^.^.^.^.^.^.^.^.^.^.^.^.^.^.^.^.^.^.^.^.^.^.^.^.^.^.^.^.^.^.^.^.^.^.^.^.^.^.^.^.^.^.^.^.^.^.^.^.^.^.^.^.^.^.^.^.^.^.^.^.^.^.^.^.^.^.^.^.^.^.^.^.^.^.^.^.^.^.^.^.^.^.^.^.^.^.^.^.^.^.^.^.^.",
"^.^.^.^.^.^.^.^.^.^.^.^.^.^.^.^.^.^.^.^.^.^.^.^.^.^.^.^.^.^.^.^.^.^.^.^.^.^.^.^.^.^.^.^.^.^.^.^.^.^.^.^.^.^.^.^.^.^.^.^.^.^.^.^.^.^.^.^.^.^.^.^.^.^.^.^.^.^.^.^.. o @ % * * > 4 6 0 q t u f z b m m B D L E E E Q Q ( ) ' ' }  . .O.#.=.:.,.1.4.4.8.e.t.i.s.s.h.h.k.k.z.z.z.z.z.z.v.v.v.v.z.v.z.v.n.m.m.n.n.n.n.m.m.m.m.m.n.v.n.n.n.n.m.n.n.n.n.v.v.v.v.v.n.n.v.n.n.n.n.n.n.v.n.n.n.z.v.z.z.z.z.z.v.z.z.v.v.n.n.n.n.v.n.v.v.v.n.n.n.n.n.n.m.m.m.m.N.N.C.V.C.C.C.A.A.A.A.A.A.A.F.F.F.F.H.H.H.H.H.H.H.H.H.L.H.L.L.L.L.L.H.L.L.L.L.L.I.I.I.I.I.I.L.I.I.I.I.I.I.I.I.U.I.U.I.I.U.I.U.I.U.U.U.U.U.U.U.I.I.I.L.L.L.L.H.H.H.F.F.A.A.A.C.C.C.C.V.V.N.N.N.N.N.m.m.m.m.n.v.v.z.z.z.z.k.k.k.k.h.h.h.h.s.s.s.s.s.s.s.s.s.s.s.s.s.i.s.s.i.a.i.a.i.i.i.i.i.i.i.i.i.i.i.t.t.e.t.e.e.q.q.q.8.8.8.8.8.8.8.8.4.8.8.8.8.8.8.8.8.8.8.8.8.8.8.8.8.8.8.8.8.8.8.8.8.8.q.q.q.8.q.q.q.q.q.8.q.8.8.8.8.4.4.4.1.1.1.,.,.:.:.;.=.=.=.=.=.=.=.=.#.#.#.#.O.O.O.O.O. . . . . . . . .} } ' ' ' ) ( ( ^ ^ Q Q Q E E E E U H D B m b v k f p u e 0 4 1 * % $ o . ^.^.^.^.^.^.^.^.^.^.^.^.^.^.^.^.^.^.^.^.^.^.^.^.^.^.^.^.^.^.^.^.^.^.^.^.^.^.^.^.^.^.^.^.^.^.^.^.^.^.^.^.^.^.^.^.^.^.^.^.^.^.^.^.^.^.^.^.^.^.^.^.^.^.^.^.^.^.^.^.^.^.^.^.^.^.^.^.^.^.^.^.^.^.^.^.^.^.^.^.^.^.^.^.^.^.^.^.^.^.^.^.^.^.^.^.^.^.^.^.^.^.^.^.^.^.^.^.^.^.^.^.^.^.^.^.^.^.^.",
"^.^.^.^.^.^.^.^.^.^.^.^.^.^.^.^.^.^.^.^.^.^.^.^.^.^.^.^.^.^.^.^.^.^.^.^.^.^.^.^.^.^.^.^.^.^.^.^.^.^.^.^.^.^.^.^.^.^.^.^.^.^.^.^.^.^.^.^.^.^.^.^.^.^.^.^.^.^.^.. o @ $ % > 1 1 4 6 0 e u u f z v b m B Z K E E E Q Q ( ( ' ' }  . .O.#.=.:.,.1.4.4.8.e.t.i.s.s.h.k.k.z.z.z.v.z.v.v.v.v.n.n.v.v.n.v.n.m.m.m.m.m.m.m.m.m.n.n.n.n.n.n.n.n.m.m.n.m.n.n.n.n.v.v.v.v.n.v.n.v.n.v.n.n.v.n.v.v.v.z.z.z.z.z.v.v.v.n.n.n.n.n.n.v.v.n.v.v.n.n.n.m.m.m.m.m.m.N.N.N.V.C.C.C.A.A.A.A.A.A.A.F.F.F.H.H.H.H.H.H.H.H.H.H.H.L.L.L.L.L.L.L.I.L.I.L.I.L.I.I.I.I.I.I.I.I.I.I.I.I.I.I.U.U.U.U.U.U.U.U.I.U.U.U.U.U.U.U.U.U.U.U.U.L.L.L.H.H.H.F.F.A.A.A.C.C.C.C.C.V.N.N.N.N.N.N.m.m.m.n.n.v.v.z.z.z.k.k.k.k.h.h.h.h.h.s.h.s.s.s.s.s.s.s.s.s.s.s.s.s.a.i.s.i.a.i.i.i.i.i.i.i.i.i.i.i.t.t.t.e.e.q.q.8.8.q.8.8.8.8.8.8.8.8.8.q.8.q.q.8.8.8.q.q.q.q.q.q.q.8.8.8.8.8.8.8.8.q.8.q.q.q.8.q.q.8.q.8.q.8.q.8.8.4.4.4.1.1.1.1.,.:.:.;.=.=.=.=.#.#.#.#.#.#.#.#.O.O.O.O.O.O. . . . . . .} } } ' ' ' ) ( ( ^ Q Q Q W E E E E P H D B m v z k p u t q 8 4 > * % # o . ^.^.^.^.^.^.^.^.^.^.^.^.^.^.^.^.^.^.^.^.^.^.^.^.^.^.^.^.^.^.^.^.^.^.^.^.^.^.^.^.^.^.^.^.^.^.^.^.^.^.^.^.^.^.^.^.^.^.^.^.^.^.^.^.^.^.^.^.^.^.^.^.^.^.^.^.^.^.^.^.^.^.^.^.^.^.^.^.^.^.^.^.^.^.^.^.^.^.^.^.^.^.^.^.^.^.^.^.^.^.^.^.^.^.^.^.^.^.^.^.^.^.^.^.^.^.^.^.^.^.^.^.^.^.^.^.^.^.^.",
"^.^.^.^.^.^.^.^.^.^.^.^.^.^.^.^.^.^.^.^.^.^.^.^.^.^.^.^.^.^.^.^.^.^.^.^.^.^.^.^.^.^.^.^.^.^.^.^.^.^.^.^.^.^.^.^.^.^.^.^.^.^.^.^.^.^.^.^.^.^.^.^.^.^.^.^.^.. o o # # % * * > 1 4 8 0 e u p f k v v m B D H U E E Q ^ ( ) ' '  . . .O.#.=.:.,.1.4.4.q.e.t.i.s.h.h.k.k.z.z.z.v.v.v.v.n.n.n.n.n.n.n.n.m.m.m.m.m.m.m.m.m.m.m.m.n.n.n.m.n.m.m.m.m.m.m.m.n.n.n.n.n.n.v.n.v.n.v.n.v.v.n.n.v.n.v.v.z.z.z.z.z.v.v.n.n.n.m.n.n.n.n.n.n.n.m.m.m.m.m.N.N.m.N.N.N.V.C.C.C.A.A.A.A.D.F.F.F.F.H.F.H.H.H.H.H.L.H.L.H.L.L.L.L.L.L.L.L.I.L.I.L.I.I.I.I.I.I.I.I.U.I.I.U.I.U.I.U.I.U.U.U.U.U.U.U.U.U.U.U.U.U.U.U.U.U.U.U.U.I.L.L.H.H.H.H.F.F.A.A.A.A.C.C.C.C.C.V.V.N.N.N.N.m.m.m.n.n.n.n.v.z.z.z.k.z.k.k.k.h.h.h.h.h.h.h.h.s.h.s.s.s.s.s.s.s.s.s.a.s.s.a.s.i.a.i.i.i.i.i.i.i.i.t.t.t.t.e.e.q.q.q.8.8.8.8.8.8.8.8.8.8.q.8.q.q.q.q.q.q.q.q.q.q.8.q.q.q.q.q.q.8.8.q.8.q.8.q.q.q.q.q.e.q.q.8.q.8.8.8.4.4.4.4.1.1.,.,.:.:.;.=.=.=.#.#.#.#.#.#.#.O.O.O.O.O.O.O. . . . . . . .} } ' ' ' ) ( ^ ^ ^ Q Q W W E E E U K D B m b v z f p u e 0 6 4 > * % @ o ^.^.^.^.^.^.^.^.^.^.^.^.^.^.^.^.^.^.^.^.^.^.^.^.^.^.^.^.^.^.^.^.^.^.^.^.^.^.^.^.^.^.^.^.^.^.^.^.^.^.^.^.^.^.^.^.^.^.^.^.^.^.^.^.^.^.^.^.^.^.^.^.^.^.^.^.^.^.^.^.^.^.^.^.^.^.^.^.^.^.^.^.^.^.^.^.^.^.^.^.^.^.^.^.^.^.^.^.^.^.^.^.^.^.^.^.^.^.^.^.^.^.^.^.^.^.^.^.^.^.^.^.^.^.^.^.^.^.^.^.",
"^.^.^.^.^.^.^.^.^.^.^.^.^.^.^.^.^.^.^.^.^.^.^.^.^.^.^.^.^.^.^.^.^.^.^.^.^.^.^.^.^.^.^.^.^.^.^.^.^.^.^.^.^.^.^.^.^.^.^.^.^.^.^.^.^.^.^.^.^.^.^.^.^.^.^.^.^.o o @ % % % * * > 1 4 8 0 e u p f k z x b m Z H P E E Q Q ( ( ) ' }  . .O.#.=.:.,.1.4.8.q.e.t.i.s.s.h.k.k.z.z.v.v.n.n.n.n.n.n.n.n.m.m.m.m.N.m.N.m.m.m.m.m.m.m.n.m.n.m.m.n.m.n.m.m.m.m.m.m.n.n.n.n.n.n.n.n.v.n.v.n.v.v.v.n.n.v.v.v.z.v.v.v.n.n.n.m.m.m.m.n.n.n.m.m.m.m.m.m.m.N.N.N.N.N.V.V.V.C.C.A.A.A.A.F.F.F.F.F.H.H.H.H.H.H.H.H.L.L.H.L.L.L.L.L.I.L.I.L.I.L.I.I.I.I.I.I.I.U.I.I.U.U.I.U.U.U.U.U.I.U.U.U.U.U.U.U.U.U.U.U.U.U.U.U.U.U.U.U.U.U.L.L.H.H.H.F.F.F.A.A.A.A.A.C.C.C.C.C.C.V.N.N.N.N.m.m.m.m.n.n.v.v.z.z.z.z.k.k.k.k.h.h.h.k.h.h.h.h.h.h.s.h.s.s.s.s.s.s.s.s.s.s.s.s.s.i.i.a.i.i.i.i.t.t.t.t.e.e.e.q.q.q.8.8.8.8.q.8.8.q.q.q.q.e.e.e.e.q.e.q.e.q.e.q.e.q.q.q.q.8.q.q.q.8.q.q.q.q.q.q.q.q.q.q.8.8.8.8.8.8.8.4.4.4.1.1.,.,.:.:.;.=.=.=.=.#.#.#.#.#.#.O.O.O.O.O.O.O. . . . . . .} } ' ' ' ' ) ( ( ^ Q Q W W E E E U L H D m m v v k f p u e 0 6 1 > * $ @ o ^.^.^.^.^.^.^.^.^.^.^.^.^.^.^.^.^.^.^.^.^.^.^.^.^.^.^.^.^.^.^.^.^.^.^.^.^.^.^.^.^.^.^.^.^.^.^.^.^.^.^.^.^.^.^.^.^.^.^.^.^.^.^.^.^.^.^.^.^.^.^.^.^.^.^.^.^.^.^.^.^.^.^.^.^.^.^.^.^.^.^.^.^.^.^.^.^.^.^.^.^.^.^.^.^.^.^.^.^.^.^.^.^.^.^.^.^.^.^.^.^.^.^.^.^.^.^.^.^.^.^.^.^.^.^.^.^.^.^.^.",
"^.^.^.^.^.^.^.^.^.^.^.^.^.^.^.^.^.^.^.^.^.^.^.^.^.^.^.^.^.^.^.^.^.^.^.^.^.^.^.^.^.^.^.^.^.^.^.^.^.^.^.^.^.^.^.^.^.^.^.^.^.^.^.^.^.^.^.^.^.^.^.^.^.^.^.^.. o o @ $ % * * * > 1 4 8 0 e e u p f k x b m B D P E E E Q ^ ( ' ' }  . .O.#.=.;.,.1.4.4.q.e.t.i.a.s.h.k.k.z.z.v.v.n.n.n.m.m.m.n.m.n.m.m.m.N.N.N.m.m.m.m.m.m.m.m.n.m.n.m.m.n.m.m.m.m.m.m.m.m.m.n.n.n.n.n.n.n.n.n.n.n.v.v.v.m.v.n.n.v.v.n.v.n.n.m.m.m.m.m.m.m.m.m.m.m.m.m.N.N.N.N.V.V.C.C.C.C.C.A.A.A.D.D.F.F.F.F.H.H.H.H.H.H.H.L.I.L.L.L.L.L.L.L.I.L.I.I.I.I.I.I.I.I.I.I.I.I.U.I.U.I.U.I.U.U.U.I.U.U.U.U.U.U.U.U.U.U.U.U.U.U.U.U.U.U.U.U.U.U.U.I.L.H.H.H.H.F.F.F.A.A.A.A.C.C.C.C.C.V.V.V.N.N.N.N.m.m.m.m.m.n.v.v.z.z.z.z.z.k.k.k.k.k.k.k.h.h.h.h.h.s.h.h.s.h.s.s.h.s.s.s.s.s.s.s.s.a.i.i.i.i.i.t.t.t.t.t.t.e.e.q.q.q.8.8.8.q.q.q.q.q.q.e.e.e.e.e.e.e.e.e.e.e.e.e.q.e.e.q.q.q.q.q.q.q.q.q.q.q.q.q.q.q.8.q.8.8.8.8.8.8.8.4.1.1.1.1.,.:.:.;.=.=.=.=.#.#.#.#.O.O.O.O.O.O.O. . . . . . . . .} } ' ' ' ' ) ( ^ ^ Q Q Q E E E E P H D B m b x z k f p t e 0 4 1 > * $ o . ^.^.^.^.^.^.^.^.^.^.^.^.^.^.^.^.^.^.^.^.^.^.^.^.^.^.^.^.^.^.^.^.^.^.^.^.^.^.^.^.^.^.^.^.^.^.^.^.^.^.^.^.^.^.^.^.^.^.^.^.^.^.^.^.^.^.^.^.^.^.^.^.^.^.^.^.^.^.^.^.^.^.^.^.^.^.^.^.^.^.^.^.^.^.^.^.^.^.^.^.^.^.^.^.^.^.^.^.^.^.^.^.^.^.^.^.^.^.^.^.^.^.^.^.^.^.^.^.^.^.^.^.^.^.^.^.^.^.^.^.",
"^.^.^.^.^.^.^.^.^.^.^.^.^.^.^.^.^.^.^.^.^.^.^.^.^.^.^.^.^.^.^.^.^.^.^.^.^.^.^.^.^.^.^.^.^.^.^.^.^.^.^.^.^.^.^.^.^.^.^.^.^.^.^.^.^.^.^.^.^.^.^.^.^.^.^.^.o o + # $ % * * > > 1 4 7 0 e e t u f k x v b m D K E E Q Q ^ ( ' ' } }  .O.#.=.;.:.1.4.8.q.t.t.t.i.s.h.k.k.z.z.v.v.v.n.m.m.m.m.m.m.m.m.m.m.N.N.N.N.N.N.m.m.m.m.m.m.n.m.m.m.m.m.m.m.m.m.m.m.m.n.m.n.n.m.n.n.n.n.n.n.n.n.n.n.v.n.n.n.n.n.n.m.n.m.m.N.m.m.m.m.m.m.m.m.N.N.N.N.N.N.C.C.C.C.C.C.C.A.A.A.A.A.F.H.H.H.H.H.H.H.L.H.H.H.L.L.L.L.I.L.I.I.I.L.I.I.I.I.I.I.I.I.I.I.I.U.U.U.I.I.U.I.U.U.U.U.I.U.I.U.U.U.U.U.U.U.U.U.U.U.U.U.U.U.R.U.U.U.U.I.I.L.H.H.H.F.F.F.F.F.A.D.A.A.C.C.C.C.C.C.V.V.N.N.N.N.m.m.m.m.m.n.v.v.z.z.z.z.k.k.z.k.k.k.k.k.k.k.h.h.h.h.h.h.h.h.h.h.h.s.s.s.s.s.s.s.s.s.a.i.i.i.t.t.t.t.t.e.e.e.e.q.8.q.8.q.q.q.q.e.q.q.e.e.e.e.e.e.e.e.e.e.e.e.e.e.e.q.e.q.e.q.q.q.e.e.e.e.q.e.e.q.8.q.8.8.8.8.8.8.8.4.4.1.1.1.,.,.:.:.;.=.=.#.=.#.#.#.#.O.O.O.O.O.O. . . . . . . . .} } } ' ' ' ) ) ( ^ Q Q Q W E E E U L H D m m v v z f p u e q 8 4 1 > % # o ^.^.^.^.^.^.^.^.^.^.^.^.^.^.^.^.^.^.^.^.^.^.^.^.^.^.^.^.^.^.^.^.^.^.^.^.^.^.^.^.^.^.^.^.^.^.^.^.^.^.^.^.^.^.^.^.^.^.^.^.^.^.^.^.^.^.^.^.^.^.^.^.^.^.^.^.^.^.^.^.^.^.^.^.^.^.^.^.^.^.^.^.^.^.^.^.^.^.^.^.^.^.^.^.^.^.^.^.^.^.^.^.^.^.^.^.^.^.^.^.^.^.^.^.^.^.^.^.^.^.^.^.^.^.^.^.^.^.^.^.^.",
"^.^.^.^.^.^.^.^.^.^.^.^.^.^.^.^.^.^.^.^.^.^.^.^.^.^.^.^.^.^.^.^.^.^.^.^.^.^.^.^.^.^.^.^.^.^.^.^.^.^.^.^.^.^.^.^.^.^.^.^.^.^.^.^.^.^.^.^.^.^.^.^.^.^.^.^.. o @ $ % % * * > > 1 4 8 0 0 0 e u p k z x b m D L E E Q Q ^ ( ) ' }  . .O.#.=.;.:.1.4.8.q.e.t.t.i.s.s.h.k.z.z.v.v.n.n.m.m.m.m.m.m.m.m.m.m.m.N.N.m.N.N.m.m.m.m.m.m.m.n.m.m.m.m.m.m.m.m.m.m.m.m.m.m.m.m.m.n.n.n.m.m.n.n.n.n.n.n.m.m.m.n.m.m.m.m.N.N.N.N.N.N.N.N.N.N.N.N.N.V.V.C.C.C.C.C.C.A.A.A.A.A.F.F.H.H.F.H.H.H.H.H.H.L.H.L.L.L.L.I.L.I.L.L.I.I.I.I.I.I.I.I.I.I.I.U.I.U.I.U.I.I.I.U.U.U.U.U.U.U.I.U.U.U.U.U.U.U.U.U.R.R.U.U.U.U.U.U.U.U.U.U.I.L.L.H.H.H.F.H.F.F.F.A.A.A.A.A.C.C.C.C.C.V.V.N.N.N.N.m.m.m.m.m.n.v.v.v.z.z.z.z.z.z.z.k.z.k.k.k.k.h.h.h.k.h.k.h.h.h.h.h.s.h.s.s.s.s.s.s.s.a.i.i.i.t.t.t.t.e.t.e.e.q.q.q.q.q.q.q.e.q.q.e.e.e.e.t.e.e.t.e.t.e.e.e.e.e.e.q.q.q.q.e.q.q.q.q.e.e.e.e.q.q.q.8.q.8.8.8.8.8.4.4.4.1.1.1.,.,.:.;.=.=.=.#.=.#.#.O.O.O.O.O.O. .O. . . . . . . . .} } ' ' ' ) ) ( ^ ^ Q Q Q E E E E P H D B m b x z k f p u e 0 6 4 1 * % + o ^.^.^.^.^.^.^.^.^.^.^.^.^.^.^.^.^.^.^.^.^.^.^.^.^.^.^.^.^.^.^.^.^.^.^.^.^.^.^.^.^.^.^.^.^.^.^.^.^.^.^.^.^.^.^.^.^.^.^.^.^.^.^.^.^.^.^.^.^.^.^.^.^.^.^.^.^.^.^.^.^.^.^.^.^.^.^.^.^.^.^.^.^.^.^.^.^.^.^.^.^.^.^.^.^.^.^.^.^.^.^.^.^.^.^.^.^.^.^.^.^.^.^.^.^.^.^.^.^.^.^.^.^.^.^.^.^.^.^.^.^.",
"^.^.^.^.^.^.^.^.^.^.^.^.^.^.^.^.^.^.^.^.^.^.^.^.^.^.^.^.^.^.^.^.^.^.^.^.^.^.^.^.^.^.^.^.^.^.^.^.^.^.^.^.^.^.^.^.^.^.^.^.^.^.^.^.^.^.^.^.^.^.^.^.^.^.^.^.^.o @ # % % % * > > 1 4 6 7 0 0 0 e p f k v v m D P E E E Q ^ ( ) ' ' }  .O.O.#.=.:.1.4.4.q.q.t.t.i.s.h.h.k.z.z.z.v.n.n.m.m.m.m.m.m.m.m.m.m.m.N.N.N.N.m.m.N.m.m.m.m.m.m.m.m.m.m.m.m.m.m.m.m.m.m.m.m.m.m.m.m.m.m.m.m.m.m.m.m.m.m.m.m.m.m.m.m.N.N.N.N.N.V.N.N.V.N.N.C.C.C.V.V.V.C.C.C.C.C.A.A.A.A.A.A.F.F.H.H.H.H.H.H.H.L.L.H.L.L.L.L.L.L.I.I.I.I.I.I.I.I.I.I.U.U.U.U.I.I.U.U.I.U.U.I.U.I.U.U.U.U.U.U.U.U.U.U.U.U.U.U.U.U.U.R.R.R.U.U.U.U.U.U.U.I.I.I.H.H.H.H.H.F.H.F.F.A.A.A.A.A.A.A.C.C.C.C.C.V.V.N.N.N.N.N.m.m.m.n.n.v.z.z.z.z.z.z.z.z.z.z.z.k.k.k.k.k.k.k.k.k.k.h.h.h.h.h.h.h.h.s.s.s.s.s.i.i.i.i.t.t.t.t.e.e.e.e.e.q.e.e.q.e.e.e.e.e.e.e.e.t.e.t.t.t.e.e.e.t.e.e.e.e.e.e.q.q.e.e.e.e.e.e.q.e.e.q.q.q.q.8.8.8.8.8.4.4.4.1.1.,.,.:.:.;.=.=.=.=.#.#.#.#.O.O.O.O.O. . . . . . . . . . .} } ' ' ) ) ( ( ^ Q Q W E E E E U K D Z B m v z z f p u e e 0 4 4 > * % + . ^.^.^.^.^.^.^.^.^.^.^.^.^.^.^.^.^.^.^.^.^.^.^.^.^.^.^.^.^.^.^.^.^.^.^.^.^.^.^.^.^.^.^.^.^.^.^.^.^.^.^.^.^.^.^.^.^.^.^.^.^.^.^.^.^.^.^.^.^.^.^.^.^.^.^.^.^.^.^.^.^.^.^.^.^.^.^.^.^.^.^.^.^.^.^.^.^.^.^.^.^.^.^.^.^.^.^.^.^.^.^.^.^.^.^.^.^.^.^.^.^.^.^.^.^.^.^.^.^.^.^.^.^.^.^.^.^.^.^.^.^.",
"^.^.^.^.^.^.^.^.^.^.^.^.^.^.^.^.^.^.^.^.^.^.^.^.^.^.^.^.^.^.^.^.^.^.^.^.^.^.^.^.^.^.^.^.^.^.^.^.^.^.^.^.^.^.^.^.^.^.^.^.^.^.^.^.^.^.^.^.^.^.^.^.^.^.^.^.^.o @ # % % % * * > 1 4 4 8 8 8 0 0 u f k k v m Z K E E E Q Q ^ ^ ) ' } }  .O.#.=.:.,.1.4.8.q.e.t.i.s.h.h.k.k.z.z.z.n.m.m.m.m.m.N.m.m.m.m.m.m.m.m.m.N.m.m.N.m.m.m.m.m.m.n.m.m.m.m.m.m.m.m.N.m.m.m.m.m.m.m.m.m.m.m.m.m.m.m.m.N.N.N.N.N.N.N.N.N.V.V.V.C.C.V.V.C.V.C.C.C.C.C.C.C.C.A.A.A.A.A.A.A.A.F.F.F.H.H.H.H.H.H.H.L.L.L.I.L.L.L.I.L.I.L.I.I.I.I.I.U.U.U.U.U.I.U.U.U.U.I.U.U.I.U.U.I.I.I.U.U.U.U.U.U.U.U.U.U.R.U.R.U.R.R.R.U.U.U.U.U.U.U.U.U.U.I.I.L.H.H.H.H.H.H.H.F.F.F.A.A.A.A.A.A.A.C.C.C.C.V.C.V.V.N.N.N.m.m.m.n.n.v.z.v.z.v.z.z.z.z.z.z.z.k.k.k.k.k.z.k.k.k.k.k.h.h.h.h.h.h.h.h.h.s.s.s.i.i.i.t.t.t.e.e.t.e.e.e.e.q.e.e.q.e.e.e.e.e.e.e.t.t.t.t.t.t.t.e.t.e.e.e.e.e.q.e.e.e.q.q.q.e.e.e.e.e.q.q.q.q.8.8.8.8.4.4.4.1.1.,.,.,.:.;.;.=.=.=.#.#.#.O.O.O.O.O. . . . . . . . . . . .} } ' ' ' ) ) ( ^ ^ Q Q E E E E P H D D B m b v z k f p u e 0 8 4 1 > % $ o . ^.^.^.^.^.^.^.^.^.^.^.^.^.^.^.^.^.^.^.^.^.^.^.^.^.^.^.^.^.^.^.^.^.^.^.^.^.^.^.^.^.^.^.^.^.^.^.^.^.^.^.^.^.^.^.^.^.^.^.^.^.^.^.^.^.^.^.^.^.^.^.^.^.^.^.^.^.^.^.^.^.^.^.^.^.^.^.^.^.^.^.^.^.^.^.^.^.^.^.^.^.^.^.^.^.^.^.^.^.^.^.^.^.^.^.^.^.^.^.^.^.^.^.^.^.^.^.^.^.^.^.^.^.^.^.^.^.^.^.^.^.",
"^.^.^.^.^.^.^.^.^.^.^.^.^.^.^.^.^.^.^.^.^.^.^.^.^.^.^.^.^.^.^.^.^.^.^.^.^.^.^.^.^.^.^.^.^.^.^.^.^.^.^.^.^.^.^.^.^.^.^.^.^.^.^.^.^.^.^.^.^.^.^.^.^.^.^.^.^.. o + $ % % * * > > 1 4 4 4 6 8 0 e u f k x m Z H E E E W Q Q ^ ) ) ' }  . .#.=.;.,.1.4.8.q.e.t.i.s.h.k.k.z.z.v.v.n.m.m.m.m.N.m.m.m.m.m.N.N.N.N.m.m.m.N.m.m.m.m.m.m.m.m.m.m.m.m.m.m.m.N.N.m.m.m.m.m.m.m.m.m.m.m.m.m.m.N.N.N.V.N.V.N.V.N.V.V.V.V.C.V.C.C.C.C.C.C.C.C.C.C.C.A.A.A.A.A.A.A.A.F.F.F.F.H.H.H.H.L.L.L.L.I.I.U.I.L.I.I.I.L.I.I.I.I.U.I.U.I.U.U.U.U.U.U.U.U.I.U.U.U.U.U.U.U.U.U.I.U.U.U.U.U.U.R.U.R.U.U.U.R.R.R.U.U.U.U.U.U.U.U.U.U.U.U.I.L.L.H.H.H.H.H.H.F.F.F.F.D.D.A.A.A.A.A.C.C.C.C.C.C.C.V.N.N.N.m.m.m.m.n.v.v.v.v.v.z.z.z.z.z.z.z.z.k.z.k.z.z.z.k.k.k.k.k.k.k.k.h.h.h.h.h.s.s.i.i.i.t.t.t.t.t.t.e.e.e.e.e.e.q.q.e.e.e.e.t.t.t.t.t.t.t.t.t.t.t.e.e.e.e.e.q.e.e.e.q.e.q.q.e.e.e.e.q.q.8.q.8.8.8.8.4.4.4.1.1.,.,.:.:.;.;.=.=.=.#.#.#.#.O.O.O.O.O.O. . . . . . .}  .} } } ' ' ' ' ) ( ^ ^ Q Q Q E E E U K D D B m b x k k f p u e e 0 4 4 1 * % # o . ^.^.^.^.^.^.^.^.^.^.^.^.^.^.^.^.^.^.^.^.^.^.^.^.^.^.^.^.^.^.^.^.^.^.^.^.^.^.^.^.^.^.^.^.^.^.^.^.^.^.^.^.^.^.^.^.^.^.^.^.^.^.^.^.^.^.^.^.^.^.^.^.^.^.^.^.^.^.^.^.^.^.^.^.^.^.^.^.^.^.^.^.^.^.^.^.^.^.^.^.^.^.^.^.^.^.^.^.^.^.^.^.^.^.^.^.^.^.^.^.^.^.^.^.^.^.^.^.^.^.^.^.^.^.^.^.^.^.^.^.^.",
"^.^.^.^.^.^.^.^.^.^.^.^.^.^.^.^.^.^.^.^.^.^.^.^.^.^.^.^.^.^.^.^.^.^.^.^.^.^.^.^.^.^.^.^.^.^.^.^.^.^.^.^.^.^.^.^.^.^.^.^.^.^.^.^.^.^.^.^.^.^.^.^.^.^.^.^.^.^.o + % % % * * > > 1 1 4 4 4 7 0 e u p k x m Z H U E E Q Q Q Q ^ ) ' ' }  .O.=.=.,.1.4.8.q.e.t.i.s.h.h.k.z.z.v.v.n.n.m.m.N.N.m.N.m.m.m.m.N.N.N.N.N.N.N.N.N.m.m.m.N.N.m.m.m.m.N.N.N.N.N.N.N.N.N.N.N.N.N.N.N.N.N.N.N.N.N.V.C.V.C.C.C.C.V.C.V.C.C.C.C.C.C.C.A.C.C.C.A.A.A.A.A.A.A.A.D.D.A.F.F.F.F.F.H.H.H.L.I.I.I.I.U.U.U.U.I.I.I.L.I.L.I.U.I.U.U.I.U.U.U.U.U.U.U.U.U.U.U.U.U.U.U.U.U.U.I.U.U.U.U.U.U.U.U.U.R.U.U.R.R.R.R.R.U.U.U.U.U.U.U.U.U.U.U.U.I.L.L.H.H.H.H.H.H.F.F.F.F.D.D.D.A.A.A.A.A.A.A.C.C.C.C.C.V.N.N.m.m.m.n.n.n.v.v.v.v.z.v.z.z.z.z.z.z.z.z.z.z.z.z.k.z.k.k.k.k.k.k.h.h.h.h.h.s.s.i.i.i.t.t.t.t.t.t.e.e.e.e.e.e.e.e.e.e.e.e.t.t.t.t.t.i.t.t.t.t.t.e.e.e.e.e.q.q.e.q.e.q.q.e.q.q.q.q.q.q.8.8.4.8.4.4.4.1.1.1.,.,.:.;.;.=.=.=.=.#.#.#.#.#.O.O. .O. . . . . . . .}  . .} } ' ' ' ' ) ( ^ ^ Q Q E E E E L H D B m b v z k f p u t e 0 8 4 1 > * % + o ^.^.^.^.^.^.^.^.^.^.^.^.^.^.^.^.^.^.^.^.^.^.^.^.^.^.^.^.^.^.^.^.^.^.^.^.^.^.^.^.^.^.^.^.^.^.^.^.^.^.^.^.^.^.^.^.^.^.^.^.^.^.^.^.^.^.^.^.^.^.^.^.^.^.^.^.^.^.^.^.^.^.^.^.^.^.^.^.^.^.^.^.^.^.^.^.^.^.^.^.^.^.^.^.^.^.^.^.^.^.^.^.^.^.^.^.^.^.^.^.^.^.^.^.^.^.^.^.^.^.^.^.^.^.^.^.^.^.^.^.^.^.",
"^.^.^.^.^.^.^.^.^.^.^.^.^.^.^.^.^.^.^.^.^.^.^.^.^.^.^.^.^.^.^.^.^.^.^.^.^.^.^.^.^.^.^.^.^.^.^.^.^.^.^.^.^.^.^.^.^.^.^.^.^.^.^.^.^.^.^.^.^.^.^.^.^.^.^.^.^.. o @ $ % * * > > > 1 4 4 1 4 4 7 q u p f x m B D P E E E Q Q ^ ^ ( ' ' }  .O.#.=.,.1.4.8.q.e.t.i.s.h.k.k.z.z.v.n.n.n.m.m.m.m.m.m.N.m.m.N.N.N.m.N.N.N.N.N.N.m.m.m.m.N.m.N.m.m.N.N.N.N.N.N.N.N.N.N.N.N.N.V.N.N.N.N.V.V.C.C.C.C.C.C.C.C.C.C.C.C.C.A.A.A.A.A.A.A.A.A.A.A.A.A.A.A.A.F.F.F.F.F.H.H.H.H.H.H.L.L.L.I.U.I.U.U.U.U.U.U.I.I.I.L.I.I.U.I.U.U.U.U.U.U.U.U.U.U.U.U.U.U.U.U.U.U.U.U.U.I.U.U.U.U.U.U.R.U.R.R.R.R.R.R.R.U.U.U.U.U.U.U.U.U.U.U.U.U.U.I.L.L.H.H.H.H.H.H.F.F.F.H.F.F.A.A.A.A.A.A.A.A.A.C.C.C.C.C.N.N.m.m.m.m.n.n.n.v.n.v.v.z.z.z.z.z.z.z.z.z.z.z.z.z.z.z.z.z.z.k.k.k.h.h.h.s.s.s.i.i.i.t.i.i.i.t.t.t.e.e.e.e.e.e.e.e.t.t.t.t.t.t.t.t.t.t.t.t.e.t.e.e.e.e.e.e.e.e.e.e.e.e.q.q.q.q.8.8.8.8.8.8.4.4.4.1.1.1.,.,.:.:.;.=.=.=.=.=.#.#.#.#.+.O.O. . . . . . . . . . .} } } } ' ' ' ) ) ( ^ Q Q W E E E P H D B m b v v k f p u u e q 7 4 4 > * % # o . ^.^.^.^.^.^.^.^.^.^.^.^.^.^.^.^.^.^.^.^.^.^.^.^.^.^.^.^.^.^.^.^.^.^.^.^.^.^.^.^.^.^.^.^.^.^.^.^.^.^.^.^.^.^.^.^.^.^.^.^.^.^.^.^.^.^.^.^.^.^.^.^.^.^.^.^.^.^.^.^.^.^.^.^.^.^.^.^.^.^.^.^.^.^.^.^.^.^.^.^.^.^.^.^.^.^.^.^.^.^.^.^.^.^.^.^.^.^.^.^.^.^.^.^.^.^.^.^.^.^.^.^.^.^.^.^.^.^.^.^.^.^.",
"^.^.^.^.^.^.^.^.^.^.^.^.^.^.^.^.^.^.^.^.^.^.^.^.^.^.^.^.^.^.^.^.^.^.^.^.^.^.^.^.^.^.^.^.^.^.^.^.^.^.^.^.^.^.^.^.^.^.^.^.^.^.^.^.^.^.^.^.^.^.^.^.^.^.^.^.^.. o + % % * * > > > 1 1 1 1 4 4 8 q e u f v m B D L E E E W Q Q ^ ( ) ' }  .O.#.=.:.1.4.8.q.e.t.i.s.h.k.k.z.z.v.v.n.m.m.m.m.m.m.m.m.N.N.N.N.N.m.m.N.N.N.N.N.N.N.m.N.N.N.N.m.m.N.N.N.C.V.V.V.N.N.V.N.N.C.V.C.V.C.C.C.C.C.C.C.C.C.C.A.A.C.A.C.A.A.A.A.A.A.A.A.A.A.A.A.A.F.F.F.F.H.F.H.H.H.H.H.H.H.H.L.L.L.I.U.I.U.U.U.U.U.U.U.U.I.I.I.I.I.I.U.I.U.U.U.U.U.U.U.U.U.U.U.U.U.U.U.U.U.U.U.U.U.U.U.U.U.U.U.U.U.U.R.R.R.R.U.U.U.U.U.U.U.U.U.U.U.U.U.U.U.U.U.U.I.I.L.L.H.H.H.H.F.H.H.F.F.H.F.F.F.A.A.A.A.A.A.A.A.C.C.C.V.N.N.m.m.m.m.m.n.n.n.n.v.v.v.v.v.v.v.z.v.z.z.z.z.z.z.z.z.z.z.k.z.k.k.k.h.h.h.s.s.a.i.i.t.t.t.t.t.t.t.t.t.e.e.e.e.t.t.t.t.t.t.t.t.t.t.t.t.t.t.e.t.e.e.e.q.e.q.e.q.e.e.q.q.8.q.8.8.8.8.4.8.4.4.4.1.1.1.,.,.:.:.;.=.=.=.=.=.=.#.#.#.#.+.O.O. . . . . . . . .} } } } } ' ' ' ) ( ( ^ ^ Q Q E E E U K D D B m v v z f p u u e q 0 6 4 1 > * % + o ^.^.^.^.^.^.^.^.^.^.^.^.^.^.^.^.^.^.^.^.^.^.^.^.^.^.^.^.^.^.^.^.^.^.^.^.^.^.^.^.^.^.^.^.^.^.^.^.^.^.^.^.^.^.^.^.^.^.^.^.^.^.^.^.^.^.^.^.^.^.^.^.^.^.^.^.^.^.^.^.^.^.^.^.^.^.^.^.^.^.^.^.^.^.^.^.^.^.^.^.^.^.^.^.^.^.^.^.^.^.^.^.^.^.^.^.^.^.^.^.^.^.^.^.^.^.^.^.^.^.^.^.^.^.^.^.^.^.^.^.^.^.^.",
"^.^.^.^.^.^.^.^.^.^.^.^.^.^.^.^.^.^.^.^.^.^.^.^.^.^.^.^.^.^.^.^.^.^.^.^.^.^.^.^.^.^.^.^.^.^.^.^.^.^.^.^.^.^.^.^.^.^.^.^.^.^.^.^.^.^.^.^.^.^.^.^.^.^.^.^.^.o o + + $ % * * * * > > > 1 4 4 8 0 e u f z b m D H U E E Q Q Q ^ ( ) ' }  .O.#.=.:.,.4.4.q.e.t.i.s.s.k.k.z.z.v.v.n.m.m.m.m.m.m.m.m.N.N.N.N.m.N.m.N.N.N.N.N.N.N.m.N.N.N.N.N.m.N.N.V.C.V.C.C.V.V.C.V.C.C.C.C.C.C.C.C.C.C.C.A.A.A.A.A.A.A.A.A.A.A.A.A.A.D.F.A.D.A.F.F.F.F.F.H.H.H.F.H.F.F.F.H.H.H.H.H.L.L.I.U.U.U.U.U.U.U.U.U.U.I.U.I.I.U.U.U.U.U.U.U.U.R.U.U.U.U.U.U.U.U.U.U.U.U.U.U.U.U.U.U.U.U.U.U.U.U.R.R.R.R.R.U.U.U.U.U.U.U.U.U.R.R.R.U.U.U.U.U.U.I.I.L.L.L.H.H.H.H.H.H.F.F.F.F.F.F.F.F.A.A.A.A.A.A.A.C.C.C.C.N.N.N.m.m.m.n.m.n.n.n.v.v.v.v.v.v.v.v.v.v.z.v.z.v.v.v.z.z.z.z.k.k.k.k.h.h.h.s.s.i.i.i.t.t.i.t.t.t.t.t.e.t.t.t.e.t.t.t.t.t.t.t.t.t.t.t.t.t.t.e.e.e.e.e.q.q.e.e.q.q.q.q.q.8.8.4.8.4.4.4.4.4.1.1.1.1.,.:.:.;.;.=.=.=.=.#.#.#.#.#.#.O.O.O. . . . . . .}  .} } } ' } ' ' ' ) ( ^ ^ Q Q Q E E E L H D B m b v z f f p u e q 0 6 4 4 1 * % $ o o ^.^.^.^.^.^.^.^.^.^.^.^.^.^.^.^.^.^.^.^.^.^.^.^.^.^.^.^.^.^.^.^.^.^.^.^.^.^.^.^.^.^.^.^.^.^.^.^.^.^.^.^.^.^.^.^.^.^.^.^.^.^.^.^.^.^.^.^.^.^.^.^.^.^.^.^.^.^.^.^.^.^.^.^.^.^.^.^.^.^.^.^.^.^.^.^.^.^.^.^.^.^.^.^.^.^.^.^.^.^.^.^.^.^.^.^.^.^.^.^.^.^.^.^.^.^.^.^.^.^.^.^.^.^.^.^.^.^.^.^.^.^.^.",
"^.^.^.^.^.^.^.^.^.^.^.^.^.^.^.^.^.^.^.^.^.^.^.^.^.^.^.^.^.^.^.^.^.^.^.^.^.^.^.^.^.^.^.^.^.^.^.^.^.^.^.^.^.^.^.^.^.^.^.^.^.^.^.^.^.^.^.^.^.^.^.^.^.^.^.^.^.o o # # # + % % * * * * > 1 4 4 8 0 e u f k x m B D P E E W Q ^ ^ ( ) ' }  .O.#.=.;.,.1.4.q.e.t.i.s.s.k.k.z.z.v.n.n.m.m.N.m.m.m.m.m.m.N.N.N.N.N.m.N.N.N.N.N.N.N.N.N.N.N.N.N.N.N.V.C.C.C.C.C.C.C.C.C.C.C.C.C.C.C.C.C.C.C.C.A.A.A.A.A.A.A.A.A.A.A.A.A.A.F.F.F.H.F.F.F.H.H.H.H.H.H.H.H.H.H.H.H.H.H.H.L.L.I.U.U.U.U.U.U.U.U.U.U.U.U.I.I.U.U.U.U.U.U.U.R.U.R.R.U.R.U.U.U.U.U.U.U.U.U.U.U.U.U.U.U.U.U.U.U.U.U.U.U.R.R.R.U.U.U.U.U.U.U.U.R.R.U.R.U.U.U.U.U.U.I.U.I.L.L.L.H.H.H.H.H.F.H.F.F.F.F.F.F.F.F.F.D.D.A.A.A.A.C.V.C.V.N.N.m.m.m.n.n.n.n.m.n.n.n.n.n.n.n.n.n.n.v.v.v.v.n.v.z.v.z.z.z.z.k.k.h.h.s.s.s.s.i.i.i.i.t.t.t.t.t.t.t.t.t.t.t.t.t.t.t.t.i.i.t.t.t.t.t.e.e.e.e.q.q.e.q.q.q.q.q.q.q.8.8.8.4.8.4.4.4.4.1.1.1.1.,.:.:.;.;.=.=.=.=.=.=.#.#.#.O.O.O.O.O. . . . . .}  . .} } } ' ' ' ' ) ) ( ^ Q Q Q E E E U H D B m b v z f f p u e e 0 8 4 4 1 > * % # o . ^.^.^.^.^.^.^.^.^.^.^.^.^.^.^.^.^.^.^.^.^.^.^.^.^.^.^.^.^.^.^.^.^.^.^.^.^.^.^.^.^.^.^.^.^.^.^.^.^.^.^.^.^.^.^.^.^.^.^.^.^.^.^.^.^.^.^.^.^.^.^.^.^.^.^.^.^.^.^.^.^.^.^.^.^.^.^.^.^.^.^.^.^.^.^.^.^.^.^.^.^.^.^.^.^.^.^.^.^.^.^.^.^.^.^.^.^.^.^.^.^.^.^.^.^.^.^.^.^.^.^.^.^.^.^.^.^.^.^.^.^.^.^.",
"^.^.^.^.^.^.^.^.^.^.^.^.^.^.^.^.^.^.^.^.^.^.^.^.^.^.^.^.^.^.^.^.^.^.^.^.^.^.^.^.^.^.^.^.^.^.^.^.^.^.^.^.^.^.^.^.^.^.^.^.^.^.^.^.^.^.^.^.^.^.^.^.^.^.^.^.^.o @ # + o o # # % % * * * > 1 1 4 8 q u p k z b m D H E E Q Q Q ^ ^ ( ' }  .O.#.=.:.,.1.4.8.e.t.i.i.s.h.k.z.z.v.v.n.m.m.N.N.N.N.N.N.N.N.N.N.N.N.N.N.N.N.N.N.N.N.N.N.N.N.N.N.N.N.V.C.C.C.C.C.A.C.C.A.A.C.A.A.A.A.A.A.A.A.A.A.A.A.A.A.A.A.A.D.A.D.D.A.F.F.F.F.F.H.F.H.H.H.H.H.H.H.H.H.H.H.H.H.H.L.L.L.L.I.U.U.R.R.R.U.U.U.U.U.U.U.U.U.U.U.U.U.U.U.R.R.R.R.R.U.R.U.U.U.U.U.U.U.U.U.U.U.U.U.U.U.U.U.U.U.U.U.U.U.U.R.U.U.U.U.U.U.U.U.U.U.U.R.U.R.U.U.U.U.U.U.U.U.I.I.L.H.H.H.H.H.H.H.H.H.F.H.F.F.H.F.F.F.D.A.A.A.A.A.C.C.V.V.N.N.N.m.m.m.n.m.n.m.m.m.m.m.n.m.n.m.m.n.n.n.n.n.n.n.n.v.v.z.z.z.k.k.h.h.s.s.s.a.i.i.i.i.i.t.t.t.t.t.t.t.t.t.t.t.t.t.t.t.i.i.t.t.t.t.t.t.e.e.e.e.q.q.q.q.q.8.q.8.8.8.8.8.8.4.4.1.1.1.1.1.,.,.:.:.;.;.=.=.=.=.=.#.#.#.O.O.O.O.O.O. . . . . . .} } } } ' ' ' ' ' ) ( ( Q Q Q E E E E P H Z m b v k k f p u t e 0 7 4 4 1 > * * % @ o . ^.^.^.^.^.^.^.^.^.^.^.^.^.^.^.^.^.^.^.^.^.^.^.^.^.^.^.^.^.^.^.^.^.^.^.^.^.^.^.^.^.^.^.^.^.^.^.^.^.^.^.^.^.^.^.^.^.^.^.^.^.^.^.^.^.^.^.^.^.^.^.^.^.^.^.^.^.^.^.^.^.^.^.^.^.^.^.^.^.^.^.^.^.^.^.^.^.^.^.^.^.^.^.^.^.^.^.^.^.^.^.^.^.^.^.^.^.^.^.^.^.^.^.^.^.^.^.^.^.^.^.^.^.^.^.^.^.^.^.^.^.^.^.",
"^.^.^.^.^.^.^.^.^.^.^.^.^.^.^.^.^.^.^.^.^.^.^.^.^.^.^.^.^.^.^.^.^.^.^.^.^.^.^.^.^.^.^.^.^.^.^.^.^.^.^.^.^.^.^.^.^.^.^.^.^.^.^.^.^.^.^.^.^.^.^.^.^.^.^.^.^.o o @ + o o o o # % % % % * > 1 4 4 0 e p f k v b B H U E W Q Q Q ^ ) ' }  .O.#.=.;.,.1.4.8.e.e.t.i.s.h.k.k.z.v.n.m.m.m.N.N.N.N.N.N.N.N.N.N.N.N.N.N.N.N.V.N.V.N.V.V.V.V.N.V.N.V.V.C.C.C.A.C.A.C.A.A.A.A.A.A.A.A.A.A.A.A.A.A.A.A.A.A.A.D.A.D.F.D.F.F.F.F.F.F.H.F.H.H.H.H.H.H.H.H.H.H.H.H.H.L.H.L.L.L.I.U.U.R.R.R.R.R.R.U.U.U.U.U.U.U.U.U.U.U.U.U.U.R.U.R.R.R.R.R.U.U.U.R.U.U.U.U.U.U.U.U.U.U.U.U.U.U.U.U.U.U.U.U.U.U.U.U.U.U.U.U.U.U.U.U.R.R.R.U.R.R.U.U.U.U.U.I.I.L.L.L.H.H.H.H.H.H.H.H.H.F.H.H.H.F.H.F.F.A.A.A.A.C.C.C.V.N.N.N.N.m.m.m.m.m.m.m.m.m.m.m.m.m.m.m.m.m.m.m.m.n.n.n.v.v.z.z.k.k.h.h.h.h.s.s.s.i.i.i.i.i.t.t.t.t.t.t.t.t.t.t.i.t.i.i.i.i.t.t.t.t.t.e.e.e.e.q.q.q.q.q.8.8.8.8.8.8.8.8.4.4.4.1.1.1.1.,.,.:.:.:.;.=.=.=.=.=.#.#.#.#.O.O.O.O.O.O. . . . . .} } } } ' ' ' ' ' ) ) ( ^ ^ Q Q E E E U K D B b v z k f p u t e q 0 6 4 1 > * * % # o o ^.^.^.^.^.^.^.^.^.^.^.^.^.^.^.^.^.^.^.^.^.^.^.^.^.^.^.^.^.^.^.^.^.^.^.^.^.^.^.^.^.^.^.^.^.^.^.^.^.^.^.^.^.^.^.^.^.^.^.^.^.^.^.^.^.^.^.^.^.^.^.^.^.^.^.^.^.^.^.^.^.^.^.^.^.^.^.^.^.^.^.^.^.^.^.^.^.^.^.^.^.^.^.^.^.^.^.^.^.^.^.^.^.^.^.^.^.^.^.^.^.^.^.^.^.^.^.^.^.^.^.^.^.^.^.^.^.^.^.^.^.^.^.^.",
"^.^.^.^.^.^.^.^.^.^.^.^.^.^.^.^.^.^.^.^.^.^.^.^.^.^.^.^.^.^.^.^.^.^.^.^.^.^.^.^.^.^.^.^.^.^.^.^.^.^.^.^.^.^.^.^.^.^.^.^.^.^.^.^.^.^.^.^.^.^.^.^.^.^.^.^.^.o o o o o . . o @ # $ $ % % * > 1 4 0 e u f k x b m H P E E W Q ^ ( ) ' }  .O.#.=.;.,.1.4.4.q.e.t.i.s.s.h.k.z.v.v.n.m.m.m.N.N.N.N.N.N.N.N.N.N.N.N.N.N.N.V.V.V.C.C.C.C.C.C.V.V.C.C.C.C.A.A.A.A.A.A.A.A.A.A.A.A.A.A.A.A.A.A.A.A.F.A.A.F.D.F.F.F.A.F.F.F.F.F.H.F.H.H.H.H.L.H.L.H.L.L.L.L.H.L.L.L.I.I.U.U.U.U.U.U.R.R.R.R.U.U.U.U.U.U.U.U.U.U.U.U.U.U.U.R.R.R.R.U.U.U.U.U.U.U.U.U.U.U.U.U.U.U.U.U.U.I.U.I.U.U.U.U.U.U.U.U.U.U.U.R.R.R.R.U.R.R.R.R.R.U.U.U.U.U.U.U.U.U.I.I.L.L.H.L.H.H.H.H.H.H.H.H.H.H.F.H.F.F.A.A.A.A.C.C.C.C.C.N.N.N.N.m.m.m.N.m.N.m.m.m.m.m.m.N.m.m.m.m.m.m.m.m.m.n.n.v.z.z.k.h.h.h.s.s.s.s.s.s.i.i.i.i.i.i.t.t.i.t.t.i.t.i.i.i.t.t.t.t.t.t.t.e.e.e.e.e.q.q.q.8.8.8.8.8.8.4.8.8.4.4.4.1.1.1.1.,.,.,.:.:.;.;.=.=.=.=.#.#.#.#.#.O.O.O.O.O.O. . . . . .} } } } ' ' ' ' ' ) ( ( ^ Q Q E E E E L D B m b v k f p u u e q 0 8 4 4 > > * % # @ o . ^.^.^.^.^.^.^.^.^.^.^.^.^.^.^.^.^.^.^.^.^.^.^.^.^.^.^.^.^.^.^.^.^.^.^.^.^.^.^.^.^.^.^.^.^.^.^.^.^.^.^.^.^.^.^.^.^.^.^.^.^.^.^.^.^.^.^.^.^.^.^.^.^.^.^.^.^.^.^.^.^.^.^.^.^.^.^.^.^.^.^.^.^.^.^.^.^.^.^.^.^.^.^.^.^.^.^.^.^.^.^.^.^.^.^.^.^.^.^.^.^.^.^.^.^.^.^.^.^.^.^.^.^.^.^.^.^.^.^.^.^.^.^.^.",
"^.^.^.^.^.^.^.^.^.^.^.^.^.^.^.^.^.^.^.^.^.^.^.^.^.^.^.^.^.^.^.^.^.^.^.^.^.^.^.^.^.^.^.^.^.^.^.^.^.^.^.^.^.^.^.^.^.^.^.^.^.^.^.^.^.^.^.^.^.^.^.^.^.^.^.^.. . o . o o ^.^.. o @ # $ $ % * * > 4 6 q u f k v b m D P E E W Q Q ( ) '  .O.O.#.=.;.:.,.1.4.q.e.t.i.s.s.k.k.z.z.v.n.m.m.N.N.N.V.V.N.V.N.N.N.N.N.V.N.V.N.V.C.C.V.C.C.C.C.C.C.C.C.C.C.A.A.A.A.A.A.A.D.D.D.F.A.F.F.A.F.D.F.A.A.A.F.F.F.F.F.F.F.F.F.F.F.F.F.H.H.H.H.H.H.H.H.L.L.L.I.L.I.L.L.L.I.I.U.U.U.U.U.R.U.U.R.R.R.R.R.U.U.U.U.U.U.U.U.U.U.U.U.R.R.U.R.R.R.R.R.R.U.U.U.R.U.U.U.U.U.U.U.U.U.U.U.U.I.U.U.U.I.U.I.U.U.U.U.U.U.R.R.R.U.R.R.R.R.U.U.U.U.U.R.U.U.U.U.U.U.I.I.L.L.H.H.L.H.H.H.H.H.H.H.H.H.H.H.F.F.F.F.A.A.A.C.C.C.C.N.N.N.N.N.N.N.N.N.N.N.N.m.N.N.N.N.N.N.N.N.m.m.m.m.m.n.v.z.z.k.k.h.h.h.h.s.s.s.s.s.i.i.i.i.i.i.t.t.t.i.i.t.i.i.i.t.t.i.t.t.t.t.t.e.e.e.q.q.q.q.8.8.8.8.8.4.4.8.4.4.4.1.1.1.1.,.,.,.:.:.;.=.=.=.=.=.#.#.#.#.O.O.O.O.O.O.O. . . . . . .} } } ' ' ' ' ' ) ) ( ( ^ Q Q E E E U H D B b x z f p u t e q 0 8 6 4 1 > * % $ @ o . ^.^.^.^.^.^.^.^.^.^.^.^.^.^.^.^.^.^.^.^.^.^.^.^.^.^.^.^.^.^.^.^.^.^.^.^.^.^.^.^.^.^.^.^.^.^.^.^.^.^.^.^.^.^.^.^.^.^.^.^.^.^.^.^.^.^.^.^.^.^.^.^.^.^.^.^.^.^.^.^.^.^.^.^.^.^.^.^.^.^.^.^.^.^.^.^.^.^.^.^.^.^.^.^.^.^.^.^.^.^.^.^.^.^.^.^.^.^.^.^.^.^.^.^.^.^.^.^.^.^.^.^.^.^.^.^.^.^.^.^.^.^.^.^.^.",
"^.^.^.^.^.^.^.^.^.^.^.^.^.^.^.^.^.^.^.^.^.^.^.^.^.^.^.^.^.^.^.^.^.^.^.^.^.^.^.^.^.^.^.^.^.^.^.^.^.^.^.^.^.^.^.^.^.^.^.^.^.^.^.^.^.^.^.^.^.^.^.^.^.^.^.^.^.^.. . o . ^.. o o + $ $ % % * * 1 4 8 q u f z v b m D U E E Q Q ^ ( ' '  . .O.#.=.=.:.,.1.4.q.t.i.i.s.h.h.k.z.z.v.n.n.m.N.N.V.V.V.V.V.N.V.V.N.V.V.V.C.C.C.C.C.C.C.C.C.A.C.C.A.C.C.A.A.A.A.A.A.A.D.D.F.F.F.F.F.F.F.F.F.F.F.F.F.F.F.F.F.F.H.H.H.F.H.H.H.H.H.H.H.H.H.H.L.L.L.I.I.I.I.I.I.L.I.I.I.I.U.U.U.U.R.R.R.R.R.R.U.U.U.U.U.U.U.U.U.U.U.U.U.U.U.R.R.U.U.U.R.R.U.R.R.R.R.R.U.U.R.R.U.U.U.U.U.U.I.U.I.I.I.U.I.U.U.U.U.U.U.R.U.R.R.R.R.R.R.R.R.R.U.U.U.R.R.U.U.U.U.I.U.I.U.I.I.L.L.L.L.L.L.L.L.L.H.H.H.H.H.H.F.F.F.D.A.A.A.C.C.V.V.N.N.N.N.V.N.V.N.N.N.N.N.V.V.N.N.N.N.N.N.m.N.m.m.n.n.v.z.z.k.k.k.h.h.s.s.s.s.s.s.i.i.i.i.i.i.t.t.i.t.t.i.i.i.t.t.t.t.t.t.t.e.e.e.q.q.q.q.8.8.8.8.8.4.4.4.4.4.4.4.1.1.1.,.,.,.:.:.;.=.=.=.=.#.=.#.#.#.O.O.O.O.O.O.O. . . . . . .} } } } ' ' ' ' ) ) ( ^ Q Q Q E E E U K D B m b v k p u e e 0 0 8 6 4 1 > * * $ # o o . ^.^.^.^.^.^.^.^.^.^.^.^.^.^.^.^.^.^.^.^.^.^.^.^.^.^.^.^.^.^.^.^.^.^.^.^.^.^.^.^.^.^.^.^.^.^.^.^.^.^.^.^.^.^.^.^.^.^.^.^.^.^.^.^.^.^.^.^.^.^.^.^.^.^.^.^.^.^.^.^.^.^.^.^.^.^.^.^.^.^.^.^.^.^.^.^.^.^.^.^.^.^.^.^.^.^.^.^.^.^.^.^.^.^.^.^.^.^.^.^.^.^.^.^.^.^.^.^.^.^.^.^.^.^.^.^.^.^.^.^.^.^.^.^.^.",
"^.^.^.^.^.^.^.^.^.^.^.^.^.^.^.^.^.^.^.^.^.^.^.^.^.^.^.^.^.^.^.^.^.^.^.^.^.^.^.^.^.^.^.^.^.^.^.^.^.^.^.^.^.^.^.^.^.^.^.^.^.^.^.^.^.^.^.^.^.^.^.^.^.^.^.^.^.^.^.. ^.^.^.. o @ + # % % * * * > 4 7 e p f k v b B H E E W Q ^ ^ ) ' }  . .O.#.=.=.:.1.1.4.8.t.t.i.s.s.h.k.z.v.v.n.m.m.N.N.V.V.V.N.V.V.V.V.V.V.C.V.C.C.C.C.C.C.A.A.A.A.A.A.A.A.A.A.A.A.A.A.A.D.F.F.F.F.F.F.F.F.F.H.F.H.H.F.F.H.H.F.H.F.H.H.H.H.H.H.F.H.H.H.H.H.H.H.L.L.L.I.L.I.U.I.I.I.I.I.U.U.U.U.U.R.U.R.R.R.R.U.R.U.U.R.R.R.U.R.U.U.U.U.U.R.R.R.R.U.R.R.U.R.R.R.R.R.R.R.R.U.U.U.U.U.U.U.U.U.I.U.U.I.I.I.U.I.U.U.U.U.U.R.R.R.R.R.R.U.U.R.R.R.R.U.U.R.R.U.U.U.U.U.U.U.U.U.U.I.I.L.L.L.L.L.L.L.L.H.H.H.H.H.H.H.F.F.D.A.A.A.C.C.C.V.V.V.V.V.V.V.N.V.N.V.N.V.V.C.V.V.V.N.N.N.N.N.m.m.n.v.z.z.z.k.k.h.h.h.h.s.s.s.s.s.i.i.t.i.i.i.i.t.t.t.t.i.i.i.i.t.t.t.t.t.e.e.e.q.q.q.8.8.8.8.8.4.4.4.4.4.4.4.1.1.1.,.,.,.:.:.;.;.=.=.#.#.#.#.#.#.#.O.O.O.O.O.O.O.O. . . . . .} } } ' ' ' ' ' ) ( ( ^ Q Q W E E E P H Z B b v k f u t e 0 8 6 4 4 4 1 > * % $ @ o . ^.^.^.^.^.^.^.^.^.^.^.^.^.^.^.^.^.^.^.^.^.^.^.^.^.^.^.^.^.^.^.^.^.^.^.^.^.^.^.^.^.^.^.^.^.^.^.^.^.^.^.^.^.^.^.^.^.^.^.^.^.^.^.^.^.^.^.^.^.^.^.^.^.^.^.^.^.^.^.^.^.^.^.^.^.^.^.^.^.^.^.^.^.^.^.^.^.^.^.^.^.^.^.^.^.^.^.^.^.^.^.^.^.^.^.^.^.^.^.^.^.^.^.^.^.^.^.^.^.^.^.^.^.^.^.^.^.^.^.^.^.^.^.^.^.^.",
"^.^.^.^.^.^.^.^.^.^.^.^.^.^.^.^.^.^.^.^.^.^.^.^.^.^.^.^.^.^.^.^.^.^.^.^.^.^.^.^.^.^.^.^.^.^.^.^.^.^.^.^.^.^.^.^.^.^.^.^.^.^.^.^.^.^.^.^.^.^.^.^.^.^.^.^.^.^.^.^.^.^.^.. o @ + $ % % * * * 1 4 0 u p f z v b B K E E Q Q ^ ( ) ' }  . .O.#.=.=.,.1.4.4.q.e.t.i.s.h.k.k.z.v.n.n.m.m.N.N.V.V.V.V.V.V.C.V.C.C.C.C.C.C.A.A.A.A.A.A.A.A.A.A.A.A.D.D.F.F.A.F.F.H.F.F.F.F.F.F.F.F.H.H.H.H.H.F.F.H.H.F.H.H.F.H.H.H.F.H.H.H.H.H.H.H.L.L.L.L.I.I.I.U.U.I.U.I.U.I.U.U.U.U.U.U.R.R.R.R.R.U.R.U.R.R.R.R.R.U.U.U.R.U.R.R.R.R.R.R.R.R.R.R.U.R.R.R.R.R.R.U.U.R.U.U.U.U.U.U.I.U.U.U.I.U.I.U.U.I.U.U.U.U.U.R.R.R.R.R.R.R.U.R.R.R.R.R.R.R.R.U.U.U.U.U.U.U.U.U.U.U.U.I.I.I.L.L.L.L.L.L.L.H.H.H.F.F.F.A.A.A.A.C.C.C.C.C.V.C.V.C.C.C.C.V.V.C.C.C.C.V.C.V.N.N.N.N.m.m.n.n.v.z.z.k.k.k.k.h.h.h.s.s.s.s.i.i.i.i.i.t.i.i.i.t.t.t.t.t.t.t.t.t.t.e.e.e.q.q.q.8.8.8.4.4.4.4.4.4.4.4.1.1.1.1.,.,.,.:.:.;.;.=.=.=.#.#.#.#.#.O.#.+.O.O.O.O.O.O. . . . . .} } } ' ' ' ' ' ) ) ( ^ ^ Q Q E E E P H D B m v z f p u e 0 8 4 4 4 1 1 > * % % # o o . ^.^.^.^.^.^.^.^.^.^.^.^.^.^.^.^.^.^.^.^.^.^.^.^.^.^.^.^.^.^.^.^.^.^.^.^.^.^.^.^.^.^.^.^.^.^.^.^.^.^.^.^.^.^.^.^.^.^.^.^.^.^.^.^.^.^.^.^.^.^.^.^.^.^.^.^.^.^.^.^.^.^.^.^.^.^.^.^.^.^.^.^.^.^.^.^.^.^.^.^.^.^.^.^.^.^.^.^.^.^.^.^.^.^.^.^.^.^.^.^.^.^.^.^.^.^.^.^.^.^.^.^.^.^.^.^.^.^.^.^.^.^.^.^.^.^.",
"^.^.^.^.^.^.^.^.^.^.^.^.^.^.^.^.^.^.^.^.^.^.^.^.^.^.^.^.^.^.^.^.^.^.^.^.^.^.^.^.^.^.^.^.^.^.^.^.^.^.^.^.^.^.^.^.^.^.^.^.^.^.^.^.^.^.^.^.^.^.^.^.^.^.^.^.^.^.^.^.^.^.^.. o @ # % % * * * > 1 6 e u p f z x b Z K E E Q Q ^ ) ' ' }  .O.O.#.=.;.:.1.4.8.q.t.t.i.s.h.k.k.z.v.n.m.m.N.N.N.V.V.V.C.V.C.V.V.V.C.C.C.C.A.A.A.A.D.D.A.A.A.A.A.A.A.F.F.F.F.F.F.F.H.H.F.F.F.F.F.H.H.H.H.H.H.H.H.F.H.H.H.H.H.H.H.H.H.H.H.H.H.H.H.H.H.L.L.L.L.I.I.I.I.I.U.I.U.I.I.U.U.U.U.U.U.U.R.R.R.R.R.R.R.R.U.R.R.R.R.U.U.U.U.U.R.R.R.R.R.R.R.R.U.R.R.R.R.R.R.R.U.U.U.U.U.U.U.U.U.U.U.U.U.I.I.I.I.U.U.U.U.U.U.U.U.U.R.R.U.R.R.R.R.R.R.R.R.R.R.R.R.U.U.U.U.U.U.U.U.U.U.U.I.U.I.I.I.L.I.L.L.L.L.H.H.H.H.F.F.A.A.A.A.C.C.C.C.C.C.C.C.C.C.V.V.C.C.C.C.C.C.C.C.C.N.N.N.N.m.m.n.n.v.z.z.k.k.k.k.h.h.h.s.s.s.s.a.i.i.i.i.i.i.t.t.t.t.t.t.t.t.t.t.e.e.q.e.q.q.8.8.8.4.4.4.4.4.1.1.1.1.1.1.1.,.1.,.,.:.:.;.=.=.=.#.#.#.#.#.#.O.O.O.O.O.O.O. . . . . . .} } } } ' ' ' ' ) ) ( ( ^ Q Q Q E E U H D B m v z k f u e q 0 6 4 4 1 > > * * % # @ o o ^.^.^.^.^.^.^.^.^.^.^.^.^.^.^.^.^.^.^.^.^.^.^.^.^.^.^.^.^.^.^.^.^.^.^.^.^.^.^.^.^.^.^.^.^.^.^.^.^.^.^.^.^.^.^.^.^.^.^.^.^.^.^.^.^.^.^.^.^.^.^.^.^.^.^.^.^.^.^.^.^.^.^.^.^.^.^.^.^.^.^.^.^.^.^.^.^.^.^.^.^.^.^.^.^.^.^.^.^.^.^.^.^.^.^.^.^.^.^.^.^.^.^.^.^.^.^.^.^.^.^.^.^.^.^.^.^.^.^.^.^.^.^.^.^.^.^.",
"^.^.^.^.^.^.^.^.^.^.^.^.^.^.^.^.^.^.^.^.^.^.^.^.^.^.^.^.^.^.^.^.^.^.^.^.^.^.^.^.^.^.^.^.^.^.^.^.^.^.^.^.^.^.^.^.^.^.^.^.^.^.^.^.^.^.^.^.^.^.^.^.^.^.^.^.^.^.^.^.^.^.. . o @ + $ % * * > > 4 0 e u f f z x b B H U E Q Q ( ) ' ' }  . .O.#.=.;.:.1.4.8.q.e.t.i.s.h.k.k.z.v.n.m.m.m.N.N.N.V.V.V.C.V.C.V.C.C.C.A.A.A.A.A.A.D.F.F.F.F.F.F.F.F.F.F.H.F.F.F.F.H.H.H.F.H.H.H.F.H.H.H.H.H.H.H.H.H.H.H.H.H.H.H.H.H.H.H.H.L.H.H.H.H.H.H.L.I.I.I.I.I.I.U.I.U.I.U.I.U.U.U.U.U.R.R.R.R.R.R.R.R.R.R.R.R.R.R.U.U.U.U.U.U.U.R.R.R.R.R.R.U.R.R.U.R.R.R.U.U.U.U.U.U.U.U.U.U.U.U.U.I.U.U.I.U.I.U.U.U.U.U.U.U.U.U.R.R.R.R.R.R.R.R.R.R.R.R.R.R.R.R.R.U.U.U.U.U.R.U.U.U.U.U.I.I.I.I.L.I.L.H.H.H.H.H.H.F.F.D.D.A.A.A.A.A.A.C.C.C.C.C.C.C.C.C.C.C.A.C.C.C.C.C.V.N.N.m.m.n.n.v.v.z.z.z.k.k.k.h.h.h.s.s.s.i.a.i.i.i.t.i.i.t.t.t.i.t.t.t.e.e.e.e.q.q.8.8.8.8.4.4.4.1.1.1.1.1.1.1.1.1.1.,.,.,.:.:.;.=.=.=.#.#.#.#.#.#.O.O.O.O.O.O. .O. . . . . .} } } } ' ' ' ' ) ) ( ( ^ Q Q Q E E E K D B m b v z f p u e 0 6 4 4 1 > > * * % $ + o o . ^.^.^.^.^.^.^.^.^.^.^.^.^.^.^.^.^.^.^.^.^.^.^.^.^.^.^.^.^.^.^.^.^.^.^.^.^.^.^.^.^.^.^.^.^.^.^.^.^.^.^.^.^.^.^.^.^.^.^.^.^.^.^.^.^.^.^.^.^.^.^.^.^.^.^.^.^.^.^.^.^.^.^.^.^.^.^.^.^.^.^.^.^.^.^.^.^.^.^.^.^.^.^.^.^.^.^.^.^.^.^.^.^.^.^.^.^.^.^.^.^.^.^.^.^.^.^.^.^.^.^.^.^.^.^.^.^.^.^.^.^.^.^.^.^.^.^.",
"^.^.^.^.^.^.^.^.^.^.^.^.^.^.^.^.^.^.^.^.^.^.^.^.^.^.^.^.^.^.^.^.^.^.^.^.^.^.^.^.^.^.^.^.^.^.^.^.^.^.^.^.^.^.^.^.^.^.^.^.^.^.^.^.^.^.^.^.^.^.^.^.^.^.^.^.^.^.^.^.^.^.^.^.. @ + $ % % > 1 4 6 0 t p f k z v m Z H U E W Q ^ ) ' ' }  . .O.#.=.;.:.1.4.8.q.e.t.a.s.h.k.z.z.n.n.m.m.N.N.N.N.N.C.V.V.V.C.V.C.C.C.A.A.A.A.F.F.F.F.F.H.F.F.F.H.F.F.H.F.H.H.H.H.H.H.H.H.H.H.H.H.H.H.H.H.H.H.H.H.H.H.H.H.H.H.H.H.H.H.H.H.L.L.H.H.H.L.L.L.I.I.I.I.U.I.U.U.I.U.I.U.U.I.U.U.R.R.R.R.R.R.R.R.R.R.R.U.U.U.R.R.U.U.U.U.U.U.R.R.R.R.R.R.R.R.R.R.U.U.R.R.R.R.U.U.U.U.U.U.U.U.U.U.U.U.U.I.U.U.U.U.U.U.U.U.U.U.U.U.R.R.R.R.R.R.R.R.R.R.R.R.R.R.R.R.U.U.U.U.R.R.R.R.U.U.U.U.U.I.I.I.I.L.I.L.H.H.H.H.H.F.F.D.A.A.A.A.A.A.A.A.A.C.A.C.A.C.A.C.A.C.A.C.C.C.C.V.V.N.N.m.m.m.n.n.v.z.z.k.k.k.h.h.h.s.s.i.a.a.i.i.i.i.i.i.t.t.t.t.t.t.e.e.e.e.q.8.q.8.8.8.4.4.4.1.1.1.1.1.1.1.,.1.,.,.,.,.:.:.;.;.=.=.=.#.#.#.O.O.O.O.O.O.O.O.O. . . . . . .} } } } ' ' ' ' ' ) ( ( ^ ^ Q Q E E E U H D m b x z f p u e q 0 4 4 1 > > * * % $ + o o . . ^.^.^.^.^.^.^.^.^.^.^.^.^.^.^.^.^.^.^.^.^.^.^.^.^.^.^.^.^.^.^.^.^.^.^.^.^.^.^.^.^.^.^.^.^.^.^.^.^.^.^.^.^.^.^.^.^.^.^.^.^.^.^.^.^.^.^.^.^.^.^.^.^.^.^.^.^.^.^.^.^.^.^.^.^.^.^.^.^.^.^.^.^.^.^.^.^.^.^.^.^.^.^.^.^.^.^.^.^.^.^.^.^.^.^.^.^.^.^.^.^.^.^.^.^.^.^.^.^.^.^.^.^.^.^.^.^.^.^.^.^.^.^.^.^.^.^.",
"^.^.^.^.^.^.^.^.^.^.^.^.^.^.^.^.^.^.^.^.^.^.^.^.^.^.^.^.^.^.^.^.^.^.^.^.^.^.^.^.^.^.^.^.^.^.^.^.^.^.^.^.^.^.^.^.^.^.^.^.^.^.^.^.^.^.^.^.^.^.^.^.^.^.^.^.^.^.^.^.^.^.^.^.^.o @ $ % % > 1 4 0 e u f k k z x m B H U E W Q ^ ) ' ' }  .O.O.#.=.;.:.1.4.8.q.e.t.i.s.h.k.z.v.n.m.m.m.N.N.N.N.V.C.V.C.V.V.V.V.C.C.A.A.A.F.F.F.F.H.H.H.F.F.F.F.H.H.H.H.H.H.H.H.H.H.H.H.H.H.H.H.H.H.L.H.H.H.H.H.H.H.H.H.H.H.H.H.H.H.H.H.L.L.H.H.L.L.L.I.U.U.U.I.U.U.I.U.U.U.U.U.U.U.U.U.U.R.R.R.R.R.R.R.R.R.U.U.U.U.U.U.U.U.U.U.U.U.R.R.R.R.U.U.R.R.R.R.U.U.U.U.R.U.U.U.U.U.U.U.U.U.U.U.U.U.I.U.U.U.U.I.U.U.U.U.U.U.U.U.R.R.R.R.R.R.R.R.R.R.R.R.R.R.R.R.R.U.R.R.R.R.U.U.U.U.U.U.U.U.U.U.I.I.L.I.L.H.H.H.H.F.F.F.F.A.A.A.A.A.A.A.A.A.A.A.A.A.A.A.A.A.A.A.A.C.C.C.V.N.N.N.m.m.m.n.v.v.z.z.k.k.h.h.h.s.s.s.a.i.a.i.t.t.i.t.t.t.t.t.e.e.e.e.e.q.q.8.8.8.8.8.4.4.4.1.1.1.1.,.1.,.,.,.,.,.:.:.:.;.;.=.=.=.#.#.#.#.O.O.O.O.O.O. . . . . . . . .} } } } ' ' ' ' ) ) ( ^ ^ ^ Q Q W E E E L D B m v z k p u e q 0 6 4 1 > > * % % $ + @ o o . ^.^.^.^.^.^.^.^.^.^.^.^.^.^.^.^.^.^.^.^.^.^.^.^.^.^.^.^.^.^.^.^.^.^.^.^.^.^.^.^.^.^.^.^.^.^.^.^.^.^.^.^.^.^.^.^.^.^.^.^.^.^.^.^.^.^.^.^.^.^.^.^.^.^.^.^.^.^.^.^.^.^.^.^.^.^.^.^.^.^.^.^.^.^.^.^.^.^.^.^.^.^.^.^.^.^.^.^.^.^.^.^.^.^.^.^.^.^.^.^.^.^.^.^.^.^.^.^.^.^.^.^.^.^.^.^.^.^.^.^.^.^.^.^.^.^.^.^.",
"^.^.^.^.^.^.^.^.^.^.^.^.^.^.^.^.^.^.^.^.^.^.^.^.^.^.^.^.^.^.^.^.^.^.^.^.^.^.^.^.^.^.^.^.^.^.^.^.^.^.^.^.^.^.^.^.^.^.^.^.^.^.^.^.^.^.^.^.^.^.^.^.^.^.^.^.^.^.^.^.^.^.^.^.^.. o # % * > 4 8 0 u p k k z x b m D H U E W Q ^ ( ' ' }  . .#.=.=.;.:.1.1.8.q.e.t.i.s.h.k.z.v.n.n.m.m.N.N.N.N.V.V.C.V.V.V.C.C.C.A.A.A.F.F.F.F.H.H.H.H.F.H.H.F.H.H.H.H.H.H.H.H.L.L.L.L.H.H.H.H.L.H.L.L.L.H.L.H.L.H.L.H.H.H.H.L.H.L.H.H.L.L.H.L.L.L.I.I.U.U.U.U.I.U.U.U.U.U.U.U.U.U.U.U.U.R.R.R.R.R.R.R.R.R.R.U.U.U.U.U.U.U.U.U.U.U.R.U.R.R.U.U.R.R.R.R.U.U.U.R.R.R.U.U.U.R.U.U.U.U.U.U.U.U.I.U.U.I.U.U.U.U.U.U.U.R.U.U.R.R.R.R.R.R.R.~.R.R.R.R.R.R.R.R.U.R.R.R.R.R.U.R.U.U.U.U.U.U.U.U.U.U.I.I.L.H.L.H.H.H.H.H.F.F.F.F.F.A.F.A.D.A.A.A.A.A.A.A.A.A.A.A.A.A.C.C.C.V.N.N.m.m.m.n.v.v.z.z.z.z.k.h.h.s.s.s.a.i.i.i.i.i.t.t.i.t.t.e.e.e.q.q.q.q.8.8.8.4.8.4.4.4.1.1.1.1.1.,.,.,.,.,.,.:.:.:.;.=.=.=.#.#.#.#.#.O.O.O.O.O.O. . . . . . .} } } } } ' ' ' ' ' ) ) ) ( ^ ^ Q Q W E E E U H D m b v k f p u e 0 6 4 1 > > * % % $ + o o o . . ^.^.^.^.^.^.^.^.^.^.^.^.^.^.^.^.^.^.^.^.^.^.^.^.^.^.^.^.^.^.^.^.^.^.^.^.^.^.^.^.^.^.^.^.^.^.^.^.^.^.^.^.^.^.^.^.^.^.^.^.^.^.^.^.^.^.^.^.^.^.^.^.^.^.^.^.^.^.^.^.^.^.^.^.^.^.^.^.^.^.^.^.^.^.^.^.^.^.^.^.^.^.^.^.^.^.^.^.^.^.^.^.^.^.^.^.^.^.^.^.^.^.^.^.^.^.^.^.^.^.^.^.^.^.^.^.^.^.^.^.^.^.^.^.^.^.^.^.",
"^.^.^.^.^.^.^.^.^.^.^.^.^.^.^.^.^.^.^.^.^.^.^.^.^.^.^.^.^.^.^.^.^.^.^.^.^.^.^.^.^.^.^.^.^.^.^.^.^.^.^.^.^.^.^.^.^.^.^.^.^.^.^.^.^.^.^.^.^.^.^.^.^.^.^.^.^.^.. . ^.^.. ^.^.^.o @ % * 1 4 0 e u f k v x v b B D K E E Q Q ^ ( ' ' }  .O.#.=.=.:.,.1.4.8.q.t.t.i.s.h.k.z.v.n.m.m.m.N.N.N.N.V.C.V.C.V.V.C.C.A.A.A.F.F.F.F.F.H.H.H.H.H.H.H.H.H.H.H.H.H.H.H.H.H.L.L.H.L.L.L.L.H.L.L.I.L.L.L.L.L.L.L.L.L.L.H.L.L.L.L.L.L.L.L.L.L.L.L.I.U.U.U.U.U.U.U.U.U.U.U.U.U.U.U.U.U.R.R.R.R.R.R.R.R.R.R.U.R.U.U.U.U.U.U.U.U.U.U.U.U.U.U.U.R.R.R.R.R.R.R.R.R.U.R.U.U.R.U.R.U.U.U.U.I.U.U.U.U.U.U.U.U.U.U.U.U.R.R.R.R.R.R.R.R.R.R.R.R.R.R.R.R.R.R.R.U.R.R.R.R.R.U.U.U.U.U.U.U.U.U.U.U.U.U.U.I.L.L.H.H.H.H.H.H.F.F.F.F.F.F.A.F.D.A.A.A.A.A.A.A.A.A.A.A.A.A.C.C.C.N.N.N.m.m.n.n.v.v.z.z.k.k.h.h.h.s.s.s.i.i.i.t.t.t.t.t.t.t.e.e.q.q.8.8.8.8.8.4.4.4.4.4.1.1.1.1.1.1.,.,.,.:.:.:.:.;.;.;.=.=.#.#.#.#.#.O.O.O.O.O. . . . . . . .} } } ' ' ' ' ' ' ' ) ) ) ( ^ ^ Q Q Q Q E E E L D B m x k f p u e 0 8 4 4 > > * * % $ # @ o o . . ^.^.^.^.^.^.^.^.^.^.^.^.^.^.^.^.^.^.^.^.^.^.^.^.^.^.^.^.^.^.^.^.^.^.^.^.^.^.^.^.^.^.^.^.^.^.^.^.^.^.^.^.^.^.^.^.^.^.^.^.^.^.^.^.^.^.^.^.^.^.^.^.^.^.^.^.^.^.^.^.^.^.^.^.^.^.^.^.^.^.^.^.^.^.^.^.^.^.^.^.^.^.^.^.^.^.^.^.^.^.^.^.^.^.^.^.^.^.^.^.^.^.^.^.^.^.^.^.^.^.^.^.^.^.^.^.^.^.^.^.^.^.^.^.^.^.^.^.^.",
"^.^.^.^.^.^.^.^.^.^.^.^.^.^.^.^.^.^.^.^.^.^.^.^.^.^.^.^.^.^.^.^.^.^.^.^.^.^.^.^.^.^.^.^.^.^.^.^.^.^.^.^.^.^.^.^.^.^.^.^.^.^.^.^.^.^.^.^.^.^.^.^.^.^.^.^.^.^.^.^.^.^.^.^.^.. o # % > 4 6 q u p k z v x b m B D K E E Q ^ ^ ) ' } }  .O.#.#.=.:.,.1.4.8.q.e.i.s.h.h.k.z.v.n.n.m.N.N.N.N.N.V.V.V.V.V.C.C.A.A.A.A.F.F.F.F.H.H.H.L.H.H.H.H.H.H.H.H.H.H.H.L.L.L.L.L.H.L.L.L.L.L.L.L.I.L.I.L.I.L.I.L.L.L.I.L.L.L.L.L.L.L.L.I.L.L.I.I.I.U.U.U.U.U.U.U.U.U.U.U.U.U.U.U.U.U.R.U.R.R.U.R.R.R.R.R.R.U.U.U.U.U.U.I.U.U.U.U.U.U.U.U.U.U.U.U.R.R.R.R.R.R.R.U.R.U.R.U.U.U.U.U.U.I.U.U.U.U.U.U.U.U.U.U.R.R.R.R.R.R.R.R.R.R.R.R.R.R.R.R.~.R.R.R.R.R.R.R.R.R.R.U.U.U.U.U.U.U.U.U.U.U.U.U.U.I.I.L.L.H.H.H.H.H.H.F.H.F.F.F.F.D.D.D.A.A.A.A.A.A.A.A.A.A.A.A.C.C.V.V.N.N.m.m.m.n.v.v.z.z.z.k.h.h.s.s.s.s.i.i.i.i.t.t.t.t.t.e.e.e.q.8.8.8.8.8.4.4.4.4.4.1.1.1.1.,.,.,.,.:.:.:.;.;.;.;.=.=.=.#.#.#.#.#.O.O.O.O.O. . . . . . .} } } ' ' ' ' ' ' ' ' ) ) ) ( ^ ^ ^ Q Q W W E E U H D B b x k f p t q 0 4 4 1 > * * % % $ + o o o . ^.^.^.^.^.^.^.^.^.^.^.^.^.^.^.^.^.^.^.^.^.^.^.^.^.^.^.^.^.^.^.^.^.^.^.^.^.^.^.^.^.^.^.^.^.^.^.^.^.^.^.^.^.^.^.^.^.^.^.^.^.^.^.^.^.^.^.^.^.^.^.^.^.^.^.^.^.^.^.^.^.^.^.^.^.^.^.^.^.^.^.^.^.^.^.^.^.^.^.^.^.^.^.^.^.^.^.^.^.^.^.^.^.^.^.^.^.^.^.^.^.^.^.^.^.^.^.^.^.^.^.^.^.^.^.^.^.^.^.^.^.^.^.^.^.^.^.^.^.^.",
"^.^.^.^.^.^.^.^.^.^.^.^.^.^.^.^.^.^.^.^.^.^.^.^.^.^.^.^.^.^.^.^.^.^.^.^.^.^.^.^.^.^.^.^.^.^.^.^.^.^.^.^.^.^.^.^.^.^.^.^.^.^.^.^.^.^.^.^.^.^.^.^.^.^.^.^.^.^.^.. ^.^.. o . o # % * 1 4 8 e u f z v x b m B B D P E E Q ^ ^ ) ' ' }  .O.#.=.=.:.,.1.4.8.q.e.i.s.s.h.k.z.v.n.m.m.m.N.N.N.V.V.C.V.V.V.C.C.C.A.A.D.F.F.H.H.H.H.H.H.H.H.H.L.H.H.H.H.H.H.L.L.L.I.L.L.L.L.L.L.L.L.L.L.L.I.I.U.I.U.L.I.I.I.I.I.L.I.L.I.L.I.L.I.L.L.I.I.I.U.U.U.U.U.U.U.R.U.U.U.U.U.U.U.U.U.U.R.R.R.R.R.R.U.U.U.U.U.U.U.U.U.U.I.U.U.U.U.U.U.U.U.U.U.R.U.R.R.R.U.R.R.R.U.U.U.U.U.U.U.U.U.U.U.U.U.U.U.U.U.U.U.U.R.R.R.R.R.R.R.R.R.R.R.R.R.R.R.R.~.R.R.R.R.R.R.R.R.R.R.R.R.U.U.U.U.U.R.U.U.U.U.U.U.U.I.I.I.L.L.L.H.H.H.H.H.H.F.F.F.F.F.A.F.D.F.A.A.A.A.A.A.A.A.A.A.A.C.C.C.V.N.N.m.m.n.n.v.z.z.k.k.h.h.s.s.s.a.i.i.i.t.i.t.t.e.e.e.e.q.8.8.4.4.4.4.4.4.4.4.1.1.1.1.,.,.:.,.:.:.;.;.=.=.=.=.=.=.#.#.#.#.O.O.O.O.O. . . . . .} } } ' ' ' ' ' ' ' ' ) ) ) ) ( ^ ^ ^ Q ^ Q W Q E E E L H B m v z k p u e 0 7 4 1 > > * % % $ # @ o o . ^.^.^.^.^.^.^.^.^.^.^.^.^.^.^.^.^.^.^.^.^.^.^.^.^.^.^.^.^.^.^.^.^.^.^.^.^.^.^.^.^.^.^.^.^.^.^.^.^.^.^.^.^.^.^.^.^.^.^.^.^.^.^.^.^.^.^.^.^.^.^.^.^.^.^.^.^.^.^.^.^.^.^.^.^.^.^.^.^.^.^.^.^.^.^.^.^.^.^.^.^.^.^.^.^.^.^.^.^.^.^.^.^.^.^.^.^.^.^.^.^.^.^.^.^.^.^.^.^.^.^.^.^.^.^.^.^.^.^.^.^.^.^.^.^.^.^.^.^.^.^.",
"^.^.^.^.^.^.^.^.^.^.^.^.^.^.^.^.^.^.^.^.^.^.^.^.^.^.^.^.^.^.^.^.^.^.^.^.^.^.^.^.^.^.^.^.^.^.^.^.^.^.^.^.^.^.^.^.^.^.^.^.^.^.^.^.^.^.^.^.^.^.^.^.^.^.^.^.^.^.. o . . o o o # $ % > 1 4 7 e p k k v v m m B D H U E E Q ^ ( ) ' ' }  .O.#.=.=.:.,.1.4.8.q.t.t.s.s.h.k.z.z.n.n.m.m.N.N.N.V.C.V.C.V.C.C.C.A.A.A.A.F.H.H.H.H.H.H.H.H.L.H.H.H.H.H.H.H.L.L.I.L.I.L.I.L.I.I.L.I.L.I.L.I.L.I.U.I.U.U.I.I.I.U.I.I.I.I.I.I.I.I.L.I.I.I.I.U.U.U.U.U.U.U.U.R.R.R.R.U.U.U.U.U.U.U.U.R.R.R.U.U.U.U.U.U.U.U.U.U.I.I.I.U.I.U.U.U.U.U.U.U.U.U.U.U.R.R.U.U.U.R.U.U.U.R.U.U.U.U.U.U.U.U.U.U.U.U.U.U.R.R.R.R.R.R.R.R.R.R.R.R.R.R.R.R.R.R.~.R.R.R.~.R.R.R.R.R.R.R.R.R.R.U.U.R.R.U.R.U.U.U.U.U.U.I.I.I.L.L.H.H.L.H.H.H.H.H.F.F.F.F.F.F.D.F.F.A.F.A.A.A.A.A.A.A.C.C.V.C.N.N.m.m.m.n.v.z.z.k.k.h.h.s.s.s.a.i.i.i.t.t.t.t.t.e.q.q.8.8.8.4.4.4.4.4.4.1.1.1.1.,.,.,.,.:.:.;.;.;.=.=.=.=.#.#.#.#.#.O.O.O.O.O.O. . . . .} } } } ' ' ' ' ' ) ' ' ) ) ) ( ( ^ ^ ^ Q Q Q Q Q E E E U H D B m x k f p u e 0 6 4 1 > * * % $ # @ o o o . ^.^.^.^.^.^.^.^.^.^.^.^.^.^.^.^.^.^.^.^.^.^.^.^.^.^.^.^.^.^.^.^.^.^.^.^.^.^.^.^.^.^.^.^.^.^.^.^.^.^.^.^.^.^.^.^.^.^.^.^.^.^.^.^.^.^.^.^.^.^.^.^.^.^.^.^.^.^.^.^.^.^.^.^.^.^.^.^.^.^.^.^.^.^.^.^.^.^.^.^.^.^.^.^.^.^.^.^.^.^.^.^.^.^.^.^.^.^.^.^.^.^.^.^.^.^.^.^.^.^.^.^.^.^.^.^.^.^.^.^.^.^.^.^.^.^.^.^.^.^.^.",
"^.^.^.^.^.^.^.^.^.^.^.^.^.^.^.^.^.^.^.^.^.^.^.^.^.^.^.^.^.^.^.^.^.^.^.^.^.^.^.^.^.^.^.^.^.^.^.^.^.^.^.^.^.^.^.^.^.^.^.^.^.^.^.^.^.^.^.^.^.^.^.^.^.^.^.^.^.^.^.o o o o + # % % * > 1 4 0 e p k z x b B B D H K E E E Q Q ( ) ' } }  .O.#.#.=.;.,.1.4.8.q.e.t.i.s.k.z.z.v.n.n.m.N.N.N.V.V.V.V.V.V.C.C.C.A.A.A.A.F.H.H.H.H.H.H.L.H.L.H.H.L.H.L.L.L.L.L.L.I.I.I.I.I.L.I.I.I.I.I.I.L.I.U.I.U.U.U.U.U.I.I.I.I.I.I.I.I.I.L.I.I.I.I.I.I.U.U.U.U.U.U.R.R.R.R.U.U.U.U.U.U.U.U.U.U.U.U.U.U.U.U.U.U.U.U.U.U.U.I.I.I.I.U.U.U.U.U.U.U.U.U.U.U.R.U.U.U.U.R.U.U.R.U.U.U.U.U.U.U.U.U.U.U.R.U.R.R.R.R.R.R.R.R.R.R.R.R.R.R.R.R.~.~.R.R.R.R.~.R.R.R.R.R.R.R.R.R.R.R.R.U.R.R.R.R.R.R.U.U.U.U.U.I.U.U.L.L.H.H.L.H.H.H.H.F.H.F.F.F.F.F.F.F.F.F.F.F.A.A.A.A.A.A.A.C.C.V.N.N.m.m.m.n.v.z.z.k.k.h.h.s.s.s.a.i.i.i.t.t.e.e.e.q.q.8.8.4.4.4.4.4.4.4.4.1.1.1.1.,.,.,.:.:.;.;.=.=.=.=.#.#.#.#.#.O.O.O.O.O.O.O. . . . . .} } ' ' ' ' ' ' ) ) ) ) ) ( ( ( ^ ^ ^ Q Q Q Q W E E E E L H D B b x z f u t q 0 6 4 > > * % % $ # @ o o . ^.^.^.^.^.^.^.^.^.^.^.^.^.^.^.^.^.^.^.^.^.^.^.^.^.^.^.^.^.^.^.^.^.^.^.^.^.^.^.^.^.^.^.^.^.^.^.^.^.^.^.^.^.^.^.^.^.^.^.^.^.^.^.^.^.^.^.^.^.^.^.^.^.^.^.^.^.^.^.^.^.^.^.^.^.^.^.^.^.^.^.^.^.^.^.^.^.^.^.^.^.^.^.^.^.^.^.^.^.^.^.^.^.^.^.^.^.^.^.^.^.^.^.^.^.^.^.^.^.^.^.^.^.^.^.^.^.^.^.^.^.^.^.^.^.^.^.^.^.^.^.^.",
"^.^.^.^.^.^.^.^.^.^.^.^.^.^.^.^.^.^.^.^.^.^.^.^.^.^.^.^.^.^.^.^.^.^.^.^.^.^.^.^.^.^.^.^.^.^.^.^.^.^.^.^.^.^.^.^.^.^.^.^.^.^.^.^.^.^.^.^.^.^.^.^.^.^.^.^.^.^.^.. o o @ # % % * * > 4 8 q u p k k x b B Z D H P E E E Q Q ^ ) ' ' }  . .O.#.=.;.,.1.4.8.q.e.t.i.s.h.k.z.v.n.m.m.m.m.N.V.V.V.V.V.V.C.C.C.A.A.A.F.F.H.H.H.L.H.L.H.L.L.L.L.L.L.H.L.L.L.L.L.L.I.I.I.I.I.I.I.I.I.I.I.I.U.U.U.U.U.U.U.U.I.U.I.U.I.I.U.I.I.I.I.I.I.U.U.U.U.U.U.U.U.U.R.R.R.R.R.U.U.U.U.U.U.U.U.U.U.U.U.U.U.U.U.U.U.U.U.U.I.I.I.I.I.U.U.U.U.U.U.U.U.U.U.U.R.U.U.U.U.U.U.R.U.U.R.U.U.U.U.U.U.U.U.U.R.R.R.R.R.R.R.R.R.R.R.R.~.R.R.R.R.~.~.~.~.R.R.R.R.~.R.~.R.~.R.R.R.R.R.R.R.U.R.R.R.R.R.R.U.U.U.U.U.U.I.L.I.L.H.L.H.H.H.H.H.H.F.H.F.F.F.F.F.F.F.F.F.F.F.A.F.A.A.A.A.C.C.C.N.N.m.m.n.v.v.z.z.z.k.h.s.s.s.s.s.i.i.i.t.t.t.e.q.q.q.8.8.4.4.4.4.4.4.4.1.1.1.,.,.,.,.,.:.;.;.=.=.=.=.#.#.#.#.#.#.O.O.O.O.O.O. . . . .} } ' ' ' ' ' ) ) ) ) ) ) ) ( ( ^ ^ ^ ^ Q Q Q Q Q W E E E U H D B m b z k p u e 0 8 4 4 > > * % % # # o o . . ^.^.^.^.^.^.^.^.^.^.^.^.^.^.^.^.^.^.^.^.^.^.^.^.^.^.^.^.^.^.^.^.^.^.^.^.^.^.^.^.^.^.^.^.^.^.^.^.^.^.^.^.^.^.^.^.^.^.^.^.^.^.^.^.^.^.^.^.^.^.^.^.^.^.^.^.^.^.^.^.^.^.^.^.^.^.^.^.^.^.^.^.^.^.^.^.^.^.^.^.^.^.^.^.^.^.^.^.^.^.^.^.^.^.^.^.^.^.^.^.^.^.^.^.^.^.^.^.^.^.^.^.^.^.^.^.^.^.^.^.^.^.^.^.^.^.^.^.^.^.^.^.",
"^.^.^.^.^.^.^.^.^.^.^.^.^.^.^.^.^.^.^.^.^.^.^.^.^.^.^.^.^.^.^.^.^.^.^.^.^.^.^.^.^.^.^.^.^.^.^.^.^.^.^.^.^.^.^.^.^.^.^.^.^.^.^.^.^.^.^.^.^.^.^.^.^.^.^.^.^.^.^.. o o @ + % * * * > 4 8 0 e p k z x m B D D H P E E W Q ^ ( ) ' } }  . .O.#.#.;.:.1.4.8.q.e.i.i.s.h.k.k.z.v.m.m.m.N.N.N.V.V.V.V.C.C.C.A.A.A.A.F.F.H.H.H.L.H.L.H.L.L.H.L.H.L.L.L.L.I.L.I.I.I.I.I.I.I.I.I.I.I.I.I.I.U.U.U.U.U.U.U.U.U.I.U.U.I.U.I.U.U.U.U.U.U.U.U.U.U.U.R.R.R.R.R.R.U.U.R.U.U.U.U.U.U.U.U.U.U.U.U.U.U.U.I.U.I.U.U.U.I.I.I.U.U.I.U.U.U.U.I.I.I.U.U.U.U.U.U.U.U.R.U.R.R.U.U.U.R.R.R.R.U.R.R.R.R.R.R.R.R.R.~.R.R.~.R.R.R.~.~.R.R.~.~.~.~.~.~.~.~.R.R.R.R.R.~.R.R.R.R.R.R.R.R.R.R.R.R.U.U.R.U.U.U.U.U.I.L.L.L.H.L.H.H.H.H.H.H.H.F.F.H.F.F.F.F.F.F.F.F.A.D.D.A.A.A.C.C.C.N.N.m.m.n.v.v.z.z.k.k.k.h.s.s.s.a.i.i.t.t.t.e.e.q.q.q.8.8.4.4.4.4.4.1.1.1.1.1.,.,.,.:.:.;.;.=.=.=.#.#.#.#.#.#.O.O.O.O. . . . . . . .} } ' ' ' ' ' ) ) ) ) ) ( ( ^ ^ ^ ^ ^ Q ^ Q Q W Q E E E E U K D D m b x k f p u e 0 6 4 1 > > * % $ + o o o . ^.^.^.^.^.^.^.^.^.^.^.^.^.^.^.^.^.^.^.^.^.^.^.^.^.^.^.^.^.^.^.^.^.^.^.^.^.^.^.^.^.^.^.^.^.^.^.^.^.^.^.^.^.^.^.^.^.^.^.^.^.^.^.^.^.^.^.^.^.^.^.^.^.^.^.^.^.^.^.^.^.^.^.^.^.^.^.^.^.^.^.^.^.^.^.^.^.^.^.^.^.^.^.^.^.^.^.^.^.^.^.^.^.^.^.^.^.^.^.^.^.^.^.^.^.^.^.^.^.^.^.^.^.^.^.^.^.^.^.^.^.^.^.^.^.^.^.^.^.^.^.^.^.",
"^.^.^.^.^.^.^.^.^.^.^.^.^.^.^.^.^.^.^.^.^.^.^.^.^.^.^.^.^.^.^.^.^.^.^.^.^.^.^.^.^.^.^.^.^.^.^.^.^.^.^.^.^.^.^.^.^.^.^.^.^.^.^.^.^.^.^.^.^.^.^.^.^.^.^.^.^.^.^.. o o o # % * > > > 4 6 0 e u k z x m B D H K U E E Q Q ( ) ) ' }  . . .O.#.#.;.:.1.4.8.q.e.t.i.s.s.k.k.z.v.n.m.m.m.m.N.N.V.V.V.V.C.C.A.A.A.F.F.F.H.H.L.L.H.L.L.L.L.L.L.L.H.L.L.L.I.L.I.I.I.I.I.I.I.I.I.I.L.I.I.I.U.U.U.U.U.U.U.U.U.U.U.I.U.I.U.I.U.U.U.U.U.U.U.U.U.R.R.R.R.R.R.U.U.U.R.U.U.U.U.U.U.U.U.U.I.U.U.U.U.U.U.I.U.U.U.U.U.I.U.I.U.I.U.U.U.U.I.U.I.U.U.U.U.U.U.U.U.R.R.R.R.R.U.U.R.R.R.R.R.R.R.R.R.R.R.R.R.R.R.~.R.R.~.R.R.R.R.~.R.~.R.~.~.~.R.~.~.R.R.R.R.R.R.R.R.R.R.R.R.R.R.R.R.R.U.U.R.U.U.U.U.U.U.U.I.L.L.L.L.H.H.H.H.H.H.H.F.H.H.F.F.F.F.F.F.F.F.F.F.D.A.A.A.C.C.C.N.N.m.m.n.v.v.z.z.k.k.k.h.s.s.s.a.i.t.t.t.t.t.e.q.q.8.4.4.4.4.4.4.4.1.1.1.1.,.,.,.:.:.:.;.;.=.=.=.=.#.#.#.#.O.O.O.O. . . . . .} } } } } ' ' ' ) ) ) ( ) ( ( ^ ^ ^ ^ ^ ^ Q Q Q Q W Q E E E E E L H D B m b v k f u t q 0 6 4 1 > * * % $ + o o o ^.^.^.^.^.^.^.^.^.^.^.^.^.^.^.^.^.^.^.^.^.^.^.^.^.^.^.^.^.^.^.^.^.^.^.^.^.^.^.^.^.^.^.^.^.^.^.^.^.^.^.^.^.^.^.^.^.^.^.^.^.^.^.^.^.^.^.^.^.^.^.^.^.^.^.^.^.^.^.^.^.^.^.^.^.^.^.^.^.^.^.^.^.^.^.^.^.^.^.^.^.^.^.^.^.^.^.^.^.^.^.^.^.^.^.^.^.^.^.^.^.^.^.^.^.^.^.^.^.^.^.^.^.^.^.^.^.^.^.^.^.^.^.^.^.^.^.^.^.^.^.^.^.^.",
"^.^.^.^.^.^.^.^.^.^.^.^.^.^.^.^.^.^.^.^.^.^.^.^.^.^.^.^.^.^.^.^.^.^.^.^.^.^.^.^.^.^.^.^.^.^.^.^.^.^.^.^.^.^.^.^.^.^.^.^.^.^.^.^.^.^.^.^.^.^.^.^.^.^.^.^.^.^.. . o o o # % * * > > 1 4 0 e u f z x b B D H P U E E Q ^ ( ) ' ' }  . .O.O.#.#.=.:.,.1.8.8.e.t.i.s.s.h.k.z.z.v.n.n.m.m.N.N.N.N.V.C.C.A.A.A.A.F.F.H.H.H.L.L.L.L.L.L.L.L.L.L.L.L.L.L.I.I.I.U.I.I.I.I.I.I.I.I.I.I.I.I.U.U.U.U.U.U.U.U.U.U.U.U.U.U.I.I.U.U.U.U.U.U.U.U.U.U.R.R.R.R.R.U.U.U.U.U.U.U.U.U.U.U.U.U.I.U.U.U.U.U.I.U.I.I.U.U.U.I.U.I.I.U.U.U.I.I.I.I.I.I.U.U.U.U.U.U.U.R.R.R.R.R.U.U.R.U.R.R.R.R.R.R.R.R.R.R.R.R.R.R.R.R.R.~.R.R.R.~.R.~.R.~.~.R.R.R.~.~.~.R.R.R.R.R.R.R.R.R.R.R.R.R.R.R.R.U.R.R.U.U.U.U.U.U.L.I.L.L.H.L.H.H.H.H.H.H.H.F.H.F.F.F.F.F.F.F.F.F.F.A.A.A.A.A.C.C.N.N.m.m.n.n.v.z.z.z.k.k.h.h.s.s.a.i.i.t.t.e.e.e.e.q.8.8.8.4.4.4.4.1.1.1.1.,.,.,.:.:.:.:.;.=.=.=.=.#.#.#.+.O.O.O.O.O. . . . .} } } ' ' ' ' ' ) ) ) ( ( ( ^ ^ ^ ^ ^ ^ Q Q Q Q Q W E E E E E E L H D B m b x k f p u e q 7 4 4 1 > * % $ # @ o . . ^.^.^.^.^.^.^.^.^.^.^.^.^.^.^.^.^.^.^.^.^.^.^.^.^.^.^.^.^.^.^.^.^.^.^.^.^.^.^.^.^.^.^.^.^.^.^.^.^.^.^.^.^.^.^.^.^.^.^.^.^.^.^.^.^.^.^.^.^.^.^.^.^.^.^.^.^.^.^.^.^.^.^.^.^.^.^.^.^.^.^.^.^.^.^.^.^.^.^.^.^.^.^.^.^.^.^.^.^.^.^.^.^.^.^.^.^.^.^.^.^.^.^.^.^.^.^.^.^.^.^.^.^.^.^.^.^.^.^.^.^.^.^.^.^.^.^.^.^.^.^.^.^.^.",
"^.^.^.^.^.^.^.^.^.^.^.^.^.^.^.^.^.^.^.^.^.^.^.^.^.^.^.^.^.^.^.^.^.^.^.^.^.^.^.^.^.^.^.^.^.^.^.^.^.^.^.^.^.^.^.^.^.^.^.^.^.^.^.^.^.^.^.^.^.^.^.^.^.^.^.^.^.^.^.. . o o # * * * * > 1 4 0 e p f z x m B D K E E E W Q ^ ) ) ' ' }  .O.O.#.#.=.=.:.,.1.4.8.e.e.t.i.s.h.k.k.z.z.n.n.m.m.N.N.N.N.V.C.C.A.A.A.F.F.H.H.L.L.L.L.L.L.L.H.L.L.L.I.L.L.I.I.I.I.I.I.U.I.I.I.I.I.I.L.I.I.I.I.U.U.U.U.U.U.U.U.U.U.U.U.U.U.U.U.U.U.U.U.U.U.U.U.R.R.R.R.R.R.R.U.U.U.U.U.U.U.U.U.U.U.U.U.I.U.U.U.U.U.U.U.U.U.U.U.U.I.U.I.U.I.I.U.U.U.I.U.I.U.U.U.U.U.U.U.U.R.R.R.R.R.R.R.R.R.R.R.R.R.R.R.R.R.R.R.~.R.R.R.R.R.R.R.R.~.R.~.R.~.~.~.R.R.R.~.R.R.~.R.R.R.R.R.R.R.R.R.R.R.R.R.R.R.R.R.R.R.U.U.U.U.U.U.I.I.L.L.L.L.L.L.H.H.H.H.H.H.F.F.H.H.F.F.F.F.F.F.F.D.A.A.A.A.C.C.V.N.N.m.m.n.v.v.z.z.k.k.h.h.s.s.s.i.t.t.t.e.e.e.q.8.8.4.4.4.4.4.4.1.1.1.,.,.,.,.:.:.:.:.;.;.=.=.#.#.#.O.O.O.O.O.O. . .} } } } } ' ' ' ' ' ) ) ( ( ( ( ^ ^ ^ Q Q Q Q Q Q Q W Q W E E E E U P H D B B m b v k f p u e 0 6 4 1 > * * % $ @ o o . ^.^.^.^.^.^.^.^.^.^.^.^.^.^.^.^.^.^.^.^.^.^.^.^.^.^.^.^.^.^.^.^.^.^.^.^.^.^.^.^.^.^.^.^.^.^.^.^.^.^.^.^.^.^.^.^.^.^.^.^.^.^.^.^.^.^.^.^.^.^.^.^.^.^.^.^.^.^.^.^.^.^.^.^.^.^.^.^.^.^.^.^.^.^.^.^.^.^.^.^.^.^.^.^.^.^.^.^.^.^.^.^.^.^.^.^.^.^.^.^.^.^.^.^.^.^.^.^.^.^.^.^.^.^.^.^.^.^.^.^.^.^.^.^.^.^.^.^.^.^.^.^.^.^.^.",
"^.^.^.^.^.^.^.^.^.^.^.^.^.^.^.^.^.^.^.^.^.^.^.^.^.^.^.^.^.^.^.^.^.^.^.^.^.^.^.^.^.^.^.^.^.^.^.^.^.^.^.^.^.^.^.^.^.^.^.^.^.^.^.^.^.^.^.^.^.^.^.^.^.^.^.^.^.^.^.^.o o @ $ % * * * > 4 8 0 u p k v b m Z H K E E E Q Q ^ ) ' ' } }  . .O.#.#.=.;.:.1.1.4.8.q.e.t.i.s.h.h.k.k.z.z.v.n.m.m.N.N.V.C.C.C.A.A.F.F.F.H.H.H.L.L.L.L.H.L.L.H.L.L.L.L.I.L.I.I.I.I.U.I.U.I.U.I.I.L.I.I.I.I.U.U.U.U.U.U.U.U.U.U.U.U.U.U.U.U.U.U.U.U.U.U.U.U.U.U.U.R.R.R.R.R.U.U.R.R.U.U.U.U.U.U.I.I.I.U.I.U.U.I.U.U.U.U.U.U.U.I.U.U.I.U.U.U.U.I.I.U.I.U.I.I.U.U.U.U.U.U.U.U.R.R.R.R.R.R.R.R.R.R.R.R.R.R.R.R.R.R.R.~.R.R.~.R.R.R.R.~.R.R.R.R.~.R.R.R.~.~.R.~.R.R.~.~.R.R.R.R.R.R.R.R.R.R.R.R.R.R.R.U.U.U.U.U.U.I.I.L.I.L.L.L.L.L.L.L.L.H.H.H.F.H.F.H.F.F.F.F.F.F.F.D.A.A.A.C.C.V.N.N.m.m.n.v.z.z.z.k.k.h.h.s.s.s.i.i.i.t.t.e.q.8.8.8.8.8.4.4.4.1.1.1.1.,.,.,.,.:.:.:.:.;.;.=.=.#.#.#.O.O.O.O.O. . . .} } } ' ' ' ' ' ' ) ) ) ) ( ^ ^ ^ Q ^ Q Q Q W W Q E W E E E E E U K H D Z B m b x z f p u e q 0 6 4 1 > * % % # o o . ^.^.^.^.^.^.^.^.^.^.^.^.^.^.^.^.^.^.^.^.^.^.^.^.^.^.^.^.^.^.^.^.^.^.^.^.^.^.^.^.^.^.^.^.^.^.^.^.^.^.^.^.^.^.^.^.^.^.^.^.^.^.^.^.^.^.^.^.^.^.^.^.^.^.^.^.^.^.^.^.^.^.^.^.^.^.^.^.^.^.^.^.^.^.^.^.^.^.^.^.^.^.^.^.^.^.^.^.^.^.^.^.^.^.^.^.^.^.^.^.^.^.^.^.^.^.^.^.^.^.^.^.^.^.^.^.^.^.^.^.^.^.^.^.^.^.^.^.^.^.^.^.^.^.^.^.",
"^.^.^.^.^.^.^.^.^.^.^.^.^.^.^.^.^.^.^.^.^.^.^.^.^.^.^.^.^.^.^.^.^.^.^.^.^.^.^.^.^.^.^.^.^.^.^.^.^.^.^.^.^.^.^.^.^.^.^.^.^.^.^.^.^.^.^.^.^.^.^.^.^.^.^.^.^.^.^.^.o o + $ % * * > 1 4 8 q u f k x b m Z D K E E Q Q ^ ( ) ' ' ' }  .O.O.#.=.=.;.:.,.1.4.8.q.e.t.i.s.s.h.k.k.k.z.v.n.n.m.N.N.V.V.C.A.A.A.F.F.F.H.H.H.L.L.H.H.H.H.H.H.L.H.L.L.L.I.L.I.I.I.I.I.U.I.U.I.I.I.I.I.I.I.U.U.U.U.R.R.R.R.U.U.U.U.U.U.U.U.U.U.U.U.U.U.U.U.U.U.U.R.R.R.R.U.U.U.U.U.U.U.U.U.U.I.I.U.I.U.U.U.U.U.U.U.U.U.U.U.U.U.U.U.U.I.U.U.U.I.U.I.U.U.U.U.U.U.U.U.U.U.U.U.U.R.R.R.R.R.R.R.R.U.R.R.U.R.R.R.R.~.~.R.R.R.~.R.R.R.~.R.R.R.~.R.R.R.R.R.R.R.R.R.R.~.~.~.R.R.R.R.R.R.R.R.R.R.R.R.R.R.R.R.U.U.U.U.U.I.I.I.I.L.L.L.L.L.L.L.L.H.H.H.F.H.H.H.F.H.F.F.F.F.F.A.D.A.A.A.C.V.N.N.m.m.n.v.v.z.z.z.k.k.h.h.s.s.s.i.i.t.e.e.e.q.q.8.8.8.4.4.4.1.1.1.,.,.,.,.:.:.:.:.;.;.=.=.=.#.#.#.O.O.O.O. . . . .} } ' ' ' ' ' ' ' ) ) ( ( ( ^ ^ Q Q Q Q W Q W E E E E E E E U L K H D Z B m b x z k f p u e 0 8 4 4 > > * % $ @ o o . ^.^.^.^.^.^.^.^.^.^.^.^.^.^.^.^.^.^.^.^.^.^.^.^.^.^.^.^.^.^.^.^.^.^.^.^.^.^.^.^.^.^.^.^.^.^.^.^.^.^.^.^.^.^.^.^.^.^.^.^.^.^.^.^.^.^.^.^.^.^.^.^.^.^.^.^.^.^.^.^.^.^.^.^.^.^.^.^.^.^.^.^.^.^.^.^.^.^.^.^.^.^.^.^.^.^.^.^.^.^.^.^.^.^.^.^.^.^.^.^.^.^.^.^.^.^.^.^.^.^.^.^.^.^.^.^.^.^.^.^.^.^.^.^.^.^.^.^.^.^.^.^.^.^.^.^.",
"^.^.^.^.^.^.^.^.^.^.^.^.^.^.^.^.^.^.^.^.^.^.^.^.^.^.^.^.^.^.^.^.^.^.^.^.^.^.^.^.^.^.^.^.^.^.^.^.^.^.^.^.^.^.^.^.^.^.^.^.^.^.^.^.^.^.^.^.^.^.^.^.^.^.^.^.^.^.^.^.o o # $ * * > > 1 4 8 e u p f v b m Z D L E E W Q ^ ) ) ' ' '  . . .O.#.=.=.;.:.,.1.4.8.8.e.t.i.i.s.s.h.h.k.z.z.v.n.m.N.N.V.C.C.A.A.D.F.F.F.H.H.H.H.H.L.H.H.H.H.H.H.L.L.L.L.L.L.I.I.I.I.I.I.I.I.I.I.I.I.I.I.I.U.U.U.R.R.R.U.U.U.U.R.U.U.U.U.U.U.U.U.U.U.U.U.U.R.U.U.U.U.U.R.U.U.U.U.U.U.U.U.U.U.U.U.I.U.U.I.U.U.I.U.U.U.U.U.U.U.U.I.U.U.U.U.U.U.U.I.U.U.U.U.I.U.U.U.R.U.U.U.R.R.R.R.R.R.R.R.R.R.R.R.R.R.R.R.~.R.R.R.~.~.R.~.R.~.R.R.R.R.R.R.~.R.R.~.R.~.~.R.~.~.R.~.~.R.R.R.R.R.R.R.R.R.R.R.R.R.U.R.U.U.U.U.U.U.I.I.I.I.L.L.L.L.L.L.H.H.H.H.H.H.H.H.H.H.H.F.F.F.F.D.A.A.A.A.A.C.C.V.N.m.m.n.n.v.z.z.k.k.h.h.h.s.s.a.i.t.t.t.e.e.q.8.8.4.8.4.4.1.1.1.1.1.,.,.:.,.:.:.;.;.=.=.=.=.#.#.#.O.O. . . . .} } } ' ' ' ' ' ' ' ) ) ( ( ^ ^ ^ Q Q Q Q Q W E E E E E E E E U L H H D Z B m b v v k f p u e q 7 4 4 1 > * % $ # @ o . ^.^.^.^.^.^.^.^.^.^.^.^.^.^.^.^.^.^.^.^.^.^.^.^.^.^.^.^.^.^.^.^.^.^.^.^.^.^.^.^.^.^.^.^.^.^.^.^.^.^.^.^.^.^.^.^.^.^.^.^.^.^.^.^.^.^.^.^.^.^.^.^.^.^.^.^.^.^.^.^.^.^.^.^.^.^.^.^.^.^.^.^.^.^.^.^.^.^.^.^.^.^.^.^.^.^.^.^.^.^.^.^.^.^.^.^.^.^.^.^.^.^.^.^.^.^.^.^.^.^.^.^.^.^.^.^.^.^.^.^.^.^.^.^.^.^.^.^.^.^.^.^.^.^.^.^.^.",
"^.^.^.^.^.^.^.^.^.^.^.^.^.^.^.^.^.^.^.^.^.^.^.^.^.^.^.^.^.^.^.^.^.^.^.^.^.^.^.^.^.^.^.^.^.^.^.^.^.^.^.^.^.^.^.^.^.^.^.^.^.^.^.^.^.^.^.^.^.^.^.^.^.^.^.^.^.^.^.^.o o # % * > 1 1 4 4 0 t p p k v b B D H U E E E Q ^ ( ' ' ' } }  . .O.#.=.=.;.:.,.1.4.4.8.e.e.t.t.i.s.h.h.h.k.z.v.v.n.m.N.N.V.C.A.A.D.F.F.H.F.H.H.H.H.L.H.H.H.H.H.H.H.H.L.L.H.L.I.L.I.I.I.I.I.U.I.I.I.I.I.U.U.U.U.U.R.R.U.R.U.U.U.U.U.U.U.U.U.U.U.U.U.U.U.U.U.U.U.U.R.R.U.U.U.U.U.U.U.U.U.U.U.U.U.U.U.I.U.U.U.U.I.U.U.U.U.U.U.U.U.U.U.U.U.U.U.I.I.U.I.U.U.U.U.U.U.U.U.U.U.R.R.R.R.R.R.R.R.R.R.R.R.R.R.~.~.R.R.~.R.~.~.R.~.~.~.R.R.~.R.R.R.R.R.R.R.R.R.~.R.R.~.~.~.~.~.~.R.R.R.~.R.R.R.R.R.R.R.R.R.U.U.U.U.U.U.U.I.I.I.I.I.I.I.I.L.L.L.H.H.H.H.H.H.H.H.H.H.H.F.F.F.F.A.A.A.A.A.C.C.C.N.N.m.n.n.v.z.z.k.k.h.h.s.s.s.s.i.t.t.e.e.e.q.8.8.4.8.4.4.4.1.1.1.1.,.,.,.:.:.:.;.;.;.=.=.#.#.#.O.O.O. . . . .} } ' ' ' ' ' ' ' ) ) ( ( ^ ^ ^ Q Q Q W Q E E E E E E E E U L K H D D B B m b v v z k p p u e 0 6 4 1 > > * % $ @ o o ^.^.^.^.^.^.^.^.^.^.^.^.^.^.^.^.^.^.^.^.^.^.^.^.^.^.^.^.^.^.^.^.^.^.^.^.^.^.^.^.^.^.^.^.^.^.^.^.^.^.^.^.^.^.^.^.^.^.^.^.^.^.^.^.^.^.^.^.^.^.^.^.^.^.^.^.^.^.^.^.^.^.^.^.^.^.^.^.^.^.^.^.^.^.^.^.^.^.^.^.^.^.^.^.^.^.^.^.^.^.^.^.^.^.^.^.^.^.^.^.^.^.^.^.^.^.^.^.^.^.^.^.^.^.^.^.^.^.^.^.^.^.^.^.^.^.^.^.^.^.^.^.^.^.^.^.^.^.",
"^.^.^.^.^.^.^.^.^.^.^.^.^.^.^.^.^.^.^.^.^.^.^.^.^.^.^.^.^.^.^.^.^.^.^.^.^.^.^.^.^.^.^.^.^.^.^.^.^.^.^.^.^.^.^.^.^.^.^.^.^.^.^.^.^.^.^.^.^.^.^.^.^.^.^.^.^.^.^.^.. o @ $ * > 1 1 4 6 0 t p f k v b m D K E E E W Q ^ ) ' ' ' } }  . .O.#.#.=.=.:.,.1.1.4.8.q.e.e.t.i.a.s.s.h.k.k.z.v.n.m.N.N.C.C.C.A.D.F.F.F.F.F.F.H.F.H.H.H.H.H.H.H.H.H.H.H.H.L.L.I.L.I.I.I.I.I.I.I.U.I.U.U.U.U.U.U.U.U.R.R.R.U.U.U.U.U.U.U.U.U.U.U.R.U.U.U.U.U.U.U.R.R.U.R.U.U.U.U.U.U.U.U.U.U.U.U.U.U.U.U.U.U.U.U.U.U.U.U.U.U.U.U.I.U.U.U.U.U.U.U.U.U.U.U.U.U.U.U.U.U.U.U.R.R.R.R.R.R.R.R.R.R.R.R.~.~.R.~.~.~.~.~.~.~.~.~.R.~.~.R.~.R.R.R.R.R.R.R.~.~.R.~.R.~.R.~.~.~.R.R.~.R.R.R.R.R.R.R.~.R.R.R.R.R.R.R.U.U.U.I.I.U.I.U.I.I.I.L.L.H.L.H.H.H.H.H.H.H.H.F.H.F.F.A.F.A.A.A.A.C.C.V.N.N.m.m.n.n.z.z.z.k.h.h.s.s.s.s.i.i.t.e.e.e.q.q.8.8.8.4.4.1.1.1.1.,.,.,.,.:.:.:.;.;.=.=.=.=.#.#.#.O.O. . . .} } ' ' ' ' ' ' ' ) ( ) ( ^ ^ ^ Q Q Q W E E E E E E E E U P K H D D D B m m b v v z k f p u e q 8 4 4 1 > * % % # @ o o ^.^.^.^.^.^.^.^.^.^.^.^.^.^.^.^.^.^.^.^.^.^.^.^.^.^.^.^.^.^.^.^.^.^.^.^.^.^.^.^.^.^.^.^.^.^.^.^.^.^.^.^.^.^.^.^.^.^.^.^.^.^.^.^.^.^.^.^.^.^.^.^.^.^.^.^.^.^.^.^.^.^.^.^.^.^.^.^.^.^.^.^.^.^.^.^.^.^.^.^.^.^.^.^.^.^.^.^.^.^.^.^.^.^.^.^.^.^.^.^.^.^.^.^.^.^.^.^.^.^.^.^.^.^.^.^.^.^.^.^.^.^.^.^.^.^.^.^.^.^.^.^.^.^.^.^.^.^.",
"^.^.^.^.^.^.^.^.^.^.^.^.^.^.^.^.^.^.^.^.^.^.^.^.^.^.^.^.^.^.^.^.^.^.^.^.^.^.^.^.^.^.^.^.^.^.^.^.^.^.^.^.^.^.^.^.^.^.^.^.^.^.^.^.^.^.^.^.^.^.^.^.^.^.^.^.^.^.^.^.^.. o $ % > > 1 4 6 q u p f k z b m H P E E E W Q ^ ) ' ' ' }  . . .O.#.#.#.=.;.,.1.1.4.4.8.e.e.t.t.i.s.s.h.h.k.z.v.n.m.m.N.N.C.C.A.A.A.F.F.F.F.F.H.F.H.F.H.H.H.F.H.F.H.H.H.H.H.L.L.L.I.L.I.I.I.I.I.I.U.U.U.U.U.U.U.R.U.R.U.U.U.U.U.U.U.U.U.U.U.R.U.R.U.U.U.U.R.U.U.U.R.R.R.U.U.U.U.U.U.U.U.U.U.U.U.U.U.U.R.R.U.U.U.U.U.U.U.U.U.U.U.U.U.U.U.U.U.U.U.U.U.U.U.U.U.U.U.U.U.U.U.U.R.U.R.R.R.R.R.R.R.R.R.R.~.~.~.~.~.~.~.~.~.~.~.R.R.~.R.R.R.~.R.R.~.R.~.~.R.~.R.~.~.~.~.~.~.R.~.R.~.R.R.R.~.R.~.R.~.R.R.R.R.R.R.U.U.U.U.I.U.I.I.I.I.I.L.L.H.L.L.H.H.H.H.H.H.F.F.H.F.F.F.A.A.A.A.A.C.C.V.N.N.m.m.n.v.v.z.z.k.k.h.s.s.s.s.i.i.t.e.e.q.q.8.8.8.8.4.4.4.4.1.1.1.,.,.,.,.:.;.;.;.=.=.=.=.#.#.O.O. . . . .} } ' ' ' ' ) ) ) ) ( ( ( ^ Q ^ Q Q W E E E E E E E E U L K H D D B B B m b v v z k f p u t e 0 8 4 4 > > * % $ # @ o o . ^.^.^.^.^.^.^.^.^.^.^.^.^.^.^.^.^.^.^.^.^.^.^.^.^.^.^.^.^.^.^.^.^.^.^.^.^.^.^.^.^.^.^.^.^.^.^.^.^.^.^.^.^.^.^.^.^.^.^.^.^.^.^.^.^.^.^.^.^.^.^.^.^.^.^.^.^.^.^.^.^.^.^.^.^.^.^.^.^.^.^.^.^.^.^.^.^.^.^.^.^.^.^.^.^.^.^.^.^.^.^.^.^.^.^.^.^.^.^.^.^.^.^.^.^.^.^.^.^.^.^.^.^.^.^.^.^.^.^.^.^.^.^.^.^.^.^.^.^.^.^.^.^.^.^.^.^.",
"^.^.^.^.^.^.^.^.^.^.^.^.^.^.^.^.^.^.^.^.^.^.^.^.^.^.^.^.^.^.^.^.^.^.^.^.^.^.^.^.^.^.^.^.^.^.^.^.^.^.^.^.^.^.^.^.^.^.^.^.^.^.^.^.^.^.^.^.^.^.^.^.^.^.^.^.^.^.^.^.^.^.o # % > > 1 4 7 q u p k k v b m D P E E W Q Q ^ ( ) ' ' }  . . .O.#.#.=.=.=.:.,.1.1.4.8.q.e.e.t.i.i.s.s.h.k.k.z.n.n.m.m.N.V.C.C.A.A.A.A.F.F.F.F.H.F.F.F.F.H.H.H.H.H.F.H.H.H.L.L.L.L.I.I.L.I.I.I.U.I.U.U.U.U.U.R.U.U.R.R.R.R.U.U.U.U.U.U.U.U.U.R.R.R.R.R.U.U.U.U.R.R.R.R.R.U.U.U.U.U.U.U.U.U.U.U.U.R.U.R.U.U.R.U.U.U.U.U.U.U.U.U.U.U.U.U.U.U.U.U.U.U.U.U.U.U.U.U.U.U.U.R.R.R.U.R.R.R.R.R.~.R.R.R.~.~.R.R.R.R.R.R.R.R.~.R.R.R.~.R.R.R.R.R.R.R.R.R.R.~.R.R.R.~.R.~.~.~.R.R.~.~.R.R.~.R.R.~.~.R.R.R.R.R.R.R.U.U.U.U.U.I.U.I.I.I.I.L.L.L.L.L.L.H.H.H.H.H.H.F.F.F.F.D.F.A.D.A.A.C.C.V.N.N.m.m.n.v.z.z.k.k.k.h.s.s.s.a.i.t.t.e.e.q.q.q.8.8.8.8.4.4.1.1.1.1.,.,.,.:.:.:.;.;.=.=.=.#.#.#.O.O. . . .} } } ' ' ' ) ) ) ) ( ( ( ^ ^ ^ Q W W E E E E E E E E U K H D D B B B m m b v v z k f p u u e 0 8 4 4 1 > * * % $ + @ o o . ^.^.^.^.^.^.^.^.^.^.^.^.^.^.^.^.^.^.^.^.^.^.^.^.^.^.^.^.^.^.^.^.^.^.^.^.^.^.^.^.^.^.^.^.^.^.^.^.^.^.^.^.^.^.^.^.^.^.^.^.^.^.^.^.^.^.^.^.^.^.^.^.^.^.^.^.^.^.^.^.^.^.^.^.^.^.^.^.^.^.^.^.^.^.^.^.^.^.^.^.^.^.^.^.^.^.^.^.^.^.^.^.^.^.^.^.^.^.^.^.^.^.^.^.^.^.^.^.^.^.^.^.^.^.^.^.^.^.^.^.^.^.^.^.^.^.^.^.^.^.^.^.^.^.^.^.^.",
"^.^.^.^.^.^.^.^.^.^.^.^.^.^.^.^.^.^.^.^.^.^.^.^.^.^.^.^.^.^.^.^.^.^.^.^.^.^.^.^.^.^.^.^.^.^.^.^.^.^.^.^.^.^.^.^.^.^.^.^.^.^.^.^.^.^.^.^.^.^.^.^.^.^.^.^.^.^.^.^.^.. o # % * 1 4 4 0 q e p f z v m B D P E E E Q Q ^ ( ) ' ' }  . .O.O.#.#.#.#.=.;.,.,.1.4.8.q.q.e.e.t.i.a.s.s.h.k.z.z.v.n.m.N.N.C.C.C.A.A.D.A.A.F.F.F.F.F.F.F.F.H.H.H.H.F.H.H.H.H.L.L.L.L.I.L.I.I.I.I.I.U.U.U.U.R.R.R.R.R.R.R.R.U.U.U.U.U.U.U.U.U.R.R.R.R.R.U.U.U.U.R.R.R.R.R.R.U.U.U.R.U.R.R.R.U.R.R.R.R.R.R.R.U.U.U.U.U.U.U.U.U.U.U.U.U.U.U.U.U.U.U.U.U.U.U.U.U.U.U.U.U.R.R.R.U.U.U.R.R.R.R.R.R.R.~.R.R.R.R.~.~.~.R.~.~.~.R.R.~.~.R.R.R.R.R.R.R.~.R.~.~.R.~.R.R.R.~.~.~.~.~.~.R.R.~.~.~.~.R.R.R.R.R.R.R.R.R.U.U.U.U.I.I.I.I.I.I.I.L.L.L.L.H.H.H.H.H.H.H.H.F.F.F.F.D.D.A.A.A.C.C.C.N.N.m.m.n.v.z.z.z.k.k.h.h.s.s.s.i.t.t.e.e.e.q.q.8.8.8.8.4.4.4.1.1.1.,.,.,.:.:.:.;.;.=.=.=.#.#.#.O.O. . . .} } ' ' ' ' ) ) ) ( ( ( ^ ^ Q Q Q Q E E E E E E E U L K H D D B B m m b b x v z k f p p u e q 7 4 4 1 1 > * * % $ + @ o o . ^.^.^.^.^.^.^.^.^.^.^.^.^.^.^.^.^.^.^.^.^.^.^.^.^.^.^.^.^.^.^.^.^.^.^.^.^.^.^.^.^.^.^.^.^.^.^.^.^.^.^.^.^.^.^.^.^.^.^.^.^.^.^.^.^.^.^.^.^.^.^.^.^.^.^.^.^.^.^.^.^.^.^.^.^.^.^.^.^.^.^.^.^.^.^.^.^.^.^.^.^.^.^.^.^.^.^.^.^.^.^.^.^.^.^.^.^.^.^.^.^.^.^.^.^.^.^.^.^.^.^.^.^.^.^.^.^.^.^.^.^.^.^.^.^.^.^.^.^.^.^.^.^.^.^.^.^.",
"^.^.^.^.^.^.^.^.^.^.^.^.^.^.^.^.^.^.^.^.^.^.^.^.^.^.^.^.^.^.^.^.^.^.^.^.^.^.^.^.^.^.^.^.^.^.^.^.^.^.^.^.^.^.^.^.^.^.^.^.^.^.^.^.^.^.^.^.^.^.^.^.^.^.^.^.^.^.^.^.^.. o $ * > 1 4 6 0 q t u k c v m B H U E E E Q Q ^ ( ' ' }  . . .O.O.#.#.#.#.=.;.,.,.1.4.4.8.q.q.e.t.t.i.s.h.h.k.k.z.z.v.n.m.m.N.C.C.C.A.A.A.A.A.F.F.F.F.F.F.F.F.F.F.F.F.H.F.H.H.H.H.L.L.L.I.I.I.U.I.U.U.U.U.U.R.R.R.U.U.U.R.U.U.U.U.U.U.U.U.U.U.R.R.R.R.R.U.U.U.R.R.R.R.U.U.R.U.U.U.U.R.R.R.R.R.R.R.R.R.U.U.U.R.R.U.U.R.U.U.U.U.U.U.U.U.U.U.U.U.U.U.U.U.U.U.U.U.U.U.U.U.R.U.U.R.R.R.R.R.R.R.R.R.R.R.R.~.~.~.~.~.~.~.~.R.R.R.~.~.~.R.R.R.R.R.~.~.R.R.R.~.~.R.R.R.R.~.~.~.~.~.~.~.~.~.~.~.~.R.~.R.R.~.R.R.R.U.U.U.U.I.I.I.I.I.I.I.L.I.L.L.L.L.H.H.H.H.H.H.F.H.F.F.F.A.A.A.A.A.C.C.V.N.m.m.m.n.v.z.z.k.k.h.h.h.s.s.s.i.t.t.t.e.e.e.8.8.8.8.8.4.4.4.4.1.1.,.,.,.:.:.:.;.;.=.=.#.#.#.O.O.O. . . .} } ' ' ' ' ) ) ( ( ( ^ ^ Q Q Q W W E E E E E E U L K H D D B B m m b b x z z k f p u u e q 0 6 4 1 1 > > * * % $ # @ o o . ^.^.^.^.^.^.^.^.^.^.^.^.^.^.^.^.^.^.^.^.^.^.^.^.^.^.^.^.^.^.^.^.^.^.^.^.^.^.^.^.^.^.^.^.^.^.^.^.^.^.^.^.^.^.^.^.^.^.^.^.^.^.^.^.^.^.^.^.^.^.^.^.^.^.^.^.^.^.^.^.^.^.^.^.^.^.^.^.^.^.^.^.^.^.^.^.^.^.^.^.^.^.^.^.^.^.^.^.^.^.^.^.^.^.^.^.^.^.^.^.^.^.^.^.^.^.^.^.^.^.^.^.^.^.^.^.^.^.^.^.^.^.^.^.^.^.^.^.^.^.^.^.^.^.^.^.^.",
"^.^.^.^.^.^.^.^.^.^.^.^.^.^.^.^.^.^.^.^.^.^.^.^.^.^.^.^.^.^.^.^.^.^.^.^.^.^.^.^.^.^.^.^.^.^.^.^.^.^.^.^.^.^.^.^.^.^.^.^.^.^.^.^.^.^.^.^.^.^.^.^.^.^.^.^.^.^.^.^.^.^.o # % > 1 1 6 0 e t p k v b m B H P E E E W Q ^ ( ' ' }  . . .O.O.#.#.#.#.=.;.,.,.1.4.4.4.q.q.e.e.t.i.i.s.h.h.k.z.z.z.v.n.m.N.N.V.C.C.C.A.A.A.D.D.D.F.A.A.F.A.F.F.F.F.F.H.H.H.H.H.L.L.L.L.L.I.U.I.U.U.U.U.U.R.R.U.U.R.U.U.U.U.U.U.U.U.U.R.U.R.R.U.R.R.R.U.U.R.R.R.R.R.R.U.U.U.U.U.U.R.R.R.R.R.R.R.R.R.U.R.R.R.R.U.R.R.U.U.U.U.U.U.U.U.U.U.U.U.U.U.U.U.U.R.U.U.U.U.R.U.R.R.R.R.R.U.R.R.R.R.R.R.R.R.R.~.~.~.~.~.~.~.~.R.~.~.~.~.~.~.R.R.R.R.R.R.R.R.R.R.~.R.R.R.R.~.~.~.R.~.~.~.~.~.~.~.~.~.~.R.R.R.R.R.R.U.U.U.U.I.U.I.I.I.I.I.I.L.L.L.H.H.H.H.H.H.H.H.F.F.F.F.A.A.A.D.A.A.C.V.C.N.N.m.n.n.v.z.z.k.k.k.h.h.s.s.s.i.t.t.e.e.e.q.q.q.8.8.4.4.4.4.1.1.1.1.,.,.:.:.;.;.;.=.=.#.#.O.O.O. . . . .} } ' ' ' ' ) ) ) ( ^ ^ Q Q Q Q E E E E E E U P L K H D D B m m m b v v z z k f p u u e e 0 7 4 4 1 > > > * * % $ # @ o o . ^.^.^.^.^.^.^.^.^.^.^.^.^.^.^.^.^.^.^.^.^.^.^.^.^.^.^.^.^.^.^.^.^.^.^.^.^.^.^.^.^.^.^.^.^.^.^.^.^.^.^.^.^.^.^.^.^.^.^.^.^.^.^.^.^.^.^.^.^.^.^.^.^.^.^.^.^.^.^.^.^.^.^.^.^.^.^.^.^.^.^.^.^.^.^.^.^.^.^.^.^.^.^.^.^.^.^.^.^.^.^.^.^.^.^.^.^.^.^.^.^.^.^.^.^.^.^.^.^.^.^.^.^.^.^.^.^.^.^.^.^.^.^.^.^.^.^.^.^.^.^.^.^.^.^.^.^.",
"^.^.^.^.^.^.^.^.^.^.^.^.^.^.^.^.^.^.^.^.^.^.^.^.^.^.^.^.^.^.^.^.^.^.^.^.^.^.^.^.^.^.^.^.^.^.^.^.^.^.^.^.^.^.^.^.^.^.^.^.^.^.^.^.^.^.^.^.^.^.^.^.^.^.^.^.^.^.^.^.^.^.o $ % * > 1 6 0 e u p k x b m B D H P E E E Q ^ ( ) ' }  . . .O.O.#.#.#.#.=.=.:.:.,.1.4.4.8.q.e.e.t.t.i.i.s.s.h.k.k.z.z.v.n.m.N.N.V.C.C.C.C.A.A.A.A.A.D.A.A.A.A.D.F.F.F.F.F.H.H.H.H.H.L.L.I.I.I.I.U.U.U.U.U.R.R.R.U.U.U.R.U.U.U.U.U.U.U.R.U.U.U.U.U.R.R.R.R.R.R.R.R.R.R.R.R.R.R.R.R.R.R.R.R.R.R.R.R.R.R.R.R.R.R.R.R.R.R.R.U.U.U.U.R.R.U.R.R.U.U.R.U.R.R.R.R.R.U.U.U.U.R.U.U.R.R.R.R.R.R.R.R.R.R.R.R.~.~.~.~.~.~.~.~.R.R.~.~.~.~.~.~.R.R.~.R.R.~.R.~.R.R.R.R.R.~.~.R.R.R.R.~.~.~.R.~.R.R.~.~.R.R.~.R.R.R.U.U.U.U.U.I.I.I.I.I.I.I.I.L.H.L.H.H.H.H.H.H.F.F.F.F.F.D.A.A.A.A.A.C.V.V.N.m.m.n.n.z.z.z.k.k.h.h.s.s.s.a.i.t.t.e.e.e.e.q.8.8.4.4.4.4.4.1.1.1.,.,.,.:.:.;.;.=.=.=.#.#.#.O.O.O. . . .} } ' ' ' ) ) ) ( ^ ^ ^ Q Q Q W E E E E E P L H H H D D B B m b b v x z z k f p u u e e 0 0 6 4 4 1 > > * * * % $ # @ o o . ^.^.^.^.^.^.^.^.^.^.^.^.^.^.^.^.^.^.^.^.^.^.^.^.^.^.^.^.^.^.^.^.^.^.^.^.^.^.^.^.^.^.^.^.^.^.^.^.^.^.^.^.^.^.^.^.^.^.^.^.^.^.^.^.^.^.^.^.^.^.^.^.^.^.^.^.^.^.^.^.^.^.^.^.^.^.^.^.^.^.^.^.^.^.^.^.^.^.^.^.^.^.^.^.^.^.^.^.^.^.^.^.^.^.^.^.^.^.^.^.^.^.^.^.^.^.^.^.^.^.^.^.^.^.^.^.^.^.^.^.^.^.^.^.^.^.^.^.^.^.^.^.^.^.^.^.^.",
"^.^.^.^.^.^.^.^.^.^.^.^.^.^.^.^.^.^.^.^.^.^.^.^.^.^.^.^.^.^.^.^.^.^.^.^.^.^.^.^.^.^.^.^.^.^.^.^.^.^.^.^.^.^.^.^.^.^.^.^.^.^.^.^.^.^.^.^.^.^.^.^.^.^.^.^.^.^.^.^.^.^.. + % * > 1 6 0 e u p k x b b m Z D H L E E Q ^ ^ ) ' ' }  . .O.O.#.#.#.#.=.;.:.:.,.1.1.4.8.q.e.e.e.t.t.i.s.s.h.h.k.k.z.z.v.n.m.N.N.V.V.C.C.C.C.C.A.A.A.A.A.A.A.A.D.F.F.F.F.H.H.H.H.H.H.L.L.L.I.U.I.U.U.U.U.R.R.R.U.R.R.R.U.U.U.U.U.U.U.U.U.U.U.U.R.R.R.U.R.R.R.R.R.R.R.R.R.R.R.R.R.R.R.R.R.R.R.R.R.R.R.R.R.R.R.R.R.R.R.R.U.U.U.R.R.R.R.U.R.U.U.R.R.U.R.R.R.R.R.U.U.R.R.R.R.R.R.R.R.R.R.R.~.R.R.R.R.R.~.~.~.R.~.~.R.R.R.~.~.~.~.~.~.~.~.R.R.R.R.~.R.R.~.R.R.R.R.~.R.R.R.R.~.~.~.R.R.R.R.~.~.~.R.~.R.~.R.R.U.U.U.U.U.U.I.I.L.L.I.L.L.H.H.H.H.H.H.H.H.F.F.F.F.D.D.A.A.A.A.C.C.V.N.N.m.m.n.v.z.z.k.k.k.h.h.s.s.s.a.i.t.t.t.e.e.q.q.8.8.8.4.4.4.4.1.1.1.1.,.,.:.:.;.=.=.=.=.#.#.#.O.O. . . .} } } ' ' ' ) ) ) ( ^ ^ Q Q Q Q E E E E E U K H H D D D B m m m b v x v z k f p p u t e q 0 8 6 4 1 > > > * * * % $ # + o o . . ^.^.^.^.^.^.^.^.^.^.^.^.^.^.^.^.^.^.^.^.^.^.^.^.^.^.^.^.^.^.^.^.^.^.^.^.^.^.^.^.^.^.^.^.^.^.^.^.^.^.^.^.^.^.^.^.^.^.^.^.^.^.^.^.^.^.^.^.^.^.^.^.^.^.^.^.^.^.^.^.^.^.^.^.^.^.^.^.^.^.^.^.^.^.^.^.^.^.^.^.^.^.^.^.^.^.^.^.^.^.^.^.^.^.^.^.^.^.^.^.^.^.^.^.^.^.^.^.^.^.^.^.^.^.^.^.^.^.^.^.^.^.^.^.^.^.^.^.^.^.^.^.^.^.^.^.",
"^.^.^.^.^.^.^.^.^.^.^.^.^.^.^.^.^.^.^.^.^.^.^.^.^.^.^.^.^.^.^.^.^.^.^.^.^.^.^.^.^.^.^.^.^.^.^.^.^.^.^.^.^.^.^.^.^.^.^.^.^.^.^.^.^.^.^.^.^.^.^.^.^.^.^.^.^.^.^.^.^.^.^.o $ * > 1 6 q u p f z x b b m B D D K E E W Q ^ ) ' ' }  . .O.O.#.#.#.#.=.=.:.:.,.,.1.4.4.4.8.q.e.e.t.t.i.s.s.h.h.k.k.z.z.v.m.m.m.N.N.V.V.C.C.C.C.C.A.A.A.A.A.A.D.F.F.F.F.F.H.H.H.H.L.L.L.L.U.U.U.U.U.U.R.R.R.R.R.R.U.U.U.U.U.U.U.U.U.U.U.U.R.R.R.R.R.R.R.R.U.U.R.U.R.R.R.R.R.R.R.R.R.R.R.R.R.R.R.R.R.R.R.R.R.R.R.R.R.R.R.R.R.R.R.U.U.U.R.U.R.R.U.U.U.U.R.R.R.U.R.R.R.R.R.R.U.R.R.R.R.R.R.R.~.R.~.R.~.~.~.R.~.~.~.~.~.~.~.~.~.~.~.~.~.~.~.~.~.~.~.~.~.~.R.~.R.~.~.~.~.~.R.R.R.~.~.~.R.R.R.~.R.R.R.R.~.R.R.U.U.U.U.U.I.I.I.I.L.L.L.H.H.H.H.H.F.F.F.F.F.D.F.D.D.A.A.A.C.C.C.V.N.m.m.n.v.v.z.z.k.k.k.h.h.s.s.s.a.i.i.t.t.e.e.q.q.8.8.4.4.4.4.4.1.1.1.,.,.:.:.;.;.=.=.=.=.#.#.O.O.O. . . .} } ' ' ' ' ) ) ( ^ ^ Q Q Q E E E E E E U L K H D D Z B m m b b b v v k k f p p u t e e 0 8 6 4 4 1 > > * * * * % % # + # o o . . ^.^.^.^.^.^.^.^.^.^.^.^.^.^.^.^.^.^.^.^.^.^.^.^.^.^.^.^.^.^.^.^.^.^.^.^.^.^.^.^.^.^.^.^.^.^.^.^.^.^.^.^.^.^.^.^.^.^.^.^.^.^.^.^.^.^.^.^.^.^.^.^.^.^.^.^.^.^.^.^.^.^.^.^.^.^.^.^.^.^.^.^.^.^.^.^.^.^.^.^.^.^.^.^.^.^.^.^.^.^.^.^.^.^.^.^.^.^.^.^.^.^.^.^.^.^.^.^.^.^.^.^.^.^.^.^.^.^.^.^.^.^.^.^.^.^.^.^.^.^.^.^.^.^.^.",
"^.^.^.^.^.^.^.^.^.^.^.^.^.^.^.^.^.^.^.^.^.^.^.^.^.^.^.^.^.^.^.^.^.^.^.^.^.^.^.^.^.^.^.^.^.^.^.^.^.^.^.^.^.^.^.^.^.^.^.^.^.^.^.^.^.^.^.^.^.^.^.^.^.^.^.^.^.^.^.^.^.^.^.o # % * 1 6 0 e p f z x v v m B D D H E E Q Q ^ ) ' ' }  . . .O.O.#.#.#.=.=.;.:.:.,.1.1.4.4.8.8.q.e.t.t.i.a.s.h.h.k.k.k.z.v.n.m.m.N.N.N.N.V.V.C.C.C.C.A.A.A.A.A.D.D.D.F.F.F.H.H.H.H.H.H.L.L.L.U.U.U.U.U.R.R.R.R.R.U.U.U.U.U.U.U.U.U.U.U.U.U.R.U.R.U.U.R.U.U.U.U.R.R.R.U.U.U.R.R.R.R.~.R.R.R.~.R.R.R.R.R.R.R.R.R.R.R.R.R.R.U.R.R.R.U.U.U.U.U.R.R.U.R.U.U.U.R.R.R.R.R.R.R.R.R.R.R.R.R.R.R.R.R.R.R.~.R.R.~.R.~.~.~.~.~.R.~.~.~.~.~.~.R.~.~.~.R.R.~.~.~.~.R.~.~.~.~.~.~.~.R.R.R.R.~.~.~.~.R.R.~.R.R.R.~.R.R.R.R.U.U.U.I.I.I.L.L.L.L.L.H.H.H.H.H.H.H.F.F.F.A.A.D.A.A.A.C.C.V.V.N.N.m.m.n.v.z.z.z.k.k.h.h.s.s.s.s.a.i.t.t.e.e.e.q.8.8.8.4.4.4.4.4.1.1.1.,.,.:.:.;.;.=.=.=.#.#.#.O.O. . . . .} } ' ' ' ) ( ( ^ ^ ^ Q Q W E E E E E E L K H D D B B B m m b b v x z z k f p u u t e q 0 8 6 4 1 1 > > > * * * * % % # + o o o . . ^.^.^.^.^.^.^.^.^.^.^.^.^.^.^.^.^.^.^.^.^.^.^.^.^.^.^.^.^.^.^.^.^.^.^.^.^.^.^.^.^.^.^.^.^.^.^.^.^.^.^.^.^.^.^.^.^.^.^.^.^.^.^.^.^.^.^.^.^.^.^.^.^.^.^.^.^.^.^.^.^.^.^.^.^.^.^.^.^.^.^.^.^.^.^.^.^.^.^.^.^.^.^.^.^.^.^.^.^.^.^.^.^.^.^.^.^.^.^.^.^.^.^.^.^.^.^.^.^.^.^.^.^.^.^.^.^.^.^.^.^.^.^.^.^.^.^.^.^.^.^.^.^.^.",
"^.^.^.^.^.^.^.^.^.^.^.^.^.^.^.^.^.^.^.^.^.^.^.^.^.^.^.^.^.^.^.^.^.^.^.^.^.^.^.^.^.^.^.^.^.^.^.^.^.^.^.^.^.^.^.^.^.^.^.^.^.^.^.^.^.^.^.^.^.^.^.^.^.^.^.^.^.^.^.^.^.^.^.. @ % * > 4 0 e u f z v x v m B D H K E E Q Q ( ) ' ' }  . . .O.O.O.#.#.#.=.=.;.:.:.,.1.1.4.4.8.q.e.t.t.i.i.s.s.s.h.k.k.k.z.v.n.m.m.m.N.N.N.V.V.V.C.C.A.A.A.A.A.A.D.A.F.F.F.F.H.F.H.H.H.H.L.L.I.U.U.U.U.U.R.R.R.R.R.R.U.U.U.U.U.U.U.U.U.U.U.U.U.U.U.U.U.U.R.U.R.U.R.R.U.R.U.R.R.R.R.R.R.R.R.R.~.~.R.R.R.R.R.R.~.R.R.R.R.R.R.R.R.R.R.R.R.R.U.U.R.R.R.R.R.U.U.U.R.R.R.R.R.R.R.R.R.R.R.R.R.~.~.R.R.~.R.R.~.R.R.R.R.~.~.~.~.~.~.~.~.~.R.R.~.~.~.~.~.~.R.R.~.~.~.~.~.~.~.~.~.~.~.~.~.~.~.~.R.R.R.R.R.R.R.R.R.R.R.U.U.U.I.I.L.L.L.H.H.H.H.H.H.H.H.H.F.F.A.A.A.A.A.A.A.C.C.C.C.N.N.m.m.n.v.v.z.z.z.k.k.h.h.h.s.s.s.i.i.t.t.e.e.e.q.8.8.4.4.4.4.4.4.1.1.1.,.,.:.:.;.=.=.=.=.#.#.#.O.O. . . . .} } ' ' ' ) ( ( ^ ^ Q Q Q W E E E E E U K H D D Z B B m m b b v v z z k f f p u u e q 0 7 6 4 4 1 1 > > > * * * * * % $ # + @ o o . . . ^.^.^.^.^.^.^.^.^.^.^.^.^.^.^.^.^.^.^.^.^.^.^.^.^.^.^.^.^.^.^.^.^.^.^.^.^.^.^.^.^.^.^.^.^.^.^.^.^.^.^.^.^.^.^.^.^.^.^.^.^.^.^.^.^.^.^.^.^.^.^.^.^.^.^.^.^.^.^.^.^.^.^.^.^.^.^.^.^.^.^.^.^.^.^.^.^.^.^.^.^.^.^.^.^.^.^.^.^.^.^.^.^.^.^.^.^.^.^.^.^.^.^.^.^.^.^.^.^.^.^.^.^.^.^.^.^.^.^.^.^.^.^.^.^.^.^.^.^.^.^.^.",
"^.^.^.^.^.^.^.^.^.^.^.^.^.^.^.^.^.^.^.^.^.^.^.^.^.^.^.^.^.^.^.^.^.^.^.^.^.^.^.^.^.^.^.^.^.^.^.^.^.^.^.^.^.^.^.^.^.^.^.^.^.^.^.^.^.^.^.^.^.^.^.^.^.^.^.^.^.^.^.^.^.^.^.^.o $ * > 1 7 q t p k z v b B Z D K P E E Q Q ( ) ' ' } }  . . .O.O.O.O.#.#.=.=.;.;.:.,.1.1.4.8.8.q.e.t.t.i.i.s.s.h.h.k.k.z.z.v.n.m.m.m.m.N.N.V.V.V.C.C.A.A.A.A.A.A.D.A.F.F.F.F.H.H.H.H.H.L.L.L.U.U.U.U.U.R.U.R.R.R.U.U.U.U.I.U.U.U.U.U.U.U.U.U.U.U.R.U.R.U.U.U.U.R.R.R.R.R.R.R.R.R.R.~.R.R.R.R.R.R.R.~.R.~.R.R.R.R.R.R.R.R.R.R.R.R.R.R.U.U.U.R.R.R.R.R.R.R.U.R.R.R.R.R.U.U.R.R.R.R.R.R.R.R.~.~.R.~.R.R.R.R.~.R.R.R.R.~.R.~.~.R.R.R.R.~.~.~.~.~.~.R.R.~.~.~.~.~.~.~.~.~.~.~.~.~.~.~.~.~.~.R.R.R.R.R.R.R.R.R.U.U.U.I.I.I.L.L.H.H.H.H.H.F.H.F.F.F.D.D.A.A.A.A.A.C.C.V.V.N.N.N.m.m.n.v.z.z.z.k.k.k.h.s.s.s.s.s.i.t.t.t.e.e.e.q.8.8.4.8.4.4.4.1.1.1.1.,.,.:.;.=.=.=.=.#.#.#.O.O.O. . . . .} ' ' ' ) ) ) ^ ^ Q Q Q Q E E E E E U L H D D Z B B m m b b x v z z k f f p u u t e q 0 8 6 4 4 1 1 > > > * * * * * % % $ # # + o o o . . ^.^.^.^.^.^.^.^.^.^.^.^.^.^.^.^.^.^.^.^.^.^.^.^.^.^.^.^.^.^.^.^.^.^.^.^.^.^.^.^.^.^.^.^.^.^.^.^.^.^.^.^.^.^.^.^.^.^.^.^.^.^.^.^.^.^.^.^.^.^.^.^.^.^.^.^.^.^.^.^.^.^.^.^.^.^.^.^.^.^.^.^.^.^.^.^.^.^.^.^.^.^.^.^.^.^.^.^.^.^.^.^.^.^.^.^.^.^.^.^.^.^.^.^.^.^.^.^.^.^.^.^.^.^.^.^.^.^.^.^.^.^.^.^.^.^.^.^.^.^.^.",
"^.^.^.^.^.^.^.^.^.^.^.^.^.^.^.^.^.^.^.^.^.^.^.^.^.^.^.^.^.^.^.^.^.^.^.^.^.^.^.^.^.^.^.^.^.^.^.^.^.^.^.^.^.^.^.^.^.^.^.^.^.^.^.^.^.^.^.^.^.^.^.^.^.^.^.^.^.^.^.^.^.^.^.. o % * > 1 6 0 e p f k v b m B D H P E E Q ^ ( ) ' ' }  . . .O.O.O.+.#.O.#.#.=.;.:.:.,.,.1.1.4.8.8.q.e.t.i.i.a.s.s.h.h.k.k.z.z.v.n.n.m.m.m.m.N.N.V.C.C.C.A.A.A.A.D.D.D.F.F.F.F.F.F.H.H.H.H.L.L.I.U.U.U.R.U.R.U.U.R.U.R.U.U.U.U.U.U.U.U.U.U.U.U.U.U.U.U.U.U.U.U.R.R.U.R.R.R.R.R.R.~.R.~.~.R.~.~.~.~.R.R.R.R.R.~.R.~.~.R.~.R.R.R.U.R.R.R.R.U.R.R.R.R.R.R.R.U.R.R.R.R.R.R.R.R.R.R.R.R.R.R.~.R.R.R.~.R.~.R.~.~.~.~.~.~.~.R.R.~.R.R.R.R.R.~.~.R.R.R.~.R.R.~.~.R.R.~.~.~.~.~.~.~.~.~.~.~.~.~.~.~.~.~.R.R.R.R.R.U.U.U.U.U.U.I.L.L.H.H.H.H.H.H.F.F.F.A.A.A.A.A.A.A.C.C.C.C.V.N.N.m.m.n.n.v.z.z.k.k.k.h.h.h.s.s.s.a.i.t.t.t.t.e.q.8.8.8.8.4.4.4.1.1.1.1.1.,.:.:.;.=.=.=.#.#.#.#.O.O.O. . . .} ' ' ' ' ) ( ^ ^ ^ Q Q W W E E E E U L K H D Z B B m m b b v v z z k f f p p u u e e 0 0 6 4 4 4 1 1 1 > > > > * * * % % % $ $ # + o o o o . ^.^.^.^.^.^.^.^.^.^.^.^.^.^.^.^.^.^.^.^.^.^.^.^.^.^.^.^.^.^.^.^.^.^.^.^.^.^.^.^.^.^.^.^.^.^.^.^.^.^.^.^.^.^.^.^.^.^.^.^.^.^.^.^.^.^.^.^.^.^.^.^.^.^.^.^.^.^.^.^.^.^.^.^.^.^.^.^.^.^.^.^.^.^.^.^.^.^.^.^.^.^.^.^.^.^.^.^.^.^.^.^.^.^.^.^.^.^.^.^.^.^.^.^.^.^.^.^.^.^.^.^.^.^.^.^.^.^.^.^.^.^.^.^.^.^.^.^.^.^.",
"^.^.^.^.^.^.^.^.^.^.^.^.^.^.^.^.^.^.^.^.^.^.^.^.^.^.^.^.^.^.^.^.^.^.^.^.^.^.^.^.^.^.^.^.^.^.^.^.^.^.^.^.^.^.^.^.^.^.^.^.^.^.^.^.^.^.^.^.^.^.^.^.^.^.^.^.^.^.^.^.^.^.^.o o $ * * 1 4 0 e u p k z v b m D K U E W Q ^ ) ' ' ' }  . .O.O.O.O.#.#.#.#.#.=.=.;.:.:.,.,.1.1.4.8.q.e.t.t.i.a.a.s.s.h.k.k.k.z.z.v.v.n.m.m.m.m.N.N.V.C.C.C.C.A.A.A.D.D.D.F.F.F.F.H.H.H.H.H.H.L.L.U.U.U.U.U.U.R.U.R.R.U.U.U.U.U.U.U.U.U.U.U.U.U.U.U.R.R.U.R.R.R.R.U.U.R.R.R.R.R.R.R.R.R.R.R.~.~.~.~.~.R.~.~.~.R.~.~.R.~.R.R.R.R.R.R.R.R.R.R.R.R.R.R.R.R.R.U.R.R.R.R.R.U.R.R.R.R.R.R.R.~.R.~.R.R.~.~.~.R.R.R.R.~.R.~.~.R.~.R.R.R.R.R.R.~.~.R.R.~.~.R.R.~.~.R.R.~.~.~.~.R.R.~.~.~.~.~.~.~.~.~.~.~.~.R.~.R.R.U.U.U.U.U.U.I.L.L.H.H.H.H.F.F.F.F.A.F.A.A.A.A.A.C.C.C.V.V.N.N.m.m.m.n.v.z.z.z.k.k.h.h.h.s.s.s.s.i.i.t.t.e.e.q.q.8.8.4.8.4.4.4.1.1.1.1.,.,.:.;.;.=.=.=.#.#.#.O.O. . . . .} } ' ' ' ) ( ( ( ^ ^ Q Q E E E E E U L K H D D B B m m b v x v z k k k f f p p u t e q 0 7 6 4 4 4 1 1 1 > > > > * * * * * % % % % # + @ o o o . . ^.^.^.^.^.^.^.^.^.^.^.^.^.^.^.^.^.^.^.^.^.^.^.^.^.^.^.^.^.^.^.^.^.^.^.^.^.^.^.^.^.^.^.^.^.^.^.^.^.^.^.^.^.^.^.^.^.^.^.^.^.^.^.^.^.^.^.^.^.^.^.^.^.^.^.^.^.^.^.^.^.^.^.^.^.^.^.^.^.^.^.^.^.^.^.^.^.^.^.^.^.^.^.^.^.^.^.^.^.^.^.^.^.^.^.^.^.^.^.^.^.^.^.^.^.^.^.^.^.^.^.^.^.^.^.^.^.^.^.^.^.^.^.^.^.^.^.^.",
"^.^.^.^.^.^.^.^.^.^.^.^.^.^.^.^.^.^.^.^.^.^.^.^.^.^.^.^.^.^.^.^.^.^.^.^.^.^.^.^.^.^.^.^.^.^.^.^.^.^.^.^.^.^.^.^.^.^.^.^.^.^.^.^.^.^.^.^.^.^.^.^.^.^.^.^.^.^.^.^.^.^.^.o + $ % * > 4 7 e t p f z x b B D H E E W Q ( ) ' ' '  . . . .O.O.#.#.#.#.#.#.#.=.=.;.:.:.,.,.1.4.8.8.q.e.t.t.i.s.s.s.s.h.k.k.z.z.z.v.v.m.n.m.m.m.N.N.V.C.C.C.A.A.A.A.D.A.F.F.F.H.F.H.H.H.H.L.L.I.U.U.U.U.R.R.R.R.R.R.R.U.U.U.U.U.U.U.U.U.U.U.U.R.U.U.U.U.R.R.R.R.U.U.U.R.R.R.R.R.R.R.R.R.~.R.~.~.R.R.R.R.R.~.R.R.R.~.R.R.R.~.R.R.R.R.R.U.R.R.R.R.R.R.R.R.R.R.R.R.R.U.R.R.R.R.R.R.R.R.R.R.R.~.~.~.~.~.R.R.~.R.R.~.~.~.~.R.~.~.~.~.R.R.~.~.~.~.~.~.R.R.~.~.R.R.~.~.~.R.R.R.~.~.~.~.R.R.~.R.~.~.~.~.~.R.R.R.U.U.U.U.I.L.L.L.L.L.H.H.H.H.H.F.F.A.A.A.A.A.C.C.C.C.C.V.N.N.m.m.n.n.n.v.z.z.k.k.h.h.h.s.s.s.s.s.i.i.i.t.t.e.q.q.8.8.8.4.4.4.4.1.1.1.1.,.,.:.;.=.=.=.=.#.#.O.O.O. . . .} } ' ' ' ) ) ( ( ^ ^ Q Q W E E E E E U L H H D Z B m m b v x x z z k k k f f p p u t e q 0 8 6 4 4 4 4 1 1 > 1 > > * * * * * * % % % $ # + @ o o o . ^.^.^.^.^.^.^.^.^.^.^.^.^.^.^.^.^.^.^.^.^.^.^.^.^.^.^.^.^.^.^.^.^.^.^.^.^.^.^.^.^.^.^.^.^.^.^.^.^.^.^.^.^.^.^.^.^.^.^.^.^.^.^.^.^.^.^.^.^.^.^.^.^.^.^.^.^.^.^.^.^.^.^.^.^.^.^.^.^.^.^.^.^.^.^.^.^.^.^.^.^.^.^.^.^.^.^.^.^.^.^.^.^.^.^.^.^.^.^.^.^.^.^.^.^.^.^.^.^.^.^.^.^.^.^.^.^.^.^.^.^.^.^.^.^.^.^.^.",
"^.^.^.^.^.^.^.^.^.^.^.^.^.^.^.^.^.^.^.^.^.^.^.^.^.^.^.^.^.^.^.^.^.^.^.^.^.^.^.^.^.^.^.^.^.^.^.^.^.^.^.^.^.^.^.^.^.^.^.^.^.^.^.^.^.^.^.^.^.^.^.^.^.^.^.^.^.^.^.^.^.^.^.o $ % * > 1 4 7 e t u f z v b B D L E E Q Q ( ) ' ' } }  . .O.O.O.#.#.#.#.#.#.#.=.=.;.;.:.,.,.1.1.4.8.q.e.t.t.t.i.s.s.s.s.h.k.k.z.z.z.v.v.n.n.m.m.N.N.V.V.C.C.A.A.A.A.D.A.A.F.F.F.H.H.H.H.H.H.L.L.U.U.U.U.U.R.R.R.R.R.R.U.R.U.U.U.U.U.U.U.U.U.U.U.R.U.U.U.R.R.R.R.R.U.U.R.R.R.R.R.R.~.R.R.R.R.R.~.R.R.R.~.R.R.R.~.~.~.~.R.R.R.~.R.R.R.R.R.R.R.R.R.R.R.R.R.U.R.R.R.R.R.R.R.R.R.R.R.R.R.R.R.~.~.~.~.~.~.R.R.~.~.~.~.R.~.R.R.~.~.~.~.R.R.~.~.~.~.~.~.R.~.~.~.R.R.~.~.~.~.R.R.R.~.~.~.R.R.R.R.~.~.~.~.R.R.R.R.U.U.U.I.I.I.L.L.H.H.H.H.H.H.H.F.D.A.A.A.A.C.C.C.C.V.V.N.N.m.m.m.n.n.v.z.z.z.k.k.h.h.h.s.s.s.s.a.i.i.t.t.e.e.q.8.8.8.8.4.4.4.4.1.1.,.,.,.:.;.;.=.=.=.#.#.#.O.O.O. . .} } } ' ' ' ) ( ( ^ ^ Q Q Q Q E E E E U P K H D D B B m b b v x c z z k k f f p p u u e e 0 7 8 6 4 4 4 1 1 1 > > > > > * * * * * * * % % $ # + o o o o . ^.^.^.^.^.^.^.^.^.^.^.^.^.^.^.^.^.^.^.^.^.^.^.^.^.^.^.^.^.^.^.^.^.^.^.^.^.^.^.^.^.^.^.^.^.^.^.^.^.^.^.^.^.^.^.^.^.^.^.^.^.^.^.^.^.^.^.^.^.^.^.^.^.^.^.^.^.^.^.^.^.^.^.^.^.^.^.^.^.^.^.^.^.^.^.^.^.^.^.^.^.^.^.^.^.^.^.^.^.^.^.^.^.^.^.^.^.^.^.^.^.^.^.^.^.^.^.^.^.^.^.^.^.^.^.^.^.^.^.^.^.^.^.^.^.^.^.",
"^.^.^.^.^.^.^.^.^.^.^.^.^.^.^.^.^.^.^.^.^.^.^.^.^.^.^.^.^.^.^.^.^.^.^.^.^.^.^.^.^.^.^.^.^.^.^.^.^.^.^.^.^.^.^.^.^.^.^.^.^.^.^.^.^.^.^.^.^.^.^.^.^.^.^.^.^.^.^.^.^.^.o # % * * > 1 4 0 q u u f z x b B H U E W Q ^ ( ) ' } } }  .O.O.O.#.#.#.#.#.=.=.=.=.=.;.;.:.:.,.,.1.4.4.8.q.e.e.t.t.i.s.s.s.h.k.k.z.z.z.v.v.n.n.m.m.m.N.N.V.C.C.C.A.A.A.A.A.A.F.F.F.H.F.H.H.H.H.L.L.I.I.U.U.U.R.R.R.R.R.R.U.U.U.U.U.U.U.U.U.U.U.U.R.R.R.U.R.R.R.U.U.R.R.R.R.R.R.R.R.R.~.R.R.~.R.~.R.R.R.R.R.R.~.R.~.R.~.~.~.~.~.~.R.R.R.R.R.R.R.R.R.R.R.R.R.R.R.R.R.R.R.R.R.R.R.R.R.R.R.~.~.R.R.~.~.~.~.R.R.~.~.~.R.~.~.~.~.~.~.~.~.~.~.~.~.~.~.~.R.R.R.~.~.~.~.~.~.R.R.~.~.R.R.~.~.~.~.~.R.~.~.~.R.R.R.R.R.U.U.U.I.I.L.L.L.H.L.H.H.H.H.F.F.D.A.A.A.A.C.C.C.C.V.N.N.N.m.m.n.n.v.v.z.z.k.k.k.h.h.h.s.s.s.s.i.i.t.t.t.e.e.q.8.8.4.4.4.4.4.1.1.1.1.,.,.:.;.=.=.=.#.#.#.O.O. . . . .} ' ' ' ' ) ) ( ^ ^ Q Q Q W E E E E E P L H H D D B m m b v x v z z k k f f f p p u u e e 0 7 6 6 4 4 1 4 1 1 > > > * * * * * * * * % % % % # + o o o o . ^.^.^.^.^.^.^.^.^.^.^.^.^.^.^.^.^.^.^.^.^.^.^.^.^.^.^.^.^.^.^.^.^.^.^.^.^.^.^.^.^.^.^.^.^.^.^.^.^.^.^.^.^.^.^.^.^.^.^.^.^.^.^.^.^.^.^.^.^.^.^.^.^.^.^.^.^.^.^.^.^.^.^.^.^.^.^.^.^.^.^.^.^.^.^.^.^.^.^.^.^.^.^.^.^.^.^.^.^.^.^.^.^.^.^.^.^.^.^.^.^.^.^.^.^.^.^.^.^.^.^.^.^.^.^.^.^.^.^.^.^.^.^.^.^.^.^.",
"^.^.^.^.^.^.^.^.^.^.^.^.^.^.^.^.^.^.^.^.^.^.^.^.^.^.^.^.^.^.^.^.^.^.^.^.^.^.^.^.^.^.^.^.^.^.^.^.^.^.^.^.^.^.^.^.^.^.^.^.^.^.^.^.^.^.^.^.^.^.^.^.^.^.^.^.^.^.^.^.^.^.o % % * > 1 4 6 0 e u p f z b m Z H E E W Q ^ ( ) ' ' }  . . .O.#.#.#.#.#.#.#.=.=.=.=.;.:.:.,.,.1.1.1.4.4.8.e.e.t.t.i.a.s.h.h.h.k.k.z.z.v.v.n.m.n.m.m.N.N.V.C.C.C.A.A.A.A.A.D.F.F.F.F.H.H.H.H.H.H.L.L.I.U.U.U.U.R.R.R.R.U.U.U.U.R.U.U.U.U.U.U.U.U.U.R.R.R.R.R.R.U.R.R.R.R.R.R.R.R.R.R.R.R.R.R.R.~.R.~.R.R.R.~.~.R.R.~.~.~.~.R.~.~.R.~.R.R.R.R.R.R.R.R.R.R.R.R.R.R.R.R.R.R.R.R.R.R.R.R.R.R.R.R.~.R.~.~.~.~.R.~.~.~.R.~.~.~.~.~.~.R.R.~.~.~.~.~.~.~.~.R.R.~.~.~.~.~.~.R.R.R.~.R.R.~.~.~.~.R.R.~.~.~.R.R.R.R.U.U.U.I.I.I.L.L.L.L.L.H.H.F.F.F.F.D.A.A.A.A.C.C.C.V.V.N.N.m.m.n.n.v.z.z.z.z.k.k.h.h.h.s.s.s.a.i.i.t.t.t.e.e.q.8.8.4.4.4.4.4.4.1.1.,.,.:.:.;.=.=.=.#.#.#.O.O.O. . . .} } ' ' ' ) ( ( ^ ^ ^ Q Q Q W E E E E U P K H D D B B m m b v v z z k k k f f p p u u t e q 0 8 4 4 4 4 1 1 1 1 1 > > * > > * * * * * * * % % $ + + o o o . . . ^.^.^.^.^.^.^.^.^.^.^.^.^.^.^.^.^.^.^.^.^.^.^.^.^.^.^.^.^.^.^.^.^.^.^.^.^.^.^.^.^.^.^.^.^.^.^.^.^.^.^.^.^.^.^.^.^.^.^.^.^.^.^.^.^.^.^.^.^.^.^.^.^.^.^.^.^.^.^.^.^.^.^.^.^.^.^.^.^.^.^.^.^.^.^.^.^.^.^.^.^.^.^.^.^.^.^.^.^.^.^.^.^.^.^.^.^.^.^.^.^.^.^.^.^.^.^.^.^.^.^.^.^.^.^.^.^.^.^.^.^.^.^.^.^.",
"^.^.^.^.^.^.^.^.^.^.^.^.^.^.^.^.^.^.^.^.^.^.^.^.^.^.^.^.^.^.^.^.^.^.^.^.^.^.^.^.^.^.^.^.^.^.^.^.^.^.^.^.^.^.^.^.^.^.^.^.^.^.^.^.^.^.^.^.^.^.^.^.^.^.^.^.^.^.^.^.^.. # % * > 4 6 8 0 e u p f k x m B D P E E Q Q Q ( ' ' ' }  . . .O.+.#.#.#.#.#.#.=.=.=.=.;.;.:.,.,.1.1.1.1.4.8.q.e.e.t.t.i.s.s.h.h.k.k.z.z.z.z.v.n.m.m.m.N.N.N.V.C.C.C.A.A.A.A.D.F.F.F.F.F.F.H.H.H.H.H.H.I.U.U.U.U.U.U.R.R.R.U.U.R.R.U.U.U.U.U.R.U.R.R.R.R.R.R.R.R.R.R.R.U.R.R.R.R.R.R.R.~.R.R.~.R.R.R.R.R.R.R.R.~.R.R.~.~.~.~.~.~.R.~.R.R.~.R.R.R.R.R.R.R.R.R.R.R.R.R.R.R.R.R.R.R.R.R.R.~.~.R.~.R.R.~.~.~.~.~.~.~.R.R.~.~.~.~.~.R.R.R.R.R.~.~.~.~.~.~.R.~.~.~.~.R.~.~.R.R.~.~.R.~.~.~.~.~.R.R.~.~.R.~.R.R.U.U.U.I.I.I.L.L.L.H.H.H.H.H.H.F.F.F.A.A.A.A.C.C.C.C.V.N.N.m.m.m.n.v.v.z.z.z.k.k.k.h.h.s.s.s.i.i.i.t.t.t.t.e.e.q.8.8.8.4.4.4.1.1.1.1.,.,.:.:.;.=.=.=.#.#.#.O.O. . . .} } } ' ' ) ) ( ^ ^ ^ Q Q Q E E E E E E U K H D D Z B B m m b v v z k k k f f f p p u u e e 0 0 6 4 4 4 4 1 1 1 1 > > > > > > > > > * * * * * % $ $ # @ o o o . . . ^.^.^.^.^.^.^.^.^.^.^.^.^.^.^.^.^.^.^.^.^.^.^.^.^.^.^.^.^.^.^.^.^.^.^.^.^.^.^.^.^.^.^.^.^.^.^.^.^.^.^.^.^.^.^.^.^.^.^.^.^.^.^.^.^.^.^.^.^.^.^.^.^.^.^.^.^.^.^.^.^.^.^.^.^.^.^.^.^.^.^.^.^.^.^.^.^.^.^.^.^.^.^.^.^.^.^.^.^.^.^.^.^.^.^.^.^.^.^.^.^.^.^.^.^.^.^.^.^.^.^.^.^.^.^.^.^.^.^.^.^.^.^.^.",
"^.^.^.^.^.^.^.^.^.^.^.^.^.^.^.^.^.^.^.^.^.^.^.^.^.^.^.^.^.^.^.^.^.^.^.^.^.^.^.^.^.^.^.^.^.^.^.^.^.^.^.^.^.^.^.^.^.^.^.^.^.^.^.^.^.^.^.^.^.^.^.^.^.^.^.^.^.^.^.^.^.o $ * * > 4 8 0 q t u f k z v m Z H P E E Q Q ^ ( ) ' ' } }  . .O.O.#.#.#.#.#.#.#.=.=.=.;.;.;.:.,.1.1.1.1.4.8.q.e.e.t.t.i.s.s.s.h.k.k.k.z.z.v.v.n.m.m.m.m.N.N.V.C.C.C.C.A.A.A.A.A.F.F.F.F.H.H.H.H.H.H.H.L.L.U.I.U.U.U.R.R.R.U.R.R.R.U.U.U.U.U.R.R.R.R.R.R.R.R.R.R.R.R.R.R.R.R.R.R.R.R.R.R.~.R.R.~.R.R.~.R.~.R.R.~.R.R.R.R.~.~.~.~.~.~.~.R.~.R.R.R.R.R.~.R.R.R.R.R.R.R.R.R.R.R.R.R.R.R.R.R.R.R.R.R.R.R.~.~.~.~.~.~.R.R.R.~.~.~.~.~.R.R.R.~.~.~.~.~.~.~.R.~.~.~.R.R.~.~.~.~.~.~.R.~.~.~.~.~.R.R.~.R.R.R.U.U.U.U.U.I.I.L.I.L.L.H.H.H.H.F.F.F.A.A.A.A.A.A.C.C.C.N.N.N.N.m.n.n.v.v.z.z.z.z.k.k.h.h.h.s.s.s.i.i.t.t.t.t.t.e.q.8.8.4.8.4.4.1.1.1.1.,.,.:.:.;.=.=.=.#.#.#.O.O. . . .} } } ' ' ) ) ( ( ^ Q Q Q W W E E E E E E L K H D D B B m m m b v v z k k f f f p p u u t e q 0 7 6 4 4 4 1 1 1 > > > > > > > > > > > * * * * * % % % $ + @ o o o . ^.^.^.^.^.^.^.^.^.^.^.^.^.^.^.^.^.^.^.^.^.^.^.^.^.^.^.^.^.^.^.^.^.^.^.^.^.^.^.^.^.^.^.^.^.^.^.^.^.^.^.^.^.^.^.^.^.^.^.^.^.^.^.^.^.^.^.^.^.^.^.^.^.^.^.^.^.^.^.^.^.^.^.^.^.^.^.^.^.^.^.^.^.^.^.^.^.^.^.^.^.^.^.^.^.^.^.^.^.^.^.^.^.^.^.^.^.^.^.^.^.^.^.^.^.^.^.^.^.^.^.^.^.^.^.^.^.^.^.^.^.^.^.^.^.",
"^.^.^.^.^.^.^.^.^.^.^.^.^.^.^.^.^.^.^.^.^.^.^.^.^.^.^.^.^.^.^.^.^.^.^.^.^.^.^.^.^.^.^.^.^.^.^.^.^.^.^.^.^.^.^.^.^.^.^.^.^.^.^.^.^.^.^.^.^.^.^.^.^.^.^.^.^.^.^.^.o @ % * > 1 4 8 0 e t u f k x b B D H U E E E Q ^ ( ) ' ' } }  . .O.O.O.#.#.#.#.#.#.=.=.=.;.:.:.,.,.,.1.1.4.4.8.q.e.e.t.t.i.s.s.s.h.h.k.k.z.z.z.v.n.n.n.m.m.N.N.N.C.C.C.C.C.A.A.A.A.A.F.F.F.H.H.H.H.H.H.H.H.I.L.I.I.U.U.R.R.R.R.U.R.U.U.R.U.U.R.R.R.R.R.R.R.R.R.R.R.R.R.R.R.R.R.R.R.R.R.R.R.R.R.~.R.~.R.~.R.R.R.~.~.~.~.R.R.R.~.~.~.R.~.R.R.R.R.R.R.R.R.R.R.~.R.R.R.R.R.R.R.R.R.R.~.R.R.R.~.~.R.R.R.~.R.~.~.~.~.~.~.~.R.R.R.R.R.~.R.R.R.R.R.~.~.R.R.R.R.~.R.R.R.R.R.~.~.~.~.~.~.~.~.~.~.~.~.~.~.R.R.R.R.U.U.U.I.I.I.L.I.L.L.L.H.H.H.H.H.F.F.F.A.A.A.A.C.C.V.C.N.N.N.m.m.n.v.v.z.z.z.k.k.k.h.h.s.h.s.s.i.i.i.t.t.t.e.e.q.q.8.8.4.4.4.4.1.1.1.,.,.:.:.;.=.=.=.#.#.#.O.O.O. . . .} ' ' ' ) ) ( ( ^ Q Q Q W E W E E E E E U K H D D D B B m m b b x v z k f f f p p u u u e e q 0 7 6 4 4 4 4 1 1 1 > > > > > > > > > > * * * * * % % $ $ + @ @ o o . ^.^.^.^.^.^.^.^.^.^.^.^.^.^.^.^.^.^.^.^.^.^.^.^.^.^.^.^.^.^.^.^.^.^.^.^.^.^.^.^.^.^.^.^.^.^.^.^.^.^.^.^.^.^.^.^.^.^.^.^.^.^.^.^.^.^.^.^.^.^.^.^.^.^.^.^.^.^.^.^.^.^.^.^.^.^.^.^.^.^.^.^.^.^.^.^.^.^.^.^.^.^.^.^.^.^.^.^.^.^.^.^.^.^.^.^.^.^.^.^.^.^.^.^.^.^.^.^.^.^.^.^.^.^.^.^.^.^.^.^.^.^.^.^.^.",
"^.^.^.^.^.^.^.^.^.^.^.^.^.^.^.^.^.^.^.^.^.^.^.^.^.^.^.^.^.^.^.^.^.^.^.^.^.^.^.^.^.^.^.^.^.^.^.^.^.^.^.^.^.^.^.^.^.^.^.^.^.^.^.^.^.^.^.^.^.^.^.^.^.^.^.^.^.^.^.. o # % > > 1 4 7 e t u p f z v b B D H P E E E Q Q ^ ) ' ' ' }  . . .O.O.O.O.#.#.#.#.=.=.=.;.:.:.,.,.1.1.1.4.4.8.q.e.e.t.t.i.s.s.s.h.k.k.k.z.z.z.v.v.n.n.m.m.m.N.N.N.V.C.C.C.A.A.A.A.A.F.F.F.H.F.H.H.H.H.H.L.L.I.I.I.I.U.U.R.R.R.R.U.U.U.R.R.R.R.R.R.R.R.R.R.R.R.R.R.R.R.R.R.R.R.R.R.R.R.~.R.R.R.R.~.R.R.~.R.~.R.R.R.~.~.R.R.R.~.~.~.~.R.~.R.R.~.R.R.R.R.R.R.R.R.R.R.R.R.R.R.R.R.~.R.R.~.~.~.~.~.~.R.R.~.R.~.~.~.~.~.R.R.R.~.R.R.~.R.R.R.R.R.~.~.R.~.R.R.~.R.R.R.R.R.~.~.~.~.~.~.~.~.~.~.~.~.~.~.R.R.R.U.U.U.I.I.I.I.L.L.L.L.H.H.H.H.H.H.F.F.A.A.A.A.C.C.V.V.V.N.N.m.m.m.n.v.z.z.z.z.k.k.h.h.h.s.s.s.s.i.i.t.t.e.t.e.e.q.q.8.8.4.4.4.1.1.1.1.,.:.:.;.=.=.=.#.#.#.O.O.O. . . .} } ' ' ' ) ( ( ^ ^ Q Q Q W E E E E E E U L H D D Z B m m m m b v x v z k f f f p p u u t e e 0 0 8 6 4 4 4 4 1 1 1 > > > > > > > > > * * * * * * % % $ # # @ o o o . ^.^.^.^.^.^.^.^.^.^.^.^.^.^.^.^.^.^.^.^.^.^.^.^.^.^.^.^.^.^.^.^.^.^.^.^.^.^.^.^.^.^.^.^.^.^.^.^.^.^.^.^.^.^.^.^.^.^.^.^.^.^.^.^.^.^.^.^.^.^.^.^.^.^.^.^.^.^.^.^.^.^.^.^.^.^.^.^.^.^.^.^.^.^.^.^.^.^.^.^.^.^.^.^.^.^.^.^.^.^.^.^.^.^.^.^.^.^.^.^.^.^.^.^.^.^.^.^.^.^.^.^.^.^.^.^.^.^.^.^.^.^.^.^.^.",
"^.^.^.^.^.^.^.^.^.^.^.^.^.^.^.^.^.^.^.^.^.^.^.^.^.^.^.^.^.^.^.^.^.^.^.^.^.^.^.^.^.^.^.^.^.^.^.^.^.^.^.^.^.^.^.^.^.^.^.^.^.^.^.^.^.^.^.^.^.^.^.^.^.^.^.^.^.^.^.. o $ % > 1 1 4 0 e t u f k k v b B B D L E E E Q Q ^ ) ) ' ' }  . .O.O.O.O.O.O.#.#.#.=.=.=.;.;.:.,.,.1.1.4.4.8.8.q.q.e.e.t.i.a.s.s.h.h.k.k.k.z.z.v.v.v.n.n.m.m.m.N.N.V.V.C.C.C.A.A.A.A.D.F.F.F.F.F.H.H.H.H.L.L.L.I.I.I.I.U.U.R.R.R.R.R.R.R.R.R.R.U.U.U.U.R.R.R.R.R.R.R.R.R.R.R.R.R.R.R.R.R.~.R.R.R.R.R.R.R.R.R.R.R.~.~.~.~.R.~.~.~.~.~.R.R.~.R.R.R.R.R.~.R.~.R.~.R.~.R.R.R.R.~.~.R.R.R.R.R.R.~.~.~.~.~.R.R.R.~.~.~.~.R.R.~.~.~.~.~.~.~.R.~.~.~.~.~.~.~.~.~.~.~.R.~.~.~.~.R.R.R.R.~.~.~.~.R.R.~.R.R.R.U.U.U.I.I.L.I.L.L.H.H.H.H.H.H.H.F.H.F.F.A.A.A.C.C.C.C.V.N.N.m.m.m.n.v.z.z.z.k.k.k.h.h.h.h.s.s.s.a.i.t.t.t.e.e.q.q.q.8.4.8.4.4.1.1.1.,.,.:.:.;.=.=.=.#.#.#.O.O.O.O. . . .} ' ' ' ) ) ( ^ ^ Q Q W W E E E E E E U L K H D D B B B m m m b v x v k k f f f p p u u e e e 0 7 6 4 4 4 4 4 1 1 > > > > > > > > > * * * * % * % % % $ $ + @ o o o . ^.^.^.^.^.^.^.^.^.^.^.^.^.^.^.^.^.^.^.^.^.^.^.^.^.^.^.^.^.^.^.^.^.^.^.^.^.^.^.^.^.^.^.^.^.^.^.^.^.^.^.^.^.^.^.^.^.^.^.^.^.^.^.^.^.^.^.^.^.^.^.^.^.^.^.^.^.^.^.^.^.^.^.^.^.^.^.^.^.^.^.^.^.^.^.^.^.^.^.^.^.^.^.^.^.^.^.^.^.^.^.^.^.^.^.^.^.^.^.^.^.^.^.^.^.^.^.^.^.^.^.^.^.^.^.^.^.^.^.^.^.^.^.^.^.",
"^.^.^.^.^.^.^.^.^.^.^.^.^.^.^.^.^.^.^.^.^.^.^.^.^.^.^.^.^.^.^.^.^.^.^.^.^.^.^.^.^.^.^.^.^.^.^.^.^.^.^.^.^.^.^.^.^.^.^.^.^.^.^.^.^.^.^.^.^.^.^.^.^.^.^.^.^.^.^.. o % * > > 1 4 0 e u p f k z x m m B D K E E E Q Q ^ ) ' ' ' } }  .O.O.O.O.O.#.#.#.=.=.=.=.;.;.:.,.,.1.1.4.4.4.8.q.q.e.t.t.i.s.s.h.h.k.k.k.z.z.z.z.v.v.n.n.m.m.m.N.N.N.V.C.C.C.A.A.A.D.D.A.F.F.F.F.H.H.H.H.H.L.L.L.L.I.L.U.I.U.R.R.R.U.U.R.R.R.R.U.U.U.U.U.U.R.R.R.R.R.R.R.R.R.R.R.R.R.R.R.R.R.R.R.~.~.R.R.R.~.R.~.~.R.~.R.~.~.~.~.~.~.~.R.R.~.R.~.R.R.R.R.R.R.R.R.R.~.R.R.R.R.R.~.~.R.~.~.~.~.~.~.~.~.R.R.R.~.~.~.~.R.R.~.~.~.~.~.~.~.~.~.~.~.~.~.~.~.~.~.~.~.~.~.~.~.~.R.R.R.~.~.~.R.R.R.R.R.R.U.U.U.U.U.I.I.L.L.L.L.H.H.H.H.H.H.F.F.F.D.A.A.A.A.C.C.C.V.N.N.N.m.m.n.v.v.z.z.z.k.k.h.h.h.h.s.s.s.i.i.t.t.t.e.e.e.e.q.8.8.8.4.4.1.1.1.,.,.,.;.;.=.=.=.#.#.#.O.O.O.O. . . .} ' ' ' ) ) ( ^ ^ Q Q Q E E E E E E U P L K H D D B B B m m m b b v v v k k f f p p u u t e e q 0 8 6 4 4 4 4 4 1 1 > > > > > > > > > * * * % % % % % % $ # # @ o o o . . ^.^.^.^.^.^.^.^.^.^.^.^.^.^.^.^.^.^.^.^.^.^.^.^.^.^.^.^.^.^.^.^.^.^.^.^.^.^.^.^.^.^.^.^.^.^.^.^.^.^.^.^.^.^.^.^.^.^.^.^.^.^.^.^.^.^.^.^.^.^.^.^.^.^.^.^.^.^.^.^.^.^.^.^.^.^.^.^.^.^.^.^.^.^.^.^.^.^.^.^.^.^.^.^.^.^.^.^.^.^.^.^.^.^.^.^.^.^.^.^.^.^.^.^.^.^.^.^.^.^.^.^.^.^.^.^.^.^.^.^.^.^.^.^.",
"^.^.^.^.^.^.^.^.^.^.^.^.^.^.^.^.^.^.^.^.^.^.^.^.^.^.^.^.^.^.^.^.^.^.^.^.^.^.^.^.^.^.^.^.^.^.^.^.^.^.^.^.^.^.^.^.^.^.^.^.^.^.^.^.^.^.^.^.^.^.^.^.^.^.^.^.^.^.^.. o $ * > > > 1 4 q u p f k z v b m B Z H U E E W Q ^ ) ' ' ' } }  . .O.O.O.O.#.#.#.=.=.=.=.;.:.:.,.1.1.1.4.4.4.8.8.e.e.e.t.i.i.s.h.h.k.k.k.k.z.z.z.z.v.v.v.n.n.m.m.m.N.N.V.C.C.C.A.A.A.A.A.F.F.F.H.H.H.H.H.H.H.H.L.H.I.L.I.U.U.U.U.U.U.U.U.R.R.R.R.R.R.U.R.R.R.R.R.R.R.R.R.R.R.R.R.R.R.R.R.R.R.R.R.R.R.R.R.R.R.~.~.~.R.R.R.R.R.R.~.~.R.R.R.R.~.R.R.R.~.R.R.R.R.R.~.R.~.~.R.~.R.R.~.~.~.~.R.R.~.~.~.~.~.~.~.~.~.~.~.~.R.~.~.~.~.~.~.~.~.~.~.~.~.~.~.~.~.~.R.R.R.R.~.~.~.R.R.R.R.R.~.~.~.~.~.R.R.R.U.U.U.I.I.I.I.L.L.H.L.H.H.H.H.H.H.F.F.F.F.A.A.A.C.C.C.C.N.N.N.m.m.n.n.v.z.z.k.k.k.h.h.h.s.s.s.s.i.i.i.t.e.t.e.e.q.q.8.8.4.4.4.1.1.1.,.,.:.:.;.=.=.=.#.#.#.O.O.O. . . . .} } ' ' ) ) ) ^ ^ ^ Q Q W E E E E E U P L H H H D D B B m m m b b v v c z k k f f p p u u e e e 0 0 8 6 4 4 4 4 1 1 1 > > > > > > > * * * * * * % % % % $ $ # + + o o o o . . . . ^.^.^.^.^.^.^.^.^.^.^.^.^.^.^.^.^.^.^.^.^.^.^.^.^.^.^.^.^.^.^.^.^.^.^.^.^.^.^.^.^.^.^.^.^.^.^.^.^.^.^.^.^.^.^.^.^.^.^.^.^.^.^.^.^.^.^.^.^.^.^.^.^.^.^.^.^.^.^.^.^.^.^.^.^.^.^.^.^.^.^.^.^.^.^.^.^.^.^.^.^.^.^.^.^.^.^.^.^.^.^.^.^.^.^.^.^.^.^.^.^.^.^.^.^.^.^.^.^.^.^.^.^.^.^.^.^.^.^.^.^.",
"^.^.^.^.^.^.^.^.^.^.^.^.^.^.^.^.^.^.^.^.^.^.^.^.^.^.^.^.^.^.^.^.^.^.^.^.^.^.^.^.^.^.^.^.^.^.^.^.^.^.^.^.^.^.^.^.^.^.^.^.^.^.^.^.^.^.^.^.^.^.^.^.^.^.^.^.^.^.^.. o # * > > > 1 4 q u p f k k v b m B B H U E E W Q ^ ) ' ' ' ' ' }  . .O.O.O.#.#.=.=.=.=.=.;.:.:.,.1.1.1.4.4.8.8.8.q.e.e.t.i.a.s.h.h.h.h.k.k.z.z.z.z.v.v.v.n.n.m.m.m.N.N.V.V.C.C.C.A.A.A.A.A.D.F.F.H.H.H.H.H.H.H.H.H.L.L.L.L.I.U.U.U.U.U.U.U.R.R.R.R.U.R.U.U.R.R.R.R.R.R.R.R.R.R.R.R.R.R.U.R.~.R.R.R.R.R.R.R.R.~.~.R.R.~.R.~.~.~.~.~.R.R.R.R.~.R.~.R.~.~.R.R.R.R.R.R.R.R.~.R.R.~.~.~.~.~.R.R.~.~.~.~.R.R.~.R.~.~.~.~.R.R.~.~.~.~.~.~.~.~.~.~.R.R.~.~.~.~.R.~.R.R.~.~.~.~.R.R.~.~.~.R.~.~.R.R.R.U.U.U.U.U.I.I.H.H.H.H.H.H.H.H.H.F.F.F.F.A.A.A.A.A.C.C.C.N.N.N.m.m.n.v.v.z.z.z.k.k.h.h.s.h.s.s.s.s.i.i.t.t.e.e.e.q.q.8.8.8.4.4.1.1.1.,.,.:.:.;.=.=.=.#.#.#.O.O.O. . . . .} } ' ' ' ) ( ( ^ ^ Q Q W E E E E E U P K H H H D D B B m m m b b b v x c k z k f p p u u t e e q 0 7 8 6 4 4 4 4 1 1 > > > > > > > > * * * * * * % * * % $ $ # # + o o o o o o o . ^.^.^.^.^.^.^.^.^.^.^.^.^.^.^.^.^.^.^.^.^.^.^.^.^.^.^.^.^.^.^.^.^.^.^.^.^.^.^.^.^.^.^.^.^.^.^.^.^.^.^.^.^.^.^.^.^.^.^.^.^.^.^.^.^.^.^.^.^.^.^.^.^.^.^.^.^.^.^.^.^.^.^.^.^.^.^.^.^.^.^.^.^.^.^.^.^.^.^.^.^.^.^.^.^.^.^.^.^.^.^.^.^.^.^.^.^.^.^.^.^.^.^.^.^.^.^.^.^.^.^.^.^.^.^.^.^.^.^.^.^.",
"^.^.^.^.^.^.^.^.^.^.^.^.^.^.^.^.^.^.^.^.^.^.^.^.^.^.^.^.^.^.^.^.^.^.^.^.^.^.^.^.^.^.^.^.^.^.^.^.^.^.^.^.^.^.^.^.^.^.^.^.^.^.^.^.^.^.^.^.^.^.^.^.^.^.^.^.^.^.^.^.o + % * > > > 4 0 e p f k z x b m B B H U E E Q ^ ^ ) ) ' ' ' ' } }  . .O.O.#.#.=.=.=.=.=.;.:.,.1.1.1.4.4.4.4.8.q.q.e.t.t.t.i.s.s.s.h.h.k.k.k.z.z.z.z.z.v.n.n.m.m.m.N.N.N.V.C.C.C.C.A.A.A.A.D.F.F.F.F.F.F.H.H.H.H.H.H.L.L.L.I.I.U.U.U.U.U.R.R.R.U.R.R.R.R.R.R.R.R.R.R.R.R.U.U.U.R.R.R.R.U.R.R.R.R.R.R.R.R.~.~.R.~.~.~.~.~.~.~.~.~.~.R.R.R.R.~.~.R.R.R.~.R.R.~.~.R.~.R.R.~.~.~.~.~.~.~.~.R.~.~.~.~.~.R.R.R.R.R.~.~.~.R.R.R.~.~.~.R.R.R.R.~.R.R.R.R.R.~.~.~.~.~.~.~.~.~.~.~.~.~.~.R.R.~.~.R.R.R.U.U.U.U.I.L.L.H.H.H.H.H.H.H.H.H.H.F.F.F.A.A.A.A.C.C.C.V.N.N.m.m.n.n.v.z.z.z.k.k.h.h.h.h.s.s.a.i.t.i.t.t.t.e.q.q.8.8.8.8.4.4.4.1.1.,.,.:.:.;.=.=.=.#.#.#.O.O.O. . . . .} } ' ' ' ) ( ( ^ ^ Q Q W W E E E E U P K K H D D D B B m m b b b b v x x c z k k f p p u u e e e 0 0 8 6 6 4 4 4 4 1 1 1 > > * * * * * * * * * * * * % % % % $ $ # # o o o o o o o . ^.^.^.^.^.^.^.^.^.^.^.^.^.^.^.^.^.^.^.^.^.^.^.^.^.^.^.^.^.^.^.^.^.^.^.^.^.^.^.^.^.^.^.^.^.^.^.^.^.^.^.^.^.^.^.^.^.^.^.^.^.^.^.^.^.^.^.^.^.^.^.^.^.^.^.^.^.^.^.^.^.^.^.^.^.^.^.^.^.^.^.^.^.^.^.^.^.^.^.^.^.^.^.^.^.^.^.^.^.^.^.^.^.^.^.^.^.^.^.^.^.^.^.^.^.^.^.^.^.^.^.^.^.^.^.^.^.^.^.^.^.",
"^.^.^.^.^.^.^.^.^.^.^.^.^.^.^.^.^.^.^.^.^.^.^.^.^.^.^.^.^.^.^.^.^.^.^.^.^.^.^.^.^.^.^.^.^.^.^.^.^.^.^.^.^.^.^.^.^.^.^.^.^.^.^.^.^.^.^.^.^.^.^.^.^.^.^.^.^.^.^.^.^.o # % * > > 4 7 e u f f z x b m m Z H U E Q Q ^ ( ) ' ' ' ' ' }  . . .O.O.#.#.#.=.=.=.=.;.:.,.1.1.1.1.4.4.4.8.8.q.e.e.e.t.i.i.s.s.h.h.h.k.k.k.z.z.z.z.v.v.n.m.n.m.m.N.N.V.V.C.C.C.C.A.A.A.D.D.A.F.F.F.F.H.H.H.H.H.H.L.H.L.L.I.L.I.I.I.U.U.U.U.U.U.U.R.U.R.U.R.R.R.R.R.R.R.U.U.R.R.U.R.U.R.R.R.R.R.R.R.R.R.~.R.~.~.~.~.~.~.~.~.~.~.R.R.R.R.R.R.R.R.R.~.~.~.R.~.R.~.~.~.~.~.~.~.~.~.~.R.R.R.~.~.~.R.R.R.R.R.R.~.~.~.R.R.R.~.~.~.R.R.R.~.~.~.R.R.R.~.~.~.~.~.~.~.~.~.~.~.~.~.~.~.R.R.~.~.R.R.U.U.U.I.I.L.L.H.H.H.H.H.H.H.H.H.H.F.F.F.A.A.A.A.C.C.C.N.N.N.m.m.m.n.v.z.z.z.k.k.k.h.h.s.s.s.s.i.t.i.t.t.t.e.q.q.q.8.8.8.8.4.4.1.1.1.,.:.:.;.=.=.=.#.#.#.#.O.O. . . . . .} } ' ' ) ) ^ ^ ^ Q Q Q E E E E E E P K H H D D Z B m m m b b b v x x x c k k k f f p u u t e e q 0 8 8 6 4 4 4 4 1 1 > > > * * * * * * * * * * * * * * % % % % % $ # @ o o o o o o . ^.^.^.^.^.^.^.^.^.^.^.^.^.^.^.^.^.^.^.^.^.^.^.^.^.^.^.^.^.^.^.^.^.^.^.^.^.^.^.^.^.^.^.^.^.^.^.^.^.^.^.^.^.^.^.^.^.^.^.^.^.^.^.^.^.^.^.^.^.^.^.^.^.^.^.^.^.^.^.^.^.^.^.^.^.^.^.^.^.^.^.^.^.^.^.^.^.^.^.^.^.^.^.^.^.^.^.^.^.^.^.^.^.^.^.^.^.^.^.^.^.^.^.^.^.^.^.^.^.^.^.^.^.^.^.^.^.^.^.^.^.",
"^.^.^.^.^.^.^.^.^.^.^.^.^.^.^.^.^.^.^.^.^.^.^.^.^.^.^.^.^.^.^.^.^.^.^.^.^.^.^.^.^.^.^.^.^.^.^.^.^.^.^.^.^.^.^.^.^.^.^.^.^.^.^.^.^.^.^.^.^.^.^.^.^.^.^.^.^.^.^.^.^.o + % * * > 1 6 e u p k k x b B B D H E E W Q ^ ( ) ) ' ' ' ' }  . . .O.O.#.#.#.#.=.=.;.:.:.,.,.1.1.4.4.4.4.8.8.q.e.e.e.t.i.i.s.s.s.h.h.k.k.k.k.z.z.z.z.z.v.v.n.m.m.m.N.N.V.V.C.C.C.C.A.A.A.A.A.A.D.F.F.F.F.F.F.H.H.H.H.H.H.H.L.L.I.L.I.I.I.U.U.U.U.U.U.U.U.U.R.R.R.U.R.R.R.R.U.R.U.U.U.R.R.R.R.R.R.R.R.~.~.~.~.~.~.~.~.~.~.~.~.~.R.R.R.R.~.R.R.~.~.R.~.R.~.~.~.~.~.~.~.~.~.~.R.R.R.R.R.R.R.R.~.~.R.R.R.R.~.~.R.R.R.R.R.R.R.~.~.~.~.~.~.~.~.~.R.R.~.~.~.~.~.~.~.~.~.~.~.~.~.R.~.~.~.R.R.R.U.U.U.L.I.L.H.H.H.H.H.H.H.H.H.F.F.F.F.F.A.A.A.C.C.V.C.N.N.m.m.n.n.v.z.z.z.k.k.h.h.h.s.s.s.a.i.i.t.t.t.e.e.q.q.8.8.8.4.4.4.4.1.1.1.,.:.:.:.;.=.=.#.#.#.O.O.O.O. . . . .} } ' ' ) ) ( ^ ^ ^ Q Q E E E E E U P K H D D D B B m m m b b b v v v v v z k k f f f p u u t e e q 0 8 6 4 4 4 4 1 1 1 > > > * * * * * * * * * * * * * * % % % % % $ # + @ o o o o o . ^.^.^.^.^.^.^.^.^.^.^.^.^.^.^.^.^.^.^.^.^.^.^.^.^.^.^.^.^.^.^.^.^.^.^.^.^.^.^.^.^.^.^.^.^.^.^.^.^.^.^.^.^.^.^.^.^.^.^.^.^.^.^.^.^.^.^.^.^.^.^.^.^.^.^.^.^.^.^.^.^.^.^.^.^.^.^.^.^.^.^.^.^.^.^.^.^.^.^.^.^.^.^.^.^.^.^.^.^.^.^.^.^.^.^.^.^.^.^.^.^.^.^.^.^.^.^.^.^.^.^.^.^.^.^.^.^.^.^.^.^.",
"^.^.^.^.^.^.^.^.^.^.^.^.^.^.^.^.^.^.^.^.^.^.^.^.^.^.^.^.^.^.^.^.^.^.^.^.^.^.^.^.^.^.^.^.^.^.^.^.^.^.^.^.^.^.^.^.^.^.^.^.^.^.^.^.^.^.^.^.^.^.^.^.^.^.^.^.^.^.^.^.. o + % * * > 4 6 e u u f z v m B Z D H E E W Q Q ^ ( ) ' ' ' } } }  . .O.O.O.#.#.#.=.=.;.:.,.1.1.1.1.1.4.4.8.8.8.q.q.e.e.t.t.i.s.s.s.s.h.h.h.k.k.k.z.z.z.z.v.v.n.n.m.m.m.N.N.N.V.C.C.C.C.C.A.A.A.A.A.A.A.F.F.H.F.F.F.H.H.H.H.H.H.L.H.L.L.I.L.I.U.U.I.U.U.U.U.U.U.U.U.U.U.U.R.R.R.U.U.U.U.U.R.R.R.R.R.R.R.R.~.~.~.~.~.~.~.~.R.R.~.R.~.R.~.R.~.R.R.~.R.~.R.R.~.~.~.~.~.~.~.~.R.R.~.~.R.R.~.R.R.R.~.~.R.R.~.R.~.~.~.R.R.R.R.R.~.~.~.~.~.~.R.~.~.~.R.R.~.~.R.~.~.~.R.~.~.~.~.~.R.R.~.~.R.~.R.U.U.U.I.I.L.L.H.H.H.H.H.H.H.F.F.F.F.F.F.D.A.A.A.C.C.C.N.N.N.m.m.n.n.v.z.z.k.k.k.h.h.h.s.s.a.i.t.i.t.e.t.e.q.q.q.8.8.8.4.4.4.1.1.1.,.,.:.:.;.=.=.#.#.#.#.O.O.O. . . . .} ' ' ' ' ) ) ( ^ Q Q Q Q E E E E E P K H D D Z B B m m m b v v v v x v x v k k k f f f p u u e e q 0 0 8 6 4 4 4 1 1 1 > > > * * * * % % % * * % % * * * * % % $ $ $ # # + @ o o o o . . ^.^.^.^.^.^.^.^.^.^.^.^.^.^.^.^.^.^.^.^.^.^.^.^.^.^.^.^.^.^.^.^.^.^.^.^.^.^.^.^.^.^.^.^.^.^.^.^.^.^.^.^.^.^.^.^.^.^.^.^.^.^.^.^.^.^.^.^.^.^.^.^.^.^.^.^.^.^.^.^.^.^.^.^.^.^.^.^.^.^.^.^.^.^.^.^.^.^.^.^.^.^.^.^.^.^.^.^.^.^.^.^.^.^.^.^.^.^.^.^.^.^.^.^.^.^.^.^.^.^.^.^.^.^.^.^.^.^.^.^.^.",
"^.^.^.^.^.^.^.^.^.^.^.^.^.^.^.^.^.^.^.^.^.^.^.^.^.^.^.^.^.^.^.^.^.^.^.^.^.^.^.^.^.^.^.^.^.^.^.^.^.^.^.^.^.^.^.^.^.^.^.^.^.^.^.^.^.^.^.^.^.^.^.^.^.^.^.^.^.^.^.. o @ # % * > 1 4 8 q e u p k v m B Z H K E E E Q Q ^ ^ ) ) ' ' ' } }  . . .O.O.#.#.#.=.=.;.:.,.,.,.1.1.4.4.8.8.8.q.q.q.e.e.t.i.i.a.s.s.s.s.h.h.h.k.k.k.z.z.z.z.v.v.n.n.m.m.m.N.N.N.V.V.V.C.C.C.C.A.A.A.A.A.D.F.F.F.F.F.F.H.F.H.H.H.H.H.H.H.H.L.L.L.U.U.U.I.I.I.I.U.U.U.U.U.U.U.R.R.U.U.U.U.U.R.R.R.R.R.R.R.~.R.~.R.R.~.~.~.~.R.R.~.~.~.~.R.~.R.R.~.~.~.~.R.~.~.~.~.~.~.~.R.R.R.R.~.~.~.~.~.~.~.~.~.~.~.~.~.~.~.~.~.~.~.~.~.~.~.~.~.~.~.R.R.R.~.~.~.~.~.~.R.R.R.~.R.R.~.~.~.~.R.R.~.~.R.R.U.U.U.U.I.L.L.H.H.H.H.H.H.H.F.F.F.F.F.F.D.A.A.A.C.C.C.C.N.N.m.m.n.n.v.z.z.z.k.k.h.h.h.s.s.s.i.i.i.t.t.t.e.q.q.8.8.8.4.4.4.4.1.1.1.,.,.:.:.;.=.=.=.#.#.#.O.O. . . . . .} } ' ' ' ) ) ( ^ ^ Q Q W E E E E U P K D D D B B m m m b b b v x x v x x v v v z z k f f p p u e e e 0 7 6 4 4 4 1 1 1 1 > > * * * * % % % % % % % % % * * * % % $ $ # # # @ + o o o . . ^.. ^.^.^.^.^.^.^.^.^.^.^.^.^.^.^.^.^.^.^.^.^.^.^.^.^.^.^.^.^.^.^.^.^.^.^.^.^.^.^.^.^.^.^.^.^.^.^.^.^.^.^.^.^.^.^.^.^.^.^.^.^.^.^.^.^.^.^.^.^.^.^.^.^.^.^.^.^.^.^.^.^.^.^.^.^.^.^.^.^.^.^.^.^.^.^.^.^.^.^.^.^.^.^.^.^.^.^.^.^.^.^.^.^.^.^.^.^.^.^.^.^.^.^.^.^.^.^.^.^.^.^.^.^.^.^.^.^.^.^.^.",
"^.^.^.^.^.^.^.^.^.^.^.^.^.^.^.^.^.^.^.^.^.^.^.^.^.^.^.^.^.^.^.^.^.^.^.^.^.^.^.^.^.^.^.^.^.^.^.^.^.^.^.^.^.^.^.^.^.^.^.^.^.^.^.^.^.^.^.^.^.^.^.^.^.^.^.^.^.^.^.. o o $ % * > 1 4 8 q e u f k v b B D H P E E E Q Q Q ^ ( ) ' ' } } }  . . .O.O.O.#.#.=.=.;.:.:.,.,.1.1.4.4.8.8.8.q.q.e.e.e.t.t.i.i.a.s.s.s.s.s.h.h.k.k.k.z.z.z.z.v.n.v.n.m.m.m.m.N.N.N.V.V.C.C.C.C.C.A.A.A.A.A.D.A.F.F.F.F.F.F.H.F.H.H.H.H.H.H.L.L.I.L.L.L.L.L.L.L.I.U.U.U.U.U.R.U.R.R.U.R.U.R.U.R.R.R.R.R.~.~.~.R.R.~.~.~.R.R.R.~.~.~.~.~.R.R.R.~.~.~.~.R.R.~.~.R.~.~.~.~.R.R.R.~.~.~.~.~.~.~.~.~.~.~.~.~.~.~.~.~.~.~.~.~.~.~.~.~.~.~.R.R.R.~.~.~.~.~.~.R.R.R.~.R.R.~.~.~.~.R.R.~.R.R.R.U.U.U.I.I.L.L.L.H.H.H.H.H.H.F.F.F.F.F.A.A.A.A.C.C.C.C.N.N.m.m.m.n.n.v.z.z.k.k.k.h.h.s.s.s.i.i.i.t.t.t.e.q.q.q.8.4.4.4.4.4.1.1.1.,.,.:.:.;.=.=.=.#.#.#.O.O. . . . . .} } } ' ' ' ) ( ( ^ ^ Q Q Q W E E E U K H D Z B B m m m b b b v x x v x v v v x v v z k f f p p u t e e 0 7 6 4 4 1 > > > > * * * * * % % % % % % % % % % % % % % % % $ # + @ + @ @ o o . . ^.^.^.^.^.^.^.^.^.^.^.^.^.^.^.^.^.^.^.^.^.^.^.^.^.^.^.^.^.^.^.^.^.^.^.^.^.^.^.^.^.^.^.^.^.^.^.^.^.^.^.^.^.^.^.^.^.^.^.^.^.^.^.^.^.^.^.^.^.^.^.^.^.^.^.^.^.^.^.^.^.^.^.^.^.^.^.^.^.^.^.^.^.^.^.^.^.^.^.^.^.^.^.^.^.^.^.^.^.^.^.^.^.^.^.^.^.^.^.^.^.^.^.^.^.^.^.^.^.^.^.^.^.^.^.^.^.^.^.^.^.^.",
"^.^.^.^.^.^.^.^.^.^.^.^.^.^.^.^.^.^.^.^.^.^.^.^.^.^.^.^.^.^.^.^.^.^.^.^.^.^.^.^.^.^.^.^.^.^.^.^.^.^.^.^.^.^.^.^.^.^.^.^.^.^.^.^.^.^.^.^.^.^.^.^.^.^.^.^.^.^.. o o + $ % * > 4 4 8 q t u f k x b m B H P E E E E W Q Q ( ( ) ' ' } } }  . . .O.O.#.#.=.=.=.;.:.,.1.1.1.1.4.4.8.8.q.q.q.q.e.e.t.t.i.i.i.a.s.s.s.h.h.h.k.k.k.z.z.z.z.z.v.n.m.m.m.m.m.m.N.N.N.V.V.C.C.C.C.A.A.A.A.A.A.A.D.D.F.F.F.F.F.H.H.H.H.H.H.H.H.H.H.L.H.L.L.L.L.I.U.U.U.U.U.U.U.U.U.U.R.R.U.R.R.R.R.R.R.~.~.R.R.R.~.~.~.R.R.R.R.R.R.~.~.~.R.R.R.R.R.~.~.~.R.R.R.R.R.~.~.~.~.~.~.R.R.R.~.~.~.~.~.~.R.R.~.~.~.~.~.~.R.R.R.~.~.~.~.~.~.~.~.~.~.~.~.~.~.~.~.~.~.~.R.~.~.~.~.~.~.R.R.R.R.R.U.U.U.U.I.I.H.H.H.H.H.H.H.H.H.F.F.F.D.D.A.A.A.C.C.C.N.N.m.m.m.n.n.v.z.z.k.k.k.h.h.h.s.s.s.i.i.t.t.e.e.q.q.8.8.4.4.4.4.4.1.1.1.,.,.:.:.;.;.=.=.#.#.#.O.O.O. . . . .} } } ' ' ' ' ) ( ( ^ Q Q W E E E E E L H D Z B B m m m b b b b v x x v v c c c x x c z z k f p p u t e e 0 8 6 4 1 > > * > * * * * * * * % % % $ % % $ % % $ % % % % % # + @ @ o @ o o o . . ^.^.^.^.^.^.^.^.^.^.^.^.^.^.^.^.^.^.^.^.^.^.^.^.^.^.^.^.^.^.^.^.^.^.^.^.^.^.^.^.^.^.^.^.^.^.^.^.^.^.^.^.^.^.^.^.^.^.^.^.^.^.^.^.^.^.^.^.^.^.^.^.^.^.^.^.^.^.^.^.^.^.^.^.^.^.^.^.^.^.^.^.^.^.^.^.^.^.^.^.^.^.^.^.^.^.^.^.^.^.^.^.^.^.^.^.^.^.^.^.^.^.^.^.^.^.^.^.^.^.^.^.^.^.^.^.^.^.^.^.^.^.",
"^.^.^.^.^.^.^.^.^.^.^.^.^.^.^.^.^.^.^.^.^.^.^.^.^.^.^.^.^.^.^.^.^.^.^.^.^.^.^.^.^.^.^.^.^.^.^.^.^.^.^.^.^.^.^.^.^.^.^.^.^.^.^.^.^.^.^.^.^.^.^.^.^.. . ^.. o o o o + % * > 1 4 4 0 e u p f k c v m B D L E E E E W Q Q ^ ( ) ' ' } } }  . . .O.O.#.#.=.=.=.;.:.,.,.1.1.1.4.4.8.8.q.q.q.e.e.e.t.t.t.i.i.i.s.s.s.h.h.h.h.k.k.k.k.z.z.z.v.v.v.m.m.n.m.m.m.N.N.N.N.V.V.C.C.C.C.C.A.A.A.A.A.D.A.D.A.F.F.F.F.H.H.H.F.H.H.H.H.H.H.H.H.L.L.L.I.I.I.U.U.U.U.U.U.U.U.U.U.U.R.R.R.R.R.~.R.~.~.R.~.~.~.R.R.R.R.R.R.R.~.~.~.~.R.R.R.~.~.~.~.R.R.R.~.~.~.~.~.~.~.R.R.R.~.~.~.~.~.R.R.R.~.~.~.~.~.~.R.R.~.~.~.~.~.~.~.~.~.~.~.~.~.~.~.~.~.~.~.~.R.~.~.~.~.~.R.R.R.R.R.R.U.U.U.I.I.I.H.H.H.H.H.H.H.H.F.F.F.F.D.D.A.A.A.C.C.V.N.N.N.m.n.n.v.z.z.z.k.k.h.h.s.s.s.s.i.i.t.t.t.e.e.q.8.8.4.4.4.4.4.1.1.1.1.,.,.:.:.;.=.=.=.#.#.#.O.O. . . . . .} ' ' ' ' ' ) ( ( ^ Q Q Q W E E E E U K H D B B m m b b b b b v v x x x v x c c c c c z z k f p p u u e e q 8 4 4 1 > > * * * * * * % % % % % $ $ $ + # $ # $ $ % % $ % # + @ @ o o o o o o . ^.^.^.^.^.^.^.^.^.^.^.^.^.^.^.^.^.^.^.^.^.^.^.^.^.^.^.^.^.^.^.^.^.^.^.^.^.^.^.^.^.^.^.^.^.^.^.^.^.^.^.^.^.^.^.^.^.^.^.^.^.^.^.^.^.^.^.^.^.^.^.^.^.^.^.^.^.^.^.^.^.^.^.^.^.^.^.^.^.^.^.^.^.^.^.^.^.^.^.^.^.^.^.^.^.^.^.^.^.^.^.^.^.^.^.^.^.^.^.^.^.^.^.^.^.^.^.^.^.^.^.^.^.^.^.^.^.^.^.^.^.^.",
"^.^.^.^.^.^.^.^.^.^.^.^.^.^.^.^.^.^.^.^.^.^.^.^.^.^.^.^.^.^.^.^.^.^.^.^.^.^.^.^.^.^.^.^.^.^.^.^.^.^.^.^.^.^.^.^.^.^.^.^.^.^.^.^.^.^.^.^.^.^.. o o o o o o o o o @ # % > > 1 1 4 0 e u p f k k c b B D K U E E E Q Q ^ ^ ( ) ' ' ' } }  . . . .O.#.#.#.=.=.;.:.:.,.1.1.1.4.8.8.8.8.q.q.e.e.t.t.t.t.t.i.i.s.s.s.s.s.h.h.h.k.k.k.k.z.z.z.z.v.v.n.n.n.m.m.m.m.m.N.N.N.V.V.C.C.C.C.A.A.A.A.A.A.A.A.A.A.A.F.F.F.F.F.F.H.H.H.H.H.H.H.H.L.L.I.L.I.U.I.U.U.U.U.R.U.R.R.R.R.R.R.~.R.R.~.~.~.~.~.~.~.~.R.~.~.~.~.~.~.~.~.~.R.~.~.~.~.~.R.R.~.~.~.~.~.~.R.R.~.~.R.~.~.~.R.R.~.~.R.R.~.~.R.~.~.~.~.R.~.~.~.~.~.~.R.R.~.R.R.R.~.~.R.R.~.R.~.~.~.~.~.~.~.~.~.~.~.R.R.R.U.U.U.U.I.L.L.H.H.H.H.H.F.H.F.F.F.F.D.A.A.A.C.C.V.V.N.N.m.m.n.n.v.z.z.k.k.k.h.h.s.s.s.a.i.t.t.t.t.e.q.q.8.8.4.4.4.4.4.1.1.1.,.,.:.:.;.;.=.=.#.#.#.O.O. . . . .} } ' ' ' ' ' ) ( ( ^ ^ Q Q W E E E E E P K H D B m m m m b b v v v v x x x v v c v v v z z k k f p p u u e e 0 8 4 4 1 > > * * * % % % % % % # # # # + @ + + # # # # $ % $ # + + @ o o o o o . . ^.^.^.^.^.^.^.^.^.^.^.^.^.^.^.^.^.^.^.^.^.^.^.^.^.^.^.^.^.^.^.^.^.^.^.^.^.^.^.^.^.^.^.^.^.^.^.^.^.^.^.^.^.^.^.^.^.^.^.^.^.^.^.^.^.^.^.^.^.^.^.^.^.^.^.^.^.^.^.^.^.^.^.^.^.^.^.^.^.^.^.^.^.^.^.^.^.^.^.^.^.^.^.^.^.^.^.^.^.^.^.^.^.^.^.^.^.^.^.^.^.^.^.^.^.^.^.^.^.^.^.^.^.^.^.^.^.^.^.^.^.^.",
"^.^.^.^.^.^.^.^.^.^.^.^.^.^.^.^.^.^.^.^.^.^.^.^.^.^.^.^.^.^.^.^.^.^.^.^.^.^.^.^.^.^.^.^.^.^.^.^.^.^.^.^.^.^.^.^.^.^.^.^.^.^.^.^.^.^.^.^.. . o @ @ @ o + @ + # # $ $ * > > 1 1 4 0 e u p f k k z b B D K U E E E W Q Q ^ ( ) ' ' ' } }  . . . .O.#.#.#.#.=.;.:.,.,.1.1.1.4.4.8.8.q.q.q.e.e.e.t.t.t.t.i.i.i.s.s.s.s.h.h.h.h.k.k.k.z.z.z.z.v.v.v.n.n.n.n.m.m.m.m.m.N.N.V.V.C.C.C.C.C.C.C.A.A.A.A.A.A.A.A.A.A.F.F.F.F.F.H.H.H.H.H.H.H.L.L.I.L.I.U.I.U.U.R.U.R.R.R.R.R.R.R.R.~.R.~.~.~.~.~.~.~.~.~.~.~.~.~.~.~.~.~.~.~.~.~.~.~.~.R.R.~.~.~.~.~.~.~.R.~.~.~.~.~.R.R.R.~.~.~.~.~.~.R.R.~.~.~.R.~.~.~.~.R.R.R.R.R.R.R.R.~.~.R.R.R.R.~.~.~.~.~.~.~.~.~.~.~.R.R.R.R.U.U.U.I.I.L.H.H.H.H.H.H.F.F.F.F.D.F.A.A.A.C.C.C.N.N.N.m.m.n.v.v.z.z.k.k.h.h.h.s.s.a.i.i.t.t.e.e.q.q.8.8.4.4.4.4.1.1.1.1.1.,.,.:.:.;.=.=.=.#.#.O.O.O. . . . .} } ' ' ' ' ' ) ( ^ ^ Q Q Q Q E E E E E P K D D B m m b b b v x v v x x v c v c z v v v z z k f f p p u u e e 0 6 4 4 1 > * * * % % % % % $ $ # + + @ @ o @ @ @ + + # $ $ # # + + @ o o o . . . . ^.^.^.^.^.^.^.^.^.^.^.^.^.^.^.^.^.^.^.^.^.^.^.^.^.^.^.^.^.^.^.^.^.^.^.^.^.^.^.^.^.^.^.^.^.^.^.^.^.^.^.^.^.^.^.^.^.^.^.^.^.^.^.^.^.^.^.^.^.^.^.^.^.^.^.^.^.^.^.^.^.^.^.^.^.^.^.^.^.^.^.^.^.^.^.^.^.^.^.^.^.^.^.^.^.^.^.^.^.^.^.^.^.^.^.^.^.^.^.^.^.^.^.^.^.^.^.^.^.^.^.^.^.^.^.^.^.^.^.^.^.^.",
"^.^.^.^.^.^.^.^.^.^.^.^.^.^.^.^.^.^.^.^.^.^.^.^.^.^.^.^.^.^.^.^.^.^.^.^.^.^.^.^.^.^.^.^.^.^.^.^.^.^.^.^.^.^.^.^.^.^.^.^.^.^.^.^.^.^.^.. o o @ # $ # # $ # # $ % % * * > 1 4 4 6 0 e u p f k z v b m Z H E E E W Q Q ^ ^ ( ) ' ' ' } }  . . .O.O.O.#.#.=.=.;.:.,.,.1.1.1.1.4.4.8.q.8.q.e.e.e.t.t.t.t.i.i.i.s.s.s.s.s.h.h.h.h.k.k.k.z.z.z.z.z.z.z.v.n.n.n.n.m.m.m.m.m.N.N.N.V.C.C.C.C.C.C.C.C.C.C.A.A.A.A.D.D.D.F.F.F.H.H.H.H.H.H.H.H.L.L.I.I.I.U.U.U.U.R.R.R.R.R.R.R.R.R.~.~.R.~.~.~.~.~.~.~.~.~.~.~.~.~.~.~.~.~.~.~.~.~.~.~.~.~.~.~.~.~.~.~.R.R.~.~.R.~.~.~.R.R.~.~.~.~.~.~.R.R.R.R.R.~.R.R.R.R.~.~.~.R.R.R.~.~.~.R.R.R.R.R.R.~.~.R.~.~.~.~.~.~.~.R.R.R.R.U.U.U.I.I.L.H.L.H.H.H.H.H.F.F.F.F.A.A.A.A.C.V.N.N.N.m.m.n.n.v.z.z.k.k.k.h.h.s.s.s.a.i.t.t.t.e.q.q.8.8.8.8.4.4.4.1.1.1.1.,.,.:.:.;.;.=.=.#.#.#.O.O. . . . .} } ' ' ' ' ) ) ) ^ ^ ^ Q Q W E E E E E U L H D D B m m b b b x x x x x v v z z k z z z z z z k f f p p u u e q 7 4 4 1 > > * * % % % % # $ # + + @ @ o o o o o o @ @ @ # # + + @ o o o . . ^.. ^.. ^.^.^.^.^.^.^.^.^.^.^.^.^.^.^.^.^.^.^.^.^.^.^.^.^.^.^.^.^.^.^.^.^.^.^.^.^.^.^.^.^.^.^.^.^.^.^.^.^.^.^.^.^.^.^.^.^.^.^.^.^.^.^.^.^.^.^.^.^.^.^.^.^.^.^.^.^.^.^.^.^.^.^.^.^.^.^.^.^.^.^.^.^.^.^.^.^.^.^.^.^.^.^.^.^.^.^.^.^.^.^.^.^.^.^.^.^.^.^.^.^.^.^.^.^.^.^.^.^.^.^.^.^.^.^.^.^.^.^.^.^.^.",
"^.^.^.^.^.^.^.^.^.^.^.^.^.^.^.^.^.^.^.^.^.^.^.^.^.^.^.^.^.^.^.^.^.^.^.^.^.^.^.^.^.^.^.^.^.^.^.^.^.^.^.^.^.^.^.^.^.^.^.^.^.^.^.^.^.^.o o + % % % % % % % % # $ % * * > 1 4 4 6 8 0 e u f k k v x b m D K E E E E Q Q ^ ^ ( ) ) ' ' } }  . . .O.O.#.#.=.=.=.;.:.:.,.1.1.1.4.4.4.8.8.q.q.q.e.e.e.t.t.t.t.t.i.i.s.s.s.s.s.h.h.h.h.k.k.k.k.k.z.z.z.z.z.v.v.n.n.m.n.m.m.m.m.N.N.N.N.V.V.V.V.C.C.C.C.C.C.C.A.A.A.A.D.A.A.A.F.F.H.H.F.H.H.H.H.L.L.I.I.U.U.U.R.R.U.U.R.R.R.R.R.R.R.~.~.~.~.~.~.~.~.~.~.~.~.R.~.~.~.~.~.~.~.~.~.~.~.~.~.~.~.~.~.~.~.~.R.R.~.~.R.R.~.~.~.~.~.~.~.~.~.~.R.R.R.R.R.~.R.R.~.R.~.~.~.~.R.~.~.~.~.~.R.R.R.R.R.~.R.R.~.~.~.~.R.R.~.R.R.R.R.R.U.U.I.I.I.L.H.H.H.H.H.F.F.F.F.F.A.A.A.C.C.V.N.N.m.m.m.n.v.v.z.z.k.k.k.h.h.s.s.s.a.t.t.t.t.e.q.q.8.4.8.4.4.4.1.1.1.1.,.,.:.:.;.;.=.=.#.#.#.O.O. . . . .} } ' ' ' ' ) ( ( ( ^ ^ Q Q Q E E E E E U P K H D B B m m b b b v x x x x v v z z k z z z z k k f f f p p u u e q 0 4 4 1 > * * % % % $ # + # + + @ @ @ o o o o o o o o o o @ o o o o o . ^.^.^.^.^.^.^.^.^.^.^.^.^.^.^.^.^.^.^.^.^.^.^.^.^.^.^.^.^.^.^.^.^.^.^.^.^.^.^.^.^.^.^.^.^.^.^.^.^.^.^.^.^.^.^.^.^.^.^.^.^.^.^.^.^.^.^.^.^.^.^.^.^.^.^.^.^.^.^.^.^.^.^.^.^.^.^.^.^.^.^.^.^.^.^.^.^.^.^.^.^.^.^.^.^.^.^.^.^.^.^.^.^.^.^.^.^.^.^.^.^.^.^.^.^.^.^.^.^.^.^.^.^.^.^.^.^.^.^.^.^.^.^.^.^.^.^.^.",
"^.^.^.^.^.^.^.^.^.^.^.^.^.^.^.^.^.^.^.^.^.^.^.^.^.^.^.^.^.^.^.^.^.^.^.^.^.^.^.^.^.^.^.^.^.^.^.^.^.^.^.^.^.^.^.^.^.^.^.^.^.^.^.^.^.. o # # % % * * * * * * % % * * > 1 4 4 7 0 0 q t p f z k z v v m D H U E E E Q Q ^ ^ ( ) ' ' ' }  . . . .O.O.#.#.=.=.=.;.:.,.,.1.1.1.4.4.4.8.8.q.8.q.e.e.e.t.t.t.t.t.t.i.i.a.s.s.s.s.h.h.h.h.k.k.k.k.z.z.z.z.z.z.v.v.v.n.n.n.m.m.m.m.m.N.N.N.N.N.N.V.V.V.C.C.C.C.C.C.C.A.A.A.A.A.D.A.F.F.F.H.H.H.H.L.L.I.I.I.U.U.U.R.U.R.R.U.R.R.R.R.R.~.R.R.~.~.~.~.R.R.R.R.R.R.R.~.~.~.R.~.R.R.~.~.~.~.~.~.R.R.R.R.~.~.~.~.~.~.R.R.~.~.~.~.R.R.R.R.~.~.~.~.R.~.~.~.~.~.~.~.~.~.~.~.R.R.~.~.~.~.R.R.~.R.~.~.R.R.~.~.~.R.R.R.~.R.R.R.R.U.U.U.U.I.I.I.L.H.H.H.H.H.H.F.F.A.A.A.A.C.C.C.V.N.m.m.n.n.v.v.z.z.k.k.h.h.s.s.s.s.i.t.t.t.e.e.q.q.8.4.8.4.4.1.1.1.1.,.,.,.:.:.;.=.=.=.#.#.O.O. . . . .} } ' ' ' ' ) ) ( ( ^ ^ Q Q Q W E E E E E U L H D D B B m m b b b x x c v v v z k z k k k k k k k f f f p u u t e 0 0 6 4 1 > * * % % % # + @ + @ + @ o o o o . . . . o o o o o o o o o . ^.^.^.^.^.^.^.^.^.^.^.^.^.^.^.^.^.^.^.^.^.^.^.^.^.^.^.^.^.^.^.^.^.^.^.^.^.^.^.^.^.^.^.^.^.^.^.^.^.^.^.^.^.^.^.^.^.^.^.^.^.^.^.^.^.^.^.^.^.^.^.^.^.^.^.^.^.^.^.^.^.^.^.^.^.^.^.^.^.^.^.^.^.^.^.^.^.^.^.^.^.^.^.^.^.^.^.^.^.^.^.^.^.^.^.^.^.^.^.^.^.^.^.^.^.^.^.^.^.^.^.^.^.^.^.^.^.^.^.^.^.^.^.^.^.^.^.^.^.",
"^.^.^.^.^.^.^.^.^.^.^.^.^.^.^.^.^.^.^.^.^.^.^.^.^.^.^.^.^.^.^.^.^.^.^.^.^.^.^.^.^.^.^.^.^.^.^.^.^.^.^.^.^.^.^.^.^.^.^.^.^.^.^.^.^.. o # $ % * > > 1 1 > > * * * > 1 4 6 0 0 q e e u p f k z k v v m B H L E E E Q Q ^ ^ ( ) ' ' }  . . . .O.O.#.#.#.=.=.=.;.:.:.,.1.1.1.4.4.8.8.8.q.q.q.e.e.e.e.t.t.t.t.t.i.i.i.s.s.s.s.s.h.h.h.h.h.k.k.k.k.z.z.z.z.z.v.v.v.n.n.v.n.n.m.m.m.m.m.N.N.N.N.N.N.N.N.V.V.C.C.C.C.C.C.A.A.A.A.A.F.F.F.F.H.H.H.L.L.L.I.U.U.U.R.U.R.R.R.R.R.R.R.~.R.R.R.R.R.~.~.~.R.R.R.R.R.R.~.~.~.R.R.R.R.~.~.~.~.~.~.R.R.R.R.~.~.~.~.~.~.R.R.~.~.~.~.~.R.R.R.~.~.~.~.~.~.~.~.~.~.~.~.~.~.~.~.R.R.~.~.~.~.~.~.~.~.~.~.R.R.~.~.~.~.R.R.R.~.R.R.R.R.U.U.U.I.I.L.L.L.H.H.H.H.H.F.F.A.A.A.A.C.C.V.N.N.m.m.n.n.v.z.z.z.k.k.k.h.h.s.s.s.i.t.t.e.t.e.q.8.8.4.8.4.4.1.1.1.1.,.,.:.:.;.=.=.=.#.#.#.O.O. . . .} } ' ' ' ' ) ) ( ( ^ ^ ^ Q Q Q E E E E E E L K H D D B m m m b b b v x x v v z z k k k z k k k k f f p p p u t e e 0 7 4 4 1 > * * % % % # @ + @ @ @ o o o o . . ^.^.^.. . . . . . . . ^.^.^.^.^.^.^.^.^.^.^.^.^.^.^.^.^.^.^.^.^.^.^.^.^.^.^.^.^.^.^.^.^.^.^.^.^.^.^.^.^.^.^.^.^.^.^.^.^.^.^.^.^.^.^.^.^.^.^.^.^.^.^.^.^.^.^.^.^.^.^.^.^.^.^.^.^.^.^.^.^.^.^.^.^.^.^.^.^.^.^.^.^.^.^.^.^.^.^.^.^.^.^.^.^.^.^.^.^.^.^.^.^.^.^.^.^.^.^.^.^.^.^.^.^.^.^.^.^.^.^.^.^.^.^.^.^.^.^.^.^.^.^.^.^.^.^.^.^.^.^.",
"^.^.^.^.^.^.^.^.^.^.^.^.^.^.^.^.^.^.^.^.^.^.^.^.^.^.^.^.^.^.^.^.^.^.^.^.^.^.^.^.^.^.^.^.^.^.^.^.^.^.^.^.^.^.^.^.^.^.^.^.^.^.^.^.^.o @ $ % % * > > 1 4 4 1 > > > 1 4 6 0 q e t u u p p f f k k z v b B D H U E E E Q ^ ^ ) ' ' ' }  . . .O.O.#.#.#.#.=.=.=.;.:.,.,.1.1.1.4.8.8.8.q.8.q.q.e.e.e.t.t.t.t.t.t.t.i.i.i.a.s.s.s.s.h.h.h.h.h.k.k.k.k.z.z.z.z.z.z.z.v.v.v.n.n.n.n.m.m.m.m.m.m.m.N.N.N.N.N.N.N.V.V.C.C.C.C.C.A.A.A.A.A.F.H.H.H.H.H.L.L.I.I.U.U.U.R.R.R.R.R.R.R.R.R.~.~.~.~.~.~.R.R.R.~.~.~.~.~.~.~.~.~.~.~.~.~.~.~.~.R.R.R.~.~.~.R.R.R.R.R.R.~.~.~.~.R.R.~.~.~.~.~.~.R.R.R.R.~.~.~.R.R.R.~.~.~.R.R.R.~.~.~.~.~.~.~.~.~.~.~.~.R.R.~.~.~.~.R.~.R.U.R.R.R.U.U.U.I.L.L.L.L.H.H.H.H.F.F.A.A.A.A.C.C.V.N.N.m.m.n.n.v.v.z.z.k.k.k.h.h.s.s.s.i.t.t.e.e.e.q.8.8.8.4.4.1.1.1.1.,.,.,.:.:.;.=.=.#.#.#.O.O. . . . .} } ' ' ' ) ( ) ^ ^ ^ Q Q Q Q Q E E E E E U K H D D B B m m b b b v x x v v z z k z z z k k k k f f p p u u u t e e 0 0 6 4 1 > * * % % $ # + @ @ o o o o o . . ^.^.^.^.^.^.. . ^.. . ^.^.^.^.^.^.^.^.^.^.^.^.^.^.^.^.^.^.^.^.^.^.^.^.^.^.^.^.^.^.^.^.^.^.^.^.^.^.^.^.^.^.^.^.^.^.^.^.^.^.^.^.^.^.^.^.^.^.^.^.^.^.^.^.^.^.^.^.^.^.^.^.^.^.^.^.^.^.^.^.^.^.^.^.^.^.^.^.^.^.^.^.^.^.^.^.^.^.^.^.^.^.^.^.^.^.^.^.^.^.^.^.^.^.^.^.^.^.^.^.^.^.^.^.^.^.^.^.^.^.^.^.^.^.^.^.^.^.^.^.^.^.^.^.^.^.^.^.^.^.^.^.",
"^.^.^.^.^.^.^.^.^.^.^.^.^.^.^.^.^.^.^.^.^.^.^.^.^.^.^.^.^.^.^.^.^.^.^.^.^.^.^.^.^.^.^.^.^.^.^.^.^.^.^.^.^.^.^.^.^.^.^.^.^.^.^.^.o @ + % % % * > 1 4 4 4 4 1 1 1 4 4 6 0 e t u u p p p f f k k z x v m Z H U E E E Q Q ^ ) ' ' } }  . . . .O.#.#.#.=.=.=.;.;.:.:.,.1.1.4.4.4.8.8.q.8.q.q.e.e.e.e.e.e.t.t.t.t.t.i.i.i.i.s.s.s.h.h.h.h.h.h.k.k.k.z.k.z.z.z.z.z.z.z.z.v.v.v.v.n.n.n.n.m.n.m.m.m.m.m.m.N.N.N.N.N.V.V.C.C.C.C.A.A.A.F.F.F.F.H.H.L.I.I.I.U.U.U.R.R.R.R.R.R.R.R.~.~.~.~.~.~.R.R.R.R.~.~.~.~.~.~.~.~.~.~.~.R.~.~.~.~.R.R.R.~.~.~.~.R.R.R.R.R.~.~.~.R.R.R.~.~.~.~.~.~.R.R.R.R.~.~.~.~.R.R.~.~.R.R.R.R.~.~.~.~.R.R.~.~.~.~.~.~.R.R.~.~.~.~.~.R.R.R.R.R.R.U.U.I.I.I.L.L.H.H.H.H.H.H.F.A.A.A.A.C.C.V.N.N.m.n.n.v.v.z.z.z.k.k.h.h.s.s.s.i.i.t.t.t.e.q.q.8.8.8.4.4.1.1.1.,.,.,.:.:.;.=.=.=.#.#.O.O. . . . .} } ' ' ' ) ) ( ^ ^ ^ Q Q Q Q W W E E E E U P K H D B B m m b b b v x v v v c z k k k k k k k f f f p p u u t t e e e q 0 6 4 1 > > * * % $ # + + o o o o o o . . ^.^.^.^.^.^.^.^.^.^.^.^.^.^.^.^.^.^.^.^.^.^.^.^.^.^.^.^.^.^.^.^.^.^.^.^.^.^.^.^.^.^.^.^.^.^.^.^.^.^.^.^.^.^.^.^.^.^.^.^.^.^.^.^.^.^.^.^.^.^.^.^.^.^.^.^.^.^.^.^.^.^.^.^.^.^.^.^.^.^.^.^.^.^.^.^.^.^.^.^.^.^.^.^.^.^.^.^.^.^.^.^.^.^.^.^.^.^.^.^.^.^.^.^.^.^.^.^.^.^.^.^.^.^.^.^.^.^.^.^.^.^.^.^.^.^.^.^.^.^.^.^.^.^.^.^.^.^.^.^.^.^.^.",
"^.^.^.^.^.^.^.^.^.^.^.^.^.^.^.^.^.^.^.^.^.^.^.^.^.^.^.^.^.^.^.^.^.^.^.^.^.^.^.^.^.^.^.^.^.^.^.^.^.^.^.^.^.^.^.^.^.^.^.^.^.^.^.^.o o # $ % * * 1 4 8 0 8 6 4 4 4 4 6 0 0 q t u u p p f f k k k z v b m Z H U E E E W Q ^ ) ' ' ' }  . .O.O.O.#.#.#.=.=.;.:.:.,.,.,.1.1.4.4.8.8.8.8.8.8.q.q.e.e.e.e.t.e.t.t.t.t.i.i.i.i.a.i.s.s.s.s.s.s.h.h.h.k.k.k.k.k.z.k.z.z.z.z.z.v.z.v.v.v.n.n.n.n.n.n.m.m.m.m.m.m.N.N.N.N.N.N.C.C.C.C.A.A.A.F.F.H.H.H.H.L.L.I.U.U.U.R.R.R.R.R.~.~.~.~.~.~.~.~.~.~.~.R.~.~.~.~.R.R.R.R.R.~.~.R.R.~.~.~.~.R.R.R.R.~.~.~.~.~.~.R.R.~.~.~.~.R.~.R.~.~.~.~.~.~.~.~.~.~.~.~.~.R.R.~.~.~.~.R.~.~.~.~.~.R.R.R.R.R.R.~.~.R.R.~.~.~.~.~.R.R.R.R.R.R.U.U.U.I.I.I.L.L.H.H.H.H.H.F.F.A.A.A.C.C.V.N.N.m.m.n.v.v.z.z.z.k.k.h.h.s.s.s.i.i.t.t.e.e.q.8.8.8.4.4.4.1.1.1.,.,.:.:.;.;.=.=.#.#.O.O. . . .} } } ' ' ' ) ) ( ^ ^ ^ Q Q Q Q Q W E E E E E P K H D D B m m b b v v v v v v z z k k k f f f f f f f p p p u u t e e e e 0 7 6 4 4 1 > * * % $ # + @ o o o . . . . ^.^.^.^.^.^.^.^.^.^.^.^.^.^.^.^.^.^.^.^.^.^.^.^.^.^.^.^.^.^.^.^.^.^.^.^.^.^.^.^.^.^.^.^.^.^.^.^.^.^.^.^.^.^.^.^.^.^.^.^.^.^.^.^.^.^.^.^.^.^.^.^.^.^.^.^.^.^.^.^.^.^.^.^.^.^.^.^.^.^.^.^.^.^.^.^.^.^.^.^.^.^.^.^.^.^.^.^.^.^.^.^.^.^.^.^.^.^.^.^.^.^.^.^.^.^.^.^.^.^.^.^.^.^.^.^.^.^.^.^.^.^.^.^.^.^.^.^.^.^.^.^.^.^.^.^.^.^.^.^.^.^.^.^.",
"^.^.^.^.^.^.^.^.^.^.^.^.^.^.^.^.^.^.^.^.^.^.^.^.^.^.^.^.^.^.^.^.^.^.^.^.^.^.^.^.^.^.^.^.^.^.^.^.^.^.^.^.^.^.^.^.^.^.^.^.^.^.^.^.o # $ % % * > 4 4 0 0 0 7 4 4 8 8 7 0 0 e t u p p p f f k z z v x v m B D L E E E Q Q ( ) ' ' }  . . .O.O.O.#.#.#.=.=.;.:.:.:.,.1.1.1.4.4.8.8.8.8.8.8.q.q.q.e.e.e.e.t.e.t.t.t.t.t.i.i.i.i.s.s.s.s.s.s.h.h.h.k.k.k.k.k.k.z.k.z.z.z.z.z.z.z.z.v.z.v.v.n.v.n.n.n.n.n.m.m.m.m.m.m.N.N.N.V.C.C.A.A.A.A.F.F.H.H.H.H.L.I.U.U.U.U.R.U.R.R.R.R.R.~.~.~.~.~.~.~.~.R.~.~.~.~.R.R.R.R.R.R.~.R.R.R.~.~.~.R.R.R.R.~.~.~.~.~.~.~.R.~.~.~.~.R.R.R.~.~.~.~.~.~.~.~.~.~.~.~.~.~.~.~.~.~.~.R.~.~.~.~.~.R.R.R.R.R.R.~.~.~.~.~.~.R.R.~.R.R.R.R.R.R.U.U.U.I.I.I.L.L.L.H.H.H.H.F.F.A.A.A.C.C.C.N.N.m.m.n.v.v.z.z.z.k.k.h.h.s.s.s.a.i.t.t.t.e.q.q.8.8.4.4.1.1.1.,.,.,.:.;.;.=.=.#.#.O.O.O. . .} } } ' ' ' ) ) ( ^ ^ ^ Q Q Q Q Q E W E E E E E L K D D B m m b b v x v z z k z z k k k f f f f p p p p p u u u u t e e e q 0 8 4 4 1 1 > * * % $ $ # @ o . . ^.^.^.^.^.^.^.^.^.^.^.^.^.^.^.^.^.^.^.^.^.^.^.^.^.^.^.^.^.^.^.^.^.^.^.^.^.^.^.^.^.^.^.^.^.^.^.^.^.^.^.^.^.^.^.^.^.^.^.^.^.^.^.^.^.^.^.^.^.^.^.^.^.^.^.^.^.^.^.^.^.^.^.^.^.^.^.^.^.^.^.^.^.^.^.^.^.^.^.^.^.^.^.^.^.^.^.^.^.^.^.^.^.^.^.^.^.^.^.^.^.^.^.^.^.^.^.^.^.^.^.^.^.^.^.^.^.^.^.^.^.^.^.^.^.^.^.^.^.^.^.^.^.^.^.^.^.^.^.^.^.^.^.^.^.^.^.^.",
"^.^.^.^.^.^.^.^.^.^.^.^.^.^.^.^.^.^.^.^.^.^.^.^.^.^.^.^.^.^.^.^.^.^.^.^.^.^.^.^.^.^.^.^.^.^.^.^.^.^.^.^.^.^.^.^.^.^.^.^.^.^.^.. o % % % * * 1 4 7 q e q 0 8 8 0 8 0 q e e u u p f f f k z z v x x b m B D H U E E Q ^ ( ) ' ' }  . . .O.O.O.#.#.#.=.=.;.:.:.,.,.1.1.1.4.4.4.8.8.8.8.q.8.e.q.e.e.e.e.e.t.t.t.t.t.t.t.i.i.i.i.s.s.s.s.s.s.s.h.h.h.h.k.k.k.k.k.k.k.z.z.z.z.z.z.z.z.z.z.v.z.n.v.v.n.v.v.m.m.n.m.m.m.N.N.N.V.C.C.C.A.A.A.F.F.F.H.H.L.L.U.U.U.U.U.U.U.R.R.R.R.R.R.R.R.R.R.R.R.R.R.R.R.R.~.R.R.R.~.~.~.~.~.~.~.R.~.~.~.R.~.~.~.~.~.~.~.~.~.~.~.~.~.~.~.R.R.~.~.~.~.~.~.~.~.R.R.~.R.R.R.R.~.R.R.~.~.~.~.~.~.R.R.R.~.~.~.~.~.~.~.R.R.R.R.~.~.R.R.R.R.U.U.U.U.I.I.I.I.L.L.H.H.H.H.H.F.A.A.A.C.C.V.N.N.m.m.n.v.v.z.z.k.k.k.h.h.s.s.s.s.i.i.t.e.e.q.q.8.4.4.4.1.1.1.,.,.:.:.;.=.=.=.#.#.O.O. . . .} ' ' ' ' ) ) ( ( ^ ^ Q Q Q Q W W W E E E E E P K H D Z B m b v v v z z k k k k k k k f f f p p p u u u u u u u e e e q q 0 0 8 4 4 1 > > * * % % $ + o o . ^.^.^.^.^.^.^.^.^.^.^.^.^.^.^.^.^.^.^.^.^.^.^.^.^.^.^.^.^.^.^.^.^.^.^.^.^.^.^.^.^.^.^.^.^.^.^.^.^.^.^.^.^.^.^.^.^.^.^.^.^.^.^.^.^.^.^.^.^.^.^.^.^.^.^.^.^.^.^.^.^.^.^.^.^.^.^.^.^.^.^.^.^.^.^.^.^.^.^.^.^.^.^.^.^.^.^.^.^.^.^.^.^.^.^.^.^.^.^.^.^.^.^.^.^.^.^.^.^.^.^.^.^.^.^.^.^.^.^.^.^.^.^.^.^.^.^.^.^.^.^.^.^.^.^.^.^.^.^.^.^.^.^.^.^.^.^.^.^.",
"^.^.^.^.^.^.^.^.^.^.^.^.^.^.^.^.^.^.^.^.^.^.^.^.^.^.^.^.^.^.^.^.^.^.^.^.^.^.^.^.^.^.^.^.^.^.^.^.^.^.^.^.^.^.^.^.^.^.^.^.^.^.^.. # % % % * > 4 4 0 e e e q 0 0 0 q q e t u u f f f k k z z x x v x v m B D H P E E W Q ( ' ' } }  . .O.O.O.O.#.#.#.=.=.;.:.,.1.1.1.1.4.4.4.8.4.8.8.8.8.q.q.q.q.q.e.e.e.e.e.e.t.t.t.t.t.i.i.i.i.i.a.s.s.s.s.h.h.h.h.h.k.h.k.k.k.k.k.k.z.z.z.z.z.z.z.z.z.z.z.v.z.v.z.v.v.n.m.n.m.m.m.N.N.N.V.V.C.A.A.A.A.F.F.H.H.H.L.L.I.I.U.U.U.U.R.R.R.R.R.R.R.R.R.R.R.R.R.R.R.R.R.R.R.R.R.R.~.~.~.~.~.~.R.~.~.~.~.~.~.~.~.~.~.~.~.~.~.~.~.~.~.~.R.R.~.~.~.~.~.R.R.R.R.R.R.R.R.R.R.R.R.R.R.R.R.~.~.~.R.R.~.~.~.~.~.~.R.~.R.~.R.R.~.R.~.R.R.R.R.U.U.U.U.I.I.L.L.L.H.H.H.H.H.F.A.A.A.A.C.C.N.N.m.m.n.v.v.z.z.k.k.k.h.h.h.s.s.i.i.t.t.t.e.q.q.8.4.4.4.1.1.1.,.,.:.:.;.=.=.#.#.#.O. . . .} } ' ' ' ) ) ( ( ^ ^ Q Q Q W W E E E E E E E U L H D D B m b b x x z z k k f f f f f f f p p p u u u u u u u t e e e e q 0 0 7 4 4 4 1 > > * * % % + @ o o . ^.^.^.^.^.^.^.^.^.^.^.^.^.^.^.^.^.^.^.^.^.^.^.^.^.^.^.^.^.^.^.^.^.^.^.^.^.^.^.^.^.^.^.^.^.^.^.^.^.^.^.^.^.^.^.^.^.^.^.^.^.^.^.^.^.^.^.^.^.^.^.^.^.^.^.^.^.^.^.^.^.^.^.^.^.^.^.^.^.^.^.^.^.^.^.^.^.^.^.^.^.^.^.^.^.^.^.^.^.^.^.^.^.^.^.^.^.^.^.^.^.^.^.^.^.^.^.^.^.^.^.^.^.^.^.^.^.^.^.^.^.^.^.^.^.^.^.^.^.^.^.^.^.^.^.^.^.^.^.^.^.^.^.^.^.^.^.^.^.",
"^.^.^.^.^.^.^.^.^.^.^.^.^.^.^.^.^.^.^.^.^.^.^.^.^.^.^.^.^.^.^.^.^.^.^.^.^.^.^.^.^.^.^.^.^.^.^.^.^.^.^.^.^.^.^.^.^.^.^.^.^.^.^.. @ $ % * * > 4 8 0 0 e e q q 0 0 q e u u u p f f k k z v x v v x v b m Z D H L E E Q Q ( ' ' ' }  . .O.O.O.O.O.#.#.=.=.;.:.,.,.1.1.1.4.4.8.8.8.8.8.8.q.q.q.8.q.q.e.e.e.e.e.e.e.e.t.t.t.t.t.i.i.i.i.i.s.s.s.s.s.h.h.h.h.h.h.h.h.k.k.k.k.k.k.z.k.z.k.z.z.z.z.z.z.z.z.z.z.z.v.v.n.n.m.m.N.N.N.V.C.C.A.A.A.A.F.F.H.H.H.L.L.L.I.U.U.U.U.U.R.U.R.R.U.U.R.R.R.R.U.U.R.R.R.R.R.R.R.~.~.~.~.~.R.R.R.R.~.~.~.~.~.~.~.~.R.R.R.~.~.~.~.~.~.~.R.~.~.~.R.R.R.R.R.R.R.R.R.R.R.R.R.R.R.R.R.R.R.R.R.~.~.~.~.~.~.~.R.R.R.R.~.~.~.~.~.~.R.R.R.R.R.U.U.U.U.I.I.I.L.L.L.H.H.H.F.F.F.A.A.A.C.V.V.N.m.m.n.v.v.z.z.k.k.k.h.h.h.s.s.s.i.i.t.e.e.q.q.8.4.4.4.1.1.1.1.,.:.:.;.=.=.#.#.O.O.O. . .} ' ' ' ) ) ( ( ^ Q Q Q Q Q W E E E E E E E E P K D D B m b b x v z z k k f f f f f f f p p u u u u u t e e e e e e e q 0 0 8 6 6 4 4 1 > > * * % $ # o o . ^.^.^.^.^.^.^.^.^.^.^.^.^.^.^.^.^.^.^.^.^.^.^.^.^.^.^.^.^.^.^.^.^.^.^.^.^.^.^.^.^.^.^.^.^.^.^.^.^.^.^.^.^.^.^.^.^.^.^.^.^.^.^.^.^.^.^.^.^.^.^.^.^.^.^.^.^.^.^.^.^.^.^.^.^.^.^.^.^.^.^.^.^.^.^.^.^.^.^.^.^.^.^.^.^.^.^.^.^.^.^.^.^.^.^.^.^.^.^.^.^.^.^.^.^.^.^.^.^.^.^.^.^.^.^.^.^.^.^.^.^.^.^.^.^.^.^.^.^.^.^.^.^.^.^.^.^.^.^.^.^.^.^.^.^.^.^.^.^.^.",
"^.^.^.^.^.^.^.^.^.^.^.^.^.^.^.^.^.^.^.^.^.^.^.^.^.^.^.^.^.^.^.^.^.^.^.^.^.^.^.^.^.^.^.^.^.^.^.^.^.^.^.^.^.^.^.^.^.^.^.^.^.^.^.. o # % * > 1 4 6 0 0 q e e q 0 q q e u u p f f f z z x b m b b b m B B D H K U E E Q Q ( ' ' }  . . .O.O.O.O.#.#.#.=.=.;.:.,.1.1.1.4.4.4.8.4.4.8.8.8.q.8.q.8.q.q.e.e.e.e.e.e.e.e.t.t.t.t.t.i.i.i.i.i.a.s.s.s.s.s.s.s.h.h.h.h.h.h.h.h.h.h.k.k.k.k.k.k.k.z.k.z.z.z.z.z.z.z.z.v.v.n.n.m.m.m.N.N.C.C.C.C.A.A.A.F.F.H.H.H.H.L.L.L.I.U.U.U.U.U.U.U.U.U.U.U.U.U.U.U.U.U.U.R.R.R.R.R.R.~.~.~.~.R.R.R.~.~.~.~.~.~.~.R.R.R.R.~.~.~.~.~.R.~.~.~.~.~.R.R.R.R.R.R.R.R.U.U.U.U.U.U.U.R.U.U.R.R.R.R.~.~.~.~.~.~.~.R.R.R.~.~.~.~.~.~.~.R.R.R.R.R.U.U.U.I.U.I.L.L.L.H.H.H.H.F.F.A.A.A.C.V.N.N.m.m.n.v.v.z.z.k.k.k.h.h.h.s.s.i.i.t.t.t.e.q.q.8.4.4.4.1.1.1.,.,.:.:.;.=.=.#.#.O.O. . .} } ' ' ' ) ( ( ^ ^ Q Q Q Q E E E E E E E U U P H H D B m m v x v k k k k f f f p p p p p p u u u u t e e e e e q q 0 0 0 0 8 6 6 4 4 4 1 > * * * % $ + @ o . ^.^.^.^.^.^.^.^.^.^.^.^.^.^.^.^.^.^.^.^.^.^.^.^.^.^.^.^.^.^.^.^.^.^.^.^.^.^.^.^.^.^.^.^.^.^.^.^.^.^.^.^.^.^.^.^.^.^.^.^.^.^.^.^.^.^.^.^.^.^.^.^.^.^.^.^.^.^.^.^.^.^.^.^.^.^.^.^.^.^.^.^.^.^.^.^.^.^.^.^.^.^.^.^.^.^.^.^.^.^.^.^.^.^.^.^.^.^.^.^.^.^.^.^.^.^.^.^.^.^.^.^.^.^.^.^.^.^.^.^.^.^.^.^.^.^.^.^.^.^.^.^.^.^.^.^.^.^.^.^.^.^.^.^.^.^.^.^.^.^.",
"^.^.^.^.^.^.^.^.^.^.^.^.^.^.^.^.^.^.^.^.^.^.^.^.^.^.^.^.^.^.^.^.^.^.^.^.^.^.^.^.^.^.^.^.^.^.^.^.^.^.^.^.^.^.^.^.^.^.^.^.^.^.^.^.o # % * > 1 4 4 6 8 0 e 0 q 0 0 q e u u p f f k z v b m m m B B B D H K P U E E E Q ^ ( ) ' }  . . .O. .O.#.#.#.#.=.=.;.:.,.1.1.1.4.4.4.4.8.8.8.8.8.8.q.8.q.q.q.q.q.e.e.e.e.e.e.t.t.t.t.t.t.i.i.t.i.i.s.s.s.s.s.s.s.s.s.s.h.h.h.h.h.h.h.h.h.h.h.h.k.k.k.k.k.k.z.k.z.z.z.z.z.z.v.n.n.m.m.m.N.V.V.C.C.C.A.A.A.F.F.H.H.H.H.L.L.I.I.U.U.U.I.U.U.U.U.U.I.U.I.U.U.U.U.U.U.U.U.U.U.U.R.R.R.R.~.R.~.~.~.R.R.~.~.~.~.~.~.~.~.~.~.~.~.R.R.~.~.~.R.R.R.R.R.R.R.U.U.U.U.U.U.U.U.U.U.U.U.R.R.R.R.R.R.~.~.~.~.~.~.~.R.R.R.R.R.~.~.~.R.R.R.R.R.U.U.U.U.U.I.L.L.L.H.H.H.F.F.F.A.A.C.C.V.V.N.m.m.n.v.z.z.z.k.k.k.h.h.s.s.s.s.i.t.t.t.e.q.q.8.4.4.4.1.1.1.,.,.,.;.=.=.=.#.#.O. . . .} ' ' ' ) ( ( ^ Q Q Q Q W E E E E E E E E P L H H D B B m b x v z k k k f f f p p p p p p u u u t e e e e q q 0 0 0 0 0 8 6 4 6 6 4 4 1 1 > * * * % # @ o o . ^.^.^.^.^.^.^.^.^.^.^.^.^.^.^.^.^.^.^.^.^.^.^.^.^.^.^.^.^.^.^.^.^.^.^.^.^.^.^.^.^.^.^.^.^.^.^.^.^.^.^.^.^.^.^.^.^.^.^.^.^.^.^.^.^.^.^.^.^.^.^.^.^.^.^.^.^.^.^.^.^.^.^.^.^.^.^.^.^.^.^.^.^.^.^.^.^.^.^.^.^.^.^.^.^.^.^.^.^.^.^.^.^.^.^.^.^.^.^.^.^.^.^.^.^.^.^.^.^.^.^.^.^.^.^.^.^.^.^.^.^.^.^.^.^.^.^.^.^.^.^.^.^.^.^.^.^.^.^.^.^.^.^.^.^.^.^.^.^.^.",
"^.^.^.^.^.^.^.^.^.^.^.^.^.^.^.^.^.^.^.^.^.^.^.^.^.^.^.^.^.^.^.^.^.^.^.^.^.^.^.^.^.^.^.^.^.^.^.^.^.^.^.^.^.^.^.^.^.^.^.^.^.^.^.^.o # % * > 1 4 6 4 6 8 0 q 0 q 0 e u u p p f f z v v m m B B D D H H L U E E E E W Q ^ ( ' ' } }  . . .O.O.#.#.#.#.=.=.;.:.,.1.1.1.4.4.4.4.4.8.8.8.q.8.8.q.q.8.8.q.q.q.e.e.e.e.e.e.t.t.t.t.t.i.i.t.t.i.i.i.s.a.i.s.s.s.s.s.s.s.s.s.s.h.h.s.h.h.h.h.h.h.h.h.k.k.k.k.k.k.z.z.z.z.z.v.n.m.m.m.m.N.N.C.C.C.A.A.A.F.F.F.H.H.H.H.L.L.I.L.U.I.I.I.L.I.I.I.I.I.I.I.I.I.I.U.U.U.U.U.U.U.U.R.R.R.R.R.R.~.~.R.R.~.~.~.~.~.~.R.R.R.~.~.R.~.R.R.~.R.R.R.R.U.U.R.U.U.U.U.U.U.U.I.U.U.U.U.U.U.R.R.R.R.R.~.~.~.~.~.~.~.~.R.R.~.~.~.~.~.~.R.R.R.R.U.U.U.U.U.U.I.L.L.H.H.H.H.F.F.D.A.A.C.C.N.N.m.m.n.v.z.z.z.k.k.h.h.s.s.s.s.s.i.i.t.t.e.q.q.8.8.4.4.4.1.1.1.,.:.;.=.=.=.#.O.O.O. . .} ' ' ' ) ( ^ ^ ^ Q Q Q W E E E E E U U L K H H D B B m b v v z k k f f f p p p u u u u u u u t e e e q 0 0 0 0 8 8 8 6 6 4 6 4 4 4 4 1 1 > * * % % # o o . . ^.^.^.^.^.^.^.^.^.^.^.^.^.^.^.^.^.^.^.^.^.^.^.^.^.^.^.^.^.^.^.^.^.^.^.^.^.^.^.^.^.^.^.^.^.^.^.^.^.^.^.^.^.^.^.^.^.^.^.^.^.^.^.^.^.^.^.^.^.^.^.^.^.^.^.^.^.^.^.^.^.^.^.^.^.^.^.^.^.^.^.^.^.^.^.^.^.^.^.^.^.^.^.^.^.^.^.^.^.^.^.^.^.^.^.^.^.^.^.^.^.^.^.^.^.^.^.^.^.^.^.^.^.^.^.^.^.^.^.^.^.^.^.^.^.^.^.^.^.^.^.^.^.^.^.^.^.^.^.^.^.^.^.^.^.^.^.^.^.^.",
"^.^.^.^.^.^.^.^.^.^.^.^.^.^.^.^.^.^.^.^.^.^.^.^.^.^.^.^.^.^.^.^.^.^.^.^.^.^.^.^.^.^.^.^.^.^.^.^.^.^.^.^.^.^.^.^.^.^.^.^.^.^.^.^.o + % * > 1 4 4 4 4 8 0 0 q q e e u p p f f k v v m B B Z D H H K P E E E E E Q Q Q ^ ( ' ' ' }  . .O.O.O.#.#.#.#.=.=.;.:.,.1.1.1.1.4.4.4.4.8.8.8.8.8.8.8.8.8.q.8.q.e.e.e.e.e.e.t.t.t.t.t.t.t.t.i.t.t.i.i.i.i.i.i.i.a.s.s.s.s.s.s.s.s.s.s.s.s.s.h.h.h.s.h.h.h.h.k.k.k.k.k.z.z.z.z.v.n.n.n.m.m.N.N.C.C.C.A.A.A.A.F.F.H.H.H.H.H.H.L.L.L.L.L.I.L.I.L.L.I.L.I.L.I.L.I.I.U.U.I.U.U.U.R.R.R.R.R.R.R.R.R.R.~.~.R.R.R.R.R.R.R.R.R.R.R.R.R.R.R.R.U.U.U.U.U.U.U.U.U.U.U.I.U.I.U.U.U.U.U.R.R.R.R.R.~.~.~.~.~.~.~.~.~.~.~.~.~.~.R.R.R.R.R.R.U.U.U.U.U.I.U.L.L.H.H.H.H.H.F.A.A.A.C.V.N.N.m.m.n.v.z.z.k.k.k.h.h.h.s.s.s.a.i.t.t.t.e.e.q.8.8.4.4.4.1.1.,.,.,.;.;.=.#.#.#.O.O. .} } ' ' ) ( ( ^ ^ Q Q W E E E E E E U U K H D D D B B m b v v k k k f f p p p u u u u u u u u e e e e q 0 0 8 8 6 6 6 4 4 4 4 6 4 4 4 4 1 1 > * % % $ # o o ^.^.^.^.^.^.^.^.^.^.^.^.^.^.^.^.^.^.^.^.^.^.^.^.^.^.^.^.^.^.^.^.^.^.^.^.^.^.^.^.^.^.^.^.^.^.^.^.^.^.^.^.^.^.^.^.^.^.^.^.^.^.^.^.^.^.^.^.^.^.^.^.^.^.^.^.^.^.^.^.^.^.^.^.^.^.^.^.^.^.^.^.^.^.^.^.^.^.^.^.^.^.^.^.^.^.^.^.^.^.^.^.^.^.^.^.^.^.^.^.^.^.^.^.^.^.^.^.^.^.^.^.^.^.^.^.^.^.^.^.^.^.^.^.^.^.^.^.^.^.^.^.^.^.^.^.^.^.^.^.^.^.^.^.^.^.^.^.^.^.^.^.",
"^.^.^.^.^.^.^.^.^.^.^.^.^.^.^.^.^.^.^.^.^.^.^.^.^.^.^.^.^.^.^.^.^.^.^.^.^.^.^.^.^.^.^.^.^.^.^.^.^.^.^.^.^.^.^.^.^.^.^.^.^.^.^.^.. @ % * * > 1 4 4 4 6 0 0 q e e u p f k z z x b m B B D D H H L P E E E E E Q Q Q Q ^ ( ) ' ' }  . .O.O.O.#.#.#.#.=.=.;.:.,.,.1.1.1.4.4.4.4.4.4.8.8.8.8.8.8.8.q.q.q.q.e.e.e.e.e.e.t.t.t.t.t.t.t.t.t.i.i.t.i.i.t.i.i.i.i.i.a.i.s.i.s.s.s.s.s.s.s.s.h.s.s.s.h.h.h.h.h.k.k.k.z.z.z.z.z.v.n.n.m.m.N.N.N.V.C.C.A.A.A.A.F.F.H.F.H.H.H.H.L.H.H.H.L.L.L.H.L.L.H.L.H.L.L.L.L.I.L.I.U.U.U.U.U.R.R.R.R.R.R.R.R.R.R.R.R.R.R.R.R.R.U.R.R.R.U.U.R.R.U.U.U.U.U.U.U.U.U.U.U.I.I.U.I.U.I.I.U.U.U.U.R.R.R.R.R.~.~.~.~.~.~.~.~.~.~.~.~.R.R.R.R.R.R.U.U.U.U.U.I.I.I.L.L.H.H.H.F.F.A.A.C.C.V.N.m.m.n.n.v.z.z.k.k.k.h.h.s.s.s.s.i.i.t.t.e.e.e.q.8.8.4.4.4.1.1.1.,.:.;.=.=.=.#.O.O. . . .} ' ' ) ) ( ^ ^ Q Q W E E E E E E P L H D D B B m m b x v k k k f f f p u u u t t e e e e e e q q 0 0 7 8 4 4 4 4 4 4 4 4 4 1 4 1 1 1 1 1 > * % % $ @ o o . ^.^.^.^.^.^.^.^.^.^.^.^.^.^.^.^.^.^.^.^.^.^.^.^.^.^.^.^.^.^.^.^.^.^.^.^.^.^.^.^.^.^.^.^.^.^.^.^.^.^.^.^.^.^.^.^.^.^.^.^.^.^.^.^.^.^.^.^.^.^.^.^.^.^.^.^.^.^.^.^.^.^.^.^.^.^.^.^.^.^.^.^.^.^.^.^.^.^.^.^.^.^.^.^.^.^.^.^.^.^.^.^.^.^.^.^.^.^.^.^.^.^.^.^.^.^.^.^.^.^.^.^.^.^.^.^.^.^.^.^.^.^.^.^.^.^.^.^.^.^.^.^.^.^.^.^.^.^.^.^.^.^.^.^.^.^.^.^.^.^.^.",
"^.^.^.^.^.^.^.^.^.^.^.^.^.^.^.^.^.^.^.^.^.^.^.^.^.^.^.^.^.^.^.^.^.^.^.^.^.^.^.^.^.^.^.^.^.^.^.^.^.^.^.^.^.^.^.^.^.^.^.^.^.^.^.^.. # * * * > 1 4 4 4 6 0 0 e e u p f k z v x b m B D D D H H H L U E E E E W Q Q Q ^ ^ ( ) ' ' }  . .O.O.O.O.#.#.#.=.=.;.:.:.,.1.1.1.1.1.4.4.4.4.8.8.8.8.8.8.8.q.8.q.q.e.e.e.e.e.e.t.e.t.t.t.t.t.t.t.t.t.t.t.t.t.t.t.t.t.t.t.i.i.i.i.i.a.a.a.a.s.s.s.s.s.s.s.s.h.h.h.h.h.k.k.k.z.z.z.z.v.n.n.m.m.N.N.V.V.C.C.A.A.A.D.D.F.F.F.F.F.H.H.H.H.H.H.H.H.H.H.H.H.H.H.H.H.H.H.H.L.L.L.I.U.U.U.U.U.U.U.U.U.U.U.U.U.U.R.U.U.U.U.U.U.U.U.U.U.U.U.U.U.U.U.I.U.I.I.U.I.I.I.I.I.I.I.I.U.I.U.U.U.U.R.R.R.R.R.~.~.~.~.~.~.~.~.~.R.R.R.~.R.~.R.R.R.U.U.U.U.U.I.I.I.L.L.H.H.H.F.F.A.A.C.C.V.N.N.m.n.n.v.z.z.k.k.k.h.h.h.s.s.a.i.i.t.t.e.e.q.q.8.8.4.4.4.1.1.1.,.:.;.;.=.=.#.O.O. . . .} ' ' ) ) ( ^ Q Q Q E E E E E E P K H D D B B m b b x v z k f f f p p u u u t e e e q q q q 0 0 0 7 8 6 6 4 4 1 1 1 1 1 1 1 1 1 1 1 1 > > * * % % # @ o o . ^.^.^.^.^.^.^.^.^.^.^.^.^.^.^.^.^.^.^.^.^.^.^.^.^.^.^.^.^.^.^.^.^.^.^.^.^.^.^.^.^.^.^.^.^.^.^.^.^.^.^.^.^.^.^.^.^.^.^.^.^.^.^.^.^.^.^.^.^.^.^.^.^.^.^.^.^.^.^.^.^.^.^.^.^.^.^.^.^.^.^.^.^.^.^.^.^.^.^.^.^.^.^.^.^.^.^.^.^.^.^.^.^.^.^.^.^.^.^.^.^.^.^.^.^.^.^.^.^.^.^.^.^.^.^.^.^.^.^.^.^.^.^.^.^.^.^.^.^.^.^.^.^.^.^.^.^.^.^.^.^.^.^.^.^.^.^.^.^.^.^.",
"^.^.^.^.^.^.^.^.^.^.^.^.^.^.^.^.^.^.^.^.^.^.^.^.^.^.^.^.^.^.^.^.^.^.^.^.^.^.^.^.^.^.^.^.^.^.^.^.^.^.^.^.^.^.^.^.^.^.^.^.^.^.^.. o # % * > > 1 4 4 8 6 0 q t u p f k z v b m B B D D H H K K L P E E E E W Q Q Q ^ ^ ^ ( ) ' ' }  . . .O.O.#.#.#.=.=.=.;.:.:.,.,.,.1.1.1.1.4.4.4.4.8.8.4.8.8.8.q.q.q.q.e.e.e.e.e.t.e.t.t.t.t.t.t.t.t.t.t.t.t.t.t.t.t.t.t.t.t.t.t.t.t.t.i.i.i.i.a.s.a.i.s.s.s.s.s.s.s.h.h.h.k.k.k.k.z.z.z.v.v.n.m.m.N.N.N.C.C.C.A.A.A.A.A.A.F.F.F.F.F.H.F.H.H.F.H.H.H.F.H.H.H.H.H.H.H.H.H.H.L.L.L.U.U.I.I.I.U.I.U.U.U.U.U.U.U.U.U.I.U.I.I.I.I.I.I.I.I.I.I.I.I.I.I.I.I.I.I.L.I.L.I.L.L.I.I.I.U.U.U.U.U.U.R.R.R.R.~.R.~.~.~.~.~.R.R.~.~.~.R.~.R.R.R.R.U.U.U.U.U.I.I.L.H.H.H.H.F.F.A.A.C.C.V.N.m.m.n.v.v.z.z.k.k.k.h.h.s.s.s.a.i.i.t.t.t.e.e.q.q.8.4.4.4.1.1.1.,.:.;.=.=.=.#.O.O. . . .} ' ' ) ( ( ^ Q Q Q E E E E E P K H D D B B m b v x z z k f f p p u u u t e e e q 0 0 0 0 0 0 8 6 4 4 4 4 1 1 1 1 > > > > 1 1 > > > > > > * * % % # + o o . ^.^.^.^.^.^.^.^.^.^.^.^.^.^.^.^.^.^.^.^.^.^.^.^.^.^.^.^.^.^.^.^.^.^.^.^.^.^.^.^.^.^.^.^.^.^.^.^.^.^.^.^.^.^.^.^.^.^.^.^.^.^.^.^.^.^.^.^.^.^.^.^.^.^.^.^.^.^.^.^.^.^.^.^.^.^.^.^.^.^.^.^.^.^.^.^.^.^.^.^.^.^.^.^.^.^.^.^.^.^.^.^.^.^.^.^.^.^.^.^.^.^.^.^.^.^.^.^.^.^.^.^.^.^.^.^.^.^.^.^.^.^.^.^.^.^.^.^.^.^.^.^.^.^.^.^.^.^.^.^.^.^.^.^.^.^.^.^.^.^.^.",
"^.^.^.^.^.^.^.^.^.^.^.^.^.^.^.^.^.^.^.^.^.^.^.^.^.^.^.^.^.^.^.^.^.^.^.^.^.^.^.^.^.^.^.^.^.^.^.^.^.^.^.^.^.^.^.^.^.^.^.^.^.^.. . o # % * * > 1 4 4 8 8 0 q u p f f z v v b B B D D H L P P U E E E E E E W Q Q Q ^ ^ ( ) ) ' ' }  . . .O.O.#.#.#.=.=.=.;.;.:.:.,.,.1.1.1.1.1.1.4.4.8.8.8.8.8.8.q.q.q.e.q.e.e.e.e.e.t.t.e.t.t.t.t.t.t.t.e.e.e.e.e.e.e.e.e.t.e.t.e.t.t.t.t.t.t.i.i.i.i.i.i.a.s.s.s.s.s.s.s.h.h.h.k.k.k.z.z.z.z.n.n.m.m.m.N.N.V.C.C.C.A.A.A.A.D.A.A.A.F.F.F.F.F.F.F.F.F.F.F.H.H.H.H.F.H.H.H.H.H.H.L.L.L.L.I.I.I.I.I.I.I.I.I.U.U.I.I.I.L.L.L.L.L.L.L.L.L.L.L.L.L.L.L.I.L.L.L.L.I.L.L.L.I.L.I.L.I.U.U.U.U.R.U.R.~.R.R.R.R.~.~.~.~.R.R.~.~.~.~.~.R.R.R.R.R.U.U.U.U.I.I.L.L.L.H.H.F.F.A.A.C.C.V.N.m.n.n.v.z.z.k.k.k.h.h.h.s.s.s.i.i.i.t.t.t.e.q.q.q.8.8.4.4.1.1.,.,.:.;.=.=.=.#.O.O. . .} } ' ' ) ) ^ ^ Q Q W E E E E P K H D Z B m m b x v k k k f f p p u u t t e e q 0 0 0 8 6 6 4 4 4 4 4 4 1 1 > > > > > * * * > > > > * * * * * % % $ # @ @ o . ^.^.^.^.^.^.^.^.^.^.^.^.^.^.^.^.^.^.^.^.^.^.^.^.^.^.^.^.^.^.^.^.^.^.^.^.^.^.^.^.^.^.^.^.^.^.^.^.^.^.^.^.^.^.^.^.^.^.^.^.^.^.^.^.^.^.^.^.^.^.^.^.^.^.^.^.^.^.^.^.^.^.^.^.^.^.^.^.^.^.^.^.^.^.^.^.^.^.^.^.^.^.^.^.^.^.^.^.^.^.^.^.^.^.^.^.^.^.^.^.^.^.^.^.^.^.^.^.^.^.^.^.^.^.^.^.^.^.^.^.^.^.^.^.^.^.^.^.^.^.^.^.^.^.^.^.^.^.^.^.^.^.^.^.^.^.^.^.^.^.^.",
"^.^.^.^.^.^.^.^.^.^.^.^.^.^.^.^.^.^.^.^.^.^.^.^.^.^.^.^.^.^.^.^.^.^.^.^.^.^.^.^.^.^.^.^.^.^.^.^.^.^.^.^.^.^.^.^.^.^.^.^.^.^.o o o # % * > > 1 4 4 0 0 e e u p k z z x b m Z Z D H L U E E E E E E E E W W Q ^ ^ ^ ^ ( ) ' ' ' }  . .O.O.O.#.#.#.=.=.=.;.;.;.:.:.,.1.1.1.1.1.1.4.4.4.4.4.4.8.8.q.q.q.e.e.e.q.e.e.e.e.t.t.t.t.e.t.e.e.e.e.e.q.e.e.e.e.e.q.e.e.e.e.e.e.t.t.t.t.t.i.i.t.i.i.i.i.i.a.a.s.s.s.s.s.h.h.k.k.k.k.z.z.v.n.n.m.m.m.N.N.V.V.C.C.C.C.A.A.A.A.A.A.A.F.D.F.F.F.F.F.F.F.F.F.F.F.H.F.H.H.H.H.H.H.L.L.H.H.L.L.L.L.L.L.L.L.L.L.L.L.L.L.H.H.H.H.H.H.L.L.L.H.L.H.L.L.L.L.H.L.H.L.L.L.L.L.L.L.L.I.I.U.U.U.U.R.R.R.~.R.R.R.~.~.~.~.R.R.~.~.~.~.~.~.R.R.R.R.U.U.U.U.I.I.L.L.L.H.H.H.A.A.A.C.V.N.N.m.n.v.v.z.z.k.k.k.h.h.h.s.s.s.a.i.i.t.t.e.e.e.q.8.8.8.4.4.1.1.1.,.:.;.=.=.#.#.O.O. . .} } ' ' ) ) ^ ^ Q Q E E E E U K H D Z B m b b v z k k f f f p p u u e e e e q 0 0 8 8 4 4 4 4 4 4 1 1 1 1 > > * * * * * * * * * * * * * * * * % % $ + @ o o . ^.^.^.^.^.^.^.^.^.^.^.^.^.^.^.^.^.^.^.^.^.^.^.^.^.^.^.^.^.^.^.^.^.^.^.^.^.^.^.^.^.^.^.^.^.^.^.^.^.^.^.^.^.^.^.^.^.^.^.^.^.^.^.^.^.^.^.^.^.^.^.^.^.^.^.^.^.^.^.^.^.^.^.^.^.^.^.^.^.^.^.^.^.^.^.^.^.^.^.^.^.^.^.^.^.^.^.^.^.^.^.^.^.^.^.^.^.^.^.^.^.^.^.^.^.^.^.^.^.^.^.^.^.^.^.^.^.^.^.^.^.^.^.^.^.^.^.^.^.^.^.^.^.^.^.^.^.^.^.^.^.^.^.^.^.^.^.^.^.^.^.",
"^.^.^.^.^.^.^.^.^.^.^.^.^.^.^.^.^.^.^.^.^.^.^.^.^.^.^.^.^.^.^.^.^.^.^.^.^.^.^.^.^.^.^.^.^.^.^.^.^.^.^.^.^.^.^.^.^.^.^.^.^.. o + # % % * * > 1 4 6 8 0 q e u f k z c v m B Z D H K U E E E E E E E E E Q Q Q ^ ^ ^ ( ( ) ' ' ' }  . .O.O.O.O.#.#.=.=.=.=.;.:.:.:.:.,.1.1.1.1.1.1.1.4.4.4.4.8.8.q.q.q.q.e.q.e.e.e.e.t.e.e.e.e.e.e.e.e.e.q.q.q.q.q.q.q.q.q.q.q.q.q.e.e.e.e.t.t.t.t.t.t.t.t.t.i.i.i.i.i.s.s.s.s.h.h.h.k.k.k.z.z.v.v.n.m.m.m.m.N.N.N.V.V.C.C.C.C.C.A.A.A.A.A.A.A.A.A.D.D.D.D.A.A.F.F.F.F.F.F.H.H.H.F.H.H.H.H.L.L.L.H.H.L.L.L.H.H.H.H.H.H.H.H.H.H.H.H.H.H.H.H.H.H.L.L.H.H.H.H.H.H.H.H.L.L.L.L.L.L.I.I.I.I.U.U.U.R.R.R.~.~.~.R.R.R.~.~.~.~.~.~.~.~.~.R.R.R.R.R.U.U.I.I.L.H.H.H.H.F.A.A.A.C.C.N.m.m.n.n.z.z.z.k.k.k.h.h.s.s.s.s.i.i.i.t.t.t.e.e.q.8.8.4.4.4.1.1.1.,.:.;.;.=.#.#.O.O. . .} } ' ' ) ( ^ Q Q W E E E E L H D B B m b v v z k f f p p p u u t e e e q q 0 8 8 6 4 4 4 4 1 1 1 1 > > > > * * * * * * * * * * * * * % % % % % $ # # @ o o . ^.^.^.^.^.^.^.^.^.^.^.^.^.^.^.^.^.^.^.^.^.^.^.^.^.^.^.^.^.^.^.^.^.^.^.^.^.^.^.^.^.^.^.^.^.^.^.^.^.^.^.^.^.^.^.^.^.^.^.^.^.^.^.^.^.^.^.^.^.^.^.^.^.^.^.^.^.^.^.^.^.^.^.^.^.^.^.^.^.^.^.^.^.^.^.^.^.^.^.^.^.^.^.^.^.^.^.^.^.^.^.^.^.^.^.^.^.^.^.^.^.^.^.^.^.^.^.^.^.^.^.^.^.^.^.^.^.^.^.^.^.^.^.^.^.^.^.^.^.^.^.^.^.^.^.^.^.^.^.^.^.^.^.^.^.^.^.^.^.^.^.",
"^.^.^.^.^.^.^.^.^.^.^.^.^.^.^.^.^.^.^.^.^.^.^.^.^.^.^.^.^.^.^.^.^.^.^.^.^.^.^.^.^.^.^.^.^.^.^.^.^.^.^.^.^.^.^.^.^.^.^.^.^.o @ # % % % * * > 1 4 4 6 0 e e p f z v v b B D D H K L U E E E E E E E E E E Q ^ ^ ^ ^ ( ) ) ' ' } }  . . .O.O.O.#.#.=.=.=.=.=.;.:.:.:.,.,.,.1.1.1.1.1.4.4.4.4.8.8.8.q.8.q.q.q.e.e.e.e.e.t.e.e.t.e.e.e.q.q.8.q.8.q.8.q.8.8.8.8.8.8.q.8.q.q.q.e.e.e.e.e.t.t.t.t.t.i.i.i.i.i.i.s.s.s.s.h.h.k.k.z.z.z.z.v.n.n.n.m.m.m.m.N.N.V.V.C.C.C.C.C.C.C.C.C.A.A.A.A.A.A.A.A.A.A.A.A.A.F.F.F.F.F.F.F.F.H.H.H.H.H.H.H.H.H.H.H.H.H.H.H.H.F.F.F.F.F.H.H.H.H.H.H.H.H.H.H.H.H.H.H.H.H.H.H.H.L.H.L.L.L.I.I.U.U.U.U.R.R.R.~.~.~.R.~.~.~.~.~.~.~.~.~.~.R.R.R.R.R.U.U.U.I.I.L.L.H.H.H.F.A.A.A.C.V.N.N.m.n.v.z.z.z.z.k.h.h.h.s.s.s.s.i.i.i.t.t.e.e.e.q.8.4.4.4.4.1.1.1.,.:.:.;.=.#.#.O.O. . . .} ' ' ) ( ^ Q Q Q E E E U K D Z B m b x v z f f f p p u u u u e e q 0 0 0 8 6 4 4 4 1 1 1 1 1 > > > * * * * * % % * * % % % % % % % % % $ $ $ # @ @ o o o . . ^.^.^.^.^.^.^.^.^.^.^.^.^.^.^.^.^.^.^.^.^.^.^.^.^.^.^.^.^.^.^.^.^.^.^.^.^.^.^.^.^.^.^.^.^.^.^.^.^.^.^.^.^.^.^.^.^.^.^.^.^.^.^.^.^.^.^.^.^.^.^.^.^.^.^.^.^.^.^.^.^.^.^.^.^.^.^.^.^.^.^.^.^.^.^.^.^.^.^.^.^.^.^.^.^.^.^.^.^.^.^.^.^.^.^.^.^.^.^.^.^.^.^.^.^.^.^.^.^.^.^.^.^.^.^.^.^.^.^.^.^.^.^.^.^.^.^.^.^.^.^.^.^.^.^.^.^.^.^.^.^.^.^.^.^.^.^.^.^.^.",
"^.^.^.^.^.^.^.^.^.^.^.^.^.^.^.^.^.^.^.^.^.^.^.^.^.^.^.^.^.^.^.^.^.^.^.^.^.^.^.^.^.^.^.^.^.^.^.^.^.^.^.^.^.^.^.^.^.^.^.. o o @ # % % % * > > 1 4 4 8 e t u f k v v b m D H H L U P U E E E E E E E E E W Q Q Q ^ ^ ^ ( ) ' ' } }  . . .O.O.O.#.#.#.=.#.=.=.=.;.;.:.:.,.,.,.,.1.1.1.1.4.4.8.8.8.8.8.q.8.q.q.q.q.e.e.e.e.e.e.e.q.e.q.q.8.8.8.8.8.8.4.8.8.8.8.8.8.8.8.8.8.8.q.q.q.q.e.e.e.e.t.t.t.t.t.t.i.i.i.s.s.s.s.s.h.k.k.k.k.z.z.v.v.n.n.n.m.m.m.N.N.N.V.N.V.V.V.C.V.C.C.C.C.C.C.C.C.C.C.A.A.A.A.D.A.A.F.F.F.F.F.F.F.F.H.H.F.F.F.F.F.F.F.F.F.F.F.F.F.F.F.F.F.F.F.F.F.H.F.H.H.H.H.H.H.H.H.H.H.H.H.H.L.L.H.L.L.L.I.I.U.U.R.R.R.R.~.~.~.~.~.R.R.~.R.R.R.R.~.~.R.R.R.R.R.R.U.U.I.L.L.H.H.H.F.F.A.A.C.C.V.N.m.m.n.v.z.z.z.k.k.k.h.h.s.s.s.s.i.i.t.t.t.t.e.q.q.8.4.4.4.4.1.1.,.,.,.:.=.=.#.#.O.O. . .} } ' ' ) ( ^ Q Q E E E E P H D B m b v v z k f p p u u u t e e q 0 0 7 8 6 6 4 4 1 1 > > > > > > > * * * % % % % % % % % % % % % $ % $ $ $ # + + @ o o o o o . ^.^.^.^.^.^.^.^.^.^.^.^.^.^.^.^.^.^.^.^.^.^.^.^.^.^.^.^.^.^.^.^.^.^.^.^.^.^.^.^.^.^.^.^.^.^.^.^.^.^.^.^.^.^.^.^.^.^.^.^.^.^.^.^.^.^.^.^.^.^.^.^.^.^.^.^.^.^.^.^.^.^.^.^.^.^.^.^.^.^.^.^.^.^.^.^.^.^.^.^.^.^.^.^.^.^.^.^.^.^.^.^.^.^.^.^.^.^.^.^.^.^.^.^.^.^.^.^.^.^.^.^.^.^.^.^.^.^.^.^.^.^.^.^.^.^.^.^.^.^.^.^.^.^.^.^.^.^.^.^.^.^.^.^.^.^.^.^.^.^.",
"^.^.^.^.^.^.^.^.^.^.^.^.^.^.^.^.^.^.^.^.^.^.^.^.^.^.^.^.^.^.^.^.^.^.^.^.^.^.^.^.^.^.^.^.^.^.^.^.^.^.^.^.^.^.^.^.^.^.. o o o @ + % % % * > 1 4 4 6 0 t u f k v b b B B D K U E E E E E E E E E E E E E W Q Q Q ^ ^ ( ) ) ) ' ' }  . . .O.O.O.O.#.#.#.#.=.=.=.=.=.;.;.:.:.,.,.,.,.1.1.4.4.4.8.8.8.8.8.q.8.q.q.q.e.e.e.e.e.q.q.8.q.8.8.8.8.4.8.4.4.8.4.4.4.4.4.4.4.4.8.4.8.8.q.8.q.q.q.e.q.e.e.e.t.t.t.t.i.i.s.s.s.s.s.s.h.h.k.k.z.z.z.v.v.n.n.n.n.m.m.m.m.m.N.N.N.N.N.N.N.V.V.C.C.C.C.C.C.C.C.C.C.A.A.A.A.D.A.A.A.D.F.D.A.F.F.A.F.F.F.F.F.F.A.F.A.F.D.F.A.F.A.F.F.F.F.F.H.H.H.H.F.F.F.H.H.F.H.H.H.H.H.H.H.H.L.L.L.L.I.U.U.U.R.R.R.R.R.~.~.~.R.~.~.R.R.R.R.~.~.~.~.R.R.R.U.U.U.I.L.L.H.H.H.F.F.A.A.C.C.V.N.m.m.n.v.z.z.z.k.k.h.h.h.h.s.s.s.i.i.t.t.t.e.e.q.8.8.4.4.4.1.1.1.,.,.,.;.=.=.#.#.O.O. . .} } ' ' ) ( ^ Q W W E E U K D Z m m v v z k f p u u u t e e q 0 0 7 8 6 4 4 4 4 1 1 > > > * * * * * * * % * % % % % % % $ $ $ $ $ # $ # # + @ @ @ o o o . . . . ^.^.^.^.^.^.^.^.^.^.^.^.^.^.^.^.^.^.^.^.^.^.^.^.^.^.^.^.^.^.^.^.^.^.^.^.^.^.^.^.^.^.^.^.^.^.^.^.^.^.^.^.^.^.^.^.^.^.^.^.^.^.^.^.^.^.^.^.^.^.^.^.^.^.^.^.^.^.^.^.^.^.^.^.^.^.^.^.^.^.^.^.^.^.^.^.^.^.^.^.^.^.^.^.^.^.^.^.^.^.^.^.^.^.^.^.^.^.^.^.^.^.^.^.^.^.^.^.^.^.^.^.^.^.^.^.^.^.^.^.^.^.^.^.^.^.^.^.^.^.^.^.^.^.^.^.^.^.^.^.^.^.^.^.^.^.^.^.^.^.",
"^.^.^.^.^.^.^.^.^.^.^.^.^.^.^.^.^.^.^.^.^.^.^.^.^.^.^.^.^.^.^.^.^.^.^.^.^.^.^.^.^.^.^.^.^.^.^.^.^.^.^.^.^.^.^.^.^.. o o o o @ # % % * * > 1 4 8 0 q u p k v b m B D D H P E E E E E E E E E E E E E E Q Q Q Q ^ ^ ( ) ) ' ' ' }  . . . . .O.O.O.O.#.#.#.#.=.#.=.=.;.;.:.:.:.:.,.,.,.1.1.4.8.8.8.8.8.8.8.8.8.q.q.q.q.q.q.q.q.8.8.8.8.8.4.4.4.4.4.4.4.4.4.4.4.4.4.4.4.8.8.8.8.8.8.8.q.q.q.q.e.e.e.t.t.t.t.i.i.i.s.s.s.s.h.h.h.k.k.z.z.z.z.v.v.v.v.n.n.m.m.m.m.m.m.m.m.m.N.N.N.N.V.V.C.C.V.C.V.C.C.C.C.A.A.A.A.A.A.A.A.A.A.A.A.A.A.A.A.D.A.D.A.A.A.A.A.A.D.A.A.A.A.D.F.F.F.F.F.F.F.F.F.F.F.F.F.H.H.H.H.H.H.H.H.H.L.L.L.U.U.U.R.R.R.R.~.R.~.~.~.R.R.R.~.~.~.~.~.R.~.R.R.U.U.U.U.I.L.H.H.H.F.F.D.A.A.C.V.N.N.m.m.n.v.v.z.z.k.k.h.h.h.h.s.s.s.i.i.t.t.e.e.q.8.8.8.8.4.4.1.1.1.,.,.:.;.=.=.#.#.O.O. . .} ' ' ) ( ^ Q Q Q E E E U H D B m b v z k f p p u t e e q 0 0 7 8 6 4 4 4 4 1 1 > > * * * * * * * * * % % % $ $ # # $ # # # # + # + + + @ @ o o o . . . . . . ^.^.^.^.^.^.^.^.^.^.^.^.^.^.^.^.^.^.^.^.^.^.^.^.^.^.^.^.^.^.^.^.^.^.^.^.^.^.^.^.^.^.^.^.^.^.^.^.^.^.^.^.^.^.^.^.^.^.^.^.^.^.^.^.^.^.^.^.^.^.^.^.^.^.^.^.^.^.^.^.^.^.^.^.^.^.^.^.^.^.^.^.^.^.^.^.^.^.^.^.^.^.^.^.^.^.^.^.^.^.^.^.^.^.^.^.^.^.^.^.^.^.^.^.^.^.^.^.^.^.^.^.^.^.^.^.^.^.^.^.^.^.^.^.^.^.^.^.^.^.^.^.^.^.^.^.^.^.^.^.^.^.^.^.^.^.^.^.^.^.^.",
"^.^.^.^.^.^.^.^.^.^.^.^.^.^.^.^.^.^.^.^.^.^.^.^.^.^.^.^.^.^.^.^.^.^.^.^.^.^.^.^.^.^.^.^.^.^.^.^.^.^.^.^.^.^.^.^.^.. o o o @ @ $ % % * * 1 4 6 0 e u p f k x m B D H H K U E E E E E E E E E E E W W Q Q Q Q ^ ^ ( ( ) ) ' ' ' ' }  . . . . .O.O.O.O.#.#.#.#.#.=.=.=.=.;.;.;.:.:.,.,.1.1.1.4.4.4.4.8.q.8.8.8.8.8.q.8.8.8.8.8.8.8.8.8.8.4.4.4.4.4.4.4.1.1.4.4.1.4.4.4.4.4.4.4.4.4.8.8.8.q.q.q.e.e.e.t.t.t.t.i.i.a.s.s.s.h.h.h.h.k.k.z.z.z.z.z.z.z.v.v.n.v.n.n.n.n.m.m.m.m.m.m.N.N.N.N.N.N.N.N.V.V.C.C.C.C.C.C.C.A.A.A.A.A.A.A.A.A.A.A.A.A.A.A.A.A.A.A.A.A.A.A.A.A.D.A.D.D.A.F.F.F.F.F.F.F.F.F.F.F.F.F.H.H.H.H.H.H.L.L.L.U.U.U.U.R.R.R.R.~.~.~.~.R.~.~.~.~.R.R.~.R.U.R.R.U.U.U.I.L.L.H.H.H.F.D.A.A.C.V.N.N.m.n.n.v.z.z.z.k.k.k.h.h.s.s.s.s.i.i.t.t.e.e.q.q.8.8.8.4.1.1.1.,.,.:.:.;.=.=.#.#.O. . .} ' ' ' ) ( ^ ^ Q W E E E P H D B m b x k k f p u u e q 0 0 7 8 6 4 4 4 4 1 1 1 > * * * * * * * * % % % % $ $ # + @ @ + + @ @ @ o @ o o o o o o . . ^.^.^.^.^.^.^.^.^.^.^.^.^.^.^.^.^.^.^.^.^.^.^.^.^.^.^.^.^.^.^.^.^.^.^.^.^.^.^.^.^.^.^.^.^.^.^.^.^.^.^.^.^.^.^.^.^.^.^.^.^.^.^.^.^.^.^.^.^.^.^.^.^.^.^.^.^.^.^.^.^.^.^.^.^.^.^.^.^.^.^.^.^.^.^.^.^.^.^.^.^.^.^.^.^.^.^.^.^.^.^.^.^.^.^.^.^.^.^.^.^.^.^.^.^.^.^.^.^.^.^.^.^.^.^.^.^.^.^.^.^.^.^.^.^.^.^.^.^.^.^.^.^.^.^.^.^.^.^.^.^.^.^.^.^.^.^.^.^.^.^.^.^.^.^.^.^.",
"^.^.^.^.^.^.^.^.^.^.^.^.^.^.^.^.^.^.^.^.^.^.^.^.^.^.^.^.^.^.^.^.^.^.^.^.^.^.^.^.^.^.^.^.^.^.^.^.^.^.^.^.^.^.^.^.^.. o o @ # $ % % * > > 4 4 7 0 t u p f z v m D H H L P E E E E E E E E E E E Q W Q Q Q Q ^ ^ ( ) ) ) ) ' ' ' } }  . . . . . .O.O.O.O.O.O.#.#.#.#.=.=.=.=.;.;.:.:.,.,.1.1.4.4.4.8.8.8.8.8.8.8.8.8.8.8.8.8.8.8.8.4.4.4.4.4.4.1.4.4.1.1.1.1.1.1.1.1.1.4.1.4.4.4.4.4.4.8.8.8.q.e.e.e.t.t.t.t.t.i.i.i.s.s.s.h.h.h.h.k.k.k.z.z.z.z.z.z.z.z.v.v.v.n.n.v.n.n.n.n.m.m.m.m.m.N.N.N.N.N.N.N.N.C.V.C.C.C.C.C.C.C.C.C.C.C.C.C.C.C.C.C.C.C.C.C.C.C.C.C.A.A.A.A.A.A.A.D.A.A.A.F.F.F.A.F.F.F.F.F.F.F.F.F.H.H.H.H.L.L.I.U.U.U.R.R.R.R.R.R.R.R.R.R.~.R.R.R.~.R.R.R.U.U.U.U.U.L.H.L.H.F.H.F.A.A.A.C.V.N.N.m.n.n.v.z.z.k.k.k.h.h.s.s.s.s.s.i.i.t.t.e.e.q.q.8.8.4.4.1.1.,.,.:.:.;.=.=.#.#.O.O. . .} ' ' ' ) ( ^ Q Q E E E U K H Z B m v v z f p p u e e 0 7 8 6 4 4 4 4 1 1 1 1 > * * * % % % % % % % % % # # # @ @ @ o o @ o o o o o o o o o . ^.^.^.^.^.^.^.^.^.^.^.^.^.^.^.^.^.^.^.^.^.^.^.^.^.^.^.^.^.^.^.^.^.^.^.^.^.^.^.^.^.^.^.^.^.^.^.^.^.^.^.^.^.^.^.^.^.^.^.^.^.^.^.^.^.^.^.^.^.^.^.^.^.^.^.^.^.^.^.^.^.^.^.^.^.^.^.^.^.^.^.^.^.^.^.^.^.^.^.^.^.^.^.^.^.^.^.^.^.^.^.^.^.^.^.^.^.^.^.^.^.^.^.^.^.^.^.^.^.^.^.^.^.^.^.^.^.^.^.^.^.^.^.^.^.^.^.^.^.^.^.^.^.^.^.^.^.^.^.^.^.^.^.^.^.^.^.^.^.^.^.^.^.^.^.^.^.^.^.^.",
"^.^.^.^.^.^.^.^.^.^.^.^.^.^.^.^.^.^.^.^.^.^.^.^.^.^.^.^.^.^.^.^.^.^.^.^.^.^.^.^.^.^.^.^.^.^.^.^.^.^.^.^.^.^.^.. . o o @ + # % % % * > 1 4 8 0 e u p f k v b B D K L P U E E E E E E E E E E E Q Q Q Q Q ^ ^ ^ ( ) ) ) ' ' ' ' } } }  . . . . . . . . . .O.O.O.#.#.#.#.#.=.=.=.=.;.,.,.1.1.1.4.4.8.4.4.8.8.4.4.4.4.8.8.8.8.4.8.8.4.4.4.4.4.1.4.4.1.1.1.1.1.1.1.1.1.1.1.1.4.1.4.4.4.4.4.8.8.q.q.e.e.e.e.e.t.t.i.i.i.a.s.s.s.s.s.h.h.k.k.k.k.k.k.z.z.z.z.z.z.z.z.v.z.v.v.v.n.n.n.n.m.n.m.m.m.m.m.m.N.N.N.N.N.V.C.C.V.V.V.V.V.V.C.V.C.V.C.C.C.V.C.V.C.C.C.C.C.C.C.C.C.A.A.A.A.A.A.A.A.A.A.F.D.D.D.A.F.F.F.F.F.F.H.H.H.H.L.I.I.U.U.U.R.R.R.R.R.R.R.R.R.~.R.R.R.R.R.R.R.U.U.U.U.I.L.H.H.H.F.F.A.A.A.A.C.V.N.m.m.n.v.v.z.z.k.k.k.h.h.h.s.s.s.i.i.t.t.e.e.e.q.8.8.8.4.1.1.1.,.:.:.:.;.=.=.#.#.O. . . .} ' ' ) ) ^ ^ Q W E E E U H D B m b v z k f p p u e q 0 8 6 6 4 4 4 1 1 > > > * * % % % % % % % # $ # + + @ @ o o o o o o o o o o o . . . ^.^.^.^.^.^.^.^.^.^.^.^.^.^.^.^.^.^.^.^.^.^.^.^.^.^.^.^.^.^.^.^.^.^.^.^.^.^.^.^.^.^.^.^.^.^.^.^.^.^.^.^.^.^.^.^.^.^.^.^.^.^.^.^.^.^.^.^.^.^.^.^.^.^.^.^.^.^.^.^.^.^.^.^.^.^.^.^.^.^.^.^.^.^.^.^.^.^.^.^.^.^.^.^.^.^.^.^.^.^.^.^.^.^.^.^.^.^.^.^.^.^.^.^.^.^.^.^.^.^.^.^.^.^.^.^.^.^.^.^.^.^.^.^.^.^.^.^.^.^.^.^.^.^.^.^.^.^.^.^.^.^.^.^.^.^.^.^.^.^.^.^.^.^.^.^.^.^.^.^.^.^.",
"^.^.^.^.^.^.^.^.^.^.^.^.^.^.^.^.^.^.^.^.^.^.^.^.^.^.^.^.^.^.^.^.^.^.^.^.^.^.^.^.^.^.^.^.^.^.^.^.^.^.^.^.^.. o o o # $ $ % % * % * * > 4 4 8 0 e u f f k x m Z H L U U E E E E E E E E E E E W Q Q Q Q ^ ^ ^ ^ ( ) ) ' ' ' ' ' } } }  . . . . . . . . . . .O.O.O.O.O.#.#.=.=.=.=.;.:.,.,.1.1.4.4.4.4.4.4.8.4.4.4.4.8.8.4.4.4.4.4.4.4.4.4.1.4.1.1.1.1.1.1.1.1.,.1.1.1.1.1.1.4.1.4.4.4.4.8.8.8.q.q.q.e.e.e.t.t.t.i.i.i.i.s.s.s.h.h.h.h.h.k.k.k.k.k.z.z.z.z.z.z.z.z.z.z.z.z.z.v.v.v.v.n.v.n.n.n.m.m.m.m.m.N.N.N.N.N.N.N.N.N.N.N.N.N.V.N.V.N.N.V.N.N.V.V.V.V.C.C.C.C.C.C.C.C.A.A.A.A.A.A.A.A.A.A.A.A.A.A.A.F.F.F.F.F.H.H.H.L.L.I.I.I.U.U.U.U.U.R.R.R.R.R.R.R.U.R.R.U.U.U.U.U.I.L.H.H.H.F.F.F.A.A.A.C.C.V.N.N.m.n.n.v.z.z.k.k.k.h.h.h.s.s.i.a.i.t.t.e.e.e.q.8.4.4.4.1.1.1.,.:.:.;.=.=.#.#.O.O. . .} } ' ' ) ( ^ ^ Q E E E E L H D B m b v k k f p u t e 0 8 6 4 4 4 4 1 1 1 > > * * % % % $ # # # + # # # @ o o o o o o o o o o o o . . . . ^.^.^.^.^.^.^.^.^.^.^.^.^.^.^.^.^.^.^.^.^.^.^.^.^.^.^.^.^.^.^.^.^.^.^.^.^.^.^.^.^.^.^.^.^.^.^.^.^.^.^.^.^.^.^.^.^.^.^.^.^.^.^.^.^.^.^.^.^.^.^.^.^.^.^.^.^.^.^.^.^.^.^.^.^.^.^.^.^.^.^.^.^.^.^.^.^.^.^.^.^.^.^.^.^.^.^.^.^.^.^.^.^.^.^.^.^.^.^.^.^.^.^.^.^.^.^.^.^.^.^.^.^.^.^.^.^.^.^.^.^.^.^.^.^.^.^.^.^.^.^.^.^.^.^.^.^.^.^.^.^.^.^.^.^.^.^.^.^.^.^.^.^.^.^.^.^.^.^.^.^.^.^.",
"^.^.^.^.^.^.^.^.^.^.^.^.^.^.^.^.^.^.^.^.^.^.^.^.^.^.^.^.^.^.^.^.^.^.^.^.^.^.^.^.^.^.^.^.^.^.^.^.^.^.^.. o o o + # % % % % * * * * > 1 4 4 7 q e u f z v b m B H H U U U E E E E E E E E E W Q Q Q Q Q ^ ^ ( ^ ( ) ' ' ' ' ' ' } } } } } }  .}  . . . . . . . . .O.O.O.#.#.#.=.=.=.;.:.,.,.1.1.1.4.4.4.4.4.4.4.4.8.4.4.4.4.4.4.4.4.4.1.1.1.1.1.1.1.1.,.1.1.,.1.1.1.1.1.1.1.1.1.1.4.4.4.4.4.8.8.8.q.q.e.e.e.t.t.t.i.i.i.i.s.s.s.s.s.h.h.h.h.h.k.k.k.k.k.k.z.k.z.z.z.z.z.z.z.z.z.z.z.z.z.v.v.n.n.n.n.m.m.m.m.m.m.m.m.m.m.m.m.m.N.N.N.N.m.N.N.N.N.N.N.N.N.N.N.N.V.V.C.V.C.C.C.C.C.C.C.A.A.A.A.A.A.A.A.A.A.D.D.F.F.F.H.H.H.L.L.L.L.I.U.U.U.U.U.U.U.R.U.R.R.R.U.U.U.U.U.I.I.L.L.H.H.H.H.F.F.A.A.A.A.C.C.N.N.m.m.n.n.v.z.z.k.k.k.h.h.s.s.s.a.i.t.t.t.e.e.q.8.8.4.4.4.1.1.,.,.:.:.;.=.=.#.#.O.O. . .} ' ' ' ) ( ^ Q Q E E E U K D B m b v z k f f p u e q 0 8 6 4 4 4 1 1 1 > > * * % % $ $ # + @ + @ + + @ o o o o o o o o o o o o . . . . ^.^.^.^.^.^.^.^.^.^.^.^.^.^.^.^.^.^.^.^.^.^.^.^.^.^.^.^.^.^.^.^.^.^.^.^.^.^.^.^.^.^.^.^.^.^.^.^.^.^.^.^.^.^.^.^.^.^.^.^.^.^.^.^.^.^.^.^.^.^.^.^.^.^.^.^.^.^.^.^.^.^.^.^.^.^.^.^.^.^.^.^.^.^.^.^.^.^.^.^.^.^.^.^.^.^.^.^.^.^.^.^.^.^.^.^.^.^.^.^.^.^.^.^.^.^.^.^.^.^.^.^.^.^.^.^.^.^.^.^.^.^.^.^.^.^.^.^.^.^.^.^.^.^.^.^.^.^.^.^.^.^.^.^.^.^.^.^.^.^.^.^.^.^.^.^.^.^.^.^.^.^.^.^.",
"^.^.^.^.^.^.^.^.^.^.^.^.^.^.^.^.^.^.^.^.^.^.^.^.^.^.^.^.^.^.^.^.^.^.^.^.^.^.^.^.^.^.^.^.^.^.^.^.^.^.^.o o o + $ % * * * * * * > > 1 1 4 4 8 q e p f z x b m D H H L P U E E E E E E E E E W Q Q Q Q ^ ^ ^ ^ ) ( ) ' ' ' ' ' } } } }  .} } } } } }  . . . . . . . . .O.O.O.#.#.#.=.=.;.:.,.1.1.1.1.4.4.4.4.4.4.4.4.4.4.4.4.4.4.4.1.1.1.1.1.1.1.1.1.1.,.1.,.1.,.1.1.1.1.1.1.1.1.1.1.4.4.4.8.8.8.8.8.q.e.e.e.e.e.t.i.i.t.i.i.a.s.s.s.s.s.s.h.h.h.h.h.k.k.k.k.k.k.k.k.k.k.k.k.k.z.z.z.z.z.z.z.z.v.v.n.v.n.n.n.n.n.m.m.n.m.n.m.m.m.m.m.m.m.m.m.m.m.m.m.N.m.N.N.N.N.N.V.V.V.V.V.C.C.C.C.C.C.C.C.C.A.A.A.A.A.A.D.D.F.F.H.H.H.H.H.L.L.L.I.I.U.U.U.U.U.U.U.U.U.U.U.U.U.U.U.I.I.L.H.H.H.H.F.F.A.A.A.A.C.C.V.N.N.m.m.n.n.v.z.z.k.k.k.h.h.s.s.s.a.i.i.t.t.e.e.q.8.4.4.4.1.1.1.,.,.:.;.=.=.=.#.#.O. . . .} ' ' ) ( ^ ^ Q E E E E L H D m m v v z k f p u u e 0 7 6 6 4 4 4 1 1 > > * * % % $ # # @ @ @ @ o o @ o o o o o o . . . o . . . . . ^.^.^.^.^.^.^.^.^.^.^.^.^.^.^.^.^.^.^.^.^.^.^.^.^.^.^.^.^.^.^.^.^.^.^.^.^.^.^.^.^.^.^.^.^.^.^.^.^.^.^.^.^.^.^.^.^.^.^.^.^.^.^.^.^.^.^.^.^.^.^.^.^.^.^.^.^.^.^.^.^.^.^.^.^.^.^.^.^.^.^.^.^.^.^.^.^.^.^.^.^.^.^.^.^.^.^.^.^.^.^.^.^.^.^.^.^.^.^.^.^.^.^.^.^.^.^.^.^.^.^.^.^.^.^.^.^.^.^.^.^.^.^.^.^.^.^.^.^.^.^.^.^.^.^.^.^.^.^.^.^.^.^.^.^.^.^.^.^.^.^.^.^.^.^.^.^.^.^.^.^.^.^.^.^.^.",
"^.^.^.^.^.^.^.^.^.^.^.^.^.^.^.^.^.^.^.^.^.^.^.^.^.^.^.^.^.^.^.^.^.^.^.^.^.^.^.^.^.^.^.^.^.^.^.^.^.^.^.o @ + # % * * * > > > 1 1 1 1 1 4 6 0 e u p k z v m B D H K L P U E E E E E E E E E Q W Q Q Q ^ ^ ^ ^ ( ) ) ) ' ' ' ' ' } } } } } } } } } } } } } }  .}  . . . .O.O.O.#.#.#.=.=.;.:.,.1.1.1.1.1.4.1.4.4.4.4.4.4.4.4.4.1.1.1.1.1.1.1.1.1.1.1.1.1.1.1.,.,.1.1.1.1.1.1.1.1.1.1.4.4.4.4.8.8.8.8.8.q.e.e.e.t.t.t.t.t.t.i.i.a.s.s.s.s.s.s.h.h.h.h.h.h.h.h.h.k.h.k.h.h.k.k.k.k.k.k.k.z.z.z.z.z.z.z.z.v.v.v.n.n.v.v.v.v.n.v.n.v.n.n.n.n.n.n.n.n.n.m.m.m.m.m.m.N.m.N.N.N.N.N.V.C.V.V.C.C.C.C.C.C.C.C.A.A.A.A.D.A.F.F.F.H.H.H.H.H.L.L.I.I.I.I.U.U.U.U.I.U.I.U.I.U.U.I.I.L.H.H.H.H.F.F.F.A.A.A.A.C.C.C.N.N.m.m.n.n.v.z.z.z.k.k.h.h.s.s.s.i.i.i.t.t.e.q.q.8.8.8.4.1.1.,.,.:.;.;.=.=.#.#.O. . . .} ' ' ) ) ( ^ Q Q E E E P H D B m b x z z f f p u t e 0 7 4 4 4 1 1 > > > * * * % $ # + @ o o o o @ o o o o o o . . . . . . . . ^.^.^.^.^.^.^.^.^.^.^.^.^.^.^.^.^.^.^.^.^.^.^.^.^.^.^.^.^.^.^.^.^.^.^.^.^.^.^.^.^.^.^.^.^.^.^.^.^.^.^.^.^.^.^.^.^.^.^.^.^.^.^.^.^.^.^.^.^.^.^.^.^.^.^.^.^.^.^.^.^.^.^.^.^.^.^.^.^.^.^.^.^.^.^.^.^.^.^.^.^.^.^.^.^.^.^.^.^.^.^.^.^.^.^.^.^.^.^.^.^.^.^.^.^.^.^.^.^.^.^.^.^.^.^.^.^.^.^.^.^.^.^.^.^.^.^.^.^.^.^.^.^.^.^.^.^.^.^.^.^.^.^.^.^.^.^.^.^.^.^.^.^.^.^.^.^.^.^.^.^.^.^.^.^.^.^.^.^.",
"^.^.^.^.^.^.^.^.^.^.^.^.^.^.^.^.^.^.^.^.^.^.^.^.^.^.^.^.^.^.^.^.^.^.^.^.^.^.^.^.^.^.^.^.^.^.^.^.^.^.^.o @ + $ % * > > > > 1 1 4 1 1 4 4 7 0 e u p k v b m B D H L P L U E E E E E E E E E E Q W Q Q Q ^ ^ ( ( ) ) ' ' ' ' ' ' } } } } } } } ' } } } } } } } } } }  . . .O.O.O.#.#.=.=.;.:.:.,.1.1.1.1.1.1.1.1.1.1.4.1.4.1.1.1.1.1.1.1.1.1.1.1.1.1.,.1.,.,.1.,.,.,.,.1.1.1.1.1.1.1.1.4.4.4.4.4.8.8.q.q.e.q.e.e.e.t.t.i.t.t.i.i.i.a.s.s.s.s.s.s.h.s.s.h.h.h.h.h.h.h.h.h.h.h.h.h.h.h.k.k.k.k.k.z.z.z.z.z.z.z.z.z.z.z.v.z.z.z.v.z.v.z.z.z.v.v.z.v.v.n.n.n.n.n.m.m.m.m.m.m.N.N.N.N.N.N.C.C.C.C.V.C.C.C.C.C.A.A.A.A.A.F.F.F.H.H.H.H.H.H.L.L.L.I.U.I.I.I.I.I.I.I.I.L.I.L.L.L.H.H.H.H.H.F.A.A.A.A.C.C.V.V.N.N.m.m.m.v.v.z.z.z.k.k.h.h.s.s.s.s.i.i.t.t.e.e.q.8.8.4.4.1.1.,.,.:.;.=.=.#.#.O.O.O. . .} ' ' ) ( ^ Q Q Q E E U K D Z B m b x z k f p u u e q 0 6 4 4 1 1 1 > > * * % % $ $ + @ o o o o o o o o o o . . . ^.^.^.^.^.^.^.^.^.^.^.^.^.^.^.^.^.^.^.^.^.^.^.^.^.^.^.^.^.^.^.^.^.^.^.^.^.^.^.^.^.^.^.^.^.^.^.^.^.^.^.^.^.^.^.^.^.^.^.^.^.^.^.^.^.^.^.^.^.^.^.^.^.^.^.^.^.^.^.^.^.^.^.^.^.^.^.^.^.^.^.^.^.^.^.^.^.^.^.^.^.^.^.^.^.^.^.^.^.^.^.^.^.^.^.^.^.^.^.^.^.^.^.^.^.^.^.^.^.^.^.^.^.^.^.^.^.^.^.^.^.^.^.^.^.^.^.^.^.^.^.^.^.^.^.^.^.^.^.^.^.^.^.^.^.^.^.^.^.^.^.^.^.^.^.^.^.^.^.^.^.^.^.^.^.^.^.^.^.^.^.^.^.^.^.^.",
"^.^.^.^.^.^.^.^.^.^.^.^.^.^.^.^.^.^.^.^.^.^.^.^.^.^.^.^.^.^.^.^.^.^.^.^.^.^.^.^.^.^.^.^.^.^.^.^.^.^.. o o + $ % * > > 1 1 1 1 4 4 4 6 6 0 e u p f z v b m B D K P U P E E E E E E E E E E E E Q Q Q Q ^ ^ ( ) ) ) ' ' ' ' ' ' ' } } } } } } } ' ' ' ' ' ' } } } }  . . . .O.O.O.#.#.=.=.;.:.:.,.1.1.1.1.1.1.1.1.1.1.1.1.1.1.1.1.1.1.1.1.1.1.1.1.1.1.1.1.1.1.,.1.1.1.1.,.1.,.1.1.1.1.1.4.4.4.8.8.8.8.q.q.q.e.e.t.t.t.t.i.t.t.i.i.i.a.a.s.s.s.s.s.s.s.s.s.s.s.s.s.s.s.s.s.s.s.s.h.h.h.h.h.h.k.k.k.k.k.k.z.z.z.z.z.z.z.z.z.z.z.z.z.z.z.z.z.z.z.z.z.z.v.v.n.n.n.n.n.n.m.m.m.m.N.N.N.N.N.N.N.V.V.C.V.C.C.C.C.A.A.A.A.A.F.F.F.F.F.H.H.H.H.H.L.L.L.L.L.L.I.L.L.L.L.L.L.L.H.H.H.H.H.F.F.A.A.A.A.A.C.C.C.N.N.N.m.m.n.v.v.z.z.k.k.k.k.h.h.s.s.s.i.i.t.t.t.e.q.8.8.8.4.1.1.,.:.:.;.=.=.#.#.O. . . .} } ' ' ( ^ Q Q Q E E E L H D B m m v v k k f p u e e 0 7 6 4 1 1 > > * * * % % $ # # @ o o . . . . . . . . . . ^.^.^.^.^.^.^.^.^.^.^.^.^.^.^.^.^.^.^.^.^.^.^.^.^.^.^.^.^.^.^.^.^.^.^.^.^.^.^.^.^.^.^.^.^.^.^.^.^.^.^.^.^.^.^.^.^.^.^.^.^.^.^.^.^.^.^.^.^.^.^.^.^.^.^.^.^.^.^.^.^.^.^.^.^.^.^.^.^.^.^.^.^.^.^.^.^.^.^.^.^.^.^.^.^.^.^.^.^.^.^.^.^.^.^.^.^.^.^.^.^.^.^.^.^.^.^.^.^.^.^.^.^.^.^.^.^.^.^.^.^.^.^.^.^.^.^.^.^.^.^.^.^.^.^.^.^.^.^.^.^.^.^.^.^.^.^.^.^.^.^.^.^.^.^.^.^.^.^.^.^.^.^.^.^.^.^.^.^.^.^.^.^.^.^.^.^.^.",
"^.^.^.^.^.^.^.^.^.^.^.^.^.^.^.^.^.^.^.^.^.^.^.^.^.^.^.^.^.^.^.^.^.^.^.^.^.^.^.^.^.^.^.^.^.^.^.^.^.^.^.o o # $ % * * > 1 1 4 4 4 6 8 0 q e u u p k v v b m B D H L P P U E E E E E E E E E E E W Q Q Q ^ ^ ( ) ) ) ' ' ' ' ' ' } } } } } } } ' ' ' ' ' ' ' ' ' ' } } }  . . . .O.O.#.#.=.;.;.,.,.,.,.,.,.1.1.,.1.1.1.1.1.1.1.,.,.1.1.1.,.1.1.1.1.1.1.1.1.1.1.1.1.1.1.,.1.,.,.,.1.1.1.4.4.4.4.8.4.8.8.q.q.e.e.e.e.e.t.t.t.t.t.i.i.i.i.i.i.i.i.s.s.s.s.s.s.s.s.s.s.a.a.s.s.s.s.s.s.s.s.s.h.h.h.h.h.h.h.h.k.k.k.k.k.k.k.k.k.k.k.k.k.k.k.k.k.z.k.z.z.z.z.z.z.z.v.z.n.n.n.m.m.m.m.m.m.N.N.N.N.N.N.N.V.V.C.C.C.C.C.A.A.A.A.A.F.F.F.F.H.H.H.H.H.H.H.L.H.L.H.L.L.H.L.H.H.H.H.H.H.H.H.F.A.A.A.A.A.C.C.V.V.N.N.N.m.m.n.v.v.z.z.k.k.k.k.h.s.h.s.s.i.i.i.t.t.e.q.q.4.4.4.1.1.,.:.;.;.=.#.#.O.O.O. .} } ' ' ) ( ^ Q Q Q E E U H D D B m b v z k f f p u e q 0 6 4 4 1 > > > * * * % $ # + @ o o o . ^.^.^.. ^.^.^.^.^.^.^.^.^.^.^.^.^.^.^.^.^.^.^.^.^.^.^.^.^.^.^.^.^.^.^.^.^.^.^.^.^.^.^.^.^.^.^.^.^.^.^.^.^.^.^.^.^.^.^.^.^.^.^.^.^.^.^.^.^.^.^.^.^.^.^.^.^.^.^.^.^.^.^.^.^.^.^.^.^.^.^.^.^.^.^.^.^.^.^.^.^.^.^.^.^.^.^.^.^.^.^.^.^.^.^.^.^.^.^.^.^.^.^.^.^.^.^.^.^.^.^.^.^.^.^.^.^.^.^.^.^.^.^.^.^.^.^.^.^.^.^.^.^.^.^.^.^.^.^.^.^.^.^.^.^.^.^.^.^.^.^.^.^.^.^.^.^.^.^.^.^.^.^.^.^.^.^.^.^.^.^.^.^.^.^.^.^.^.^.^.^.^.^.^.^.^.^.",
"^.^.^.^.^.^.^.^.^.^.^.^.^.^.^.^.^.^.^.^.^.^.^.^.^.^.^.^.^.^.^.^.^.^.^.^.^.^.^.^.^.^.^.^.^.^.^.^.^.^.^.^.o @ $ % * * > 1 4 4 4 4 6 0 e e u u p f z z v b m B D H K L P U E E E E E E E E E E E W W Q Q ^ ^ ( ) ) ) ' ' ' ' ' ' } } } } } } ' ' ' ' ' ' ' ' ' ' ' ' } } }  . . .O.O.O.#.=.=.;.:.:.,.:.,.,.,.,.,.,.1.1.1.1.,.1.1.,.,.1.1.1.1.1.1.1.,.1.1.1.1.1.1.1.1.1.1.1.,.,.1.1.1.1.4.4.4.4.4.8.8.8.q.8.q.e.e.e.t.t.t.t.t.t.t.t.t.t.i.i.i.t.i.i.a.i.a.a.a.i.i.i.i.i.i.i.a.i.a.a.s.s.s.s.s.s.h.s.h.h.h.h.h.h.k.k.h.k.h.k.k.k.k.h.k.k.k.h.k.k.k.k.z.k.z.z.z.z.z.z.v.z.n.n.n.m.m.m.m.m.m.m.m.N.N.N.N.N.V.C.C.C.C.C.A.A.A.A.F.F.F.F.F.H.H.H.H.H.H.H.H.H.H.H.H.H.H.H.H.H.F.H.H.F.F.A.A.A.A.C.C.V.C.N.N.N.m.m.n.n.v.v.z.z.z.k.k.k.h.h.h.s.s.i.i.i.t.e.e.q.8.8.4.4.1.,.,.:.;.=.=.#.#.O. . . .} } ' ' ( ( Q Q Q E E E L H D Z B m b x z k f p u t e 0 8 4 4 1 1 > > > * * % % $ # @ o o . . ^.^.^.^.^.^.^.^.^.^.^.^.^.^.^.^.^.^.^.^.^.^.^.^.^.^.^.^.^.^.^.^.^.^.^.^.^.^.^.^.^.^.^.^.^.^.^.^.^.^.^.^.^.^.^.^.^.^.^.^.^.^.^.^.^.^.^.^.^.^.^.^.^.^.^.^.^.^.^.^.^.^.^.^.^.^.^.^.^.^.^.^.^.^.^.^.^.^.^.^.^.^.^.^.^.^.^.^.^.^.^.^.^.^.^.^.^.^.^.^.^.^.^.^.^.^.^.^.^.^.^.^.^.^.^.^.^.^.^.^.^.^.^.^.^.^.^.^.^.^.^.^.^.^.^.^.^.^.^.^.^.^.^.^.^.^.^.^.^.^.^.^.^.^.^.^.^.^.^.^.^.^.^.^.^.^.^.^.^.^.^.^.^.^.^.^.^.^.^.^.^.^.^.^.^.^.^.^.",
"^.^.^.^.^.^.^.^.^.^.^.^.^.^.^.^.^.^.^.^.^.^.^.^.^.^.^.^.^.^.^.^.^.^.^.^.^.^.^.^.^.^.^.^.^.^.^.^.^.^.^.^.. o # % * * > 1 4 4 6 6 8 0 e u p p f k k v v b m B D H H H P U E E E E E E E E E E E W Q Q Q ^ ( ( ) ) ) ' ' ' ' ' ' } } } } ' ' ' ' } } ' ' ' ' ' ' ' ' ' } }  . . . . .O.#.#.=.=.;.;.:.,.:.:.,.:.,.,.,.,.,.,.,.1.,.,.1.,.1.1.1.1.1.1.1.1.1.1.1.1.1.1.1.1.1.,.,.1.,.1.1.1.1.4.4.4.8.8.8.8.8.q.q.e.e.e.e.t.t.t.t.t.t.t.t.t.t.t.t.t.t.i.i.i.i.i.i.i.i.t.t.t.t.t.t.i.i.i.i.i.a.s.s.s.s.s.s.s.s.h.h.h.s.h.h.h.h.h.h.h.h.h.h.h.h.h.h.h.h.k.k.k.k.k.z.z.z.z.z.z.v.v.v.n.n.n.m.m.m.m.m.m.m.N.N.N.N.N.V.C.C.C.C.A.A.A.A.A.F.F.F.F.F.H.F.H.H.H.H.H.H.H.H.H.H.H.F.H.F.F.F.F.A.A.A.C.C.C.C.V.N.N.N.m.m.m.n.n.v.z.z.z.z.k.k.k.h.h.h.s.s.s.i.i.i.t.e.q.8.8.4.4.1.1.,.,.;.=.#.#.O. . . .} } ' ' ) ( ^ Q Q W E E U K D D B m b v v z f f p u e q 0 6 4 4 1 1 > > * * % % $ # @ o o o . . ^.^.^.^.^.^.^.^.^.^.^.^.^.^.^.^.^.^.^.^.^.^.^.^.^.^.^.^.^.^.^.^.^.^.^.^.^.^.^.^.^.^.^.^.^.^.^.^.^.^.^.^.^.^.^.^.^.^.^.^.^.^.^.^.^.^.^.^.^.^.^.^.^.^.^.^.^.^.^.^.^.^.^.^.^.^.^.^.^.^.^.^.^.^.^.^.^.^.^.^.^.^.^.^.^.^.^.^.^.^.^.^.^.^.^.^.^.^.^.^.^.^.^.^.^.^.^.^.^.^.^.^.^.^.^.^.^.^.^.^.^.^.^.^.^.^.^.^.^.^.^.^.^.^.^.^.^.^.^.^.^.^.^.^.^.^.^.^.^.^.^.^.^.^.^.^.^.^.^.^.^.^.^.^.^.^.^.^.^.^.^.^.^.^.^.^.^.^.^.^.^.^.^.^.^.^.^.^.",
"^.^.^.^.^.^.^.^.^.^.^.^.^.^.^.^.^.^.^.^.^.^.^.^.^.^.^.^.^.^.^.^.^.^.^.^.^.^.^.^.^.^.^.^.^.^.^.^.^.^.^.^.^.o + % * * > 1 4 4 8 8 8 0 e u p f f k z v b m B B D D H H K P U E E E E E E E E E W E Q Q Q ^ ( ) ) ) ' ' ' ' ' ' } } } } } } ' ' ' ' ' ' ' ' ' ' ' ' ' ' ' } }  . . . .O.O.#.#.=.=.=.;.:.:.:.:.:.,.,.,.,.,.,.,.,.1.1.,.,.1.,.1.1.1.1.1.1.1.1.1.1.1.1.1.1.1.1.,.,.1.1.1.1.1.4.4.4.8.8.4.8.8.8.q.q.q.e.e.e.t.e.t.e.t.t.t.t.t.t.t.t.t.t.t.t.i.i.t.t.t.t.t.t.t.t.t.t.t.t.t.i.i.i.i.a.a.s.s.s.s.s.s.s.s.s.s.s.s.s.s.s.s.s.s.s.s.s.s.s.h.h.h.h.k.k.k.k.k.z.z.z.z.z.v.v.n.n.n.n.n.n.m.m.m.m.m.N.N.N.N.V.V.C.C.C.C.A.A.A.D.A.F.F.F.F.H.H.H.H.H.H.H.F.H.F.F.F.F.F.F.F.A.A.A.A.A.C.C.C.C.N.N.N.N.m.m.m.n.v.v.v.z.z.k.k.k.k.h.h.h.s.s.s.i.i.i.t.e.q.q.8.4.1.1.,.,.:.;.=.#.#.O.O. . .} } ' ) ) ( ^ Q Q E E E P H D B m m b x z k f p u t e q 7 4 4 1 1 > > * * % % $ # + o o o . . ^.^.^.^.^.^.^.^.^.^.^.^.^.^.^.^.^.^.^.^.^.^.^.^.^.^.^.^.^.^.^.^.^.^.^.^.^.^.^.^.^.^.^.^.^.^.^.^.^.^.^.^.^.^.^.^.^.^.^.^.^.^.^.^.^.^.^.^.^.^.^.^.^.^.^.^.^.^.^.^.^.^.^.^.^.^.^.^.^.^.^.^.^.^.^.^.^.^.^.^.^.^.^.^.^.^.^.^.^.^.^.^.^.^.^.^.^.^.^.^.^.^.^.^.^.^.^.^.^.^.^.^.^.^.^.^.^.^.^.^.^.^.^.^.^.^.^.^.^.^.^.^.^.^.^.^.^.^.^.^.^.^.^.^.^.^.^.^.^.^.^.^.^.^.^.^.^.^.^.^.^.^.^.^.^.^.^.^.^.^.^.^.^.^.^.^.^.^.^.^.^.^.^.^.^.^.^.^.^.",
"^.^.^.^.^.^.^.^.^.^.^.^.^.^.^.^.^.^.^.^.^.^.^.^.^.^.^.^.^.^.^.^.^.^.^.^.^.^.^.^.^.^.^.^.^.^.^.^.^.^.^.^.^.. @ $ % * > 1 4 6 8 8 7 0 e u p f k z z v b m B B D D H H K L U E E E E E E E E E Q W Q Q ^ ^ ( ( ) ) ) ' ' ' ' } } } } } } ' } ' ' ' ' ' ' ' ' ' ' ' ' ' ' } } }  . . .O.O.#.#.#.=.=.=.=.;.;.:.:.:.:.:.,.:.:.,.,.,.,.,.,.,.,.1.1.1.1.1.1.1.1.1.1.1.1.1.1.1.1.1.,.1.1.1.1.1.1.4.4.4.4.4.8.8.8.q.e.q.e.e.e.e.t.e.e.e.e.t.e.t.t.t.t.t.t.t.t.t.t.t.t.t.t.t.t.e.e.e.e.t.t.e.t.t.i.t.i.i.i.i.i.i.i.i.a.i.s.s.s.s.a.i.s.s.s.a.s.s.s.s.s.s.s.s.h.h.h.h.h.k.k.k.k.z.z.z.z.z.v.v.n.n.n.n.n.n.n.m.m.m.m.N.N.N.V.V.C.C.C.A.A.A.A.A.A.A.F.F.F.F.H.H.H.H.H.F.F.F.F.F.F.F.D.D.D.A.C.C.C.C.V.N.N.N.N.N.m.m.n.n.v.v.z.z.z.z.z.k.k.h.h.h.s.s.s.i.i.t.t.e.e.8.8.4.1.1.,.:.;.=.=.#.O.O. . . .} ' ' ) ( ^ Q Q W E E E L H D B m b b v k f f p u e q 0 6 4 4 1 > > > * * % % $ + @ o o . . ^.^.^.^.^.^.^.^.^.^.^.^.^.^.^.^.^.^.^.^.^.^.^.^.^.^.^.^.^.^.^.^.^.^.^.^.^.^.^.^.^.^.^.^.^.^.^.^.^.^.^.^.^.^.^.^.^.^.^.^.^.^.^.^.^.^.^.^.^.^.^.^.^.^.^.^.^.^.^.^.^.^.^.^.^.^.^.^.^.^.^.^.^.^.^.^.^.^.^.^.^.^.^.^.^.^.^.^.^.^.^.^.^.^.^.^.^.^.^.^.^.^.^.^.^.^.^.^.^.^.^.^.^.^.^.^.^.^.^.^.^.^.^.^.^.^.^.^.^.^.^.^.^.^.^.^.^.^.^.^.^.^.^.^.^.^.^.^.^.^.^.^.^.^.^.^.^.^.^.^.^.^.^.^.^.^.^.^.^.^.^.^.^.^.^.^.^.^.^.^.^.^.^.^.^.^.^.^.^.^.",
"^.^.^.^.^.^.^.^.^.^.^.^.^.^.^.^.^.^.^.^.^.^.^.^.^.^.^.^.^.^.^.^.^.^.^.^.^.^.^.^.^.^.^.^.^.^.^.^.^.^.^.^.^.. o # % * * > 1 4 6 8 8 0 e u p p f k k v v b m B D D H H H L L U E E E E E E E E W Q Q Q ^ ^ ( ( ) ) ' ' ' ' ' ' } } } } } } ' ' ' ' ' ' ' ' ' ' ' ' ' ' ' } } } }  . . .O.O.#.#.=.=.=.=.;.;.:.:.:.:.,.:.:.:.,.:.,.,.,.,.1.1.,.1.1.1.1.1.1.1.1.1.1.1.1.1.1.1.1.1.1.1.1.1.1.4.4.4.4.4.4.4.4.8.8.8.q.e.e.e.e.e.e.e.e.e.e.e.e.t.e.t.t.t.t.t.t.t.e.e.e.t.e.q.e.e.e.e.e.e.e.e.t.t.t.t.t.t.t.t.t.t.i.i.i.i.i.i.i.i.i.i.i.i.i.i.i.i.i.i.s.s.s.s.s.s.h.h.h.h.k.k.k.z.z.z.z.z.z.z.v.v.v.v.n.n.n.n.m.m.m.m.N.N.N.V.V.C.C.C.A.A.A.A.A.A.A.F.F.F.F.F.F.F.F.F.F.F.F.A.A.A.A.A.C.C.C.C.V.N.N.N.N.N.m.m.m.n.n.n.v.v.z.z.z.k.k.k.h.h.s.s.s.s.i.i.t.t.e.q.8.4.4.1.1.,.:.;.=.#.#.O. . . .} ' ' ' ( ( ^ Q Q E E E U K D Z B m b x v z f p u t e 0 7 4 4 1 > > > * * % % $ + @ o o . ^.^.^.^.^.^.^.^.^.^.^.^.^.^.^.^.^.^.^.^.^.^.^.^.^.^.^.^.^.^.^.^.^.^.^.^.^.^.^.^.^.^.^.^.^.^.^.^.^.^.^.^.^.^.^.^.^.^.^.^.^.^.^.^.^.^.^.^.^.^.^.^.^.^.^.^.^.^.^.^.^.^.^.^.^.^.^.^.^.^.^.^.^.^.^.^.^.^.^.^.^.^.^.^.^.^.^.^.^.^.^.^.^.^.^.^.^.^.^.^.^.^.^.^.^.^.^.^.^.^.^.^.^.^.^.^.^.^.^.^.^.^.^.^.^.^.^.^.^.^.^.^.^.^.^.^.^.^.^.^.^.^.^.^.^.^.^.^.^.^.^.^.^.^.^.^.^.^.^.^.^.^.^.^.^.^.^.^.^.^.^.^.^.^.^.^.^.^.^.^.^.^.^.^.^.^.^.^.^.^.^.^.",
"^.^.^.^.^.^.^.^.^.^.^.^.^.^.^.^.^.^.^.^.^.^.^.^.^.^.^.^.^.^.^.^.^.^.^.^.^.^.^.^.^.^.^.^.^.^.^.^.^.^.^.^.^.^.o + % % * * > 1 4 6 7 q e u p p f k k z x b m B D D H H H L L P U E E E E E E W Q Q Q ^ ^ ^ ( ( ) ) ' ' ' ' ' } } } } } } } ' ' ' ' ' ' ' ' ' ' ' ' ' ' ' ' } } }  . . . .O.O.#.#.=.#.=.=.=.;.:.:.:.:.,.:.:.:.:.:.,.,.,.,.,.1.,.1.1.1.1.1.1.1.4.1.1.1.1.1.1.1.1.1.1.1.1.1.1.4.4.4.4.8.8.8.8.8.q.q.e.e.e.e.e.e.e.e.e.e.e.t.e.t.e.t.t.e.t.e.t.e.e.e.e.e.q.q.q.q.q.q.q.e.e.e.e.e.e.e.e.t.e.t.t.t.t.t.t.t.t.t.t.t.t.t.t.t.t.t.t.t.i.i.i.i.s.s.s.s.s.s.h.h.k.k.k.k.k.z.z.z.z.z.z.z.v.v.v.n.n.n.m.m.m.m.m.N.N.N.V.V.V.C.C.C.A.A.A.A.A.A.A.D.A.A.A.A.A.A.A.A.A.A.A.A.A.C.C.C.V.V.N.N.N.m.m.m.m.m.n.n.v.z.v.z.z.z.z.k.k.h.h.h.s.s.s.i.i.t.t.e.q.8.8.4.1.1.,.:.=.=.#.#.O.O. .} ' ' ' ) ( ^ Q Q W E E E P H D B m b v v z k f p u e q 0 6 4 4 1 > > * * % % $ + o o o o . ^.^.^.^.^.^.^.^.^.^.^.^.^.^.^.^.^.^.^.^.^.^.^.^.^.^.^.^.^.^.^.^.^.^.^.^.^.^.^.^.^.^.^.^.^.^.^.^.^.^.^.^.^.^.^.^.^.^.^.^.^.^.^.^.^.^.^.^.^.^.^.^.^.^.^.^.^.^.^.^.^.^.^.^.^.^.^.^.^.^.^.^.^.^.^.^.^.^.^.^.^.^.^.^.^.^.^.^.^.^.^.^.^.^.^.^.^.^.^.^.^.^.^.^.^.^.^.^.^.^.^.^.^.^.^.^.^.^.^.^.^.^.^.^.^.^.^.^.^.^.^.^.^.^.^.^.^.^.^.^.^.^.^.^.^.^.^.^.^.^.^.^.^.^.^.^.^.^.^.^.^.^.^.^.^.^.^.^.^.^.^.^.^.^.^.^.^.^.^.^.^.^.^.^.^.^.^.^.^.^.^.^.",
"^.^.^.^.^.^.^.^.^.^.^.^.^.^.^.^.^.^.^.^.^.^.^.^.^.^.^.^.^.^.^.^.^.^.^.^.^.^.^.^.^.^.^.^.^.^.^.^.^.^.^.^.^.^.^.o # # % * > 1 4 4 6 0 e u u p f k k k x v m m Z D H K K K L P P U U E E E E E Q Q ^ ^ ^ ^ ( ( ) ) ' ' ' ' } } } } } } } ' ' ' ' ' ' ' ' ' ' ' ' ' ' ' ' ' } } }  . . . .O.O.O.#.#.=.#.=.=.;.;.:.:.:.:.:.,.:.:.:.:.:.,.,.1.,.1.1.1.1.1.1.1.1.1.1.1.1.1.1.1.1.,.1.1.1.1.1.1.4.4.4.4.4.8.8.8.8.8.q.q.e.e.e.e.e.e.e.e.e.e.e.e.t.e.e.e.e.e.e.q.e.q.q.q.q.8.8.8.8.8.q.q.q.q.q.q.q.e.q.q.e.e.e.e.e.e.e.t.e.t.e.t.e.e.e.e.t.e.t.t.t.t.t.t.i.i.i.i.s.s.s.s.s.h.h.k.k.k.k.z.z.z.z.z.z.z.z.v.v.n.n.n.n.n.m.m.m.N.N.N.N.V.C.C.C.C.C.A.A.A.A.A.A.A.A.A.A.A.A.A.A.A.A.A.C.C.C.V.V.N.N.N.N.N.m.m.m.n.n.m.n.n.v.z.z.z.z.k.k.k.h.h.s.s.s.a.i.t.t.t.e.q.8.4.4.1.,.,.;.=.=.#.#.O. . .} ' ' ) ( ( ^ Q Q W E E E L H Z m m b x z k f p u t e 0 8 4 4 1 > > * * * % $ + @ o o . . ^.^.^.^.^.^.^.^.^.^.^.^.^.^.^.^.^.^.^.^.^.^.^.^.^.^.^.^.^.^.^.^.^.^.^.^.^.^.^.^.^.^.^.^.^.^.^.^.^.^.^.^.^.^.^.^.^.^.^.^.^.^.^.^.^.^.^.^.^.^.^.^.^.^.^.^.^.^.^.^.^.^.^.^.^.^.^.^.^.^.^.^.^.^.^.^.^.^.^.^.^.^.^.^.^.^.^.^.^.^.^.^.^.^.^.^.^.^.^.^.^.^.^.^.^.^.^.^.^.^.^.^.^.^.^.^.^.^.^.^.^.^.^.^.^.^.^.^.^.^.^.^.^.^.^.^.^.^.^.^.^.^.^.^.^.^.^.^.^.^.^.^.^.^.^.^.^.^.^.^.^.^.^.^.^.^.^.^.^.^.^.^.^.^.^.^.^.^.^.^.^.^.^.^.^.^.^.^.^.^.^.^.^.",
"^.^.^.^.^.^.^.^.^.^.^.^.^.^.^.^.^.^.^.^.^.^.^.^.^.^.^.^.^.^.^.^.^.^.^.^.^.^.^.^.^.^.^.^.^.^.^.^.^.^.^.^.^.^.^.. o @ # % * > 1 4 8 0 e u u p p f k z v v b m Z D H K K L L K L L U E E E E E Q Q ^ ^ ^ ( ( ) ) ' ' ' ' ' } } } } } } ' ' ' ' ' ' ' ' ' ' ' ' ' ' ' ' ' ' ' } } }  . . . .O.O.#.#.#.=.=.=.=.;.;.:.:.:.:.:.:.:.:.:.:.:.,.,.,.1.1.1.1.1.1.1.1.1.1.1.1.1.1.1.1.1.1.1.1.1.1.4.1.4.4.4.4.4.4.4.8.8.q.8.q.e.e.e.e.e.e.e.e.e.e.e.t.e.e.e.e.q.q.q.q.q.8.8.8.8.8.8.8.8.8.8.8.8.8.8.8.8.q.q.q.q.q.q.e.q.e.q.e.e.e.e.e.e.e.e.e.e.e.e.e.t.t.t.t.i.i.i.i.s.s.s.s.s.h.h.h.k.k.k.k.k.z.z.z.z.z.z.z.v.v.v.n.n.n.n.m.m.m.N.N.N.V.V.C.V.C.C.C.C.A.A.A.A.A.A.A.A.A.A.A.C.C.C.C.C.C.V.N.V.N.N.m.m.m.m.n.m.n.m.v.n.z.z.z.z.z.k.k.k.h.h.h.s.s.s.i.i.t.e.e.q.8.4.1.1.,.:.;.=.=.#.O. . . .} ' ' ) ( ^ Q Q W E E E U K D B m b v x z k f p u e e 0 6 4 1 > > * * % % $ # @ o o . ^.^.^.^.^.^.^.^.^.^.^.^.^.^.^.^.^.^.^.^.^.^.^.^.^.^.^.^.^.^.^.^.^.^.^.^.^.^.^.^.^.^.^.^.^.^.^.^.^.^.^.^.^.^.^.^.^.^.^.^.^.^.^.^.^.^.^.^.^.^.^.^.^.^.^.^.^.^.^.^.^.^.^.^.^.^.^.^.^.^.^.^.^.^.^.^.^.^.^.^.^.^.^.^.^.^.^.^.^.^.^.^.^.^.^.^.^.^.^.^.^.^.^.^.^.^.^.^.^.^.^.^.^.^.^.^.^.^.^.^.^.^.^.^.^.^.^.^.^.^.^.^.^.^.^.^.^.^.^.^.^.^.^.^.^.^.^.^.^.^.^.^.^.^.^.^.^.^.^.^.^.^.^.^.^.^.^.^.^.^.^.^.^.^.^.^.^.^.^.^.^.^.^.^.^.^.^.^.^.^.^.^.^.^.^.",
"^.^.^.^.^.^.^.^.^.^.^.^.^.^.^.^.^.^.^.^.^.^.^.^.^.^.^.^.^.^.^.^.^.^.^.^.^.^.^.^.^.^.^.^.^.^.^.^.^.^.^.^.^.^.^.^.o o # % % * > 1 6 7 q e u u p f f k z v v m B D D H H K L K L P U E E E E W Q Q ^ ^ ( ( ) ) ) ' ' ' ' ' } } } } } } } } } ' ' ' ' ' ' ' ' ' ' ' ' ' ' ' ' } } }  . . . .O.O.O.#.#.#.=.=.=.;.;.;.;.;.:.:.;.:.:.:.:.,.,.1.,.1.1.1.1.1.1.1.1.1.1.1.1.1.1.1.1.1.,.1.1.1.1.1.4.4.4.4.4.4.4.4.4.8.8.q.q.e.q.e.e.e.e.e.e.e.e.e.e.e.q.q.e.q.8.8.8.8.8.8.8.4.4.4.8.8.8.8.4.8.4.8.8.4.8.4.8.8.8.8.8.8.8.8.8.q.8.q.q.8.8.q.q.8.q.q.e.q.e.e.t.t.t.t.i.i.i.a.s.s.s.s.h.h.k.k.k.k.k.k.k.z.z.z.z.z.z.v.v.v.n.v.m.n.m.m.m.N.N.N.N.V.C.C.C.C.C.C.C.A.C.A.A.A.C.C.C.C.C.C.C.V.V.N.N.N.m.m.m.m.m.m.m.n.n.n.n.v.v.z.z.z.z.z.k.k.h.h.s.s.s.i.i.i.t.t.q.q.8.4.1.1.,.:.;.=.#.#.O.O. . .' ' ) ( ^ ^ Q Q E E E E U K D B m b v v z f p u t e 0 8 4 4 1 > > * * % $ # @ o o . ^.^.^.^.^.^.^.^.^.^.^.^.^.^.^.^.^.^.^.^.^.^.^.^.^.^.^.^.^.^.^.^.^.^.^.^.^.^.^.^.^.^.^.^.^.^.^.^.^.^.^.^.^.^.^.^.^.^.^.^.^.^.^.^.^.^.^.^.^.^.^.^.^.^.^.^.^.^.^.^.^.^.^.^.^.^.^.^.^.^.^.^.^.^.^.^.^.^.^.^.^.^.^.^.^.^.^.^.^.^.^.^.^.^.^.^.^.^.^.^.^.^.^.^.^.^.^.^.^.^.^.^.^.^.^.^.^.^.^.^.^.^.^.^.^.^.^.^.^.^.^.^.^.^.^.^.^.^.^.^.^.^.^.^.^.^.^.^.^.^.^.^.^.^.^.^.^.^.^.^.^.^.^.^.^.^.^.^.^.^.^.^.^.^.^.^.^.^.^.^.^.^.^.^.^.^.^.^.^.^.^.^.^.^.^.^.",
"^.^.^.^.^.^.^.^.^.^.^.^.^.^.^.^.^.^.^.^.^.^.^.^.^.^.^.^.^.^.^.^.^.^.^.^.^.^.^.^.^.^.^.^.^.^.^.^.^.^.^.^.^.^.^.^.^.o @ $ % * > 1 4 8 0 e t u p p f k z v v m m Z D D H H K K L P U E E E E E Q Q ^ ( ( ) ) ) ) ' ' ' ' } } } } } } } ' ' ' ' ' ' ' ' ' ' ' ' ' ' ' ' ' ' ' } } } }  . . . .O.O.O.#.#.=.=.=.=.=.;.:.;.;.:.;.:.:.:.:.,.,.,.1.1.1.1.1.1.1.1.1.1.1.1.1.1.1.1.1.1.1.1.1.1.1.1.4.4.1.4.4.4.4.4.4.8.8.8.q.q.e.e.q.q.e.e.e.e.e.e.q.e.q.q.q.8.8.8.8.8.4.8.8.8.4.4.4.4.4.4.4.4.4.4.4.4.4.4.4.4.4.4.8.8.8.8.8.4.8.8.8.8.8.8.8.8.8.8.8.q.q.e.e.e.e.t.t.t.i.i.a.s.s.s.h.h.h.h.h.k.k.k.z.k.z.k.z.z.z.z.z.z.v.v.v.n.n.m.m.m.m.m.N.N.N.N.V.V.C.C.C.C.C.C.C.C.C.C.C.C.C.C.V.V.N.N.N.m.m.m.m.m.m.n.n.n.n.n.v.v.n.n.z.z.k.k.k.k.h.h.s.s.s.i.i.t.t.e.q.q.8.4.1.1.,.:.=.=.#.O.O. . .} ' ' ) ( ^ Q Q Q E E E U L H D B m b x z k f p u e q 0 8 4 1 1 > * * % $ # @ o o . ^.^.^.^.^.^.^.^.^.^.^.^.^.^.^.^.^.^.^.^.^.^.^.^.^.^.^.^.^.^.^.^.^.^.^.^.^.^.^.^.^.^.^.^.^.^.^.^.^.^.^.^.^.^.^.^.^.^.^.^.^.^.^.^.^.^.^.^.^.^.^.^.^.^.^.^.^.^.^.^.^.^.^.^.^.^.^.^.^.^.^.^.^.^.^.^.^.^.^.^.^.^.^.^.^.^.^.^.^.^.^.^.^.^.^.^.^.^.^.^.^.^.^.^.^.^.^.^.^.^.^.^.^.^.^.^.^.^.^.^.^.^.^.^.^.^.^.^.^.^.^.^.^.^.^.^.^.^.^.^.^.^.^.^.^.^.^.^.^.^.^.^.^.^.^.^.^.^.^.^.^.^.^.^.^.^.^.^.^.^.^.^.^.^.^.^.^.^.^.^.^.^.^.^.^.^.^.^.^.^.^.^.^.^.^.^.^.",
"^.^.^.^.^.^.^.^.^.^.^.^.^.^.^.^.^.^.^.^.^.^.^.^.^.^.^.^.^.^.^.^.^.^.^.^.^.^.^.^.^.^.^.^.^.^.^.^.^.^.^.^.^.^.^.^.^.o o @ % % * > 4 4 8 0 e t u p p f k z x b m B D D H H H K L U U E E E E Q Q Q ^ ^ ( ) ( ) ) ' ' ' ' } ' } } } } } } ' ' ' ' ' ' ' ' ' ' ' ' ' ' ' ' ' } ' } }  . . . . .O.O.O.#.#.=.=.=.=.=.=.;.;.;.;.;.;.:.:.:.,.,.,.1.1.1.1.1.1.1.1.4.1.1.1.1.1.1.1.1.1.1.1.1.1.1.1.1.1.4.1.1.4.1.4.4.8.8.8.q.q.q.e.q.q.e.q.e.e.q.e.q.8.q.8.8.8.8.8.4.4.4.4.4.4.4.4.4.4.4.4.4.4.4.4.4.4.4.4.4.4.4.4.4.4.4.4.4.8.8.8.4.4.4.4.4.4.4.8.8.8.8.q.q.e.e.e.t.t.t.t.i.i.s.s.s.s.h.h.h.k.k.k.k.k.k.k.k.z.z.z.z.z.z.z.v.v.v.n.n.n.n.m.m.m.N.N.N.N.V.V.C.C.C.C.C.C.C.V.C.V.C.C.N.N.N.N.m.m.m.m.m.n.n.n.n.n.n.n.v.z.n.z.z.z.z.k.k.k.h.h.s.s.s.i.t.t.e.e.q.8.4.4.1.,.:.;.=.=.#.#.O. . .} ' ' ) ( ^ Q Q E E E E U K D B m b v v z k f p u e 0 8 6 4 1 > > * * % # + o o ^.^.^.^.^.^.^.^.^.^.^.^.^.^.^.^.^.^.^.^.^.^.^.^.^.^.^.^.^.^.^.^.^.^.^.^.^.^.^.^.^.^.^.^.^.^.^.^.^.^.^.^.^.^.^.^.^.^.^.^.^.^.^.^.^.^.^.^.^.^.^.^.^.^.^.^.^.^.^.^.^.^.^.^.^.^.^.^.^.^.^.^.^.^.^.^.^.^.^.^.^.^.^.^.^.^.^.^.^.^.^.^.^.^.^.^.^.^.^.^.^.^.^.^.^.^.^.^.^.^.^.^.^.^.^.^.^.^.^.^.^.^.^.^.^.^.^.^.^.^.^.^.^.^.^.^.^.^.^.^.^.^.^.^.^.^.^.^.^.^.^.^.^.^.^.^.^.^.^.^.^.^.^.^.^.^.^.^.^.^.^.^.^.^.^.^.^.^.^.^.^.^.^.^.^.^.^.^.^.^.^.^.^.^.^.^.^.^.^.",
"^.^.^.^.^.^.^.^.^.^.^.^.^.^.^.^.^.^.^.^.^.^.^.^.^.^.^.^.^.^.^.^.^.^.^.^.^.^.^.^.^.^.^.^.^.^.^.^.^.^.^.^.^.^.^.^.^.. o o $ % * * > 4 6 7 e e u u u f k z v v b m B D D H H K L P E E E E E W Q Q ^ ^ ( ( ) ) ' ' ' ' ' ' } } } } } } } } ' ' ' ' ' ' ' ' ' ' ' ' ' ' ' ' ' } } } }  . . . . .O.O.#.#.#.#.=.=.=.;.;.;.:.:.;.:.:.:.:.,.,.,.,.1.1.1.1.1.1.1.1.1.1.1.1.1.1.1.1.1.1.1.1.1.1.1.1.1.4.1.1.1.4.4.4.4.4.8.8.8.q.8.q.q.q.e.e.q.q.q.q.8.8.8.4.8.4.4.4.4.4.4.4.4.1.4.1.1.1.1.1.4.1.1.1.1.1.1.1.1.1.1.1.4.4.4.4.4.4.4.4.4.4.4.4.4.4.4.8.8.8.8.8.q.e.e.e.e.t.t.i.i.i.s.s.s.s.h.h.h.h.k.k.k.k.k.k.k.k.z.k.z.z.z.z.z.z.v.v.n.n.n.m.m.m.m.N.N.N.N.N.V.V.V.C.V.V.V.V.V.V.N.N.N.N.m.m.m.m.m.n.m.n.n.n.n.n.v.v.v.z.z.z.z.k.k.k.h.h.h.s.s.i.i.t.t.e.e.8.8.4.4.1.,.:.;.=.#.#.O.O. . .} ' ' ) ( ^ Q W E E E E L H D B m b x z k f p p u e 0 8 4 4 1 > * * % $ # o o . ^.^.^.^.^.^.^.^.^.^.^.^.^.^.^.^.^.^.^.^.^.^.^.^.^.^.^.^.^.^.^.^.^.^.^.^.^.^.^.^.^.^.^.^.^.^.^.^.^.^.^.^.^.^.^.^.^.^.^.^.^.^.^.^.^.^.^.^.^.^.^.^.^.^.^.^.^.^.^.^.^.^.^.^.^.^.^.^.^.^.^.^.^.^.^.^.^.^.^.^.^.^.^.^.^.^.^.^.^.^.^.^.^.^.^.^.^.^.^.^.^.^.^.^.^.^.^.^.^.^.^.^.^.^.^.^.^.^.^.^.^.^.^.^.^.^.^.^.^.^.^.^.^.^.^.^.^.^.^.^.^.^.^.^.^.^.^.^.^.^.^.^.^.^.^.^.^.^.^.^.^.^.^.^.^.^.^.^.^.^.^.^.^.^.^.^.^.^.^.^.^.^.^.^.^.^.^.^.^.^.^.^.^.^.^.^.^.^.^.",
"^.^.^.^.^.^.^.^.^.^.^.^.^.^.^.^.^.^.^.^.^.^.^.^.^.^.^.^.^.^.^.^.^.^.^.^.^.^.^.^.^.^.^.^.^.^.^.^.^.^.^.^.^.^.^.^.^.^.^.o @ $ * * > 4 6 8 0 q e u u p k z z x b m B D D D H H K P E E E E E Q Q Q ^ ^ ( ( ) ) ) ' ' ' ' ' } } } } } ' } } ' ' ' ' ' ' ' ' ' ' ' ' ' ' ' ' ' } } } }  . . . .O.O.O.O.#.#.#.=.=.=.=.;.;.;.:.:.:.:.:.,.,.,.,.,.1.1.1.1.1.1.1.1.4.1.1.1.1.1.1.1.1.1.1.1.1.1.1.1.1.1.4.1.4.1.4.4.4.8.4.4.8.8.q.8.8.q.q.q.8.q.8.8.8.4.4.8.4.4.4.4.4.4.4.1.1.1.1.1.1.1.1.1.1.1.1.1.1.1.1.,.1.1.1.1.1.1.1.1.1.1.1.1.1.4.4.1.4.4.4.4.8.8.8.8.8.q.q.e.e.t.t.t.i.i.i.s.s.s.s.s.h.h.h.h.h.k.k.k.k.k.k.k.k.z.k.z.z.z.z.z.z.v.v.n.n.n.m.m.m.m.N.N.N.N.N.N.N.V.N.N.N.N.N.N.m.m.m.m.m.m.m.m.n.n.n.n.n.v.v.v.z.z.z.z.k.z.k.k.h.h.s.s.s.i.t.t.e.e.q.8.4.4.4.1.,.:.;.=.#.#.O. . .} ' ' ) ( ( ^ Q W E E E U K D B m b v v k k f p u e q 0 6 4 4 > > * * % # @ o . ^.^.^.^.^.^.^.^.^.^.^.^.^.^.^.^.^.^.^.^.^.^.^.^.^.^.^.^.^.^.^.^.^.^.^.^.^.^.^.^.^.^.^.^.^.^.^.^.^.^.^.^.^.^.^.^.^.^.^.^.^.^.^.^.^.^.^.^.^.^.^.^.^.^.^.^.^.^.^.^.^.^.^.^.^.^.^.^.^.^.^.^.^.^.^.^.^.^.^.^.^.^.^.^.^.^.^.^.^.^.^.^.^.^.^.^.^.^.^.^.^.^.^.^.^.^.^.^.^.^.^.^.^.^.^.^.^.^.^.^.^.^.^.^.^.^.^.^.^.^.^.^.^.^.^.^.^.^.^.^.^.^.^.^.^.^.^.^.^.^.^.^.^.^.^.^.^.^.^.^.^.^.^.^.^.^.^.^.^.^.^.^.^.^.^.^.^.^.^.^.^.^.^.^.^.^.^.^.^.^.^.^.^.^.^.^.^.^.^.^.",
"^.^.^.^.^.^.^.^.^.^.^.^.^.^.^.^.^.^.^.^.^.^.^.^.^.^.^.^.^.^.^.^.^.^.^.^.^.^.^.^.^.^.^.^.^.^.^.^.^.^.^.^.^.^.^.^.^.^.^.^.o $ % * > 1 4 4 7 0 q e u p f k k z v m B Z Z D D H K P E E E E E W Q Q Q ^ ( ( ) ) ) ' ' ' ' ' ' } } } } } ' } ' ' ' ' ' ' ' ' ' } ' ' } } ' ' } ' } } }  . . .O. .O.O.O.#.#.#.=.=.=.=.;.;.;.:.:.:.:.:.:.,.,.,.1.1.1.1.1.1.1.1.1.1.1.1.1.1.1.1.1.1.1.1.1.1.1.1.1.1.1.1.1.1.1.1.4.4.4.8.4.8.8.8.8.8.8.8.8.8.8.8.8.4.4.4.4.4.4.4.1.1.1.1.1.1.1.1.1.1.1.1.1.1.,.1.,.,.,.,.,.,.,.,.,.,.1.1.1.1.1.1.1.1.1.1.1.4.4.4.4.4.4.8.4.8.8.q.q.e.e.e.t.t.t.i.i.a.s.s.s.s.s.h.h.h.h.h.h.k.k.k.k.k.k.k.z.k.z.z.z.z.z.z.z.v.n.n.n.m.m.m.m.m.N.N.N.N.N.N.N.N.N.N.m.m.m.n.m.n.n.n.n.v.n.n.n.v.v.v.z.z.z.z.z.z.k.k.k.h.s.s.s.i.i.t.e.e.e.q.8.4.4.1.1.,.:.=.=.#.#.O. . .} ' ' ) ( ^ Q Q E E E E L H D B m b x z k f p p u e 0 7 4 4 1 > > * % $ + o o . ^.^.^.^.^.^.^.^.^.^.^.^.^.^.^.^.^.^.^.^.^.^.^.^.^.^.^.^.^.^.^.^.^.^.^.^.^.^.^.^.^.^.^.^.^.^.^.^.^.^.^.^.^.^.^.^.^.^.^.^.^.^.^.^.^.^.^.^.^.^.^.^.^.^.^.^.^.^.^.^.^.^.^.^.^.^.^.^.^.^.^.^.^.^.^.^.^.^.^.^.^.^.^.^.^.^.^.^.^.^.^.^.^.^.^.^.^.^.^.^.^.^.^.^.^.^.^.^.^.^.^.^.^.^.^.^.^.^.^.^.^.^.^.^.^.^.^.^.^.^.^.^.^.^.^.^.^.^.^.^.^.^.^.^.^.^.^.^.^.^.^.^.^.^.^.^.^.^.^.^.^.^.^.^.^.^.^.^.^.^.^.^.^.^.^.^.^.^.^.^.^.^.^.^.^.^.^.^.^.^.^.^.^.^.^.^.^.^.^.^.",
"^.^.^.^.^.^.^.^.^.^.^.^.^.^.^.^.^.^.^.^.^.^.^.^.^.^.^.^.^.^.^.^.^.^.^.^.^.^.^.^.^.^.^.^.^.^.^.^.^.^.^.^.^.^.^.^.^.^.^.^.o + % % * > 1 4 4 8 q e u p f f k z v b m B B D D H H L E E E E E E W Q Q ^ ^ ( ( ( ) ) ) ' ' ' ' } ' } ' } ' ' ' ' ' ' ' ' ' ' ' ' ' } ' ' ' } ' } }  . . . . . .O.O.O.#.#.#.#.=.=.=.=.;.;.:.;.;.:.:.:.,.,.,.,.,.1.1.1.1.1.1.1.1.1.1.1.1.1.1.1.1.1.1.1.1.1.1.1.1.1.1.1.1.1.1.4.1.4.4.4.4.4.4.4.4.8.8.8.8.4.4.8.4.4.4.4.4.4.4.1.1.1.1.1.1.1.,.,.,.,.,.,.,.,.,.,.:.,.,.,.:.,.:.,.,.,.,.,.,.,.1.1.1.,.1.1.1.1.1.1.1.4.4.4.4.4.8.8.q.q.e.e.e.e.t.t.t.i.i.s.s.s.s.s.s.h.h.h.h.h.h.h.h.h.k.k.k.k.k.k.k.z.z.z.z.v.v.v.n.n.m.m.m.m.m.m.N.N.N.N.m.m.m.m.m.m.m.n.n.n.n.n.n.v.v.v.v.v.z.v.v.z.z.z.z.k.k.k.h.h.s.s.s.i.i.t.e.e.e.8.8.4.4.1.1.,.:.=.=.#.O. . .} } ' ' ) ( ^ Q Q E E E P H D Z B m v v k k f p u u e 0 8 4 4 1 > * * % $ @ o o ^.^.^.^.^.^.^.^.^.^.^.^.^.^.^.^.^.^.^.^.^.^.^.^.^.^.^.^.^.^.^.^.^.^.^.^.^.^.^.^.^.^.^.^.^.^.^.^.^.^.^.^.^.^.^.^.^.^.^.^.^.^.^.^.^.^.^.^.^.^.^.^.^.^.^.^.^.^.^.^.^.^.^.^.^.^.^.^.^.^.^.^.^.^.^.^.^.^.^.^.^.^.^.^.^.^.^.^.^.^.^.^.^.^.^.^.^.^.^.^.^.^.^.^.^.^.^.^.^.^.^.^.^.^.^.^.^.^.^.^.^.^.^.^.^.^.^.^.^.^.^.^.^.^.^.^.^.^.^.^.^.^.^.^.^.^.^.^.^.^.^.^.^.^.^.^.^.^.^.^.^.^.^.^.^.^.^.^.^.^.^.^.^.^.^.^.^.^.^.^.^.^.^.^.^.^.^.^.^.^.^.^.^.^.^.^.^.^.^.^.^.",
"^.^.^.^.^.^.^.^.^.^.^.^.^.^.^.^.^.^.^.^.^.^.^.^.^.^.^.^.^.^.^.^.^.^.^.^.^.^.^.^.^.^.^.^.^.^.^.^.^.^.^.^.^.^.^.^.^.^.^.^.. o # % * > > 1 4 6 0 e t p p f k z x b m B Z D D D H L U E E E E W Q W Q Q ^ ^ ^ ( ( ) ) ' ' ' ' ' ' } ' ' ' ' ' ' ' ' ' ' ' ' ' ' ' ' ' ' ' } } } }  . . . . . .O.O.O.#.#.#.=.=.=.=.=.=.;.;.;.;.:.:.:.:.,.,.,.1.,.1.1.1.1.1.1.1.1.1.1.1.1.1.1.1.1.1.1.1.1.1.1.1.1.1.1.1.1.1.1.1.1.4.4.4.4.4.4.4.8.4.4.8.4.4.4.4.4.4.4.4.1.1.1.1.1.,.,.,.,.,.:.:.,.:.:.,.:.:.:.:.,.:.:.:.:.:.:.:.:.:.,.,.,.,.,.,.,.1.1.1.1.1.1.1.1.1.4.4.4.4.8.8.8.q.e.e.e.e.t.t.t.i.i.a.s.s.s.s.s.s.h.h.s.h.h.h.h.h.h.h.h.k.k.k.k.k.z.z.z.z.z.v.v.v.n.n.n.n.m.m.m.m.m.m.m.m.m.n.n.n.n.v.v.v.v.v.z.v.z.v.z.v.z.z.z.z.z.z.k.k.k.h.h.s.s.s.i.i.t.e.q.q.8.8.4.1.1.,.,.;.=.=.#.O. . .} } ' ) ( ^ Q Q W E E U L H D B m b x z k f f p u t q 0 8 4 4 1 > * * % # o o . ^.^.^.^.^.^.^.^.^.^.^.^.^.^.^.^.^.^.^.^.^.^.^.^.^.^.^.^.^.^.^.^.^.^.^.^.^.^.^.^.^.^.^.^.^.^.^.^.^.^.^.^.^.^.^.^.^.^.^.^.^.^.^.^.^.^.^.^.^.^.^.^.^.^.^.^.^.^.^.^.^.^.^.^.^.^.^.^.^.^.^.^.^.^.^.^.^.^.^.^.^.^.^.^.^.^.^.^.^.^.^.^.^.^.^.^.^.^.^.^.^.^.^.^.^.^.^.^.^.^.^.^.^.^.^.^.^.^.^.^.^.^.^.^.^.^.^.^.^.^.^.^.^.^.^.^.^.^.^.^.^.^.^.^.^.^.^.^.^.^.^.^.^.^.^.^.^.^.^.^.^.^.^.^.^.^.^.^.^.^.^.^.^.^.^.^.^.^.^.^.^.^.^.^.^.^.^.^.^.^.^.^.^.^.^.^.^.^.^.^.^.",
"^.^.^.^.^.^.^.^.^.^.^.^.^.^.^.^.^.^.^.^.^.^.^.^.^.^.^.^.^.^.^.^.^.^.^.^.^.^.^.^.^.^.^.^.^.^.^.^.^.^.^.^.^.^.^.^.^.^.^.^.^.o @ $ % * * > 1 4 8 0 e u u p f k x b m B Z D D D H K U E E E E E E Q Q Q Q ^ ^ ^ ^ ( ) ) ' ' ' ' ' ' ' ' ' ' ' ' ' ' ' ' ' ' ' } ' ' ' } ' ' } } } }  . . . .O.O.O.O.#.#.#.#.=.=.=.=.=.;.;.;.;.:.:.:.,.,.1.1.,.1.,.1.1.1.1.1.1.1.1.1.1.1.,.,.1.1.1.1.1.1.1.1.1.1.1.1.1.1.1.1.1.1.1.1.4.4.4.4.4.4.4.4.4.4.4.4.1.1.1.1.1.1.1.1.,.,.,.,.,.:.,.:.:.:.;.:.:.:.:.;.;.:.;.;.;.;.;.;.:.:.:.:.,.,.,.,.,.,.,.,.1.1.1.1.1.1.1.1.4.4.4.4.8.8.8.q.q.e.e.t.t.t.i.i.i.i.a.s.s.s.s.s.s.s.s.h.s.h.h.h.h.h.h.h.h.k.k.k.k.k.z.z.z.z.v.z.n.n.n.n.n.m.m.m.m.n.n.n.n.n.v.v.v.v.v.v.z.v.z.z.z.z.z.z.n.z.z.z.k.k.k.h.h.s.s.s.s.i.i.t.e.e.8.8.4.4.1.1.,.:.;.=.#.#.O. . .} ' ' ) ( ^ Q Q E E E U K D D B m v v z k f p u t e q 0 6 4 4 1 > * * % # @ o . ^.^.^.^.^.^.^.^.^.^.^.^.^.^.^.^.^.^.^.^.^.^.^.^.^.^.^.^.^.^.^.^.^.^.^.^.^.^.^.^.^.^.^.^.^.^.^.^.^.^.^.^.^.^.^.^.^.^.^.^.^.^.^.^.^.^.^.^.^.^.^.^.^.^.^.^.^.^.^.^.^.^.^.^.^.^.^.^.^.^.^.^.^.^.^.^.^.^.^.^.^.^.^.^.^.^.^.^.^.^.^.^.^.^.^.^.^.^.^.^.^.^.^.^.^.^.^.^.^.^.^.^.^.^.^.^.^.^.^.^.^.^.^.^.^.^.^.^.^.^.^.^.^.^.^.^.^.^.^.^.^.^.^.^.^.^.^.^.^.^.^.^.^.^.^.^.^.^.^.^.^.^.^.^.^.^.^.^.^.^.^.^.^.^.^.^.^.^.^.^.^.^.^.^.^.^.^.^.^.^.^.^.^.^.^.^.^.^.^.^.^.",
"^.^.^.^.^.^.^.^.^.^.^.^.^.^.^.^.^.^.^.^.^.^.^.^.^.^.^.^.^.^.^.^.^.^.^.^.^.^.^.^.^.^.^.^.^.^.^.^.^.^.^.^.^.^.^.^.^.^.^.^.^.^.o @ % % * * > 1 4 6 0 e u p f z x b m B Z D D D H K P E E E E E W E Q Q Q Q ^ ^ ^ ^ ( ( ) ) ' ' ' ' ' ' ' ' ' ' ' ' ' ' ' } } } ' } ' } } } } }  . . . . . .O.O.O.O.#.#.#.#.=.=.=.=.=.=.=.;.;.;.:.,.,.,.,.,.1.1.1.1.1.1.1.1.1.1.1.1.1.1.1.,.,.1.1.1.1.1.1.1.1.1.1.1.,.1.1.1.1.1.1.1.1.4.4.1.1.4.1.1.1.4.1.1.1.1.1.1.1.1.,.,.,.:.:.:.:.:.:.;.;.;.=.=.=.=.;.=.=.;.=.=.=.;.=.=.;.;.;.:.:.:.:.:.:.,.,.,.,.,.1.1.1.1.1.1.1.4.4.4.8.8.8.8.8.q.q.e.e.t.t.t.i.i.i.a.s.s.s.s.s.s.s.s.s.s.s.s.s.h.h.h.h.h.h.h.k.k.k.k.z.z.z.z.v.v.v.n.n.n.n.n.n.n.m.v.v.v.z.v.z.z.v.z.z.z.z.z.z.z.z.z.z.z.z.z.z.k.k.h.h.s.s.s.i.i.t.e.e.q.8.8.4.4.1.,.:.:.=.=.#.#.O. . .} ' ) ( ^ Q Q Q E E E L H D B m b v z k f p p u e e 0 7 6 4 4 1 > * * % # @ o . ^.^.^.^.^.^.^.^.^.^.^.^.^.^.^.^.^.^.^.^.^.^.^.^.^.^.^.^.^.^.^.^.^.^.^.^.^.^.^.^.^.^.^.^.^.^.^.^.^.^.^.^.^.^.^.^.^.^.^.^.^.^.^.^.^.^.^.^.^.^.^.^.^.^.^.^.^.^.^.^.^.^.^.^.^.^.^.^.^.^.^.^.^.^.^.^.^.^.^.^.^.^.^.^.^.^.^.^.^.^.^.^.^.^.^.^.^.^.^.^.^.^.^.^.^.^.^.^.^.^.^.^.^.^.^.^.^.^.^.^.^.^.^.^.^.^.^.^.^.^.^.^.^.^.^.^.^.^.^.^.^.^.^.^.^.^.^.^.^.^.^.^.^.^.^.^.^.^.^.^.^.^.^.^.^.^.^.^.^.^.^.^.^.^.^.^.^.^.^.^.^.^.^.^.^.^.^.^.^.^.^.^.^.^.^.^.^.^.^.^.^.",
"^.^.^.^.^.^.^.^.^.^.^.^.^.^.^.^.^.^.^.^.^.^.^.^.^.^.^.^.^.^.^.^.^.^.^.^.^.^.^.^.^.^.^.^.^.^.^.^.^.^.^.^.^.^.^.^.^.^.^.^.^.^.. o + $ % % * > 1 4 0 e u p f z v b m B B D D D H H L E E E E E E E E Q Q Q Q ^ ^ ^ ^ ( ) ) ' ' ' ' ' ' ' ' ' ' } ' ' ' ' ' } } ' } } } } } } }  . . . . . .O.O.O.O.#.#.#.#.=.=.=.=.=.=.=.=.;.;.:.:.:.,.,.,.,.1.1.1.1.1.1.1.1.1.1.1.1.1.,.1.,.,.1.1.1.1.1.1.1.1.1.,.1.,.1.,.1.1.1.1.1.1.1.1.1.1.1.1.1.1.1.1.1.,.,.,.,.,.:.:.:.:.;.;.;.;.=.=.=.=.=.=.=.=.=.=.=.=.=.=.=.=.=.=.=.=.;.;.;.;.;.:.:.:.:.,.,.,.,.1.1.1.1.1.1.1.4.4.4.8.8.8.8.q.q.e.e.e.t.t.i.t.i.i.i.a.s.s.a.s.s.s.s.s.s.s.s.s.s.s.h.s.h.h.h.k.k.k.k.k.z.z.z.z.v.v.v.v.n.v.v.v.v.z.z.v.z.z.z.z.z.z.z.z.z.z.z.z.z.z.z.z.k.z.k.k.h.h.h.s.s.a.i.t.t.e.e.q.8.4.4.1.1.,.:.;.=.#.#.O.O. .} } ' ) ( ^ Q Q E E E U K D Z B m b x z k f p u u e e 0 8 4 4 1 > > * % % # o o ^.^.^.^.^.^.^.^.^.^.^.^.^.^.^.^.^.^.^.^.^.^.^.^.^.^.^.^.^.^.^.^.^.^.^.^.^.^.^.^.^.^.^.^.^.^.^.^.^.^.^.^.^.^.^.^.^.^.^.^.^.^.^.^.^.^.^.^.^.^.^.^.^.^.^.^.^.^.^.^.^.^.^.^.^.^.^.^.^.^.^.^.^.^.^.^.^.^.^.^.^.^.^.^.^.^.^.^.^.^.^.^.^.^.^.^.^.^.^.^.^.^.^.^.^.^.^.^.^.^.^.^.^.^.^.^.^.^.^.^.^.^.^.^.^.^.^.^.^.^.^.^.^.^.^.^.^.^.^.^.^.^.^.^.^.^.^.^.^.^.^.^.^.^.^.^.^.^.^.^.^.^.^.^.^.^.^.^.^.^.^.^.^.^.^.^.^.^.^.^.^.^.^.^.^.^.^.^.^.^.^.^.^.^.^.^.^.^.^.^.^.^.",
"^.^.^.^.^.^.^.^.^.^.^.^.^.^.^.^.^.^.^.^.^.^.^.^.^.^.^.^.^.^.^.^.^.^.^.^.^.^.^.^.^.^.^.^.^.^.^.^.^.^.^.^.^.^.^.^.^.^.^.^.^.^.. o + # $ % % * > 1 6 q t p f z v b m B B D D D H H K U E E E E E E E Q Q Q Q Q Q ^ Q ^ ( ( ) ) ) ) ' ' ' ' ' ' ' ' ' ' ' ' } ' } } } } } } }  .}  . . . .O.O.O.O.O.#.#.#.=.=.=.=.=.=.=.;.=.;.:.:.:.,.,.,.1.1.1.1.1.,.1.1.1.1.1.1.1.1.1.,.,.,.,.,.1.,.1.1.1.1.1.,.,.1.,.,.,.,.1.1.1.1.,.1.,.,.,.,.,.,.,.,.,.,.,.:.:.:.:.:.;.;.;.=.=.=.=.=.=.=.#.#.#.#.#.=.=.=.#.#.#.=.#.=.=.=.=.=.=.;.=.;.;.;.:.:.:.,.,.,.,.,.,.1.1.1.1.1.1.4.4.4.4.8.8.q.q.e.e.e.t.t.i.t.i.i.i.a.i.a.s.i.s.s.s.s.s.s.s.s.s.s.s.s.s.h.h.h.k.k.k.k.k.z.z.z.z.z.v.z.z.z.z.z.z.z.z.z.z.z.z.z.z.k.z.z.z.z.z.z.z.z.z.z.k.k.k.h.h.h.s.s.i.i.t.t.e.q.8.8.4.4.1.,.:.:.;.=.#.#.O.O. .} ' ' ) ^ ^ Q Q E E E L H D B m m v v z f p p u e e 0 7 6 4 1 1 > * * % $ + o . ^.^.^.^.^.^.^.^.^.^.^.^.^.^.^.^.^.^.^.^.^.^.^.^.^.^.^.^.^.^.^.^.^.^.^.^.^.^.^.^.^.^.^.^.^.^.^.^.^.^.^.^.^.^.^.^.^.^.^.^.^.^.^.^.^.^.^.^.^.^.^.^.^.^.^.^.^.^.^.^.^.^.^.^.^.^.^.^.^.^.^.^.^.^.^.^.^.^.^.^.^.^.^.^.^.^.^.^.^.^.^.^.^.^.^.^.^.^.^.^.^.^.^.^.^.^.^.^.^.^.^.^.^.^.^.^.^.^.^.^.^.^.^.^.^.^.^.^.^.^.^.^.^.^.^.^.^.^.^.^.^.^.^.^.^.^.^.^.^.^.^.^.^.^.^.^.^.^.^.^.^.^.^.^.^.^.^.^.^.^.^.^.^.^.^.^.^.^.^.^.^.^.^.^.^.^.^.^.^.^.^.^.^.^.^.^.^.^.^.^.^.^.",
"^.^.^.^.^.^.^.^.^.^.^.^.^.^.^.^.^.^.^.^.^.^.^.^.^.^.^.^.^.^.^.^.^.^.^.^.^.^.^.^.^.^.^.^.^.^.^.^.^.^.^.^.^.^.^.^.^.^.^.^.^.^.. o o + $ % % * * 1 6 0 e u f z x b m B B Z D D D H H L P U E E E E E E W Q W Q Q Q Q ^ ^ ( ( ) ) ) ' ' ' ' ' ' ' ' ' ' ' } ' } } ' } } } } }  . . . . . . .O.O.O.#.#.#.#.=.=.=.=.=.=.=.=.;.;.:.:.:.,.,.,.1.,.1.1.1.,.,.,.,.,.1.,.1.,.,.1.,.,.,.,.,.,.,.1.,.1.,.1.,.,.,.,.,.,.,.,.,.,.,.:.,.:.:.:.:.,.,.,.,.:.:.;.;.;.;.;.=.=.=.=.=.=.#.#.#.#.#.#.#.#.#.#.#.#.#.#.#.#.#.#.#.=.=.=.=.=.=.=.;.;.;.:.:.:.:.,.,.,.,.1.1.1.1.1.1.4.4.4.4.4.4.8.q.q.e.e.e.t.t.t.t.i.i.i.i.i.i.i.i.i.i.i.i.a.a.a.s.s.s.s.s.s.s.h.h.h.h.k.k.k.k.z.z.z.z.z.z.z.z.z.z.z.z.z.k.z.k.k.k.z.z.k.z.z.z.z.z.k.z.k.k.k.h.h.h.s.s.i.i.i.t.e.q.q.8.8.4.1.1.,.:.;.=.=.#.O.O. .} } ' ' ( ( ^ Q W E E U K H D B m b x z k f p u u e q 7 6 4 4 1 > > * % % # o o . ^.^.^.^.^.^.^.^.^.^.^.^.^.^.^.^.^.^.^.^.^.^.^.^.^.^.^.^.^.^.^.^.^.^.^.^.^.^.^.^.^.^.^.^.^.^.^.^.^.^.^.^.^.^.^.^.^.^.^.^.^.^.^.^.^.^.^.^.^.^.^.^.^.^.^.^.^.^.^.^.^.^.^.^.^.^.^.^.^.^.^.^.^.^.^.^.^.^.^.^.^.^.^.^.^.^.^.^.^.^.^.^.^.^.^.^.^.^.^.^.^.^.^.^.^.^.^.^.^.^.^.^.^.^.^.^.^.^.^.^.^.^.^.^.^.^.^.^.^.^.^.^.^.^.^.^.^.^.^.^.^.^.^.^.^.^.^.^.^.^.^.^.^.^.^.^.^.^.^.^.^.^.^.^.^.^.^.^.^.^.^.^.^.^.^.^.^.^.^.^.^.^.^.^.^.^.^.^.^.^.^.^.^.^.^.^.^.^.^.^.^.^.",
"^.^.^.^.^.^.^.^.^.^.^.^.^.^.^.^.^.^.^.^.^.^.^.^.^.^.^.^.^.^.^.^.^.^.^.^.^.^.^.^.^.^.^.^.^.^.^.^.^.^.^.^.^.^.^.^.^.^.^.^.^.^.^.. o o + # % * * > 4 7 e u f k v b m m B B B Z D D H H K L L P U E E E E E E W W Q Q ^ ^ ( ( ) ) ) ) ) ' ' ' ' ' ' ' ' ' ' } ' } ' } } } } } }  . . . . .O.O.O.O.O.#.#.#.#.=.#.=.=.=.=.=.=.;.:.:.:.,.,.,.,.,.,.,.,.,.,.,.,.,.,.1.,.,.,.,.,.,.,.,.,.,.,.,.,.,.,.,.,.,.,.:.:.:.:.,.:.:.:.:.;.;.;.=.;.;.;.;.;.=.;.=.=.=.=.=.=.=.=.#.#.#.#.#.#.O.O.O.O.O.O.O.O.O.#.O.#.#.#.#.#.#.#.#.=.=.=.=.=.=.;.;.;.:.:.:.:.,.,.,.,.1.1.1.1.1.1.4.4.4.4.4.8.q.q.e.e.t.t.t.t.t.t.t.t.t.i.t.i.i.t.i.i.i.i.i.i.a.a.s.s.s.s.s.s.h.h.h.h.h.k.k.k.k.k.z.z.z.z.k.k.k.k.k.k.k.k.k.k.k.k.k.k.z.k.k.k.k.k.k.k.k.h.h.s.s.s.i.t.t.t.e.q.8.4.4.4.1.,.,.:.;.=.=.#.O. . .} } ' ) ( ^ Q Q E E E P K D B B m b v k k f p u t e 0 8 4 4 1 1 > * * % $ + o o ^.^.^.^.^.^.^.^.^.^.^.^.^.^.^.^.^.^.^.^.^.^.^.^.^.^.^.^.^.^.^.^.^.^.^.^.^.^.^.^.^.^.^.^.^.^.^.^.^.^.^.^.^.^.^.^.^.^.^.^.^.^.^.^.^.^.^.^.^.^.^.^.^.^.^.^.^.^.^.^.^.^.^.^.^.^.^.^.^.^.^.^.^.^.^.^.^.^.^.^.^.^.^.^.^.^.^.^.^.^.^.^.^.^.^.^.^.^.^.^.^.^.^.^.^.^.^.^.^.^.^.^.^.^.^.^.^.^.^.^.^.^.^.^.^.^.^.^.^.^.^.^.^.^.^.^.^.^.^.^.^.^.^.^.^.^.^.^.^.^.^.^.^.^.^.^.^.^.^.^.^.^.^.^.^.^.^.^.^.^.^.^.^.^.^.^.^.^.^.^.^.^.^.^.^.^.^.^.^.^.^.^.^.^.^.^.^.^.^.^.^.^.^.",
"^.^.^.^.^.^.^.^.^.^.^.^.^.^.^.^.^.^.^.^.^.^.^.^.^.^.^.^.^.^.^.^.^.^.^.^.^.^.^.^.^.^.^.^.^.^.^.^.^.^.^.^.^.^.^.^.^.^.^.^.^.^.^.^.. o o @ $ % * > 4 8 e u p f z x b m m B B B B Z D D H H H H K P E E E E E E E E Q Q ^ ^ ( ( ) ) ) ) ' ' ' ' ' ' ' } } ' ' } ' } ' ' } } } }  . . . . . .O.O.O.O.#.#.#.#.#.=.=.=.=.=.=.;.;.;.:.:.,.,.,.,.,.,.,.,.:.,.,.,.,.,.,.,.,.,.,.,.,.,.,.,.,.,.,.,.,.,.,.,.,.:.:.:.:.:.:.:.;.;.=.=.=.=.=.=.=.=.=.=.=.=.=.=.=.#.#.#.#.#.#.O.+.O.O.O.O.O.O.O.O. .O.O.O.O.O.O.O.O.O.O.#.#.#.#.#.#.=.=.=.=.=.;.;.:.:.:.:.:.,.,.,.1.1.1.1.1.1.4.4.4.4.8.8.8.q.e.e.e.e.e.t.t.t.t.i.t.t.t.t.t.t.t.t.i.i.t.i.i.i.i.s.a.s.s.s.s.h.h.h.h.h.h.k.k.k.k.k.k.k.k.k.k.k.k.k.k.k.k.k.k.k.k.k.k.k.k.k.k.k.h.h.h.s.s.s.i.i.t.e.e.e.8.8.4.4.1.1.,.:.;.=.=.#.#.O. . .} ' ' ) ( ^ Q Q E E E L H D B m b v v k f p p u e e 0 8 4 4 1 > > * % $ # @ o . ^.^.^.^.^.^.^.^.^.^.^.^.^.^.^.^.^.^.^.^.^.^.^.^.^.^.^.^.^.^.^.^.^.^.^.^.^.^.^.^.^.^.^.^.^.^.^.^.^.^.^.^.^.^.^.^.^.^.^.^.^.^.^.^.^.^.^.^.^.^.^.^.^.^.^.^.^.^.^.^.^.^.^.^.^.^.^.^.^.^.^.^.^.^.^.^.^.^.^.^.^.^.^.^.^.^.^.^.^.^.^.^.^.^.^.^.^.^.^.^.^.^.^.^.^.^.^.^.^.^.^.^.^.^.^.^.^.^.^.^.^.^.^.^.^.^.^.^.^.^.^.^.^.^.^.^.^.^.^.^.^.^.^.^.^.^.^.^.^.^.^.^.^.^.^.^.^.^.^.^.^.^.^.^.^.^.^.^.^.^.^.^.^.^.^.^.^.^.^.^.^.^.^.^.^.^.^.^.^.^.^.^.^.^.^.^.^.^.^.^.^.^.^.",
"^.^.^.^.^.^.^.^.^.^.^.^.^.^.^.^.^.^.^.^.^.^.^.^.^.^.^.^.^.^.^.^.^.^.^.^.^.^.^.^.^.^.^.^.^.^.^.^.^.^.^.^.^.^.^.^.^.^.^.^.^.^.^.^.^.. o o # $ % > 1 4 q e p f k z v b m m m B B B B Z D D D H D H L U E E E E E E W Q Q Q ^ ^ ^ ( ) ) ) ' ' ' ' ' ' ' ' ' ' ' ' ' ' } ' } }  . .}  . . . .O.O.O.O.O.#.#.#.=.=.=.=.=.=.=.;.;.;.:.:.:.:.,.,.,.:.:.:.:.,.:.:.,.,.,.,.,.:.,.,.,.:.:.:.,.:.,.,.,.,.:.:.:.:.:.;.;.;.;.;.=.=.=.=.=.#.#.#.#.#.#.#.#.#.#.#.#.#.O.O.O.O.O.O.O.O. . . . . . . . . . . . .O. .O.O.O.O.O.O.O.O.O.#.#.=.=.=.=.=.=.;.;.:.:.:.,.,.,.,.,.1.1.1.1.4.4.4.4.8.8.8.q.q.e.e.e.e.e.e.t.e.t.t.t.t.t.t.t.t.t.t.i.t.t.t.i.t.i.i.i.a.a.s.s.s.s.s.h.h.h.h.h.h.h.h.h.h.h.h.h.h.h.h.h.h.h.h.k.h.k.h.k.k.k.h.h.h.h.s.s.s.a.i.t.t.e.e.q.8.4.4.1.1.1.,.:.;.=.=.#.O. . . .} ' ' ) ( ^ Q W E E U K D D B b b v z k f p u u e e 0 8 4 4 1 > * * % % # @ o . ^.^.^.^.^.^.^.^.^.^.^.^.^.^.^.^.^.^.^.^.^.^.^.^.^.^.^.^.^.^.^.^.^.^.^.^.^.^.^.^.^.^.^.^.^.^.^.^.^.^.^.^.^.^.^.^.^.^.^.^.^.^.^.^.^.^.^.^.^.^.^.^.^.^.^.^.^.^.^.^.^.^.^.^.^.^.^.^.^.^.^.^.^.^.^.^.^.^.^.^.^.^.^.^.^.^.^.^.^.^.^.^.^.^.^.^.^.^.^.^.^.^.^.^.^.^.^.^.^.^.^.^.^.^.^.^.^.^.^.^.^.^.^.^.^.^.^.^.^.^.^.^.^.^.^.^.^.^.^.^.^.^.^.^.^.^.^.^.^.^.^.^.^.^.^.^.^.^.^.^.^.^.^.^.^.^.^.^.^.^.^.^.^.^.^.^.^.^.^.^.^.^.^.^.^.^.^.^.^.^.^.^.^.^.^.^.^.^.^.^.^.^.^.",
"^.^.^.^.^.^.^.^.^.^.^.^.^.^.^.^.^.^.^.^.^.^.^.^.^.^.^.^.^.^.^.^.^.^.^.^.^.^.^.^.^.^.^.^.^.^.^.^.^.^.^.^.^.^.^.^.^.^.^.^.^.^.^.^.^.^.. o o # % * > 4 0 e u p f k k x b b m m B B B B D D B B D D H K U E E E E E E W Q Q Q ^ ^ ( ( ( ) ) ' ' ' ' } ' ' ' ' ' ' ' ' ' ' ' } } }  . . . . . .O.O.+.O.#.#.#.#.#.#.=.=.=.=.=.=.;.;.:.:.:.:.:.:.:.:.:.:.:.:.:.:.:.:.:.:.,.:.:.:.:.:.:.:.:.:.:.:.:.:.:.;.;.;.;.=.=.=.=.=.#.#.#.#.#.O.#.#.#.O.#.O.O.O.O.O.O.O.O.O. . . . . . . . . . . . . . . . . . . . . . .O.O.O.O.O.O.#.#.#.#.=.=.=.=.=.;.;.;.:.:.:.,.,.,.,.1.1.1.1.4.4.4.4.4.8.8.q.8.q.q.e.e.e.e.e.e.e.e.t.e.e.t.t.t.t.t.t.t.t.t.t.t.i.i.i.i.i.a.s.s.s.s.s.s.s.h.s.h.h.h.s.h.h.h.h.h.h.h.h.h.h.h.h.h.h.h.h.h.h.h.h.s.s.s.a.i.t.t.t.e.q.8.4.4.4.1.1.,.:.:.;.=.#.#.O. . . .} ' ' ( ^ Q Q W E E U H D B B m b x z k f p u u e q 0 6 4 1 > > * * % % # @ o . ^.^.^.^.^.^.^.^.^.^.^.^.^.^.^.^.^.^.^.^.^.^.^.^.^.^.^.^.^.^.^.^.^.^.^.^.^.^.^.^.^.^.^.^.^.^.^.^.^.^.^.^.^.^.^.^.^.^.^.^.^.^.^.^.^.^.^.^.^.^.^.^.^.^.^.^.^.^.^.^.^.^.^.^.^.^.^.^.^.^.^.^.^.^.^.^.^.^.^.^.^.^.^.^.^.^.^.^.^.^.^.^.^.^.^.^.^.^.^.^.^.^.^.^.^.^.^.^.^.^.^.^.^.^.^.^.^.^.^.^.^.^.^.^.^.^.^.^.^.^.^.^.^.^.^.^.^.^.^.^.^.^.^.^.^.^.^.^.^.^.^.^.^.^.^.^.^.^.^.^.^.^.^.^.^.^.^.^.^.^.^.^.^.^.^.^.^.^.^.^.^.^.^.^.^.^.^.^.^.^.^.^.^.^.^.^.^.^.^.^.^.^.^.",
"^.^.^.^.^.^.^.^.^.^.^.^.^.^.^.^.^.^.^.^.^.^.^.^.^.^.^.^.^.^.^.^.^.^.^.^.^.^.^.^.^.^.^.^.^.^.^.^.^.^.^.^.^.^.^.^.^.^.^.^.^.^.^.^.^.^.^.. o @ $ % * 1 6 0 e u p f k z x v b m m m B B Z B B B D D D H K P U E E E E E W Q Q Q ^ ^ ( ( ( ) ' ' ' ' ' ' ' ' ' ' ' ' ' ' ' ' } } } } }  . . . .O.O.O.O.#.#.#.#.#.#.#.=.=.=.=.=.=.=.=.;.;.:.:.:.:.:.;.;.;.;.;.:.:.:.:.:.:.:.:.:.:.:.:.:.:.:.;.;.;.;.;.=.=.=.=.=.=.=.=.#.#.#.O.O.O.O.O.O.O.O.O. .O. .O. . . . . . . . .} } } } } } } } } } } } } } }  . . . . . . .O. .O.O.#.#.#.#.#.=.=.=.=.;.;.;.:.:.,.,.,.,.,.1.1.1.1.4.4.4.8.8.8.8.8.8.q.q.e.q.e.e.e.e.e.e.e.q.e.e.e.e.e.e.t.e.e.e.t.t.t.t.t.t.i.i.i.i.a.s.s.s.s.s.s.s.s.s.s.s.h.h.s.s.h.h.h.h.h.h.h.h.h.h.h.s.h.s.s.s.a.i.t.i.e.e.q.q.8.4.4.1.1.,.,.:.;.=.=.#.#.O. . .} ' ' ) ( ^ ^ Q E E E P H D B m m v v z k f p u u e q 7 4 4 1 1 > * * % $ # @ o . ^.^.^.^.^.^.^.^.^.^.^.^.^.^.^.^.^.^.^.^.^.^.^.^.^.^.^.^.^.^.^.^.^.^.^.^.^.^.^.^.^.^.^.^.^.^.^.^.^.^.^.^.^.^.^.^.^.^.^.^.^.^.^.^.^.^.^.^.^.^.^.^.^.^.^.^.^.^.^.^.^.^.^.^.^.^.^.^.^.^.^.^.^.^.^.^.^.^.^.^.^.^.^.^.^.^.^.^.^.^.^.^.^.^.^.^.^.^.^.^.^.^.^.^.^.^.^.^.^.^.^.^.^.^.^.^.^.^.^.^.^.^.^.^.^.^.^.^.^.^.^.^.^.^.^.^.^.^.^.^.^.^.^.^.^.^.^.^.^.^.^.^.^.^.^.^.^.^.^.^.^.^.^.^.^.^.^.^.^.^.^.^.^.^.^.^.^.^.^.^.^.^.^.^.^.^.^.^.^.^.^.^.^.^.^.^.^.^.^.^.^.^.^.",
"^.^.^.^.^.^.^.^.^.^.^.^.^.^.^.^.^.^.^.^.^.^.^.^.^.^.^.^.^.^.^.^.^.^.^.^.^.^.^.^.^.^.^.^.^.^.^.^.^.^.^.^.^.^.^.^.^.^.^.^.^.^.^.^.^.^.^.^.. o @ $ * > 4 7 q e u p f k z v v b m m m B B m m B D D D H H K L P E E E E E Q Q Q Q ^ ^ ^ ) ) ) ) ' ' ' ' ' ' ' ' ' ' ' ' ' ' ' } } } }  . . . . .O.O.O.O.O.#.#.#.#.#.#.=.=.=.=.=.=.=.;.;.;.;.:.:.;.;.;.;.=.;.;.;.;.;.;.:.:.:.:.:.:.;.;.;.;.;.;.;.;.=.=.=.=.=.=.#.#.#.#.O.O.O.O. . . . . . . . . . . . . .} } } } } } ' } ' ' ' ' ' ' ' ' ' } ' } } } } } }  . . . . . .O.O.O.#.#.#.#.=.=.=.=.=.;.:.:.,.,.,.,.,.1.1.1.1.1.1.4.4.4.8.8.8.8.8.8.q.q.q.e.e.e.e.q.q.e.q.q.q.e.e.q.e.e.q.e.e.e.e.t.t.t.t.t.t.t.i.i.i.i.i.a.s.s.s.s.s.s.s.s.s.s.s.s.s.s.s.s.h.s.s.h.s.s.s.s.s.a.i.i.t.t.e.q.q.8.4.4.1.1.1.,.:.:.=.=.=.#.O.O. . .} ' ' ) ( ^ Q Q E E E P H D B m m b v z k f p u e e q 7 4 4 1 1 > * * % % # @ o . ^.^.^.^.^.^.^.^.^.^.^.^.^.^.^.^.^.^.^.^.^.^.^.^.^.^.^.^.^.^.^.^.^.^.^.^.^.^.^.^.^.^.^.^.^.^.^.^.^.^.^.^.^.^.^.^.^.^.^.^.^.^.^.^.^.^.^.^.^.^.^.^.^.^.^.^.^.^.^.^.^.^.^.^.^.^.^.^.^.^.^.^.^.^.^.^.^.^.^.^.^.^.^.^.^.^.^.^.^.^.^.^.^.^.^.^.^.^.^.^.^.^.^.^.^.^.^.^.^.^.^.^.^.^.^.^.^.^.^.^.^.^.^.^.^.^.^.^.^.^.^.^.^.^.^.^.^.^.^.^.^.^.^.^.^.^.^.^.^.^.^.^.^.^.^.^.^.^.^.^.^.^.^.^.^.^.^.^.^.^.^.^.^.^.^.^.^.^.^.^.^.^.^.^.^.^.^.^.^.^.^.^.^.^.^.^.^.^.^.^.^.^.^.",
"^.^.^.^.^.^.^.^.^.^.^.^.^.^.^.^.^.^.^.^.^.^.^.^.^.^.^.^.^.^.^.^.^.^.^.^.^.^.^.^.^.^.^.^.^.^.^.^.^.^.^.^.^.^.^.^.^.^.^.^.^.^.^.^.^.^.^.^.^.. o # % * 1 4 0 e u u f f k z v v b b b m m m B B D D D D H H H K P E E E E W Q Q Q ^ ^ ^ ( ) ) ) ' ' ' ' ' ' ' ' ' ' ' ' ' ' ' } } } } } }  . . .O.O.O.O.#.O.#.#.#.#.#.#.#.=.#.=.=.=.=.=.=.=.=.=.;.=.=.=.=.=.=.=.=.;.=.;.;.:.;.;.;.;.;.=.=.;.=.=.=.=.=.=.#.#.#.#.#.O.O.O.O. . . . . . . .} } } } } ' ' ' } ' ' ' ' ' ' ' ' ' ' ' ' ' ' ' ' ' ' ' ' ' ' } } } } }  . . . . .O.O.O.#.#.#.=.=.=.=.;.;.:.:.:.,.,.,.,.,.1.1.1.1.1.4.4.4.8.8.8.8.8.8.8.q.q.q.q.q.q.q.8.q.8.8.8.q.q.8.q.q.q.q.q.e.e.e.e.t.t.t.t.t.t.i.i.i.i.i.i.i.i.i.a.s.s.a.i.s.a.s.s.s.s.s.s.s.s.s.s.s.a.i.i.t.t.t.e.q.q.8.4.4.4.1.1.,.,.:.;.=.=.#.#.O.O. . .} ' ' ) ^ ^ Q W E E E U H D B m b v v k k f p u e e 0 8 4 4 1 > > * * % $ # @ o . ^.^.^.^.^.^.^.^.^.^.^.^.^.^.^.^.^.^.^.^.^.^.^.^.^.^.^.^.^.^.^.^.^.^.^.^.^.^.^.^.^.^.^.^.^.^.^.^.^.^.^.^.^.^.^.^.^.^.^.^.^.^.^.^.^.^.^.^.^.^.^.^.^.^.^.^.^.^.^.^.^.^.^.^.^.^.^.^.^.^.^.^.^.^.^.^.^.^.^.^.^.^.^.^.^.^.^.^.^.^.^.^.^.^.^.^.^.^.^.^.^.^.^.^.^.^.^.^.^.^.^.^.^.^.^.^.^.^.^.^.^.^.^.^.^.^.^.^.^.^.^.^.^.^.^.^.^.^.^.^.^.^.^.^.^.^.^.^.^.^.^.^.^.^.^.^.^.^.^.^.^.^.^.^.^.^.^.^.^.^.^.^.^.^.^.^.^.^.^.^.^.^.^.^.^.^.^.^.^.^.^.^.^.^.^.^.^.^.^.^.^.^.^.",
"^.^.^.^.^.^.^.^.^.^.^.^.^.^.^.^.^.^.^.^.^.^.^.^.^.^.^.^.^.^.^.^.^.^.^.^.^.^.^.^.^.^.^.^.^.^.^.^.^.^.^.^.^.^.^.^.^.^.^.^.^.^.^.^.^.^.^.^.^.^.o + $ * > 4 6 q e t p f k z v x v v b b m m B B B D D D D H H H K P U E E E E Q Q Q ^ ^ ( ) ) ) ) ) ' ' ' ' ' ' ' ' ' ' ' ' ' ' ' ' } } }  . . . .O.O.O.O.O.O.#.#.O.#.#.#.#.#.#.#.=.=.=.=.=.=.=.=.=.=.=.=.=.=.=.=.=.=.=.=.;.;.;.=.=.=.=.=.=.=.=.=.=.#.#.#.#.#.O.O.O.O. . . . . .} } } ' } ' ' ' ' ' ' ' ' ' ' ' ' ' ' ' ' ' ) ) ) ) ) ) ) ) ) ' ' ' ' ' ' ' ' } } }  . . . .O.O.#.O.#.#.=.=.=.=.;.;.:.:.:.:.,.,.,.,.,.1.1.1.4.4.4.4.8.4.8.4.4.8.8.8.8.8.8.8.8.8.8.8.8.8.8.8.8.8.8.8.8.q.q.e.e.e.e.e.t.t.t.t.t.t.t.t.t.t.t.t.i.i.i.i.i.i.i.i.s.s.s.s.s.s.s.a.a.a.i.i.i.t.t.t.e.q.q.8.8.4.4.1.1.1.,.,.;.=.=.#.#.O.O.O. . .} ' ) ) ( ^ Q W E E E U H D B m b b v k k f p u t e 0 8 4 4 1 > > * * % $ + o o . ^.^.^.^.^.^.^.^.^.^.^.^.^.^.^.^.^.^.^.^.^.^.^.^.^.^.^.^.^.^.^.^.^.^.^.^.^.^.^.^.^.^.^.^.^.^.^.^.^.^.^.^.^.^.^.^.^.^.^.^.^.^.^.^.^.^.^.^.^.^.^.^.^.^.^.^.^.^.^.^.^.^.^.^.^.^.^.^.^.^.^.^.^.^.^.^.^.^.^.^.^.^.^.^.^.^.^.^.^.^.^.^.^.^.^.^.^.^.^.^.^.^.^.^.^.^.^.^.^.^.^.^.^.^.^.^.^.^.^.^.^.^.^.^.^.^.^.^.^.^.^.^.^.^.^.^.^.^.^.^.^.^.^.^.^.^.^.^.^.^.^.^.^.^.^.^.^.^.^.^.^.^.^.^.^.^.^.^.^.^.^.^.^.^.^.^.^.^.^.^.^.^.^.^.^.^.^.^.^.^.^.^.^.^.^.^.^.^.^.^.^.^.^.",
"^.^.^.^.^.^.^.^.^.^.^.^.^.^.^.^.^.^.^.^.^.^.^.^.^.^.^.^.^.^.^.^.^.^.^.^.^.^.^.^.^.^.^.^.^.^.^.^.^.^.^.^.^.^.^.^.^.^.^.^.^.^.^.^.^.^.^.^.^.^.o + % * > 1 4 8 0 e u p f k z v x x b b m m m m B B B Z D D H H H K L U E E E W Q Q ^ ^ ( ( ) ) ) ) ) ' ) ) ) ' ' ' ' ' ' ' ' ' ' ' ' } } } }  . . . .O.O.O.O.O.O.O.O.#.#.#.#.#.#.#.#.#.#.#.#.#.=.=.#.=.=.=.=.=.=.=.=.=.=.=.=.=.=.=.=.=.=.=.#.=.#.#.#.#.#.O.O.O. . . . . .} } } ' ' ' ' ' ' ' ) ) ) ) ) ) ) ) ) ) ) ) ) ) ) ) ) ) ) ) ) ) ) ) ) ) ) ) ' ' ' ' ' ' } }  . . .O.O.O.#.#.#.#.=.=.=.;.;.;.:.:.:.:.,.,.,.,.1.1.1.1.4.4.4.4.4.4.8.8.8.4.8.8.8.8.8.8.4.4.4.8.8.8.8.4.8.4.4.8.8.q.8.q.q.e.e.e.e.e.e.t.t.t.t.t.t.t.t.t.t.t.t.t.t.i.i.i.i.i.i.i.i.a.i.i.i.i.t.t.t.t.e.e.q.8.8.4.4.4.1.1.,.:.:.;.=.=.#.#.O.O. . .} } ' ) ( ^ Q Q W E E E U H D B m m b x k k f p u t e 0 6 4 1 1 > > * % % # + @ o . ^.^.^.^.^.^.^.^.^.^.^.^.^.^.^.^.^.^.^.^.^.^.^.^.^.^.^.^.^.^.^.^.^.^.^.^.^.^.^.^.^.^.^.^.^.^.^.^.^.^.^.^.^.^.^.^.^.^.^.^.^.^.^.^.^.^.^.^.^.^.^.^.^.^.^.^.^.^.^.^.^.^.^.^.^.^.^.^.^.^.^.^.^.^.^.^.^.^.^.^.^.^.^.^.^.^.^.^.^.^.^.^.^.^.^.^.^.^.^.^.^.^.^.^.^.^.^.^.^.^.^.^.^.^.^.^.^.^.^.^.^.^.^.^.^.^.^.^.^.^.^.^.^.^.^.^.^.^.^.^.^.^.^.^.^.^.^.^.^.^.^.^.^.^.^.^.^.^.^.^.^.^.^.^.^.^.^.^.^.^.^.^.^.^.^.^.^.^.^.^.^.^.^.^.^.^.^.^.^.^.^.^.^.^.^.^.^.^.^.^.^.^.^.",
"^.^.^.^.^.^.^.^.^.^.^.^.^.^.^.^.^.^.^.^.^.^.^.^.^.^.^.^.^.^.^.^.^.^.^.^.^.^.^.^.^.^.^.^.^.^.^.^.^.^.^.^.^.^.^.^.^.^.^.^.^.^.^.^.^.^.^.^.^.^.. @ % * * > 1 4 8 e u p f k k v x v v b b b b m m B B B D D H H D H K K U E E E Q Q ^ ^ ( ( ) ) ) ) ) ) ) ) ) ) ' ' ' ' ' ' ' ' ' ' ' ' ' ' } }  . . . . .O.O.O.O.O.O.O.O.#.O.#.#.#.O.#.#.#.#.#.#.#.#.#.#.#.#.#.#.=.#.#.=.#.=.=.=.=.#.=.#.#.#.#.#.#.#.O.O.O.O. . . . . .} } ' ' ' ' ' ' ) ) ) ( ( ( ( ( ^ ( ( ( ( ( ( ( ) ) ( ) ( ( ( ( ( ( ( ( ( ( ) ( ) ) ) ' ' ' } } }  . . .O.O.#.#.#.#.=.=.=.=.;.;.;.:.:.:.:.,.,.1.,.1.1.1.4.4.4.4.4.4.4.4.4.4.8.8.8.4.4.4.4.4.4.4.4.4.4.4.4.4.8.8.8.8.8.8.q.q.q.q.e.e.e.e.e.e.e.e.e.e.t.t.t.t.t.t.t.t.t.i.i.i.i.i.i.i.i.i.t.t.t.t.e.q.8.8.8.4.4.1.1.1.,.:.:.;.=.=.#.#.O.O. . . .} ' ' ) ( ^ ^ Q W E E E U K D B m m b x k k f p u t e 0 6 4 1 > > * * % % $ + o o . ^.^.^.^.^.^.^.^.^.^.^.^.^.^.^.^.^.^.^.^.^.^.^.^.^.^.^.^.^.^.^.^.^.^.^.^.^.^.^.^.^.^.^.^.^.^.^.^.^.^.^.^.^.^.^.^.^.^.^.^.^.^.^.^.^.^.^.^.^.^.^.^.^.^.^.^.^.^.^.^.^.^.^.^.^.^.^.^.^.^.^.^.^.^.^.^.^.^.^.^.^.^.^.^.^.^.^.^.^.^.^.^.^.^.^.^.^.^.^.^.^.^.^.^.^.^.^.^.^.^.^.^.^.^.^.^.^.^.^.^.^.^.^.^.^.^.^.^.^.^.^.^.^.^.^.^.^.^.^.^.^.^.^.^.^.^.^.^.^.^.^.^.^.^.^.^.^.^.^.^.^.^.^.^.^.^.^.^.^.^.^.^.^.^.^.^.^.^.^.^.^.^.^.^.^.^.^.^.^.^.^.^.^.^.^.^.^.^.^.^.^.^.^.",
"^.^.^.^.^.^.^.^.^.^.^.^.^.^.^.^.^.^.^.^.^.^.^.^.^.^.^.^.^.^.^.^.^.^.^.^.^.^.^.^.^.^.^.^.^.^.^.^.^.^.^.^.^.^.^.^.^.^.^.^.^.^.^.^.^.^.^.^.^.^.^.o # % % > 1 4 6 0 e u p f k k z v v x b v b b m b m B B D D D D D H K P E E E Q Q Q ^ ^ ( ) ) ) ) ) ) ) ) ) ) ) ) ) ) ' ' ' ' ' ' ' ' ' ' } } } }  . . . . . .O.O.O.O.O.O.O.O.O.O.O.O.O.O.O.O.O.O.O.O.#.#.#.#.#.#.#.#.#.#.#.#.=.=.#.#.#.#.#.O.O.O.O.O.O.O. . . . .} } ' ' ' ' ' ) ) ) ( ( ( ^ ^ ^ ^ Q ^ ^ ^ ^ ^ ^ ^ ( ( ( ^ ( ( ^ ( ( ( ^ ( ( ^ ( ^ ( ( ) ( ) ' ' ' } } }  . . .O.O.#.#.#.#.=.=.=.=.=.;.;.:.:.:.:.,.,.1.1.1.1.1.1.1.1.1.4.4.4.4.4.4.4.4.4.4.4.4.4.4.4.1.1.1.1.4.4.4.4.4.4.8.8.8.8.q.q.q.q.q.e.q.q.e.e.q.e.e.e.e.t.e.e.t.e.t.t.i.t.t.t.t.t.t.t.t.t.e.e.q.q.8.8.4.4.4.1.1.,.,.:.;.=.=.=.#.#.O.O. . .} } ' ' ) ( ( ^ Q W W E E U K D Z B m b x k k f p u t e 0 8 4 1 > > * * % % $ # @ o o . ^.^.^.^.^.^.^.^.^.^.^.^.^.^.^.^.^.^.^.^.^.^.^.^.^.^.^.^.^.^.^.^.^.^.^.^.^.^.^.^.^.^.^.^.^.^.^.^.^.^.^.^.^.^.^.^.^.^.^.^.^.^.^.^.^.^.^.^.^.^.^.^.^.^.^.^.^.^.^.^.^.^.^.^.^.^.^.^.^.^.^.^.^.^.^.^.^.^.^.^.^.^.^.^.^.^.^.^.^.^.^.^.^.^.^.^.^.^.^.^.^.^.^.^.^.^.^.^.^.^.^.^.^.^.^.^.^.^.^.^.^.^.^.^.^.^.^.^.^.^.^.^.^.^.^.^.^.^.^.^.^.^.^.^.^.^.^.^.^.^.^.^.^.^.^.^.^.^.^.^.^.^.^.^.^.^.^.^.^.^.^.^.^.^.^.^.^.^.^.^.^.^.^.^.^.^.^.^.^.^.^.^.^.^.^.^.^.^.^.^.^.^.",
"^.^.^.^.^.^.^.^.^.^.^.^.^.^.^.^.^.^.^.^.^.^.^.^.^.^.^.^.^.^.^.^.^.^.^.^.^.^.^.^.^.^.^.^.^.^.^.^.^.^.^.^.^.^.^.^.^.^.^.^.^.^.^.^.^.^.^.^.^.^.^.. o # % * > 1 4 0 e u p f k k z z v v x v v b b b b m B B D D D D H H P E E E W Q ^ ^ ( ( ( ) ) ) ) ) ) ) ) ) ) ) ) ) ' ' ' ' ' ' ' ' ' ' ' ' } } }  . . . . . . . . .O.O.O.O.O.O.O.O. .O.O. .O.O.O.O.O.O.O.O.O.O.O.#.O.#.#.#.#.#.#.#.#.#.O.O.O.O.O.O. . . . . .} } ' ' ' ) ) ) ( ( ( ( ( ^ ^ Q Q Q Q Q Q Q ^ ^ ^ ^ ^ ^ ^ ^ ^ ^ ^ ^ ^ ^ ^ ^ ^ ^ ^ ^ ^ ^ ( ( ) ) ' ' ' ' } }  . .O.O.O.#.#.#.#.=.=.=.=.=.;.;.;.;.:.:.,.,.1.1.1.1.1.1.1.4.4.1.4.4.4.1.4.1.1.1.1.1.1.1.1.1.1.1.1.1.1.1.4.4.4.4.4.4.8.8.8.8.8.8.q.8.8.8.q.q.q.q.q.e.e.q.e.e.e.e.t.e.t.t.t.t.e.t.e.e.e.e.q.8.8.8.8.4.4.1.1.1.,.:.:.;.=.=.#.#.#.O.O. . .} } ' ' ) ( ^ ^ Q Q E E E U K H D B m b x z k f p u u e 0 7 6 4 1 > > * * % $ # + o o . ^.^.^.^.^.^.^.^.^.^.^.^.^.^.^.^.^.^.^.^.^.^.^.^.^.^.^.^.^.^.^.^.^.^.^.^.^.^.^.^.^.^.^.^.^.^.^.^.^.^.^.^.^.^.^.^.^.^.^.^.^.^.^.^.^.^.^.^.^.^.^.^.^.^.^.^.^.^.^.^.^.^.^.^.^.^.^.^.^.^.^.^.^.^.^.^.^.^.^.^.^.^.^.^.^.^.^.^.^.^.^.^.^.^.^.^.^.^.^.^.^.^.^.^.^.^.^.^.^.^.^.^.^.^.^.^.^.^.^.^.^.^.^.^.^.^.^.^.^.^.^.^.^.^.^.^.^.^.^.^.^.^.^.^.^.^.^.^.^.^.^.^.^.^.^.^.^.^.^.^.^.^.^.^.^.^.^.^.^.^.^.^.^.^.^.^.^.^.^.^.^.^.^.^.^.^.^.^.^.^.^.^.^.^.^.^.^.^.^.^.^.^.",
"^.^.^.^.^.^.^.^.^.^.^.^.^.^.^.^.^.^.^.^.^.^.^.^.^.^.^.^.^.^.^.^.^.^.^.^.^.^.^.^.^.^.^.^.^.^.^.^.^.^.^.^.^.^.^.^.^.^.^.^.^.^.^.^.^.^.^.^.^.^.^.^.. o # % * > 4 8 q e p f f f k z z z v x v v x v b b m m B B D D D H L E E E W Q Q ^ ( ( ) ( ) ) ) ) ( ( ( ) ( ) ) ) ) ' ' ' ' ' ' ' ' ' ' ' ' ' } } } }  . . . . . . . . . . . . . . . . . . . . . . .O.O.O.O.O.O.O.O.O.O.#.#.#.#.O.O.O.O.O.O.O.O. . . . .} } } ' ' ' ' ) ) ( ( ( ^ ^ ^ ^ Q Q W Q W Q Q Q Q Q Q Q Q Q ^ Q ^ ^ ^ ^ ^ ^ ^ ^ ^ ^ ^ ^ ^ ^ ^ ^ ( ( ) ' ' ' ' }  . . .O.O.O.#.#.#.#.=.=.=.=.=.=.=.;.;.:.:.,.,.,.1.1.1.1.1.1.1.1.1.1.1.1.1.1.1.1.1.1.1.1.1.1.1.1.1.1.1.1.1.4.4.4.4.4.4.4.8.8.8.8.8.8.8.8.8.8.8.8.8.8.q.q.q.q.q.e.e.e.e.e.e.e.e.e.e.e.e.q.8.8.4.4.4.4.1.1.1.,.:.:.;.=.=.=.#.#.O.O. . . .} } ' ' ) ( ^ ^ Q Q W E E E L H D B m b v v z f p p u e q 0 6 4 1 > > * * % % # # o o o ^.^.^.^.^.^.^.^.^.^.^.^.^.^.^.^.^.^.^.^.^.^.^.^.^.^.^.^.^.^.^.^.^.^.^.^.^.^.^.^.^.^.^.^.^.^.^.^.^.^.^.^.^.^.^.^.^.^.^.^.^.^.^.^.^.^.^.^.^.^.^.^.^.^.^.^.^.^.^.^.^.^.^.^.^.^.^.^.^.^.^.^.^.^.^.^.^.^.^.^.^.^.^.^.^.^.^.^.^.^.^.^.^.^.^.^.^.^.^.^.^.^.^.^.^.^.^.^.^.^.^.^.^.^.^.^.^.^.^.^.^.^.^.^.^.^.^.^.^.^.^.^.^.^.^.^.^.^.^.^.^.^.^.^.^.^.^.^.^.^.^.^.^.^.^.^.^.^.^.^.^.^.^.^.^.^.^.^.^.^.^.^.^.^.^.^.^.^.^.^.^.^.^.^.^.^.^.^.^.^.^.^.^.^.^.^.^.^.^.^.^.^.",
"^.^.^.^.^.^.^.^.^.^.^.^.^.^.^.^.^.^.^.^.^.^.^.^.^.^.^.^.^.^.^.^.^.^.^.^.^.^.^.^.^.^.^.^.^.^.^.^.^.^.^.^.^.^.^.^.^.^.^.^.^.^.^.^.^.^.^.^.^.^.^.^.^.o @ $ * > 1 4 0 e u p p f f k k k k k k z v x v v b m m B B D D D L E E E E Q Q ^ ^ ^ ) ) ) ( ) ( ( ( ( ( ( ( ) ) ' ' ' ' ' ' ' ' ' ' ' ' ' ' ' ' ' } } }  . . . . . . . . . . . . . . .}  . . . . . . . . . .O.O.O.O.O.O.O.O.O.O.O.O.O.O. . . . . . .} } } ' ' ' ' ) ( ( ^ ^ ^ ^ ^ Q Q Q Q W E E E W E Q W W Q Q Q Q Q ^ ^ ^ ^ ^ ^ Q ^ Q ^ Q Q ^ ^ ^ ^ ^ ^ ( ) ' ' ' } }  . . .O.O.O.O.#.#.#.#.#.=.=.=.=.=.;.;.:.:.:.,.,.,.1.,.1.1.1.1.1.1.1.1.1.1.1.1.,.1.1.1.,.,.,.,.,.,.,.,.1.1.1.1.4.4.4.4.4.4.4.4.4.4.4.4.4.4.8.8.4.8.8.8.8.8.8.q.q.e.e.q.q.e.e.q.q.q.8.q.8.4.4.4.4.1.1.1.,.,.:.;.=.=.=.#.#.#.O.O. . . .} ' ' ' ) ) ( ^ Q Q W E E E U K D Z B m b v z k f p u e e 0 8 4 4 1 > > * % % $ # @ o o . ^.^.^.^.^.^.^.^.^.^.^.^.^.^.^.^.^.^.^.^.^.^.^.^.^.^.^.^.^.^.^.^.^.^.^.^.^.^.^.^.^.^.^.^.^.^.^.^.^.^.^.^.^.^.^.^.^.^.^.^.^.^.^.^.^.^.^.^.^.^.^.^.^.^.^.^.^.^.^.^.^.^.^.^.^.^.^.^.^.^.^.^.^.^.^.^.^.^.^.^.^.^.^.^.^.^.^.^.^.^.^.^.^.^.^.^.^.^.^.^.^.^.^.^.^.^.^.^.^.^.^.^.^.^.^.^.^.^.^.^.^.^.^.^.^.^.^.^.^.^.^.^.^.^.^.^.^.^.^.^.^.^.^.^.^.^.^.^.^.^.^.^.^.^.^.^.^.^.^.^.^.^.^.^.^.^.^.^.^.^.^.^.^.^.^.^.^.^.^.^.^.^.^.^.^.^.^.^.^.^.^.^.^.^.^.^.^.^.^.^.^.",
"^.^.^.^.^.^.^.^.^.^.^.^.^.^.^.^.^.^.^.^.^.^.^.^.^.^.^.^.^.^.^.^.^.^.^.^.^.^.^.^.^.^.^.^.^.^.^.^.^.^.^.^.^.^.^.^.^.^.^.^.^.^.^.^.^.^.^.^.^.^.^.^.^.. o $ % > 1 4 8 0 e u u p f f f f k k k z z v v x x b m m B B D D H P E E E W Q Q ^ ^ ^ ( ( ( ( ( ( ^ ^ ^ ) ) ) ) ' ' ' ' ' ) ' ' ' ' ' ' ' ' ' ' ' ' ' } } }  .} }  .} } } } } } } } } } } } } }  . . . . . . . . .O.O.O.O.O.O.O.O. . . . . . . . . .} } ' ' ' ' ) ) ( ( ^ ^ ^ Q Q Q Q W E E E E E E E E E Q Q Q Q Q Q Q Q Q Q Q Q Q Q Q Q Q Q Q Q Q ^ ^ ^ ( ( ) ) ' ' }  . . . .O.O.O.O.O.#.#.#.#.#.=.=.=.=.;.;.:.:.,.,.,.,.1.,.1.1.1.1.,.1.,.,.,.,.,.,.,.,.,.,.,.,.:.:.:.,.,.,.1.1.1.1.1.4.4.4.4.4.4.4.4.4.4.4.4.4.4.4.4.4.8.8.8.8.8.8.8.8.q.q.8.q.8.8.8.8.8.4.4.4.4.1.1.1.1.,.,.:.;.=.=.=.#.#.#.O.O. . .} } ' ' ' ) ) ( ^ Q Q Q E E E E K H D B m b x k k f p u u e q 0 6 4 1 1 > * * % % # + o o . ^.^.^.^.^.^.^.^.^.^.^.^.^.^.^.^.^.^.^.^.^.^.^.^.^.^.^.^.^.^.^.^.^.^.^.^.^.^.^.^.^.^.^.^.^.^.^.^.^.^.^.^.^.^.^.^.^.^.^.^.^.^.^.^.^.^.^.^.^.^.^.^.^.^.^.^.^.^.^.^.^.^.^.^.^.^.^.^.^.^.^.^.^.^.^.^.^.^.^.^.^.^.^.^.^.^.^.^.^.^.^.^.^.^.^.^.^.^.^.^.^.^.^.^.^.^.^.^.^.^.^.^.^.^.^.^.^.^.^.^.^.^.^.^.^.^.^.^.^.^.^.^.^.^.^.^.^.^.^.^.^.^.^.^.^.^.^.^.^.^.^.^.^.^.^.^.^.^.^.^.^.^.^.^.^.^.^.^.^.^.^.^.^.^.^.^.^.^.^.^.^.^.^.^.^.^.^.^.^.^.^.^.^.^.^.^.^.^.^.^.^.",
"^.^.^.^.^.^.^.^.^.^.^.^.^.^.^.^.^.^.^.^.^.^.^.^.^.^.^.^.^.^.^.^.^.^.^.^.^.^.^.^.^.^.^.^.^.^.^.^.^.^.^.^.^.^.^.^.^.^.^.^.^.^.^.^.^.^.^.^.^.^.^.^.^.^.o + % * > 4 4 8 q e t u p p f f f f k k k k z z v v b m m B D D H K U E E W Q Q Q ^ ^ ( ^ ( ( ( ^ ( ^ ^ ( ) ) ) ) ) ' ' ' ) ) ' ' ' ' ' ' ' } } ' ' ' ' ' ' } } } } } } } ' ' ' ' ' ' ' ' } } } } }  .} }  . . . . . . . . . . . . . . . . . .} } } ' ' ' ' ' ) ) ( ( ^ ^ ^ ^ Q Q W W W E E E E E E E E E E Q Q W Q Q Q Q Q Q Q Q Q Q Q Q Q ^ Q Q Q Q ^ ^ ^ ( ( ) ' ' } } }  . . . .O.O.O.#.O.#.#.#.#.=.=.=.=.;.;.:.:.:.:.,.,.,.,.,.,.,.,.:.,.,.:.:.:.:.:.:.:.:.:.:.:.:.:.:.:.,.,.,.,.1.1.1.1.1.1.1.1.4.4.4.4.4.4.1.4.4.4.4.4.4.4.8.8.4.8.4.8.8.8.8.8.8.8.4.4.4.4.4.1.1.1.,.,.:.:.;.;.=.=.=.#.#.#.O.O. . .} } ' ' ' ) ) ( ^ ^ Q Q W E E E U H D B m b x z k f p p u e e 0 8 4 4 > > * * * % % # @ o . ^.^.^.^.^.^.^.^.^.^.^.^.^.^.^.^.^.^.^.^.^.^.^.^.^.^.^.^.^.^.^.^.^.^.^.^.^.^.^.^.^.^.^.^.^.^.^.^.^.^.^.^.^.^.^.^.^.^.^.^.^.^.^.^.^.^.^.^.^.^.^.^.^.^.^.^.^.^.^.^.^.^.^.^.^.^.^.^.^.^.^.^.^.^.^.^.^.^.^.^.^.^.^.^.^.^.^.^.^.^.^.^.^.^.^.^.^.^.^.^.^.^.^.^.^.^.^.^.^.^.^.^.^.^.^.^.^.^.^.^.^.^.^.^.^.^.^.^.^.^.^.^.^.^.^.^.^.^.^.^.^.^.^.^.^.^.^.^.^.^.^.^.^.^.^.^.^.^.^.^.^.^.^.^.^.^.^.^.^.^.^.^.^.^.^.^.^.^.^.^.^.^.^.^.^.^.^.^.^.^.^.^.^.^.^.^.^.^.^.^.^.",
"^.^.^.^.^.^.^.^.^.^.^.^.^.^.^.^.^.^.^.^.^.^.^.^.^.^.^.^.^.^.^.^.^.^.^.^.^.^.^.^.^.^.^.^.^.^.^.^.^.^.^.^.^.^.^.^.^.^.^.^.^.^.^.^.^.^.^.^.^.^.^.^.^.^.. @ % * > 1 4 4 7 q e u u u p p p p f f k k z z z x b m m B B B D H P E E E Q Q Q Q ^ ^ ^ ( ^ ^ ^ ^ ^ ^ ( ) ) ) ) ) ' ' ' ' ) ' ' ' ' ' ' ' ' ' ' ' ' ' ' ' ' ' ' } ' } ' ' ' ' ' ' ' ' ' ' } } ' } ' } } }  . .}  . . . . . . . . . . .} } } } } } ' ' ' ' ) ) ) ^ ( ^ ^ Q Q Q Q E W E E E E E E E E E E E E W Q W Q Q Q Q Q Q Q Q Q Q W Q Q Q Q Q Q Q Q ^ ^ ( ( ) ' ' } } } }  . . .O.O.O.O.O.O.#.#.#.#.=.=.=.=.;.:.:.:.:.:.:.:.:.,.:.:.:.:.:.:.:.:.;.;.:.;.;.;.;.;.;.;.;.:.:.:.:.,.,.1.1.1.1.1.1.1.1.4.1.1.1.4.1.1.1.1.1.4.4.4.4.4.4.4.4.8.8.8.4.4.4.4.4.4.4.1.1.1.1.1.,.,.:.:.;.=.=.=.=.#.#.O.O. . . .} } ' ' ' ) ) ( ^ ^ Q Q W E E E U K D B m b v z k f f p u t e q 7 6 4 1 > * * % % $ # @ o . ^.^.^.^.^.^.^.^.^.^.^.^.^.^.^.^.^.^.^.^.^.^.^.^.^.^.^.^.^.^.^.^.^.^.^.^.^.^.^.^.^.^.^.^.^.^.^.^.^.^.^.^.^.^.^.^.^.^.^.^.^.^.^.^.^.^.^.^.^.^.^.^.^.^.^.^.^.^.^.^.^.^.^.^.^.^.^.^.^.^.^.^.^.^.^.^.^.^.^.^.^.^.^.^.^.^.^.^.^.^.^.^.^.^.^.^.^.^.^.^.^.^.^.^.^.^.^.^.^.^.^.^.^.^.^.^.^.^.^.^.^.^.^.^.^.^.^.^.^.^.^.^.^.^.^.^.^.^.^.^.^.^.^.^.^.^.^.^.^.^.^.^.^.^.^.^.^.^.^.^.^.^.^.^.^.^.^.^.^.^.^.^.^.^.^.^.^.^.^.^.^.^.^.^.^.^.^.^.^.^.^.^.^.^.^.^.^.^.^.^.^.",
"^.^.^.^.^.^.^.^.^.^.^.^.^.^.^.^.^.^.^.^.^.^.^.^.^.^.^.^.^.^.^.^.^.^.^.^.^.^.^.^.^.^.^.^.^.^.^.^.^.^.^.^.^.^.^.^.^.^.^.^.^.^.^.^.^.^.^.^.^.^.^.^.^.^.^.o # % * > 1 4 4 7 q e t u u u u p p p f f k k k v x b m m B B Z D K E E E E W Q Q Q ^ ^ ^ ^ ^ ^ ^ ^ ^ ( ( ) ) ) ) ) ) ) ) ) ' ' ' ' ' ' ' ' ' ' ' ' ' ' ' ' ' ' ' ' ' ' ' ) ) ) ) ) ' ' ' ' ' ' ' ' ' ' ' } } } } }  . . . . .} } } } } } } ' ' ' ' ' ) ) ) ) ^ ( ^ ^ Q Q Q W Q E E E E E E E E E E E E E E E E E Q W W W W W W W W W Q E Q E Q W Q Q Q ^ ^ ^ ( ( ) ' ' ' } }  . . . . .O.O.O.O.O.#.#.#.#.=.=.=.=.;.;.;.;.:.:.:.:.:.:.:.:.:.;.;.;.;.=.=.=.=.=.=.=.=.=.;.;.;.:.:.:.:.,.,.,.1.,.1.1.1.1.1.1.1.1.1.1.1.1.1.1.1.1.4.4.4.4.4.4.4.4.4.4.4.4.4.4.1.4.1.1.1.,.,.,.:.:.;.;.=.=.=.#.#.#.O.O. . . .} } ' ' ' ' ) ( ^ ^ Q Q Q E E E U L H B m b x z k f f p u u e q 0 6 4 1 > * * * % $ # o o . ^.^.^.^.^.^.^.^.^.^.^.^.^.^.^.^.^.^.^.^.^.^.^.^.^.^.^.^.^.^.^.^.^.^.^.^.^.^.^.^.^.^.^.^.^.^.^.^.^.^.^.^.^.^.^.^.^.^.^.^.^.^.^.^.^.^.^.^.^.^.^.^.^.^.^.^.^.^.^.^.^.^.^.^.^.^.^.^.^.^.^.^.^.^.^.^.^.^.^.^.^.^.^.^.^.^.^.^.^.^.^.^.^.^.^.^.^.^.^.^.^.^.^.^.^.^.^.^.^.^.^.^.^.^.^.^.^.^.^.^.^.^.^.^.^.^.^.^.^.^.^.^.^.^.^.^.^.^.^.^.^.^.^.^.^.^.^.^.^.^.^.^.^.^.^.^.^.^.^.^.^.^.^.^.^.^.^.^.^.^.^.^.^.^.^.^.^.^.^.^.^.^.^.^.^.^.^.^.^.^.^.^.^.^.^.^.^.^.^.^.^.",
"^.^.^.^.^.^.^.^.^.^.^.^.^.^.^.^.^.^.^.^.^.^.^.^.^.^.^.^.^.^.^.^.^.^.^.^.^.^.^.^.^.^.^.^.^.^.^.^.^.^.^.^.^.^.^.^.^.^.^.^.^.^.^.^.^.^.^.^.^.^.^.^.^.^.^.. o % * * > 1 4 6 0 q e e e e t u u p p f f f k k x v b m m m B D H U E E E Q Q Q Q Q ^ ^ ^ ^ ^ ^ ^ ^ ( ) ( ) ) ) ) ) ) ) ) ' ' ' ' ' ' ' ' ' ' ' ' ' ' ' ' ' ' ' ' ) ) ) ) ( ( ( ) ) ) ) ' ' ' ' ' ' ' ' ' ' ' ' } } } } } } } } ' } } ' ' ' ' ' ' ) ) ( ) ( ^ ^ ^ Q Q Q Q Q E E E E E E E E E E E E E E E E E E E E E E E E E W E W E E E E E E Q Q Q Q Q ^ ^ ( ) ) ' ' ' ' } } }  . . .O.O.O.O.O.#.O.#.#.#.=.=.=.=.=.;.;.;.;.;.;.;.;.;.;.;.=.=.=.=.=.=.=.=.=.=.=.=.=.=.=.;.;.:.:.,.,.,.,.,.,.,.1.1.1.1.1.1.1.,.1.,.1.1.1.1.1.1.1.4.1.4.4.4.4.4.1.4.4.4.1.1.1.1.,.,.,.:.:.:.;.;.=.=.=.#.#.O.O.O.O. . . .} ' ' ' ) ) ( ^ ^ Q Q Q W E E E L H D B b x z k k f p u u e q 0 6 4 1 > > * * % $ # o o . ^.^.^.^.^.^.^.^.^.^.^.^.^.^.^.^.^.^.^.^.^.^.^.^.^.^.^.^.^.^.^.^.^.^.^.^.^.^.^.^.^.^.^.^.^.^.^.^.^.^.^.^.^.^.^.^.^.^.^.^.^.^.^.^.^.^.^.^.^.^.^.^.^.^.^.^.^.^.^.^.^.^.^.^.^.^.^.^.^.^.^.^.^.^.^.^.^.^.^.^.^.^.^.^.^.^.^.^.^.^.^.^.^.^.^.^.^.^.^.^.^.^.^.^.^.^.^.^.^.^.^.^.^.^.^.^.^.^.^.^.^.^.^.^.^.^.^.^.^.^.^.^.^.^.^.^.^.^.^.^.^.^.^.^.^.^.^.^.^.^.^.^.^.^.^.^.^.^.^.^.^.^.^.^.^.^.^.^.^.^.^.^.^.^.^.^.^.^.^.^.^.^.^.^.^.^.^.^.^.^.^.^.^.^.^.^.^.^.^.^.^.",
"^.^.^.^.^.^.^.^.^.^.^.^.^.^.^.^.^.^.^.^.^.^.^.^.^.^.^.^.^.^.^.^.^.^.^.^.^.^.^.^.^.^.^.^.^.^.^.^.^.^.^.^.^.^.^.^.^.^.^.^.^.^.^.^.^.^.^.^.^.^.^.^.^.^.^.^.o @ % * > > 1 4 8 7 0 0 0 q e e u u u p p f f k z v v b m m m B D H U E E E E Q Q Q Q Q ^ ^ ^ ^ ^ ^ ( ( ) ( ) ) ) ) ) ) ' ) ' ) ' ' ' ' ' ' ' ' ' ' ' ' ) ) ) ) ) ) ( ^ ^ ^ ^ ( ^ ( ( ) ) ) ) ) ) ) ) ' ' ' ' ' ' ' } ' ' } ' ' ' ' ' ' ' ' ' ' ' ) ) ( ( ^ ^ ^ Q Q Q Q Q E E E E E E E E E E U U E U E E E E E E E E E E E E E E E E E E E E E E Q Q Q Q Q ^ ^ ( ( ) ' ' ' ' ' } }  . . .O.O.O.O.O.#.#.#.#.#.=.=.=.=.=.=.=.=.=.=.;.=.=.=.=.=.#.#.#.#.#.#.=.#.=.=.=.=.=.=.=.;.;.:.:.:.:.,.,.,.,.,.,.,.,.,.,.,.,.,.,.,.,.,.1.1.1.1.1.1.1.4.1.1.1.4.1.1.1.1.1.1.,.,.,.,.,.:.;.;.=.=.=.#.#.#.#.O.O.O. . .} } ' ' ' ) ) ( ( ^ ^ Q Q W E E E P H D B m v z z k f p p u t e 0 8 4 4 1 > * * % $ # @ o . ^.^.^.^.^.^.^.^.^.^.^.^.^.^.^.^.^.^.^.^.^.^.^.^.^.^.^.^.^.^.^.^.^.^.^.^.^.^.^.^.^.^.^.^.^.^.^.^.^.^.^.^.^.^.^.^.^.^.^.^.^.^.^.^.^.^.^.^.^.^.^.^.^.^.^.^.^.^.^.^.^.^.^.^.^.^.^.^.^.^.^.^.^.^.^.^.^.^.^.^.^.^.^.^.^.^.^.^.^.^.^.^.^.^.^.^.^.^.^.^.^.^.^.^.^.^.^.^.^.^.^.^.^.^.^.^.^.^.^.^.^.^.^.^.^.^.^.^.^.^.^.^.^.^.^.^.^.^.^.^.^.^.^.^.^.^.^.^.^.^.^.^.^.^.^.^.^.^.^.^.^.^.^.^.^.^.^.^.^.^.^.^.^.^.^.^.^.^.^.^.^.^.^.^.^.^.^.^.^.^.^.^.^.^.^.^.^.^.^.^.^.",
"^.^.^.^.^.^.^.^.^.^.^.^.^.^.^.^.^.^.^.^.^.^.^.^.^.^.^.^.^.^.^.^.^.^.^.^.^.^.^.^.^.^.^.^.^.^.^.^.^.^.^.^.^.^.^.^.^.^.^.^.^.^.^.^.^.^.^.^.^.^.^.^.^.^.^.^.^.o + % * * > 4 4 4 6 8 8 0 q e e u u u p p f f k z v v b m m B B H L U E E E W Q Q Q Q Q Q Q ^ ^ ^ ^ ( ( ( ) ( ( ) ) ) ) ' ) ) ' ' ' ' ' ' ' ' ' ' ) ) ) ( ) ( ( ( ^ ^ ^ ^ ^ ^ ^ ^ ^ ( ( ) ) ) ) ) ) ) ) ) ' ' ' ' ' ' ' ' ' ' ' ' ' ' ' ' ) ) ) ) ( ^ ^ ^ Q Q Q Q Q W Q E E E E E E E E U U U U U E E E E E E E E E E E E E E E E E E E E E E E E Q Q Q Q Q ^ ^ ^ ) ) ' ' ' ' } } }  . . . . .O.O.O.O.O.#.#.#.#.=.#.=.=.=.=.=.=.=.=.#.=.=.#.#.#.#.#.#.#.#.#.#.#.#.#.=.=.=.=.=.=.;.:.:.:.:.:.:.,.,.:.,.,.,.,.,.:.,.,.,.,.,.,.1.,.1.1.1.1.1.1.1.1.1.1.1.1.1.,.,.:.:.:.:.:.;.;.=.=.=.#.#.#.#.O.O. . . .} } ' ' ' ) ( ( ^ ^ ^ Q Q W E E E U H D B m b v z k f f p u u e 0 7 4 4 1 1 > * * $ # o o . ^.^.^.^.^.^.^.^.^.^.^.^.^.^.^.^.^.^.^.^.^.^.^.^.^.^.^.^.^.^.^.^.^.^.^.^.^.^.^.^.^.^.^.^.^.^.^.^.^.^.^.^.^.^.^.^.^.^.^.^.^.^.^.^.^.^.^.^.^.^.^.^.^.^.^.^.^.^.^.^.^.^.^.^.^.^.^.^.^.^.^.^.^.^.^.^.^.^.^.^.^.^.^.^.^.^.^.^.^.^.^.^.^.^.^.^.^.^.^.^.^.^.^.^.^.^.^.^.^.^.^.^.^.^.^.^.^.^.^.^.^.^.^.^.^.^.^.^.^.^.^.^.^.^.^.^.^.^.^.^.^.^.^.^.^.^.^.^.^.^.^.^.^.^.^.^.^.^.^.^.^.^.^.^.^.^.^.^.^.^.^.^.^.^.^.^.^.^.^.^.^.^.^.^.^.^.^.^.^.^.^.^.^.^.^.^.^.^.^.^.^.",
"^.^.^.^.^.^.^.^.^.^.^.^.^.^.^.^.^.^.^.^.^.^.^.^.^.^.^.^.^.^.^.^.^.^.^.^.^.^.^.^.^.^.^.^.^.^.^.^.^.^.^.^.^.^.^.^.^.^.^.^.^.^.^.^.^.^.^.^.^.^.^.^.^.^.^.^.^.^.o # % * > > 1 4 4 4 4 6 0 q e e u u u p p f k z z v v b m m B D H U E E E Q Q Q Q Q Q Q Q Q ^ ^ ^ ^ ( ( ( ( ( ) ) ( ) ) ) ) ) ' ' ' ' ' ' ' ' ' ) ) ) ( ^ ( ^ ^ ^ Q ^ Q Q Q ^ Q ^ ^ ^ ^ ( ( ( ) ( ) ) ) ) ) ) ) ) ' ' ' ) ' ' ' ' ' ) ) ( ) ( ( ( ^ Q Q Q Q Q Q E W E E E E E E E E U U P P U P P P U U E E E E E E E E E E E E E E E E E E E E E W Q Q Q ^ ^ ^ ( ( ) ' ' ' ' ' }  . . . . . .O.O.O.O.O.#.#.#.#.#.#.#.=.#.#.#.#.#.#.#.#.O.#.O.O.O.O.O.O.O.O.#.O.#.#.#.#.=.#.=.=.=.;.;.;.:.:.:.:.:.:.:.:.:.:.:.:.:.:.,.,.,.,.,.1.,.1.1.1.1.,.1.1.1.1.1.,.,.,.:.:.:.:.;.;.=.=.=.=.#.#.#.O.O.O. . . .} } ' ' ' ) ( ( ( ^ Q Q Q Q E E E U K D B m b x z k f f p u u e q 0 6 4 1 1 > * % $ + o o ^.^.^.^.^.^.^.^.^.^.^.^.^.^.^.^.^.^.^.^.^.^.^.^.^.^.^.^.^.^.^.^.^.^.^.^.^.^.^.^.^.^.^.^.^.^.^.^.^.^.^.^.^.^.^.^.^.^.^.^.^.^.^.^.^.^.^.^.^.^.^.^.^.^.^.^.^.^.^.^.^.^.^.^.^.^.^.^.^.^.^.^.^.^.^.^.^.^.^.^.^.^.^.^.^.^.^.^.^.^.^.^.^.^.^.^.^.^.^.^.^.^.^.^.^.^.^.^.^.^.^.^.^.^.^.^.^.^.^.^.^.^.^.^.^.^.^.^.^.^.^.^.^.^.^.^.^.^.^.^.^.^.^.^.^.^.^.^.^.^.^.^.^.^.^.^.^.^.^.^.^.^.^.^.^.^.^.^.^.^.^.^.^.^.^.^.^.^.^.^.^.^.^.^.^.^.^.^.^.^.^.^.^.^.^.^.^.^.^.^.^.^.",
"^.^.^.^.^.^.^.^.^.^.^.^.^.^.^.^.^.^.^.^.^.^.^.^.^.^.^.^.^.^.^.^.^.^.^.^.^.^.^.^.^.^.^.^.^.^.^.^.^.^.^.^.^.^.^.^.^.^.^.^.^.^.^.^.^.^.^.^.^.^.^.^.^.^.^.^.^.^.. o # % * * > > 1 1 1 4 4 8 q e e u u p p f f k z z v v b m B D H L U E E E W Q Q Q Q Q Q Q Q Q ^ ^ ^ ( ( ( ( ( ) ) ) ) ) ) ) ' ) ) ' ) ) ) ) ) ) ( ( ( ( ^ ^ Q Q Q Q Q Q Q Q Q Q Q ^ ^ ^ ^ ^ ( ^ ( ( ( ( ( ( ( ) ) ) ) ) ) ) ) ( ( ( ( ^ ( ^ ^ ^ Q Q Q Q W W E W E E E E E E E E U P L L L P L K K K L P U E E E E E E E E E E E E E E E E E E E E Q Q Q Q ^ ^ ^ ( ( ) ) ' ' ' } } } }  . . .O. .O.O.O.O.O.#.#.#.#.#.#.#.#.#.#.O.O.O.O.O.O.O.O.O.O.O.O.O.O.O.O.O.#.#.#.#.#.#.=.=.=.=.=.;.;.;.;.;.;.:.;.;.:.;.;.;.;.,.:.,.,.,.,.,.,.,.1.1.,.,.,.,.,.,.,.:.:.:.:.:.;.;.;.=.=.=.=.#.#.#.O.O.O. . . .} } ' ' ' ) ( ( ^ ^ ^ Q Q W E E E U K D Z m b v v z k f p p u e e 0 8 6 4 1 > * % $ + o o ^.^.^.^.^.^.^.^.^.^.^.^.^.^.^.^.^.^.^.^.^.^.^.^.^.^.^.^.^.^.^.^.^.^.^.^.^.^.^.^.^.^.^.^.^.^.^.^.^.^.^.^.^.^.^.^.^.^.^.^.^.^.^.^.^.^.^.^.^.^.^.^.^.^.^.^.^.^.^.^.^.^.^.^.^.^.^.^.^.^.^.^.^.^.^.^.^.^.^.^.^.^.^.^.^.^.^.^.^.^.^.^.^.^.^.^.^.^.^.^.^.^.^.^.^.^.^.^.^.^.^.^.^.^.^.^.^.^.^.^.^.^.^.^.^.^.^.^.^.^.^.^.^.^.^.^.^.^.^.^.^.^.^.^.^.^.^.^.^.^.^.^.^.^.^.^.^.^.^.^.^.^.^.^.^.^.^.^.^.^.^.^.^.^.^.^.^.^.^.^.^.^.^.^.^.^.^.^.^.^.^.^.^.^.^.^.^.^.^.^.^.^.",
"^.^.^.^.^.^.^.^.^.^.^.^.^.^.^.^.^.^.^.^.^.^.^.^.^.^.^.^.^.^.^.^.^.^.^.^.^.^.^.^.^.^.^.^.^.^.^.^.^.^.^.^.^.^.^.^.^.^.^.^.^.^.^.^.^.^.^.^.^.^.^.^.^.^.^.^.^.^.^.. o @ $ % % * > > 1 4 4 6 0 q e u u p p p f f k k k v v b m B D H K E E E E E Q Q Q Q Q W Q Q ^ Q ^ ^ ( ^ ( ( ( ( ) ) ) ) ) ) ' ) ) ) ) ) ) ( ) ( ^ ^ ^ ^ Q Q Q Q Q Q W Q W Q Q Q Q ^ ^ ^ ^ ^ ^ ^ ^ ^ ^ ^ ( ^ ^ ( ( ( ( ( ( ( ( ^ ^ ^ ^ ^ Q Q Q Q Q Q Q E W E E E E E E E E E E P L K K K K K H H H H K L P U E E E E E E E E E E E E E E E E E E W W Q Q Q ^ ^ ^ ^ ( ) ) ' ' ' ' } }  . . . . . . .O.O.O.O.O.O.O.O.O.O.O.O.O.O.O.O. .O. .O. .O. .O. . . .O.O.O.O.O.O.#.#.#.#.#.=.=.=.=.=.=.;.;.;.;.;.;.;.;.;.;.;.;.:.:.:.:.,.,.,.,.,.,.,.,.,.,.,.,.:.:.:.:.:.;.;.;.;.=.=.=.=.#.#.#.#.O.O. . . .} } ' ' ' ) ( ( ^ ^ ^ Q Q Q E E E U K D B B b v v z k f f p u t e 0 7 4 4 1 > * % $ @ o . ^.^.^.^.^.^.^.^.^.^.^.^.^.^.^.^.^.^.^.^.^.^.^.^.^.^.^.^.^.^.^.^.^.^.^.^.^.^.^.^.^.^.^.^.^.^.^.^.^.^.^.^.^.^.^.^.^.^.^.^.^.^.^.^.^.^.^.^.^.^.^.^.^.^.^.^.^.^.^.^.^.^.^.^.^.^.^.^.^.^.^.^.^.^.^.^.^.^.^.^.^.^.^.^.^.^.^.^.^.^.^.^.^.^.^.^.^.^.^.^.^.^.^.^.^.^.^.^.^.^.^.^.^.^.^.^.^.^.^.^.^.^.^.^.^.^.^.^.^.^.^.^.^.^.^.^.^.^.^.^.^.^.^.^.^.^.^.^.^.^.^.^.^.^.^.^.^.^.^.^.^.^.^.^.^.^.^.^.^.^.^.^.^.^.^.^.^.^.^.^.^.^.^.^.^.^.^.^.^.^.^.^.^.^.^.^.^.^.^.^.^.^.",
"^.^.^.^.^.^.^.^.^.^.^.^.^.^.^.^.^.^.^.^.^.^.^.^.^.^.^.^.^.^.^.^.^.^.^.^.^.^.^.^.^.^.^.^.^.^.^.^.^.^.^.^.^.^.^.^.^.^.^.^.^.^.^.^.^.^.^.^.^.^.^.^.^.^.^.^.^.^.^.^.. o o + $ % * > > 1 1 4 6 0 q e u u u p p f f f k z v b m B Z D H P E E E E E E Q W Q W Q Q Q Q ^ ^ ^ ^ ( ( ( ( ( ( ) ( ) ) ) ) ) ) ( ( ( ( ( ^ ^ ^ ^ Q Q Q Q Q E E E E E E E E Q Q Q ^ ^ ^ ^ ^ ^ ^ ^ ^ Q ^ ^ ^ ^ ^ ( ^ ^ ^ ^ ^ ^ ^ Q Q Q Q Q Q W W E W E E E E E E E E E E P K K H H H H H H H H H H K L P U U E E E E E E E E E E E E E E E E E Q W Q Q Q Q ^ ^ ^ ( ( ) ' ' ' } } }  .}  . . . . . . .O.O.O.O.O.O.O.O.O.O. . . . . . . . . . . . . . . . . .O.O.O.O.O.O.O.#.#.#.#.=.=.=.=.=.=.=.=.=.=.;.=.=.;.=.;.:.:.:.:.:.:.,.:.:.:.:.:.:.:.:.:.:.:.:.:.:.;.;.;.=.=.=.=.#.#.#.O.O.O.O. . .} } ' ' ' ) ) ( ( ^ Q Q Q W E E E E K D Z B b v v z k f f p u t e 0 8 4 4 > * % $ # o o ^.^.^.^.^.^.^.^.^.^.^.^.^.^.^.^.^.^.^.^.^.^.^.^.^.^.^.^.^.^.^.^.^.^.^.^.^.^.^.^.^.^.^.^.^.^.^.^.^.^.^.^.^.^.^.^.^.^.^.^.^.^.^.^.^.^.^.^.^.^.^.^.^.^.^.^.^.^.^.^.^.^.^.^.^.^.^.^.^.^.^.^.^.^.^.^.^.^.^.^.^.^.^.^.^.^.^.^.^.^.^.^.^.^.^.^.^.^.^.^.^.^.^.^.^.^.^.^.^.^.^.^.^.^.^.^.^.^.^.^.^.^.^.^.^.^.^.^.^.^.^.^.^.^.^.^.^.^.^.^.^.^.^.^.^.^.^.^.^.^.^.^.^.^.^.^.^.^.^.^.^.^.^.^.^.^.^.^.^.^.^.^.^.^.^.^.^.^.^.^.^.^.^.^.^.^.^.^.^.^.^.^.^.^.^.^.^.^.^.^.^.^.^.",
"^.^.^.^.^.^.^.^.^.^.^.^.^.^.^.^.^.^.^.^.^.^.^.^.^.^.^.^.^.^.^.^.^.^.^.^.^.^.^.^.^.^.^.^.^.^.^.^.^.^.^.^.^.^.^.^.^.^.^.^.^.^.^.^.^.^.^.^.^.^.^.^.^.^.^.^.^.^.^.^.^.^.. o @ $ % * > > 1 4 4 8 0 q e t t u u u p f f z z x b m B Z D K P E E E E E E W Q Q W Q Q Q Q Q ^ ^ ^ ^ ^ ( ^ ( ( ) ( ) ) ) ( ( ( ( ^ ^ ^ ^ ^ ^ Q Q Q W E E E E E E E E E E E Q Q Q Q Q Q Q Q Q Q Q Q Q ^ Q ^ ^ ^ ^ ^ ^ Q Q Q Q Q Q Q Q Q Q E E E E E E E E E E E E U P L H H H H H H D D H H H K K L P P P U E E E E E E E E E E E E E E E E E Q Q Q Q Q Q ^ ^ ^ ( ) ) ' ' ' ' ' } } }  . . . . . . . . .O.O. . . .O. . . . . . .} } }  .}  . . . . . . . . .O. .O.O.O.O.O.#.#.#.#.=.=.=.=.=.=.=.=.=.=.=.=.=.;.;.;.:.;.:.:.:.:.:.:.:.:.:.:.:.:.:.:.:.;.;.;.;.;.=.=.=.=.#.#.#.O.O.O. . . .} } ' ' ' ) ) ( ( ^ ^ Q Q W E E E E L D Z m b v v k k f f p u e e q 7 4 4 > * % $ + o . ^.^.^.^.^.^.^.^.^.^.^.^.^.^.^.^.^.^.^.^.^.^.^.^.^.^.^.^.^.^.^.^.^.^.^.^.^.^.^.^.^.^.^.^.^.^.^.^.^.^.^.^.^.^.^.^.^.^.^.^.^.^.^.^.^.^.^.^.^.^.^.^.^.^.^.^.^.^.^.^.^.^.^.^.^.^.^.^.^.^.^.^.^.^.^.^.^.^.^.^.^.^.^.^.^.^.^.^.^.^.^.^.^.^.^.^.^.^.^.^.^.^.^.^.^.^.^.^.^.^.^.^.^.^.^.^.^.^.^.^.^.^.^.^.^.^.^.^.^.^.^.^.^.^.^.^.^.^.^.^.^.^.^.^.^.^.^.^.^.^.^.^.^.^.^.^.^.^.^.^.^.^.^.^.^.^.^.^.^.^.^.^.^.^.^.^.^.^.^.^.^.^.^.^.^.^.^.^.^.^.^.^.^.^.^.^.^.^.^.^.^.^.^.",
"^.^.^.^.^.^.^.^.^.^.^.^.^.^.^.^.^.^.^.^.^.^.^.^.^.^.^.^.^.^.^.^.^.^.^.^.^.^.^.^.^.^.^.^.^.^.^.^.^.^.^.^.^.^.^.^.^.^.^.^.^.^.^.^.^.^.^.^.^.^.^.^.^.^.^.^.^.^.^.^.^.^.^.^.o o $ % * * > 1 1 4 8 0 e e e e t u u p f k z z x b m B B H K U E E E E E E E Q W Q Q Q Q Q ^ Q ^ ^ ^ ^ ^ ( ( ( ) ) ) ( ( ^ ^ ^ ^ ^ ^ ^ ^ Q Q Q W W E E E E E E E E E E E E Q Q Q Q Q Q Q W Q Q Q Q Q Q Q Q Q Q Q Q Q Q Q W Q W Q W E E E E E E E E E E E U U L K K K H D D D D D D D H H H K K L P L P U U E E E E E E E E E E E E E E E E E Q W Q Q Q Q ^ ^ ( ( ) ' ' ' ' ' ' } } } } }  . . . . . . . . . . . . . . .} } } } } } ' } } } } } }  . . . . . . . .O.O.O.O.#.#.#.#.#.=.=.=.=.=.=.=.=.=.=.=.=.=.;.;.;.;.:.:.:.;.;.:.;.;.:.:.:.:.:.:.;.;.;.;.=.=.=.=.#.#.#.#.O.O.O. . .} } ' ' ' ' ) ) ) ( ^ Q Q Q W E E E U K D B m b v v k k f p u u e e 0 8 4 1 > * % # @ o . ^.^.^.^.^.^.^.^.^.^.^.^.^.^.^.^.^.^.^.^.^.^.^.^.^.^.^.^.^.^.^.^.^.^.^.^.^.^.^.^.^.^.^.^.^.^.^.^.^.^.^.^.^.^.^.^.^.^.^.^.^.^.^.^.^.^.^.^.^.^.^.^.^.^.^.^.^.^.^.^.^.^.^.^.^.^.^.^.^.^.^.^.^.^.^.^.^.^.^.^.^.^.^.^.^.^.^.^.^.^.^.^.^.^.^.^.^.^.^.^.^.^.^.^.^.^.^.^.^.^.^.^.^.^.^.^.^.^.^.^.^.^.^.^.^.^.^.^.^.^.^.^.^.^.^.^.^.^.^.^.^.^.^.^.^.^.^.^.^.^.^.^.^.^.^.^.^.^.^.^.^.^.^.^.^.^.^.^.^.^.^.^.^.^.^.^.^.^.^.^.^.^.^.^.^.^.^.^.^.^.^.^.^.^.^.^.^.^.^.^.^.^.^.",
"^.^.^.^.^.^.^.^.^.^.^.^.^.^.^.^.^.^.^.^.^.^.^.^.^.^.^.^.^.^.^.^.^.^.^.^.^.^.^.^.^.^.^.^.^.^.^.^.^.^.^.^.^.^.^.^.^.^.^.^.^.^.^.^.^.^.^.^.^.^.^.^.^.^.^.^.^.^.^.^.^.^.^.^.^.. @ % % % * > 1 1 4 8 0 0 0 q e e u u p f k z v v b m B D H K U E E E E E E E E Q Q Q Q Q Q ^ Q ^ ^ ^ ^ ^ ^ ^ ^ ( ( ^ ^ ^ ^ Q ^ ^ Q ^ Q Q W W E E E E E E E E E E E E E E E E E W W W E W E W Q W Q Q Q Q Q Q Q Q W Q W E E E E E E E E E E E E E E E U L L K H H H D D D D D D D D H H H K K L L L P U U E E E E E E E E E E E E E E E E E E E Q W Q Q Q ^ ^ ( ( ) ) ' ' ' ' ' } ' } }  . .}  . . . . . . . . . . .} } } ' ' ' ' ' ' ' ' ' ' } } } }  . .}  . . .O.O.O.#.#.#.#.#.#.#.#.#.=.=.=.=.=.=.=.=.=.=.;.;.;.;.;.;.:.;.;.;.:.;.:.:.:.:.;.:.;.;.;.=.=.=.=.#.#.#.#.O.O. . . .} } ' ' ' ' ) ( ( ^ ^ Q Q Q W E E E U K D Z m b v z k f f p u t e e 0 6 4 > * * % # o o . ^.^.^.^.^.^.^.^.^.^.^.^.^.^.^.^.^.^.^.^.^.^.^.^.^.^.^.^.^.^.^.^.^.^.^.^.^.^.^.^.^.^.^.^.^.^.^.^.^.^.^.^.^.^.^.^.^.^.^.^.^.^.^.^.^.^.^.^.^.^.^.^.^.^.^.^.^.^.^.^.^.^.^.^.^.^.^.^.^.^.^.^.^.^.^.^.^.^.^.^.^.^.^.^.^.^.^.^.^.^.^.^.^.^.^.^.^.^.^.^.^.^.^.^.^.^.^.^.^.^.^.^.^.^.^.^.^.^.^.^.^.^.^.^.^.^.^.^.^.^.^.^.^.^.^.^.^.^.^.^.^.^.^.^.^.^.^.^.^.^.^.^.^.^.^.^.^.^.^.^.^.^.^.^.^.^.^.^.^.^.^.^.^.^.^.^.^.^.^.^.^.^.^.^.^.^.^.^.^.^.^.^.^.^.^.^.^.^.^.^.^.^.^.",
"^.^.^.^.^.^.^.^.^.^.^.^.^.^.^.^.^.^.^.^.^.^.^.^.^.^.^.^.^.^.^.^.^.^.^.^.^.^.^.^.^.^.^.^.^.^.^.^.^.^.^.^.^.^.^.^.^.^.^.^.^.^.^.^.^.^.^.^.^.^.^.^.^.^.^.^.^.^.^.^.^.^.^.^.^.^.o + $ % % * > > 1 4 4 6 8 0 q q e u u p f f z v v b m B D H K P U E E E E E E E E E Q Q Q Q Q Q ^ Q ^ ^ ^ ^ ^ ^ ^ ^ ^ ^ ^ Q Q Q Q Q Q Q Q E E E E E E E E E E E E E E E E E E E E E E E E W E W Q W Q E Q W E E W E E E E E E E E E E E E U U U U P L K H H H H D D D D D D D D H H H H K K K L L P U E E E E E E E E E E E E E E E E E E E E E Q W Q Q ^ ^ ^ ( ) ) ' ' ' ' ' ' ' } } } } } } } }  .} } } } } } } } } ' ' ' ' ' ' ' ' ' ' ' ' ' } } } } } }  . . . .O.O.O.O.#.#.#.#.#.#.#.#.#.#.#.=.=.=.=.=.=.=.=.=.;.;.;.;.;.:.:.;.:.:.:.;.;.;.;.;.=.=.=.=.=.#.#.#.#.O.O. . . .} } } ' ' ' ) ( ( ^ ^ Q Q Q E E E E U K D Z m b v z k f p p u u e q 0 4 4 > * % % + o . ^.^.^.^.^.^.^.^.^.^.^.^.^.^.^.^.^.^.^.^.^.^.^.^.^.^.^.^.^.^.^.^.^.^.^.^.^.^.^.^.^.^.^.^.^.^.^.^.^.^.^.^.^.^.^.^.^.^.^.^.^.^.^.^.^.^.^.^.^.^.^.^.^.^.^.^.^.^.^.^.^.^.^.^.^.^.^.^.^.^.^.^.^.^.^.^.^.^.^.^.^.^.^.^.^.^.^.^.^.^.^.^.^.^.^.^.^.^.^.^.^.^.^.^.^.^.^.^.^.^.^.^.^.^.^.^.^.^.^.^.^.^.^.^.^.^.^.^.^.^.^.^.^.^.^.^.^.^.^.^.^.^.^.^.^.^.^.^.^.^.^.^.^.^.^.^.^.^.^.^.^.^.^.^.^.^.^.^.^.^.^.^.^.^.^.^.^.^.^.^.^.^.^.^.^.^.^.^.^.^.^.^.^.^.^.^.^.^.^.^.^.^.^.^.",
"^.^.^.^.^.^.^.^.^.^.^.^.^.^.^.^.^.^.^.^.^.^.^.^.^.^.^.^.^.^.^.^.^.^.^.^.^.^.^.^.^.^.^.^.^.^.^.^.^.^.^.^.^.^.^.^.^.^.^.^.^.^.^.^.^.^.^.^.^.^.^.^.^.^.^.^.^.^.^.^.^.^.^.^.^.^.^.o @ # % % * * > 1 1 4 4 4 8 0 q e u u f f k k v b m B B D H K K U E E E E E E E E E Q Q Q Q Q Q Q Q ^ ^ ^ Q Q Q Q Q Q Q Q Q Q Q Q Q Q W W E E E E E E E E E E U E E E E E E E E E E E E E E E E E E E E E W E E E E E E E E E E E E U P L L K K K L H H H H H D D D D D D D D H H H K H K K L P P P E E E E E E E E E E E E E E E E E E E E E E W Q Q Q ^ ^ ^ ( ( ) ) ' ' ' ' ' ' } } } } } } } } } } } } } } } ' ' ' ' ' ' ' ' ' ) ) ' ' ' ' ' ' ' } } } } }  . . .O.O.O.O.O.#.#.#.#.#.#.#.#.#.#.=.=.=.=.=.=.=.=.=.=.=.;.=.;.;.;.;.;.;.;.;.;.;.;.=.=.=.=.=.#.#.#.#.O.O.O. . .} } ' ' ' ' ) ) ( ^ ^ Q Q Q E E E E U K H D B m v v z f p p u e e 0 8 4 4 > * % % + o . ^.^.^.^.^.^.^.^.^.^.^.^.^.^.^.^.^.^.^.^.^.^.^.^.^.^.^.^.^.^.^.^.^.^.^.^.^.^.^.^.^.^.^.^.^.^.^.^.^.^.^.^.^.^.^.^.^.^.^.^.^.^.^.^.^.^.^.^.^.^.^.^.^.^.^.^.^.^.^.^.^.^.^.^.^.^.^.^.^.^.^.^.^.^.^.^.^.^.^.^.^.^.^.^.^.^.^.^.^.^.^.^.^.^.^.^.^.^.^.^.^.^.^.^.^.^.^.^.^.^.^.^.^.^.^.^.^.^.^.^.^.^.^.^.^.^.^.^.^.^.^.^.^.^.^.^.^.^.^.^.^.^.^.^.^.^.^.^.^.^.^.^.^.^.^.^.^.^.^.^.^.^.^.^.^.^.^.^.^.^.^.^.^.^.^.^.^.^.^.^.^.^.^.^.^.^.^.^.^.^.^.^.^.^.^.^.^.^.^.^.^.^.^.^.",
"^.^.^.^.^.^.^.^.^.^.^.^.^.^.^.^.^.^.^.^.^.^.^.^.^.^.^.^.^.^.^.^.^.^.^.^.^.^.^.^.^.^.^.^.^.^.^.^.^.^.^.^.^.^.^.^.^.^.^.^.^.^.^.^.^.^.^.^.^.^.^.^.^.^.^.^.^.^.^.^.^.^.^.^.^.^.^.^.o o + $ % % * > > > 1 4 4 6 0 q e u p p f k z x b m B B D H H L U E E E E E E E E W W Q Q Q Q Q Q Q Q Q Q Q Q Q Q Q ^ Q Q Q Q Q Q W W E E E E E E E U U P L L U U E E E E E E E E E E E E E E E E E E E E E E E E E E E E E E E U P L K H H H H H H D D D D D D D D D D H H H H H H H H H K L U U E E E E E E E E E E E E E E E E E E E E E W Q Q Q Q Q ^ ^ ^ ( ( ) ) ' ' ' ' ' ' ' } ' } ' } ' } } } } } } ' ' ' ' ' ' ) ) ) ) ) ) ) ) ' ' ' ' ' ' ' ' } }  . . .O. .O.O.O.O.O.O.O.#.O.#.#.#.#.#.#.=.#.=.=.=.=.=.=.;.;.=.;.;.;.=.;.;.=.=.;.;.=.=.=.=.=.=.#.#.#.#.O.O. . . .} } ' ' ' ' ) ( ( ^ ^ Q Q Q E E E E U K H D B m v v z f p u u e e 0 8 4 1 > * * % + o . ^.^.^.^.^.^.^.^.^.^.^.^.^.^.^.^.^.^.^.^.^.^.^.^.^.^.^.^.^.^.^.^.^.^.^.^.^.^.^.^.^.^.^.^.^.^.^.^.^.^.^.^.^.^.^.^.^.^.^.^.^.^.^.^.^.^.^.^.^.^.^.^.^.^.^.^.^.^.^.^.^.^.^.^.^.^.^.^.^.^.^.^.^.^.^.^.^.^.^.^.^.^.^.^.^.^.^.^.^.^.^.^.^.^.^.^.^.^.^.^.^.^.^.^.^.^.^.^.^.^.^.^.^.^.^.^.^.^.^.^.^.^.^.^.^.^.^.^.^.^.^.^.^.^.^.^.^.^.^.^.^.^.^.^.^.^.^.^.^.^.^.^.^.^.^.^.^.^.^.^.^.^.^.^.^.^.^.^.^.^.^.^.^.^.^.^.^.^.^.^.^.^.^.^.^.^.^.^.^.^.^.^.^.^.^.^.^.^.^.^.^.^.^.^.",
"^.^.^.^.^.^.^.^.^.^.^.^.^.^.^.^.^.^.^.^.^.^.^.^.^.^.^.^.^.^.^.^.^.^.^.^.^.^.^.^.^.^.^.^.^.^.^.^.^.^.^.^.^.^.^.^.^.^.^.^.^.^.^.^.^.^.^.^.^.^.^.^.^.^.^.^.^.^.^.^.^.^.^.^.^.^.^.^.^.o o @ # % % * * * > 1 4 4 8 0 e t u u p f z x b m B B D D H H L P U E E E E E E E E W W Q Q Q Q Q Q Q Q Q Q Q Q Q Q Q Q E Q Q W Q E E E E E E E U U U L H H K L U E E E E E E E E E E E E E E E E E E E E E E E E E E E E E E U P K H H H D D H D D D D D D D D D D H H H H K K K K H K K L U U E E E E E E E E E E E E E E E E E E E E E E Q W Q Q Q ^ ^ ^ ( ( ) ( ) ' ' ' ' ' ' ' ' ' ' ' ' ' ' ' ' } ' ' ' ' ' ' ) ) ) ) ) ) ) ) ) ) ) ) ' ) ' ' ' ' ' } }  . . . .O.O.O.O.O.O.O.O.#.O.#.#.#.#.#.#.#.#.=.=.=.=.=.=.=.;.=.=.=.=.;.;.=.=.=.=.=.=.=.=.=.#.#.#.#.O.O. . . . .} ' ' ' ' ) ( ( ^ ^ Q Q W W E E E E L H D B m v v z f p u t e q 8 4 4 1 > * % $ + o ^.^.^.^.^.^.^.^.^.^.^.^.^.^.^.^.^.^.^.^.^.^.^.^.^.^.^.^.^.^.^.^.^.^.^.^.^.^.^.^.^.^.^.^.^.^.^.^.^.^.^.^.^.^.^.^.^.^.^.^.^.^.^.^.^.^.^.^.^.^.^.^.^.^.^.^.^.^.^.^.^.^.^.^.^.^.^.^.^.^.^.^.^.^.^.^.^.^.^.^.^.^.^.^.^.^.^.^.^.^.^.^.^.^.^.^.^.^.^.^.^.^.^.^.^.^.^.^.^.^.^.^.^.^.^.^.^.^.^.^.^.^.^.^.^.^.^.^.^.^.^.^.^.^.^.^.^.^.^.^.^.^.^.^.^.^.^.^.^.^.^.^.^.^.^.^.^.^.^.^.^.^.^.^.^.^.^.^.^.^.^.^.^.^.^.^.^.^.^.^.^.^.^.^.^.^.^.^.^.^.^.^.^.^.^.^.^.^.^.^.^.^.^.^.^.",
"^.^.^.^.^.^.^.^.^.^.^.^.^.^.^.^.^.^.^.^.^.^.^.^.^.^.^.^.^.^.^.^.^.^.^.^.^.^.^.^.^.^.^.^.^.^.^.^.^.^.^.^.^.^.^.^.^.^.^.^.^.^.^.^.^.^.^.^.^.^.^.^.^.^.^.^.^.^.^.^.^.^.^.^.^.^.^.^.^.^.. o @ # % % * * > > 1 4 4 8 0 e t u p f k z v b m B Z D D D H K K P P U E E E E E E E Q W Q Q Q Q Q Q W Q W Q W Q W E W E W E E E E E E E E E P P L K H D H K L U U U E E E E E E E E E E E E E E E E E E E E E E E E E U U P L H H H D D D D D D D D D D D D D H H H H H H K H K K K K P U U U E E E E E E E E E E E E E E E E E E E E W E Q Q Q Q Q ^ ^ ^ ( ( ( ) ) ) ' ' ' ' ' ' ' ' ' ' ' ' ' ' ' ' ' ' ' ) ) ) ) ) ( ( ) ) ( ) ) ( ( ) ) ) ) ' ' ' } } }  . . . .O.O.O.O.O.O.O.+.#.O.#.#.#.#.#.#.=.=.=.=.=.=.=.=.=.=.=.=.=.=.=.=.=.=.=.=.=.=.#.#.#.#.#.#.O.O. . . .} } ' ' ' ' ) ( ( ^ ^ Q Q W Q E E E E P H D m m v v k f p u e e 0 6 4 4 > > * % # @ o ^.^.^.^.^.^.^.^.^.^.^.^.^.^.^.^.^.^.^.^.^.^.^.^.^.^.^.^.^.^.^.^.^.^.^.^.^.^.^.^.^.^.^.^.^.^.^.^.^.^.^.^.^.^.^.^.^.^.^.^.^.^.^.^.^.^.^.^.^.^.^.^.^.^.^.^.^.^.^.^.^.^.^.^.^.^.^.^.^.^.^.^.^.^.^.^.^.^.^.^.^.^.^.^.^.^.^.^.^.^.^.^.^.^.^.^.^.^.^.^.^.^.^.^.^.^.^.^.^.^.^.^.^.^.^.^.^.^.^.^.^.^.^.^.^.^.^.^.^.^.^.^.^.^.^.^.^.^.^.^.^.^.^.^.^.^.^.^.^.^.^.^.^.^.^.^.^.^.^.^.^.^.^.^.^.^.^.^.^.^.^.^.^.^.^.^.^.^.^.^.^.^.^.^.^.^.^.^.^.^.^.^.^.^.^.^.^.^.^.^.^.^.^.^.^.",
"^.^.^.^.^.^.^.^.^.^.^.^.^.^.^.^.^.^.^.^.^.^.^.^.^.^.^.^.^.^.^.^.^.^.^.^.^.^.^.^.^.^.^.^.^.^.^.^.^.^.^.^.^.^.^.^.^.^.^.^.^.^.^.^.^.^.^.^.^.^.^.^.^.^.^.^.^.^.^.^.^.^.^.^.^.^.^.^.^.^.^.. o @ # % % * * * > 1 4 4 0 q e t u p f k v b m m B B B D D H H H H K P E E E E E E E E E W Q Q Q W Q W E E Q W E Q E E E E E E E E E E E U P L L H D D D H H K U P U E E E E E E E E E E E E E E E E E E E E E E E E U P L K H H H D D D D D D D D D D D D D D D H H H K K K K K L K L P U U E E E E E E E E E E E E E E E E E E E E E E E Q Q Q Q Q ^ ^ ^ ^ ^ ) ) ) ) ' ' ' ' ' ' ' ' ' ' ' ' ' ' ' ' ' ' ) ) ) ( ( ( ( ( ( ( ( ( ^ ( ( ( ( ) ) ) ' ' ' } } }  . . . . .O.O.O.O.O.O.O.+.O.#.#.#.#.#.#.=.#.=.=.=.=.=.=.=.=.=.=.=.=.=.=.=.=.=.=.=.#.#.#.#.#.O.O.O. . .} } ' ' ' ' ) ( ( ^ ^ Q Q Q W E E E E P H D B m v v k f p u e q 0 4 4 1 > * % % # o o ^.^.^.^.^.^.^.^.^.^.^.^.^.^.^.^.^.^.^.^.^.^.^.^.^.^.^.^.^.^.^.^.^.^.^.^.^.^.^.^.^.^.^.^.^.^.^.^.^.^.^.^.^.^.^.^.^.^.^.^.^.^.^.^.^.^.^.^.^.^.^.^.^.^.^.^.^.^.^.^.^.^.^.^.^.^.^.^.^.^.^.^.^.^.^.^.^.^.^.^.^.^.^.^.^.^.^.^.^.^.^.^.^.^.^.^.^.^.^.^.^.^.^.^.^.^.^.^.^.^.^.^.^.^.^.^.^.^.^.^.^.^.^.^.^.^.^.^.^.^.^.^.^.^.^.^.^.^.^.^.^.^.^.^.^.^.^.^.^.^.^.^.^.^.^.^.^.^.^.^.^.^.^.^.^.^.^.^.^.^.^.^.^.^.^.^.^.^.^.^.^.^.^.^.^.^.^.^.^.^.^.^.^.^.^.^.^.^.^.^.^.^.^.^.^.",
"^.^.^.^.^.^.^.^.^.^.^.^.^.^.^.^.^.^.^.^.^.^.^.^.^.^.^.^.^.^.^.^.^.^.^.^.^.^.^.^.^.^.^.^.^.^.^.^.^.^.^.^.^.^.^.^.^.^.^.^.^.^.^.^.^.^.^.^.^.^.^.^.^.^.^.^.^.^.^.^.^.^.^.^.^.^.^.^.^.^.^.^.. o @ # $ $ % * * > 1 4 8 0 0 e u p f k z x b b m m B B B D D D H H K P E E E E E E E E E E Q W Q E E E E E E E E E E E E E E E E E E U U P L H H D D D D H K L P P U P P U U U E E E E E E E U E E E E E E E U E U P L K H H D H H D D D D D D D D D D D D H H H H H K K L L L K L L L U U U E E E E E E E E E E E E E E E E E E E E E E W W Q Q Q Q ^ ^ ^ ^ ^ ( ) ( ) ) ' ) ' ' ' ' ' ' ' ' ' ' ' ' ) ) ) ) ) ( ( ^ ^ ^ ^ ( ^ ^ ^ ^ ( ^ ( ( ) ) ) ' ' ' } }  . . . . . . .O.O.O.O.O.O.O.#.O.#.#.#.#.#.#.#.=.#.=.=.=.=.=.=.=.=.=.=.=.=.=.=.#.=.#.#.#.#.O.O.O. . . .} } ' ' ' ) ) ( ( ^ ^ Q Q Q W E E E E P H D B b v z k f p u e 0 8 4 1 1 > * % $ @ o . ^.^.^.^.^.^.^.^.^.^.^.^.^.^.^.^.^.^.^.^.^.^.^.^.^.^.^.^.^.^.^.^.^.^.^.^.^.^.^.^.^.^.^.^.^.^.^.^.^.^.^.^.^.^.^.^.^.^.^.^.^.^.^.^.^.^.^.^.^.^.^.^.^.^.^.^.^.^.^.^.^.^.^.^.^.^.^.^.^.^.^.^.^.^.^.^.^.^.^.^.^.^.^.^.^.^.^.^.^.^.^.^.^.^.^.^.^.^.^.^.^.^.^.^.^.^.^.^.^.^.^.^.^.^.^.^.^.^.^.^.^.^.^.^.^.^.^.^.^.^.^.^.^.^.^.^.^.^.^.^.^.^.^.^.^.^.^.^.^.^.^.^.^.^.^.^.^.^.^.^.^.^.^.^.^.^.^.^.^.^.^.^.^.^.^.^.^.^.^.^.^.^.^.^.^.^.^.^.^.^.^.^.^.^.^.^.^.^.^.^.^.^.^.^.^.",
"^.^.^.^.^.^.^.^.^.^.^.^.^.^.^.^.^.^.^.^.^.^.^.^.^.^.^.^.^.^.^.^.^.^.^.^.^.^.^.^.^.^.^.^.^.^.^.^.^.^.^.^.^.^.^.^.^.^.^.^.^.^.^.^.^.^.^.^.^.^.^.^.^.^.^.^.^.^.^.^.^.^.^.^.^.^.^.^.^.^.^.^.^.. o o @ @ # % * > 1 4 4 8 0 e e u p f k z v v b b m m m B B D D D H K P E E E E E E E E E E E E E E E E E E E E E E E E E E E E E E E U P K H H D D D D H H K K L P L L L L P L U U U U E U U P U U E E E U P U P L L H H H D D D D D D D D D D D D D D H H H H H H K L K P P L K L L P P P E E E E E E E E E E E E E E E E E E E E E E E E Q Q Q Q Q Q Q Q ^ ^ ( ( ( ) ) ) ' ) ' ' ' ' ' ' ' ' ) ) ) ( ) ( ( ( ( ^ ^ ^ ^ ^ ^ ^ ^ ^ ^ ^ ^ ^ ^ ) ) ' ' ' ' ' }  . . . . . . . .O.O.O.O.O.O.O.O.O.#.#.#.#.#.#.=.=.=.#.=.=.=.=.=.=.=.=.#.=.=.#.#.#.#.#.#.O.O.O. . . .} } ' ' ' ) ) ( ( ^ Q Q Q Q W W E E E P H D B m v z k f p u e 0 8 4 1 > > * % # o o . ^.^.^.^.^.^.^.^.^.^.^.^.^.^.^.^.^.^.^.^.^.^.^.^.^.^.^.^.^.^.^.^.^.^.^.^.^.^.^.^.^.^.^.^.^.^.^.^.^.^.^.^.^.^.^.^.^.^.^.^.^.^.^.^.^.^.^.^.^.^.^.^.^.^.^.^.^.^.^.^.^.^.^.^.^.^.^.^.^.^.^.^.^.^.^.^.^.^.^.^.^.^.^.^.^.^.^.^.^.^.^.^.^.^.^.^.^.^.^.^.^.^.^.^.^.^.^.^.^.^.^.^.^.^.^.^.^.^.^.^.^.^.^.^.^.^.^.^.^.^.^.^.^.^.^.^.^.^.^.^.^.^.^.^.^.^.^.^.^.^.^.^.^.^.^.^.^.^.^.^.^.^.^.^.^.^.^.^.^.^.^.^.^.^.^.^.^.^.^.^.^.^.^.^.^.^.^.^.^.^.^.^.^.^.^.^.^.^.^.^.^.^.^.^.^.",
"^.^.^.^.^.^.^.^.^.^.^.^.^.^.^.^.^.^.^.^.^.^.^.^.^.^.^.^.^.^.^.^.^.^.^.^.^.^.^.^.^.^.^.^.^.^.^.^.^.^.^.^.^.^.^.^.^.^.^.^.^.^.^.^.^.^.^.^.^.^.^.^.^.^.^.^.^.^.^.^.^.^.^.^.^.^.^.^.^.^.^.^.^.^.. . o o + $ % * > 1 4 4 8 0 e u u p f k k v v v b b m m B B D D D H H K P P U U E E E E E E E E E E E E E E E E E E E E E E E E E E U L K H D D D D D H H H K L L K K H K K K K K K L L L L L L U U U U P P L L K K H H H D D D D D D D D D D D D D H H D H H K K K L L P L P P P P L P P U E E E E E E E E E E E E E E E E E E E E E E E E Q W Q Q Q Q Q Q ^ ^ ^ ^ ( ( ) ( ) ) ) ) ) ) ) ) ) ) ) ( ( ( ( ^ ^ ^ ^ ^ ^ ^ ^ ^ Q Q Q Q ^ ^ ^ ^ ( ) ) ) ' ' ' } } } } }  . . . .O.O.O.O.O.O.O.#.+.#.+.#.#.#.#.=.#.#.#.#.=.=.=.=.=.=.#.=.#.=.#.#.#.#.#.O.#.O.O.O. . .} } ' ' ' ) ) ( ^ ^ ^ Q Q Q Q Q E E E P H D B m x k k f u u e 0 6 4 1 > * * % + o . ^.^.^.^.^.^.^.^.^.^.^.^.^.^.^.^.^.^.^.^.^.^.^.^.^.^.^.^.^.^.^.^.^.^.^.^.^.^.^.^.^.^.^.^.^.^.^.^.^.^.^.^.^.^.^.^.^.^.^.^.^.^.^.^.^.^.^.^.^.^.^.^.^.^.^.^.^.^.^.^.^.^.^.^.^.^.^.^.^.^.^.^.^.^.^.^.^.^.^.^.^.^.^.^.^.^.^.^.^.^.^.^.^.^.^.^.^.^.^.^.^.^.^.^.^.^.^.^.^.^.^.^.^.^.^.^.^.^.^.^.^.^.^.^.^.^.^.^.^.^.^.^.^.^.^.^.^.^.^.^.^.^.^.^.^.^.^.^.^.^.^.^.^.^.^.^.^.^.^.^.^.^.^.^.^.^.^.^.^.^.^.^.^.^.^.^.^.^.^.^.^.^.^.^.^.^.^.^.^.^.^.^.^.^.^.^.^.^.^.^.^.^.^.^.^.^.",
"^.^.^.^.^.^.^.^.^.^.^.^.^.^.^.^.^.^.^.^.^.^.^.^.^.^.^.^.^.^.^.^.^.^.^.^.^.^.^.^.^.^.^.^.^.^.^.^.^.^.^.^.^.^.^.^.^.^.^.^.^.^.^.^.^.^.^.^.^.^.^.^.^.^.^.^.^.^.^.^.^.^.^.^.^.^.^.^.^.^.^.^.^.^.^.^.. o o + % % * * > 1 4 8 0 e t u p f f z k v x b b m m m B B D D D D H H K K P U E E E E E E E E E E E E E E E E E E E E E E U U U L H D D D Z Z D D H H H H K H H D D D D D H H H H H H H K P P U P P L L K K H H D H D D D Z Z B Z Z D D D D D H H D H H H K K K K K P P L P P P L P U U U U E E E E E E E E E E E E E E E E E E E E E E E W W Q Q Q Q Q ^ Q ^ ^ ( ( ( ( ( ( ( ( ) ( ( ( ) ) ( ^ ^ ^ ^ ^ ^ ^ ^ ^ ^ ^ ^ Q Q Q Q Q Q ^ ^ ^ ( ( ) ) ' ' ' ' } } } }  . . . . .O.O.O.O.O.O.O.O.#.#.#.#.#.=.#.#.#.#.#.#.#.#.#.#.#.#.=.#.#.#.#.#.#.#.O.O.O. . . .} ' ' ' ' ) ) ( ^ ^ ^ ^ Q Q W E E E E L H D B b v z f f u e q 7 4 4 1 > * % % + o . ^.^.^.^.^.^.^.^.^.^.^.^.^.^.^.^.^.^.^.^.^.^.^.^.^.^.^.^.^.^.^.^.^.^.^.^.^.^.^.^.^.^.^.^.^.^.^.^.^.^.^.^.^.^.^.^.^.^.^.^.^.^.^.^.^.^.^.^.^.^.^.^.^.^.^.^.^.^.^.^.^.^.^.^.^.^.^.^.^.^.^.^.^.^.^.^.^.^.^.^.^.^.^.^.^.^.^.^.^.^.^.^.^.^.^.^.^.^.^.^.^.^.^.^.^.^.^.^.^.^.^.^.^.^.^.^.^.^.^.^.^.^.^.^.^.^.^.^.^.^.^.^.^.^.^.^.^.^.^.^.^.^.^.^.^.^.^.^.^.^.^.^.^.^.^.^.^.^.^.^.^.^.^.^.^.^.^.^.^.^.^.^.^.^.^.^.^.^.^.^.^.^.^.^.^.^.^.^.^.^.^.^.^.^.^.^.^.^.^.^.^.^.^.^.^.^.",
"^.^.^.^.^.^.^.^.^.^.^.^.^.^.^.^.^.^.^.^.^.^.^.^.^.^.^.^.^.^.^.^.^.^.^.^.^.^.^.^.^.^.^.^.^.^.^.^.^.^.^.^.^.^.^.^.^.^.^.^.^.^.^.^.^.^.^.^.^.^.^.^.^.^.^.^.^.^.^.^.^.^.^.^.^.^.^.^.^.^.^.^.^.^.^.^.^.. o o @ # % % * > 1 4 8 0 e e u p p f k z z v x b b b m m B B Z D D D H H K L U E E E E U U U E E E E E E E E E E E E E E U P K H H D D Z B B D D D D H H D D D D D D D D D D D D D H H H K L L L L K K H H H D D D D D Z B B B B B Z D D D H H H H H H H K K K H L L L L L P P P P U E U U U E E E E E E E E E U U U E E E E E E E E E E E E E E Q W Q Q Q ^ ^ ^ ^ ^ ^ ^ ( ^ ( ^ ( ^ ( ( ^ ^ ^ ^ ^ ^ ^ ^ ^ Q Q Q ^ Q Q Q Q Q Q Q Q ^ ^ ^ ( ( ) ) ' ' ' ' ' } }  . . . . .O.O.O.O.O.O.O.#.O.O.#.O.#.#.#.#.#.#.#.#.#.#.#.#.#.#.#.#.#.#.#.#.#.O.O.O.O. . . .} } ' ' ' ) ) ( ^ ^ ^ Q Q Q Q E E E E P H D B m v k k p u e q 0 6 4 1 > * % $ @ o . ^.^.^.^.^.^.^.^.^.^.^.^.^.^.^.^.^.^.^.^.^.^.^.^.^.^.^.^.^.^.^.^.^.^.^.^.^.^.^.^.^.^.^.^.^.^.^.^.^.^.^.^.^.^.^.^.^.^.^.^.^.^.^.^.^.^.^.^.^.^.^.^.^.^.^.^.^.^.^.^.^.^.^.^.^.^.^.^.^.^.^.^.^.^.^.^.^.^.^.^.^.^.^.^.^.^.^.^.^.^.^.^.^.^.^.^.^.^.^.^.^.^.^.^.^.^.^.^.^.^.^.^.^.^.^.^.^.^.^.^.^.^.^.^.^.^.^.^.^.^.^.^.^.^.^.^.^.^.^.^.^.^.^.^.^.^.^.^.^.^.^.^.^.^.^.^.^.^.^.^.^.^.^.^.^.^.^.^.^.^.^.^.^.^.^.^.^.^.^.^.^.^.^.^.^.^.^.^.^.^.^.^.^.^.^.^.^.^.^.^.^.^.^.^.^.^.",
"^.^.^.^.^.^.^.^.^.^.^.^.^.^.^.^.^.^.^.^.^.^.^.^.^.^.^.^.^.^.^.^.^.^.^.^.^.^.^.^.^.^.^.^.^.^.^.^.^.^.^.^.^.^.^.^.^.^.^.^.^.^.^.^.^.^.^.^.^.^.^.^.^.^.^.^.^.^.^.^.^.^.^.^.^.^.^.^.^.^.^.^.^.^.^.^.^.^.^.. o o + $ % * > 1 4 6 0 q e e u p f f k z z v v v v m m m B B Z D D D H H K L P L L K H K K L P P P U U E E E E E E U P L H D D D B B B B B B B D D D Z B B B B B B B B B B D D D D H H H K K H H H H D D D B B B B B B B B B B D D D D H H H H H H K K K H K K K K K K L L P U U U U P E E E E E E E E E U U P L P U U E E E E E E E E E E E E E Q W Q Q Q Q Q ^ ^ ^ ^ ^ ^ ^ ^ ^ ( ^ ^ ^ Q Q ^ ^ ^ Q Q Q Q Q Q Q Q Q Q Q Q Q Q Q ^ ^ ( ( ( ) ) ) ' ' ' } } }  . . . . .O.O.O.O.O.O.O.#.O.O.O.#.O.#.#.#.#.#.#.#.#.#.#.#.#.#.#.#.#.#.#.O.O.O.O.O. . .} } ' ' ' ) ' ) ) ^ ( ^ ^ ^ Q Q E E E E P H D m m v z k p u e q 0 6 4 > > * % $ @ o . ^.^.^.^.^.^.^.^.^.^.^.^.^.^.^.^.^.^.^.^.^.^.^.^.^.^.^.^.^.^.^.^.^.^.^.^.^.^.^.^.^.^.^.^.^.^.^.^.^.^.^.^.^.^.^.^.^.^.^.^.^.^.^.^.^.^.^.^.^.^.^.^.^.^.^.^.^.^.^.^.^.^.^.^.^.^.^.^.^.^.^.^.^.^.^.^.^.^.^.^.^.^.^.^.^.^.^.^.^.^.^.^.^.^.^.^.^.^.^.^.^.^.^.^.^.^.^.^.^.^.^.^.^.^.^.^.^.^.^.^.^.^.^.^.^.^.^.^.^.^.^.^.^.^.^.^.^.^.^.^.^.^.^.^.^.^.^.^.^.^.^.^.^.^.^.^.^.^.^.^.^.^.^.^.^.^.^.^.^.^.^.^.^.^.^.^.^.^.^.^.^.^.^.^.^.^.^.^.^.^.^.^.^.^.^.^.^.^.^.^.^.^.^.^.^.^.",
"^.^.^.^.^.^.^.^.^.^.^.^.^.^.^.^.^.^.^.^.^.^.^.^.^.^.^.^.^.^.^.^.^.^.^.^.^.^.^.^.^.^.^.^.^.^.^.^.^.^.^.^.^.^.^.^.^.^.^.^.^.^.^.^.^.^.^.^.^.^.^.^.^.^.^.^.^.^.^.^.^.^.^.^.^.^.^.^.^.^.^.^.^.^.^.^.^.^.^.^.^.. o @ # % * > 1 4 6 8 0 q e u p p f f k k z z x x b b m m B B B Z D D H H H H D D D D D H H H H K K P U U E E U U P H H D D B B m m m m B B B B B B m m m m m B m B B B B B Z D D D D H H H H H D D D B B B B B B B B B B B B D D D D H H H H H H H H H K H H H H H K K L P P U U U U E E E E E E E E U P P P L P L P P P U U E E E E E E E E E E Q W Q Q Q Q ^ Q ^ Q Q Q ^ ^ ^ ^ ^ ^ Q Q Q Q Q Q Q Q Q W Q Q Q W Q W Q Q Q Q ^ ^ ( ( ( ( ( ) ' ' ' ' }  .}  . . . . .O.O.O.O.O.O.O.O.O.O.#.O.O.#.#.O.#.+.#.#.O.#.#.#.#.#.#.#.#.O.O.O.O.O. . . .} } ' ' ' ' ' ) ) ( ( ^ ^ Q Q Q W E E E P H D m m x k k p u e q 0 6 4 1 > * % $ @ o . ^.^.^.^.^.^.^.^.^.^.^.^.^.^.^.^.^.^.^.^.^.^.^.^.^.^.^.^.^.^.^.^.^.^.^.^.^.^.^.^.^.^.^.^.^.^.^.^.^.^.^.^.^.^.^.^.^.^.^.^.^.^.^.^.^.^.^.^.^.^.^.^.^.^.^.^.^.^.^.^.^.^.^.^.^.^.^.^.^.^.^.^.^.^.^.^.^.^.^.^.^.^.^.^.^.^.^.^.^.^.^.^.^.^.^.^.^.^.^.^.^.^.^.^.^.^.^.^.^.^.^.^.^.^.^.^.^.^.^.^.^.^.^.^.^.^.^.^.^.^.^.^.^.^.^.^.^.^.^.^.^.^.^.^.^.^.^.^.^.^.^.^.^.^.^.^.^.^.^.^.^.^.^.^.^.^.^.^.^.^.^.^.^.^.^.^.^.^.^.^.^.^.^.^.^.^.^.^.^.^.^.^.^.^.^.^.^.^.^.^.^.^.^.^.^.^.",
"^.^.^.^.^.^.^.^.^.^.^.^.^.^.^.^.^.^.^.^.^.^.^.^.^.^.^.^.^.^.^.^.^.^.^.^.^.^.^.^.^.^.^.^.^.^.^.^.^.^.^.^.^.^.^.^.^.^.^.^.^.^.^.^.^.^.^.^.^.^.^.^.^.^.^.^.^.^.^.^.^.^.^.^.^.^.^.^.^.^.^.^.^.^.^.^.^.^.^.^.^.^.^.. o # % * > 1 4 4 6 0 q e e u p p f f k z z v v v b m m m m m B B D D D D Z B B B Z D D D D H H K L P P U P L H D D Z B B m m m b m m m m m m m m m b b b b m m m m m B B Z D D D D D D D D D B B B B B B B m B B B B B B B Z D D D H H H H H H H H H H H H H H H K L L P U U P U U U U E E U U U P L K L L K L K K K L P U U E E E E E E E E E E E W W Q Q Q Q Q Q Q Q Q Q Q Q Q Q Q Q Q Q Q Q Q Q Q Q W Q Q W Q Q Q Q Q Q ^ ^ ^ ( ^ ( ) ' ' ' ' } } } }  . . . . . .O.O.O.O.O.O.O.O.O.O.O.O.#.O.O.+.O.O.O.O.#.O.#.#.#.#.O.#.O.O.O.O. . . . .} ' ' ' ' ' ) ) ( ( ( ^ ^ Q Q W E E E P H B m b x z f p u e q 7 4 4 1 > * % $ @ o . ^.^.^.^.^.^.^.^.^.^.^.^.^.^.^.^.^.^.^.^.^.^.^.^.^.^.^.^.^.^.^.^.^.^.^.^.^.^.^.^.^.^.^.^.^.^.^.^.^.^.^.^.^.^.^.^.^.^.^.^.^.^.^.^.^.^.^.^.^.^.^.^.^.^.^.^.^.^.^.^.^.^.^.^.^.^.^.^.^.^.^.^.^.^.^.^.^.^.^.^.^.^.^.^.^.^.^.^.^.^.^.^.^.^.^.^.^.^.^.^.^.^.^.^.^.^.^.^.^.^.^.^.^.^.^.^.^.^.^.^.^.^.^.^.^.^.^.^.^.^.^.^.^.^.^.^.^.^.^.^.^.^.^.^.^.^.^.^.^.^.^.^.^.^.^.^.^.^.^.^.^.^.^.^.^.^.^.^.^.^.^.^.^.^.^.^.^.^.^.^.^.^.^.^.^.^.^.^.^.^.^.^.^.^.^.^.^.^.^.^.^.^.^.^.^.^.",
"^.^.^.^.^.^.^.^.^.^.^.^.^.^.^.^.^.^.^.^.^.^.^.^.^.^.^.^.^.^.^.^.^.^.^.^.^.^.^.^.^.^.^.^.^.^.^.^.^.^.^.^.^.^.^.^.^.^.^.^.^.^.^.^.^.^.^.^.^.^.^.^.^.^.^.^.^.^.^.^.^.^.^.^.^.^.^.^.^.^.^.^.^.^.^.^.^.^.^.^.^.^.^.^.o @ # % * > 1 1 4 4 8 7 0 e u u p p f f k k z z v v b b b b m m B B B B B m B B B B B B D D D H H H L K K H D D Z B m m m b b v b b b b b b b b v b b b b b b m m m m B B B B B B B B B B B B B m m m m m m m B B B B B B B D D D D D H H H H H H H H H H D H H K K K L P P P L P L P U U P L L K H H H H H H H H H H H K L U E E E E E E E E E E E E E E W Q W Q Q Q Q Q Q Q Q Q Q Q Q Q Q Q Q Q Q W Q W Q W Q W Q Q Q Q Q Q ^ ^ ^ ( ( ) ' ' ' ' ' } } }  . . . . . . .O.O.O.O.+.O.O.O.O.O.O.O.O.O.O.O.O.O.O.O.+.+.#.O.O.O.O.O.O. . . . . .} } ' ' ' ' ) ) ) ( ( ^ ^ Q Q W E E E P H Z m b v z f p u e 0 8 4 1 > > * % $ + o . ^.^.^.^.^.^.^.^.^.^.^.^.^.^.^.^.^.^.^.^.^.^.^.^.^.^.^.^.^.^.^.^.^.^.^.^.^.^.^.^.^.^.^.^.^.^.^.^.^.^.^.^.^.^.^.^.^.^.^.^.^.^.^.^.^.^.^.^.^.^.^.^.^.^.^.^.^.^.^.^.^.^.^.^.^.^.^.^.^.^.^.^.^.^.^.^.^.^.^.^.^.^.^.^.^.^.^.^.^.^.^.^.^.^.^.^.^.^.^.^.^.^.^.^.^.^.^.^.^.^.^.^.^.^.^.^.^.^.^.^.^.^.^.^.^.^.^.^.^.^.^.^.^.^.^.^.^.^.^.^.^.^.^.^.^.^.^.^.^.^.^.^.^.^.^.^.^.^.^.^.^.^.^.^.^.^.^.^.^.^.^.^.^.^.^.^.^.^.^.^.^.^.^.^.^.^.^.^.^.^.^.^.^.^.^.^.^.^.^.^.^.^.^.^.^.^.",
"^.^.^.^.^.^.^.^.^.^.^.^.^.^.^.^.^.^.^.^.^.^.^.^.^.^.^.^.^.^.^.^.^.^.^.^.^.^.^.^.^.^.^.^.^.^.^.^.^.^.^.^.^.^.^.^.^.^.^.^.^.^.^.^.^.^.^.^.^.^.^.^.^.^.^.^.^.^.^.^.^.^.^.^.^.^.^.^.^.^.^.^.^.^.^.^.^.^.^.^.^.^.^.^.^.o o $ % * > > 1 4 4 6 0 q e t u u p p f f f k k z v v v v b b b m m m b b b m m m m m B B B D D D H H D D Z B B m m b b v x x x v v v v v v v v v x x x v x b b b m m B m B B B B B m m B m m m m m m m m m B B B B B B B B Z D D D D D D H H H H D D D D D H H H H H K H K H K K K L P L H H H D D D H H H H D D D D H H K P U E E E E E E E E E E E E E E E E E E Q Q W Q E W W Q W Q W Q Q Q W Q Q Q E W Q E W Q W Q Q Q Q Q ^ ^ ( ) ) ' ' ' ' ' } } } }  . . . . . . .O. .O.O.O.O.O.O.O.O.O.O.O.O.O.O.O.O.+.+.O.O.O.O.O.O.O. . . . . .} } ' ' ' ' ' ) ) ) ( ^ ^ Q Q W W E E U H Z m b v k f u t e 0 8 4 1 > * * % $ @ o ^.^.^.^.^.^.^.^.^.^.^.^.^.^.^.^.^.^.^.^.^.^.^.^.^.^.^.^.^.^.^.^.^.^.^.^.^.^.^.^.^.^.^.^.^.^.^.^.^.^.^.^.^.^.^.^.^.^.^.^.^.^.^.^.^.^.^.^.^.^.^.^.^.^.^.^.^.^.^.^.^.^.^.^.^.^.^.^.^.^.^.^.^.^.^.^.^.^.^.^.^.^.^.^.^.^.^.^.^.^.^.^.^.^.^.^.^.^.^.^.^.^.^.^.^.^.^.^.^.^.^.^.^.^.^.^.^.^.^.^.^.^.^.^.^.^.^.^.^.^.^.^.^.^.^.^.^.^.^.^.^.^.^.^.^.^.^.^.^.^.^.^.^.^.^.^.^.^.^.^.^.^.^.^.^.^.^.^.^.^.^.^.^.^.^.^.^.^.^.^.^.^.^.^.^.^.^.^.^.^.^.^.^.^.^.^.^.^.^.^.^.^.^.^.^.^.^.",
"^.^.^.^.^.^.^.^.^.^.^.^.^.^.^.^.^.^.^.^.^.^.^.^.^.^.^.^.^.^.^.^.^.^.^.^.^.^.^.^.^.^.^.^.^.^.^.^.^.^.^.^.^.^.^.^.^.^.^.^.^.^.^.^.^.^.^.^.^.^.^.^.^.^.^.^.^.^.^.^.^.^.^.^.^.^.^.^.^.^.^.^.^.^.^.^.^.^.^.^.^.^.^.^.^.^.o @ $ % * * > > 1 4 6 7 q e e e u u u p p f f k z z v v x x v v b v v x x v b b b b m m B B B Z D Z Z B B m m b b v x v z z z v v v v v x x v v v v c v x x v b b m m m m m m m m m m m m m b b b b m m m m B B B B B B B B Z Z D D D H D D D D D D D D D D D D H D H H H H H H H K K H H D D D Z Z D D D D D D D D D H H H K K L L K L P U U E E E E E E E E E E E E E E W E E W W W W Q E Q Q W Q W W E W E Q W Q W Q Q Q Q ^ ^ ( ) ) ) ' ' ' ' ' } } }  . . . . . . . . . .O. .O.O.O.O. .O. .O.O.O.O.O.O.O.O.O.O.O.O.O.O. . . . . .} } } ' ' ' ' ' ) ) ) ( ^ ^ Q Q Q E E E P H Z m v z k p u e q 0 8 4 1 > * * * % @ o ^.^.^.^.^.^.^.^.^.^.^.^.^.^.^.^.^.^.^.^.^.^.^.^.^.^.^.^.^.^.^.^.^.^.^.^.^.^.^.^.^.^.^.^.^.^.^.^.^.^.^.^.^.^.^.^.^.^.^.^.^.^.^.^.^.^.^.^.^.^.^.^.^.^.^.^.^.^.^.^.^.^.^.^.^.^.^.^.^.^.^.^.^.^.^.^.^.^.^.^.^.^.^.^.^.^.^.^.^.^.^.^.^.^.^.^.^.^.^.^.^.^.^.^.^.^.^.^.^.^.^.^.^.^.^.^.^.^.^.^.^.^.^.^.^.^.^.^.^.^.^.^.^.^.^.^.^.^.^.^.^.^.^.^.^.^.^.^.^.^.^.^.^.^.^.^.^.^.^.^.^.^.^.^.^.^.^.^.^.^.^.^.^.^.^.^.^.^.^.^.^.^.^.^.^.^.^.^.^.^.^.^.^.^.^.^.^.^.^.^.^.^.^.^.^.^.^.",
"^.^.^.^.^.^.^.^.^.^.^.^.^.^.^.^.^.^.^.^.^.^.^.^.^.^.^.^.^.^.^.^.^.^.^.^.^.^.^.^.^.^.^.^.^.^.^.^.^.^.^.^.^.^.^.^.^.^.^.^.^.^.^.^.^.^.^.^.^.^.^.^.^.^.^.^.^.^.^.^.^.^.^.^.^.^.^.^.^.^.^.^.^.^.^.^.^.^.^.^.^.^.^.^.^.^.. o @ # % * * > > 1 4 8 0 0 0 q e e t u u u p f f k z z k z z z z v v z z z v x x v b b m m m m m m m m m b b v x v z z z z z k z k z k z z k k z z z z z c x v v b b b b b m m m m m b b b b v b b m m m m m m m m m m m B B B B B D D D D D D D D D D D D D D D D D D D D D D H H H H D D Z B B B B B B B B B B Z D D D D H H H H H H H K K P U E E E E E E E E E E E E E E E E E E E E E E Q E E W E Q E W E E E W W W Q Q Q ^ ^ ( ( ) ) ' ' ' ' ' } }  .}  . . . . . . . . . . . . .O. . .O. . .O.O.O.O.O.O.O.O.O.O.O.O. . . . . .} } } ' ' ' ' ' ) ) ( ( ^ ^ Q Q W E E E L D B m v k f p u e q 0 6 4 1 > * * % % # o ^.^.^.^.^.^.^.^.^.^.^.^.^.^.^.^.^.^.^.^.^.^.^.^.^.^.^.^.^.^.^.^.^.^.^.^.^.^.^.^.^.^.^.^.^.^.^.^.^.^.^.^.^.^.^.^.^.^.^.^.^.^.^.^.^.^.^.^.^.^.^.^.^.^.^.^.^.^.^.^.^.^.^.^.^.^.^.^.^.^.^.^.^.^.^.^.^.^.^.^.^.^.^.^.^.^.^.^.^.^.^.^.^.^.^.^.^.^.^.^.^.^.^.^.^.^.^.^.^.^.^.^.^.^.^.^.^.^.^.^.^.^.^.^.^.^.^.^.^.^.^.^.^.^.^.^.^.^.^.^.^.^.^.^.^.^.^.^.^.^.^.^.^.^.^.^.^.^.^.^.^.^.^.^.^.^.^.^.^.^.^.^.^.^.^.^.^.^.^.^.^.^.^.^.^.^.^.^.^.^.^.^.^.^.^.^.^.^.^.^.^.^.^.^.^.^.^.",
"^.^.^.^.^.^.^.^.^.^.^.^.^.^.^.^.^.^.^.^.^.^.^.^.^.^.^.^.^.^.^.^.^.^.^.^.^.^.^.^.^.^.^.^.^.^.^.^.^.^.^.^.^.^.^.^.^.^.^.^.^.^.^.^.^.^.^.^.^.^.^.^.^.^.^.^.^.^.^.^.^.^.^.^.^.^.^.^.^.^.^.^.^.^.^.^.^.^.^.^.^.^.^.^.^.^.^.. o @ $ % * * > 1 4 4 4 8 8 8 8 0 q e e u u p f f k k k k k k k k z k f k z k z v v b b b b b b b b b b v x v z z k k k k k k k k k k z k k k z z k z k z z v v v v v v b b b b b b b b b v v b b b m m m m m m m m m m m B B B B D D Z Z Z D D D D D D D D B B B B B Z D D D D D D D D Z B B m m m m m m m m m m B B B Z D D D D D D D D D H H K K L K K L P P U E E E E E E E E E E E E E E E E E E E E E E E W E E Q Q Q Q Q ^ ( ( ( ) ) ' ' ' ' } } }  . . . . . . . . . . . . . . . . . . . . . .O. .O.O.O.O.O.O. . . . . . . .} } ' ' ' ' ' ' ) ) ( ^ ^ ^ Q Q E E E U K D B b x k f p u e q 7 4 4 1 > * * % $ @ o ^.^.^.^.^.^.^.^.^.^.^.^.^.^.^.^.^.^.^.^.^.^.^.^.^.^.^.^.^.^.^.^.^.^.^.^.^.^.^.^.^.^.^.^.^.^.^.^.^.^.^.^.^.^.^.^.^.^.^.^.^.^.^.^.^.^.^.^.^.^.^.^.^.^.^.^.^.^.^.^.^.^.^.^.^.^.^.^.^.^.^.^.^.^.^.^.^.^.^.^.^.^.^.^.^.^.^.^.^.^.^.^.^.^.^.^.^.^.^.^.^.^.^.^.^.^.^.^.^.^.^.^.^.^.^.^.^.^.^.^.^.^.^.^.^.^.^.^.^.^.^.^.^.^.^.^.^.^.^.^.^.^.^.^.^.^.^.^.^.^.^.^.^.^.^.^.^.^.^.^.^.^.^.^.^.^.^.^.^.^.^.^.^.^.^.^.^.^.^.^.^.^.^.^.^.^.^.^.^.^.^.^.^.^.^.^.^.^.^.^.^.^.^.^.^.^.^.",
"^.^.^.^.^.^.^.^.^.^.^.^.^.^.^.^.^.^.^.^.^.^.^.^.^.^.^.^.^.^.^.^.^.^.^.^.^.^.^.^.^.^.^.^.^.^.^.^.^.^.^.^.^.^.^.^.^.^.^.^.^.^.^.^.^.^.^.^.^.^.^.^.^.^.^.^.^.^.^.^.^.^.^.^.^.^.^.^.^.^.^.^.^.^.^.^.^.^.^.^.^.^.^.^.^.^.^.^.^.o @ # % * * > > 1 4 4 4 4 4 8 7 0 q e t u p p p f f f f f f f f f f f f k k k z v v v x v x x v x x v z k k f f f f f f f f f f f f f f k k k f k k k k z k z v v x x v v b v b v v x v v b b b b b b b b b b b b m m m m B B B B B B B Z D Z B D Z B B B m B B B B B D D D Z Z B B B m m b b b b b b b b b b m m B m B B B B Z Z D Z Z D D D D D D D D H H H U E E E E E E E E E E E E E E E E E E E E E E E E E W Q Q Q Q ^ ^ ^ ( ( ) ' ' ' ' } } }  .}  . . . . . . . . . . . . . . . . . . . . . . . .O.O. . . . . . . .}  .} } } ' ' ' ' ' ) ) ( ( ^ Q Q Q E E E E K D m b v z f p u e 0 7 4 4 1 > * * % $ @ o ^.^.^.^.^.^.^.^.^.^.^.^.^.^.^.^.^.^.^.^.^.^.^.^.^.^.^.^.^.^.^.^.^.^.^.^.^.^.^.^.^.^.^.^.^.^.^.^.^.^.^.^.^.^.^.^.^.^.^.^.^.^.^.^.^.^.^.^.^.^.^.^.^.^.^.^.^.^.^.^.^.^.^.^.^.^.^.^.^.^.^.^.^.^.^.^.^.^.^.^.^.^.^.^.^.^.^.^.^.^.^.^.^.^.^.^.^.^.^.^.^.^.^.^.^.^.^.^.^.^.^.^.^.^.^.^.^.^.^.^.^.^.^.^.^.^.^.^.^.^.^.^.^.^.^.^.^.^.^.^.^.^.^.^.^.^.^.^.^.^.^.^.^.^.^.^.^.^.^.^.^.^.^.^.^.^.^.^.^.^.^.^.^.^.^.^.^.^.^.^.^.^.^.^.^.^.^.^.^.^.^.^.^.^.^.^.^.^.^.^.^.^.^.^.^.^.^.",
"^.^.^.^.^.^.^.^.^.^.^.^.^.^.^.^.^.^.^.^.^.^.^.^.^.^.^.^.^.^.^.^.^.^.^.^.^.^.^.^.^.^.^.^.^.^.^.^.^.^.^.^.^.^.^.^.^.^.^.^.^.^.^.^.^.^.^.^.^.^.^.^.^.^.^.^.^.^.^.^.^.^.^.^.^.^.^.^.^.^.^.^.^.^.^.^.^.^.^.^.^.^.^.^.^.^.^.^.^.. o @ $ % * * * > > 1 1 1 4 4 6 8 7 0 q e u u u u p p u p p p p p p f p f f f k k k z k z z z z z z z k k f f f p p p f f p f f f f f f f f f f f f f k k k z z k z v x x x v x x v x v x v v v b b b b b v v v v b b m m m B B B B B B Z B B B B B B m m m m m m B B Z Z B B B m m m b b v v x x v v b b b b b m m m m m m m B B B B m B B B B B B B B D D D K U E E E E E E E E E E E E E E E E E E E E E E E W Q Q Q Q Q ^ ^ ^ ^ ( ( ) ' ' ' ' } } } } } } }  . .}  . . . . . . . . . . . . . . . . . . . . . . . . . . .} } } } ' ' ' ' ' ) ) ( ( ^ ^ Q Q Q E E E U H D m b v k f p u e q 8 4 4 1 > > * % $ @ o . ^.^.^.^.^.^.^.^.^.^.^.^.^.^.^.^.^.^.^.^.^.^.^.^.^.^.^.^.^.^.^.^.^.^.^.^.^.^.^.^.^.^.^.^.^.^.^.^.^.^.^.^.^.^.^.^.^.^.^.^.^.^.^.^.^.^.^.^.^.^.^.^.^.^.^.^.^.^.^.^.^.^.^.^.^.^.^.^.^.^.^.^.^.^.^.^.^.^.^.^.^.^.^.^.^.^.^.^.^.^.^.^.^.^.^.^.^.^.^.^.^.^.^.^.^.^.^.^.^.^.^.^.^.^.^.^.^.^.^.^.^.^.^.^.^.^.^.^.^.^.^.^.^.^.^.^.^.^.^.^.^.^.^.^.^.^.^.^.^.^.^.^.^.^.^.^.^.^.^.^.^.^.^.^.^.^.^.^.^.^.^.^.^.^.^.^.^.^.^.^.^.^.^.^.^.^.^.^.^.^.^.^.^.^.^.^.^.^.^.^.^.^.^.^.^.^.",
"^.^.^.^.^.^.^.^.^.^.^.^.^.^.^.^.^.^.^.^.^.^.^.^.^.^.^.^.^.^.^.^.^.^.^.^.^.^.^.^.^.^.^.^.^.^.^.^.^.^.^.^.^.^.^.^.^.^.^.^.^.^.^.^.^.^.^.^.^.^.^.^.^.^.^.^.^.^.^.^.^.^.^.^.^.^.^.^.^.^.^.^.^.^.^.^.^.^.^.^.^.^.^.^.^.^.^.^.^.^.. o + # $ % * * * > > > 1 1 4 4 4 4 8 0 q e t u u u u u u u u u u u u u p p f f f f k k k k k k k f f f p p p p u p p u p u p p p p p p p p p f f f f k k k k k k k k z v v v v v v v v v v x x v v v v x x x v v v b b m m m m m B m B B B B B B B m m m m m m m B B B B m m m b b b x x v v z v x x v v b b b m m m b b b m b m m m m m m m m m B B B B D D K P E E E E E E E E E E E E E E E E E E E E E E Q W Q Q Q Q ^ ^ ^ ^ ( ( ) ) ' ' ' } } } } } } }  .}  .}  .} }  .}  . . . . . . . . . . . . . . . . . . . . .} } } ' ' ' ' ' ) ) ) ( ^ ^ ^ Q Q W W E E P H B m v z k f p u e q 0 6 4 1 > > * % $ + o . ^.^.^.^.^.^.^.^.^.^.^.^.^.^.^.^.^.^.^.^.^.^.^.^.^.^.^.^.^.^.^.^.^.^.^.^.^.^.^.^.^.^.^.^.^.^.^.^.^.^.^.^.^.^.^.^.^.^.^.^.^.^.^.^.^.^.^.^.^.^.^.^.^.^.^.^.^.^.^.^.^.^.^.^.^.^.^.^.^.^.^.^.^.^.^.^.^.^.^.^.^.^.^.^.^.^.^.^.^.^.^.^.^.^.^.^.^.^.^.^.^.^.^.^.^.^.^.^.^.^.^.^.^.^.^.^.^.^.^.^.^.^.^.^.^.^.^.^.^.^.^.^.^.^.^.^.^.^.^.^.^.^.^.^.^.^.^.^.^.^.^.^.^.^.^.^.^.^.^.^.^.^.^.^.^.^.^.^.^.^.^.^.^.^.^.^.^.^.^.^.^.^.^.^.^.^.^.^.^.^.^.^.^.^.^.^.^.^.^.^.^.^.^.^.^.^.",
"^.^.^.^.^.^.^.^.^.^.^.^.^.^.^.^.^.^.^.^.^.^.^.^.^.^.^.^.^.^.^.^.^.^.^.^.^.^.^.^.^.^.^.^.^.^.^.^.^.^.^.^.^.^.^.^.^.^.^.^.^.^.^.^.^.^.^.^.^.^.^.^.^.^.^.^.^.^.^.^.^.^.^.^.^.^.^.^.^.^.^.^.^.^.^.^.^.^.^.^.^.^.^.^.^.^.^.^.^.^.^.^.o o + $ % % % * * * > > 1 1 1 4 4 6 8 0 q e e e e e e e e e e e t t u u p p p p p f f p f f f f p p p u u u u u u u t t u u u u u u u p p p p f f f f f f f k k k k z z z z k z k k k z z x v x x v v x v v v v b b b m m m m m m B B m m m m m m b b b m m m m B m m b b b b v v z z z k z z z v x v v b b b b b b v v b b b b b b v v v b m m m m B B Z H H P E E E E E E E E E E E E E E E E E E E E E E Q W Q Q ^ ^ ^ ^ ^ ( ( ) ) ' ' ' ' } } } } } } } } }  . .} } } } }  . . . . . . . . . . . . . . . . .}  . .} } } ' ' ' ' ) ' ( ) ( ^ ^ Q Q Q W E E E L D B b x k k f p u e q 0 6 4 1 > > * % % @ o ^.^.^.^.^.^.^.^.^.^.^.^.^.^.^.^.^.^.^.^.^.^.^.^.^.^.^.^.^.^.^.^.^.^.^.^.^.^.^.^.^.^.^.^.^.^.^.^.^.^.^.^.^.^.^.^.^.^.^.^.^.^.^.^.^.^.^.^.^.^.^.^.^.^.^.^.^.^.^.^.^.^.^.^.^.^.^.^.^.^.^.^.^.^.^.^.^.^.^.^.^.^.^.^.^.^.^.^.^.^.^.^.^.^.^.^.^.^.^.^.^.^.^.^.^.^.^.^.^.^.^.^.^.^.^.^.^.^.^.^.^.^.^.^.^.^.^.^.^.^.^.^.^.^.^.^.^.^.^.^.^.^.^.^.^.^.^.^.^.^.^.^.^.^.^.^.^.^.^.^.^.^.^.^.^.^.^.^.^.^.^.^.^.^.^.^.^.^.^.^.^.^.^.^.^.^.^.^.^.^.^.^.^.^.^.^.^.^.^.^.^.^.^.^.^.^.^.",
"^.^.^.^.^.^.^.^.^.^.^.^.^.^.^.^.^.^.^.^.^.^.^.^.^.^.^.^.^.^.^.^.^.^.^.^.^.^.^.^.^.^.^.^.^.^.^.^.^.^.^.^.^.^.^.^.^.^.^.^.^.^.^.^.^.^.^.^.^.^.^.^.^.^.^.^.^.^.^.^.^.^.^.^.^.^.^.^.^.^.^.^.^.^.^.^.^.^.^.^.^.^.^.^.^.^.^.^.^.^.^.^.^.. o @ # # $ % % * * * > > > > 1 4 4 4 6 8 0 0 0 0 0 7 0 0 0 0 e e e t u u u u p p p u p p p u u u u u u e e e e q e e e e e u u u u u u u p p p p p f f f f f f f f k k f k k k k k k k z v v z v z z z z v x x v b b m m m m m m m m m m m m b b b b b b b m m m b b b v x v z z k k f f k k z z z v x v v x v x v x x x x x x v v x v x b b b b m m B B D H L U E E E E E E E E E E E E E E E E E E E E W Q Q ^ ^ ^ ^ ^ ^ ( ( ) ) ' ' ' ' } } } } } } } }  .}  .} } } } } } }  . . . . . . . . . . . . .} }  .} } } } ' ' ' ' ' ) ) ( ( ^ ^ ^ Q Q Q W E E U K D m b x z k f p u e e 0 4 4 1 > * * % $ @ o ^.^.^.^.^.^.^.^.^.^.^.^.^.^.^.^.^.^.^.^.^.^.^.^.^.^.^.^.^.^.^.^.^.^.^.^.^.^.^.^.^.^.^.^.^.^.^.^.^.^.^.^.^.^.^.^.^.^.^.^.^.^.^.^.^.^.^.^.^.^.^.^.^.^.^.^.^.^.^.^.^.^.^.^.^.^.^.^.^.^.^.^.^.^.^.^.^.^.^.^.^.^.^.^.^.^.^.^.^.^.^.^.^.^.^.^.^.^.^.^.^.^.^.^.^.^.^.^.^.^.^.^.^.^.^.^.^.^.^.^.^.^.^.^.^.^.^.^.^.^.^.^.^.^.^.^.^.^.^.^.^.^.^.^.^.^.^.^.^.^.^.^.^.^.^.^.^.^.^.^.^.^.^.^.^.^.^.^.^.^.^.^.^.^.^.^.^.^.^.^.^.^.^.^.^.^.^.^.^.^.^.^.^.^.^.^.^.^.^.^.^.^.^.^.^.^.^.",
"^.^.^.^.^.^.^.^.^.^.^.^.^.^.^.^.^.^.^.^.^.^.^.^.^.^.^.^.^.^.^.^.^.^.^.^.^.^.^.^.^.^.^.^.^.^.^.^.^.^.^.^.^.^.^.^.^.^.^.^.^.^.^.^.^.^.^.^.^.^.^.^.^.^.^.^.^.^.^.^.^.^.^.^.^.^.^.^.^.^.^.^.^.^.^.^.^.^.^.^.^.^.^.^.^.^.^.^.^.^.^.^.^.^.^.o o o @ + # % % % * * * * > > > 1 4 4 4 4 6 6 4 4 4 4 6 8 0 0 0 e e e u t u u u u u u u t t e e e e e 0 0 0 0 0 0 0 0 q e e e e e t u u u u p p p p p p p f f f f f f f f f f k k k z z k k z z z z z z v v x v b b b b m m m m m m b b b v b b v b b b b b b b b x v v z z k f f f f f f k k k k z z z z z v v z z v v v z z z k z z v v v x b b m m B D H K P U U E E E E E E E E E E E E E E E E E W Q Q Q Q Q ^ ^ ^ ( ( ( ) ) ' ' ' ' } } } } } } } } } } } } } } }  .}  . . . . . . . . . . . .} } } } } } } ' ' ' ' ) ) ) ) ) ^ ^ ^ ^ Q Q W E E E P H Z m b x k k f p u e q 0 6 4 1 > * * % $ @ o . ^.^.^.^.^.^.^.^.^.^.^.^.^.^.^.^.^.^.^.^.^.^.^.^.^.^.^.^.^.^.^.^.^.^.^.^.^.^.^.^.^.^.^.^.^.^.^.^.^.^.^.^.^.^.^.^.^.^.^.^.^.^.^.^.^.^.^.^.^.^.^.^.^.^.^.^.^.^.^.^.^.^.^.^.^.^.^.^.^.^.^.^.^.^.^.^.^.^.^.^.^.^.^.^.^.^.^.^.^.^.^.^.^.^.^.^.^.^.^.^.^.^.^.^.^.^.^.^.^.^.^.^.^.^.^.^.^.^.^.^.^.^.^.^.^.^.^.^.^.^.^.^.^.^.^.^.^.^.^.^.^.^.^.^.^.^.^.^.^.^.^.^.^.^.^.^.^.^.^.^.^.^.^.^.^.^.^.^.^.^.^.^.^.^.^.^.^.^.^.^.^.^.^.^.^.^.^.^.^.^.^.^.^.^.^.^.^.^.^.^.^.^.^.^.^.^.",
"^.^.^.^.^.^.^.^.^.^.^.^.^.^.^.^.^.^.^.^.^.^.^.^.^.^.^.^.^.^.^.^.^.^.^.^.^.^.^.^.^.^.^.^.^.^.^.^.^.^.^.^.^.^.^.^.^.^.^.^.^.^.^.^.^.^.^.^.^.^.^.^.^.^.^.^.^.^.^.^.^.^.^.^.^.^.^.^.^.^.^.^.^.^.^.^.^.^.^.^.^.^.^.^.^.^.^.^.^.^.^.^.^.^.^.^.^.. o o o @ # $ % % % % * * * > > 1 1 1 4 1 1 1 1 1 4 4 4 6 8 7 0 q q q q q e e e e e e q q 0 0 0 0 7 8 6 6 4 6 8 8 0 0 q q e e e e e t t u u u u u p p p p p p p p p p f f f f k k k k k k k k k z k z z v x x x x v b b b b b b b b b v v v v x x v v b v v x z z z k k f p p p p p p p f f f k k z k k z z z z z z k z k k k f k k k z z v x b m m Z D H K K K L P P U E E E E E E E E E E E E E E E W Q Q Q Q ^ ^ ( ( ( ) ) ) ' ' ' } } } } } } } } } } } } } } } } } }  . . . . . . . . . . .} } ' } } ' ' ' ' ' ' ) ) ) ( ( ^ ^ Q Q Q Q Q E E E P H B m b v z k f p u e e 0 6 4 1 > > * % % + o . ^.^.^.^.^.^.^.^.^.^.^.^.^.^.^.^.^.^.^.^.^.^.^.^.^.^.^.^.^.^.^.^.^.^.^.^.^.^.^.^.^.^.^.^.^.^.^.^.^.^.^.^.^.^.^.^.^.^.^.^.^.^.^.^.^.^.^.^.^.^.^.^.^.^.^.^.^.^.^.^.^.^.^.^.^.^.^.^.^.^.^.^.^.^.^.^.^.^.^.^.^.^.^.^.^.^.^.^.^.^.^.^.^.^.^.^.^.^.^.^.^.^.^.^.^.^.^.^.^.^.^.^.^.^.^.^.^.^.^.^.^.^.^.^.^.^.^.^.^.^.^.^.^.^.^.^.^.^.^.^.^.^.^.^.^.^.^.^.^.^.^.^.^.^.^.^.^.^.^.^.^.^.^.^.^.^.^.^.^.^.^.^.^.^.^.^.^.^.^.^.^.^.^.^.^.^.^.^.^.^.^.^.^.^.^.^.^.^.^.^.^.^.^.^.^.^.",
"^.^.^.^.^.^.^.^.^.^.^.^.^.^.^.^.^.^.^.^.^.^.^.^.^.^.^.^.^.^.^.^.^.^.^.^.^.^.^.^.^.^.^.^.^.^.^.^.^.^.^.^.^.^.^.^.^.^.^.^.^.^.^.^.^.^.^.^.^.^.^.^.^.^.^.^.^.^.^.^.^.^.^.^.^.^.^.^.^.^.^.^.^.^.^.^.^.^.^.^.^.^.^.^.^.^.^.^.^.^.^.^.^.^.^.^.^.^.^.^.. o o @ + # # $ $ % % * * > > > > > > > > > > 1 1 4 4 4 6 6 8 8 7 0 0 0 0 0 0 0 8 6 6 8 6 4 4 4 4 4 4 4 4 4 6 8 7 7 0 0 0 0 q q e e u u u u u u u u u u u u u p p p p f f f f f f k f k k k z k k k z z k z x v v v b b b b v v v x v x v v x x v v v z z k k f f p p p u p u p p p p f f k k f f f f f f k k k k f f f f f f f f k k v x b m B D D H H H K K K L P P U U U U U U E E E E E E W W E Q Q Q ^ ^ ( ( ( ( ) ) ' ' ' ' } } } } } } } } } ' } } } } }  . . . . . . . . . . . .} } } ' ' ' ' ' ' ' ' ) ) ( ( ( ^ ^ Q Q Q Q Q E E E U K D B m b v z k p p u e q 7 4 4 1 1 > * * $ + o . ^.^.^.^.^.^.^.^.^.^.^.^.^.^.^.^.^.^.^.^.^.^.^.^.^.^.^.^.^.^.^.^.^.^.^.^.^.^.^.^.^.^.^.^.^.^.^.^.^.^.^.^.^.^.^.^.^.^.^.^.^.^.^.^.^.^.^.^.^.^.^.^.^.^.^.^.^.^.^.^.^.^.^.^.^.^.^.^.^.^.^.^.^.^.^.^.^.^.^.^.^.^.^.^.^.^.^.^.^.^.^.^.^.^.^.^.^.^.^.^.^.^.^.^.^.^.^.^.^.^.^.^.^.^.^.^.^.^.^.^.^.^.^.^.^.^.^.^.^.^.^.^.^.^.^.^.^.^.^.^.^.^.^.^.^.^.^.^.^.^.^.^.^.^.^.^.^.^.^.^.^.^.^.^.^.^.^.^.^.^.^.^.^.^.^.^.^.^.^.^.^.^.^.^.^.^.^.^.^.^.^.^.^.^.^.^.^.^.^.^.^.^.^.^.^.^.",
"^.^.^.^.^.^.^.^.^.^.^.^.^.^.^.^.^.^.^.^.^.^.^.^.^.^.^.^.^.^.^.^.^.^.^.^.^.^.^.^.^.^.^.^.^.^.^.^.^.^.^.^.^.^.^.^.^.^.^.^.^.^.^.^.^.^.^.^.^.^.^.^.^.^.^.^.^.^.^.^.^.^.^.^.^.^.^.^.^.^.^.^.^.^.^.^.^.^.^.^.^.^.^.^.^.^.^.^.^.^.^.^.^.^.^.^.^.^.^.^.^.^.^.. o o @ + + # $ % % % * * * * * % * * * > > > 1 1 4 4 4 4 4 6 6 4 6 6 4 4 4 4 4 4 4 4 1 1 1 1 1 1 1 4 4 4 4 4 4 6 8 7 0 0 q e e e t u t u u u u u u u u u u p p p p p p p f f f f f f k k k k k k k k z z v x x v x v v x v v v v k k z k z z k z k f f f p p u u u u u u u u p p f f f f p p p f f f f f f f p p p p p f f f k k v x b B B D D D H H H H K K K L P L L L K P E E E E E E E E Q Q Q Q ^ ^ ( ( ( ) ) ' ' ' ' ' ' } } } } } } ' ' ' } } } } } }  .}  . .}  . .}  .} } ' ' ' ' ' ' ' ' ' ) ) ) ( ( ^ ^ Q Q Q Q W W E E E U H D B m v v k f p u u e q 8 4 4 1 1 > * * % + o . ^.^.^.^.^.^.^.^.^.^.^.^.^.^.^.^.^.^.^.^.^.^.^.^.^.^.^.^.^.^.^.^.^.^.^.^.^.^.^.^.^.^.^.^.^.^.^.^.^.^.^.^.^.^.^.^.^.^.^.^.^.^.^.^.^.^.^.^.^.^.^.^.^.^.^.^.^.^.^.^.^.^.^.^.^.^.^.^.^.^.^.^.^.^.^.^.^.^.^.^.^.^.^.^.^.^.^.^.^.^.^.^.^.^.^.^.^.^.^.^.^.^.^.^.^.^.^.^.^.^.^.^.^.^.^.^.^.^.^.^.^.^.^.^.^.^.^.^.^.^.^.^.^.^.^.^.^.^.^.^.^.^.^.^.^.^.^.^.^.^.^.^.^.^.^.^.^.^.^.^.^.^.^.^.^.^.^.^.^.^.^.^.^.^.^.^.^.^.^.^.^.^.^.^.^.^.^.^.^.^.^.^.^.^.^.^.^.^.^.^.^.^.^.^.^.^.",
"^.^.^.^.^.^.^.^.^.^.^.^.^.^.^.^.^.^.^.^.^.^.^.^.^.^.^.^.^.^.^.^.^.^.^.^.^.^.^.^.^.^.^.^.^.^.^.^.^.^.^.^.^.^.^.^.^.^.^.^.^.^.^.^.^.^.^.^.^.^.^.^.^.^.^.^.^.^.^.^.^.^.^.^.^.^.^.^.^.^.^.^.^.^.^.^.^.^.^.^.^.^.^.^.^.^.^.^.^.^.^.^.^.^.^.^.^.^.^.^.^.^.^.^.^.. . o o @ @ + # # $ # # $ % $ % % % * * * > > > > > 1 1 4 4 4 4 4 1 1 1 1 1 1 1 1 > > > > * > > > > 1 1 1 4 4 4 4 8 8 0 0 0 q q e e e e e e e e e e t u u u u u u p p p p p f f f f f f f f f f f k z k z v v v v c c v v c z k k k k k k k k f f p p p u u u t u u u u u u p p p p p u u p u p p p p u p u u u u p p p f k k z v v b m B B D D D D D H H H K K K H H H K U U E E E E E W E Q Q Q ^ ^ ^ ( ( ( ) ) ' ' ' ' ' ' } } } } ' } ' } ' } } } } } }  . . . . .} } } } ' ' ' ' ' ' ' ' ) ' ) ( ( ^ ^ ^ ^ Q Q W W Q E E E E P H D m b v v k f p u u e q 8 4 4 1 > * * % % + o . ^.^.^.^.^.^.^.^.^.^.^.^.^.^.^.^.^.^.^.^.^.^.^.^.^.^.^.^.^.^.^.^.^.^.^.^.^.^.^.^.^.^.^.^.^.^.^.^.^.^.^.^.^.^.^.^.^.^.^.^.^.^.^.^.^.^.^.^.^.^.^.^.^.^.^.^.^.^.^.^.^.^.^.^.^.^.^.^.^.^.^.^.^.^.^.^.^.^.^.^.^.^.^.^.^.^.^.^.^.^.^.^.^.^.^.^.^.^.^.^.^.^.^.^.^.^.^.^.^.^.^.^.^.^.^.^.^.^.^.^.^.^.^.^.^.^.^.^.^.^.^.^.^.^.^.^.^.^.^.^.^.^.^.^.^.^.^.^.^.^.^.^.^.^.^.^.^.^.^.^.^.^.^.^.^.^.^.^.^.^.^.^.^.^.^.^.^.^.^.^.^.^.^.^.^.^.^.^.^.^.^.^.^.^.^.^.^.^.^.^.^.^.^.^.^.^.",
"^.^.^.^.^.^.^.^.^.^.^.^.^.^.^.^.^.^.^.^.^.^.^.^.^.^.^.^.^.^.^.^.^.^.^.^.^.^.^.^.^.^.^.^.^.^.^.^.^.^.^.^.^.^.^.^.^.^.^.^.^.^.^.^.^.^.^.^.^.^.^.^.^.^.^.^.^.^.^.^.^.^.^.^.^.^.^.^.^.^.^.^.^.^.^.^.^.^.^.^.^.^.^.^.^.^.^.^.^.^.^.^.^.^.^.^.^.^.^.^.^.^.^.^.^.^.^.^.. . o o o o @ @ @ @ + @ # % $ % % % * * * * * * > > > > 1 > > > > > > > > > * * * * * * * * * > > > 1 1 1 4 4 4 6 8 8 7 0 0 q 0 q q q q q q q e e e e e u u u u u p p p p p p p p p p p f f f k k z z z z k z z z z z z k k k k f k k f f f p u u u u t e e e u t t u u u u u u u u u u u u u u u u u u u u u u p p f f k z z x b m B B B D D D D H H H H H H D D H K U E E E E E E E Q W Q Q ^ ^ ^ ( ( ) ) ) ' ' ' ' ' ' } } ' ' ' ' ' ' } } } } } } } } } } } } } ' ' ' ' ' ' ) ) ) ) ) ) ) ( ^ ^ ^ ^ Q Q Q Q W E E E E E K D B m b x z k f p u u e 0 7 6 4 1 > * % % # @ o ^.^.^.^.^.^.^.^.^.^.^.^.^.^.^.^.^.^.^.^.^.^.^.^.^.^.^.^.^.^.^.^.^.^.^.^.^.^.^.^.^.^.^.^.^.^.^.^.^.^.^.^.^.^.^.^.^.^.^.^.^.^.^.^.^.^.^.^.^.^.^.^.^.^.^.^.^.^.^.^.^.^.^.^.^.^.^.^.^.^.^.^.^.^.^.^.^.^.^.^.^.^.^.^.^.^.^.^.^.^.^.^.^.^.^.^.^.^.^.^.^.^.^.^.^.^.^.^.^.^.^.^.^.^.^.^.^.^.^.^.^.^.^.^.^.^.^.^.^.^.^.^.^.^.^.^.^.^.^.^.^.^.^.^.^.^.^.^.^.^.^.^.^.^.^.^.^.^.^.^.^.^.^.^.^.^.^.^.^.^.^.^.^.^.^.^.^.^.^.^.^.^.^.^.^.^.^.^.^.^.^.^.^.^.^.^.^.^.^.^.^.^.^.^.^.^.^.",
"^.^.^.^.^.^.^.^.^.^.^.^.^.^.^.^.^.^.^.^.^.^.^.^.^.^.^.^.^.^.^.^.^.^.^.^.^.^.^.^.^.^.^.^.^.^.^.^.^.^.^.^.^.^.^.^.^.^.^.^.^.^.^.^.^.^.^.^.^.^.^.^.^.^.^.^.^.^.^.^.^.^.^.^.^.^.^.^.^.^.^.^.^.^.^.^.^.^.^.^.^.^.^.^.^.^.^.^.^.^.^.^.^.^.^.^.^.^.^.^.^.^.^.^.^.^.^.^.^.^.^.^.. . o o . o o o o o + # $ $ $ % % % % * * * * > > * * * * * * * * * * % % % % % % % * * > > > > > 1 4 4 4 4 4 6 8 8 7 7 0 0 0 7 8 8 0 0 0 0 q q e e e t u u u u u u p p p p p p p p f f k k k k z z z k z k k k k f k f f f f f p p u u u u t e e e e e e e e t u u u u u u u u u t t e e e e t u u u u u p p f f k z v b m m m m B B B Z D D D D D D D D H K P E E E E E E E E W Q Q Q ^ ^ ( ( ( ) ) ) ' ' ' ' ' ' ' ' } ' ' ' ' } ' } ' ' } ' } } } } ' ' ' ' ' ' ) ) ) ) ) ) ) ( ( ( ^ ^ ^ Q Q Q W E W E E E E U K D B m b v k k f p u t e 0 8 4 4 1 > * % $ + o . ^.^.^.^.^.^.^.^.^.^.^.^.^.^.^.^.^.^.^.^.^.^.^.^.^.^.^.^.^.^.^.^.^.^.^.^.^.^.^.^.^.^.^.^.^.^.^.^.^.^.^.^.^.^.^.^.^.^.^.^.^.^.^.^.^.^.^.^.^.^.^.^.^.^.^.^.^.^.^.^.^.^.^.^.^.^.^.^.^.^.^.^.^.^.^.^.^.^.^.^.^.^.^.^.^.^.^.^.^.^.^.^.^.^.^.^.^.^.^.^.^.^.^.^.^.^.^.^.^.^.^.^.^.^.^.^.^.^.^.^.^.^.^.^.^.^.^.^.^.^.^.^.^.^.^.^.^.^.^.^.^.^.^.^.^.^.^.^.^.^.^.^.^.^.^.^.^.^.^.^.^.^.^.^.^.^.^.^.^.^.^.^.^.^.^.^.^.^.^.^.^.^.^.^.^.^.^.^.^.^.^.^.^.^.^.^.^.^.^.^.^.^.^.^.^.^.^.",
"^.^.^.^.^.^.^.^.^.^.^.^.^.^.^.^.^.^.^.^.^.^.^.^.^.^.^.^.^.^.^.^.^.^.^.^.^.^.^.^.^.^.^.^.^.^.^.^.^.^.^.^.^.^.^.^.^.^.^.^.^.^.^.^.^.^.^.^.^.^.^.^.^.^.^.^.^.^.^.^.^.^.^.^.^.^.^.^.^.^.^.^.^.^.^.^.^.^.^.^.^.^.^.^.^.^.^.^.^.^.^.^.^.^.^.^.^.^.^.^.^.^.^.^.^.^.^.^.^.^.^.^.^.^.^.^.^.^.^.. . o o o @ @ + # # $ $ % % % % * * * % % % % % % % % $ $ $ # $ # $ $ % % % * * * > > 1 1 1 4 4 4 4 6 6 4 6 6 6 4 4 4 4 4 6 8 8 7 0 e e e t t u u u u u p p u u u u p p p f f f k k k k k k k k k f f f f p p p p p u u u e e e e e e e e e q e q e e e e e e e e e e e q e e e e u u t u u p p p f f k z x b b b b m m B B B B Z Z Z Z D D D H L U E E E E E E E Q W Q Q Q ^ ^ ^ ^ ( ) ) ) ' ' ' ' ' ' ' ' ' ' ' ' ' ' ' ' ' ' ' ' ' ' ' ' ' ' ' ' ) ) ) ) ( ( ( ( ^ ^ ^ Q ^ ^ Q Q Q W W E E E E E P K D B m v v z k f p u e e 0 8 4 4 1 > * % # @ o ^.^.^.^.^.^.^.^.^.^.^.^.^.^.^.^.^.^.^.^.^.^.^.^.^.^.^.^.^.^.^.^.^.^.^.^.^.^.^.^.^.^.^.^.^.^.^.^.^.^.^.^.^.^.^.^.^.^.^.^.^.^.^.^.^.^.^.^.^.^.^.^.^.^.^.^.^.^.^.^.^.^.^.^.^.^.^.^.^.^.^.^.^.^.^.^.^.^.^.^.^.^.^.^.^.^.^.^.^.^.^.^.^.^.^.^.^.^.^.^.^.^.^.^.^.^.^.^.^.^.^.^.^.^.^.^.^.^.^.^.^.^.^.^.^.^.^.^.^.^.^.^.^.^.^.^.^.^.^.^.^.^.^.^.^.^.^.^.^.^.^.^.^.^.^.^.^.^.^.^.^.^.^.^.^.^.^.^.^.^.^.^.^.^.^.^.^.^.^.^.^.^.^.^.^.^.^.^.^.^.^.^.^.^.^.^.^.^.^.^.^.^.^.^.^.^.^.^.",
"^.^.^.^.^.^.^.^.^.^.^.^.^.^.^.^.^.^.^.^.^.^.^.^.^.^.^.^.^.^.^.^.^.^.^.^.^.^.^.^.^.^.^.^.^.^.^.^.^.^.^.^.^.^.^.^.^.^.^.^.^.^.^.^.^.^.^.^.^.^.^.^.^.^.^.^.^.^.^.^.^.^.^.^.^.^.^.^.^.^.^.^.^.^.^.^.^.^.^.^.^.^.^.^.^.^.^.^.^.^.^.^.^.^.^.^.^.^.^.^.^.^.^.^.^.^.^.^.^.^.^.^.^.^.^.^.^.^.^.^.^.^.. o o o o @ @ @ + # # $ $ $ $ % % $ $ $ # $ # # + + @ @ + @ @ + + # $ % % * * * > > > 1 1 1 4 4 4 4 4 4 4 4 1 1 1 4 4 4 4 4 7 0 0 e e e e t t t u u u u u u u u u p p f f f f k k k f k k f f f p p p p p p u u t e e e e q e q e q q 0 0 0 0 0 0 q q q q e e q q 0 q 0 e e t t t u u u u u p p f f z v x x v b b m m m B B B B B D D D H K P P U E E E E E E W W Q Q Q ^ ^ ^ ( ( ) ) ) ) ) ' ' ' ' ' ' ' ' ' ' ' ' ' ' ' ' ' ' ' ' ' ' ) ) ) ) ) ( ( ^ ^ ^ ^ ^ ^ ^ Q Q Q Q Q Q W W E E E E E P H D B m v z z k f p u t e 0 6 4 1 > > * $ + o . ^.^.^.^.^.^.^.^.^.^.^.^.^.^.^.^.^.^.^.^.^.^.^.^.^.^.^.^.^.^.^.^.^.^.^.^.^.^.^.^.^.^.^.^.^.^.^.^.^.^.^.^.^.^.^.^.^.^.^.^.^.^.^.^.^.^.^.^.^.^.^.^.^.^.^.^.^.^.^.^.^.^.^.^.^.^.^.^.^.^.^.^.^.^.^.^.^.^.^.^.^.^.^.^.^.^.^.^.^.^.^.^.^.^.^.^.^.^.^.^.^.^.^.^.^.^.^.^.^.^.^.^.^.^.^.^.^.^.^.^.^.^.^.^.^.^.^.^.^.^.^.^.^.^.^.^.^.^.^.^.^.^.^.^.^.^.^.^.^.^.^.^.^.^.^.^.^.^.^.^.^.^.^.^.^.^.^.^.^.^.^.^.^.^.^.^.^.^.^.^.^.^.^.^.^.^.^.^.^.^.^.^.^.^.^.^.^.^.^.^.^.^.^.^.^.^.^.^.",
"^.^.^.^.^.^.^.^.^.^.^.^.^.^.^.^.^.^.^.^.^.^.^.^.^.^.^.^.^.^.^.^.^.^.^.^.^.^.^.^.^.^.^.^.^.^.^.^.^.^.^.^.^.^.^.^.^.^.^.^.^.^.^.^.^.^.^.^.^.^.^.^.^.^.^.^.^.^.^.^.^.^.^.^.^.^.^.^.^.^.^.^.^.^.^.^.^.^.^.^.^.^.^.^.^.^.^.^.^.^.^.^.^.^.^.^.^.^.^.^.^.^.^.^.^.^.^.^.^.^.^.^.^.^.^.^.^.^.^.^.^.^.^.^.. . o o o o o o o @ @ @ + @ @ + @ @ o o o o o o o o o o o o o o # $ $ % % * * * * > > > 1 1 4 4 1 1 1 > 1 1 > > 1 1 4 4 4 6 0 0 q e e e e e e u u u u t u u u u p p f f f f f f f f f f p p p p u u u u u u e e e e q q q q q q 0 0 0 8 8 8 8 8 0 0 0 q e 0 q 0 0 0 q e e e e u u u u u u u p p f k k v x x b b b m m m B m B B D D H H K L U E E E E E E E W Q Q Q Q ^ ^ ^ ^ ( ) ) ) ) ) ' ' ' ' ' ' ' ' ) ' ' ' ' ' ' ' ' ' ' ' ) ) ) ) ( ( ( ( ^ ^ ^ ^ Q Q Q Q Q Q Q Q Q W E E E E E E P H D B m v v k k f p u t e 0 8 4 1 > * % $ @ o . ^.^.^.^.^.^.^.^.^.^.^.^.^.^.^.^.^.^.^.^.^.^.^.^.^.^.^.^.^.^.^.^.^.^.^.^.^.^.^.^.^.^.^.^.^.^.^.^.^.^.^.^.^.^.^.^.^.^.^.^.^.^.^.^.^.^.^.^.^.^.^.^.^.^.^.^.^.^.^.^.^.^.^.^.^.^.^.^.^.^.^.^.^.^.^.^.^.^.^.^.^.^.^.^.^.^.^.^.^.^.^.^.^.^.^.^.^.^.^.^.^.^.^.^.^.^.^.^.^.^.^.^.^.^.^.^.^.^.^.^.^.^.^.^.^.^.^.^.^.^.^.^.^.^.^.^.^.^.^.^.^.^.^.^.^.^.^.^.^.^.^.^.^.^.^.^.^.^.^.^.^.^.^.^.^.^.^.^.^.^.^.^.^.^.^.^.^.^.^.^.^.^.^.^.^.^.^.^.^.^.^.^.^.^.^.^.^.^.^.^.^.^.^.^.^.^.^.^.",
"^.^.^.^.^.^.^.^.^.^.^.^.^.^.^.^.^.^.^.^.^.^.^.^.^.^.^.^.^.^.^.^.^.^.^.^.^.^.^.^.^.^.^.^.^.^.^.^.^.^.^.^.^.^.^.^.^.^.^.^.^.^.^.^.^.^.^.^.^.^.^.^.^.^.^.^.^.^.^.^.^.^.^.^.^.^.^.^.^.^.^.^.^.^.^.^.^.^.^.^.^.^.^.^.^.^.^.^.^.^.^.^.^.^.^.^.^.^.^.^.^.^.^.^.^.^.^.^.^.^.^.^.^.^.^.^.^.^.^.^.^.^.^.^.^.^.^.. . . . . . o o o o o o o o o o o o . . . . . . . o o o o o @ + # $ % % % * * * * > > > > 1 1 > > > > * > > > 1 1 4 4 6 8 0 q q q q e e e t t t t u u u u u u p p p p f f p p p p p u u u u u e e e e e e e e q q q q q q q 0 0 6 4 6 6 6 7 0 0 q e q q 0 0 0 q q q q e e e e e t t u u p p f k z k z x v b b b b m m B B D D H H K K U E E E E E E E E E Q Q Q Q Q ^ ^ ^ ( ( ) ) ) ) ) ) ) ) ) ) ) ) ) ) ' ) ) ) ' ) ' ' ) ) ) ) ( ^ ( ( ^ ^ ^ Q Q Q Q Q Q Q Q Q W Q E E E E E E U K H D Z m v v z f f p u e q 7 6 4 1 > * % # @ o . ^.^.^.^.^.^.^.^.^.^.^.^.^.^.^.^.^.^.^.^.^.^.^.^.^.^.^.^.^.^.^.^.^.^.^.^.^.^.^.^.^.^.^.^.^.^.^.^.^.^.^.^.^.^.^.^.^.^.^.^.^.^.^.^.^.^.^.^.^.^.^.^.^.^.^.^.^.^.^.^.^.^.^.^.^.^.^.^.^.^.^.^.^.^.^.^.^.^.^.^.^.^.^.^.^.^.^.^.^.^.^.^.^.^.^.^.^.^.^.^.^.^.^.^.^.^.^.^.^.^.^.^.^.^.^.^.^.^.^.^.^.^.^.^.^.^.^.^.^.^.^.^.^.^.^.^.^.^.^.^.^.^.^.^.^.^.^.^.^.^.^.^.^.^.^.^.^.^.^.^.^.^.^.^.^.^.^.^.^.^.^.^.^.^.^.^.^.^.^.^.^.^.^.^.^.^.^.^.^.^.^.^.^.^.^.^.^.^.^.^.^.^.^.^.^.^.^.^.",
"^.^.^.^.^.^.^.^.^.^.^.^.^.^.^.^.^.^.^.^.^.^.^.^.^.^.^.^.^.^.^.^.^.^.^.^.^.^.^.^.^.^.^.^.^.^.^.^.^.^.^.^.^.^.^.^.^.^.^.^.^.^.^.^.^.^.^.^.^.^.^.^.^.^.^.^.^.^.^.^.^.^.^.^.^.^.^.^.^.^.^.^.^.^.^.^.^.^.^.^.^.^.^.^.^.^.^.^.^.^.^.^.^.^.^.^.^.^.^.^.^.^.^.^.^.^.^.^.^.^.^.^.^.^.^.^.^.^.^.^.^.^.^.^.^.^.^.^.^.^.^.^.^.^.. . . . . . . . . . ^.^.^.^.^.^.^.^.^.. . . o o o o @ # # $ % * * * * * * * > > * * * * * * * > > 1 4 4 4 4 0 0 0 0 q q e e e e e e t u u u u u u p p p p p p p u u u u t t t e e e e q e e e e q 0 q 0 0 0 0 0 0 8 4 6 8 6 8 0 q q q q 0 0 0 0 q q q q q q e q e e t u u u p f f k k z z v x x v b b m B B D D D H H H P U E E E E E E E E W Q Q Q Q Q ^ ^ ^ ( ( ( ( ) ( ) ) ) ) ) ( ) ) ) ) ) ) ( ) ) ) ) ( ( ( ^ ^ ^ ^ ^ ^ Q Q Q Q Q Q Q Q Q Q Q E W W E E E E E U K H D B m b v k f f p u e q 7 4 4 1 > * % # o o ^.^.^.^.^.^.^.^.^.^.^.^.^.^.^.^.^.^.^.^.^.^.^.^.^.^.^.^.^.^.^.^.^.^.^.^.^.^.^.^.^.^.^.^.^.^.^.^.^.^.^.^.^.^.^.^.^.^.^.^.^.^.^.^.^.^.^.^.^.^.^.^.^.^.^.^.^.^.^.^.^.^.^.^.^.^.^.^.^.^.^.^.^.^.^.^.^.^.^.^.^.^.^.^.^.^.^.^.^.^.^.^.^.^.^.^.^.^.^.^.^.^.^.^.^.^.^.^.^.^.^.^.^.^.^.^.^.^.^.^.^.^.^.^.^.^.^.^.^.^.^.^.^.^.^.^.^.^.^.^.^.^.^.^.^.^.^.^.^.^.^.^.^.^.^.^.^.^.^.^.^.^.^.^.^.^.^.^.^.^.^.^.^.^.^.^.^.^.^.^.^.^.^.^.^.^.^.^.^.^.^.^.^.^.^.^.^.^.^.^.^.^.^.^.^.^.^.^.^.",
"^.^.^.^.^.^.^.^.^.^.^.^.^.^.^.^.^.^.^.^.^.^.^.^.^.^.^.^.^.^.^.^.^.^.^.^.^.^.^.^.^.^.^.^.^.^.^.^.^.^.^.^.^.^.^.^.^.^.^.^.^.^.^.^.^.^.^.^.^.^.^.^.^.^.^.^.^.^.^.^.^.^.^.^.^.^.^.^.^.^.^.^.^.^.^.^.^.^.^.^.^.^.^.^.^.^.^.^.^.^.^.^.^.^.^.^.^.^.^.^.^.^.^.^.^.^.^.^.^.^.^.^.^.^.^.^.^.^.^.^.^.^.^.^.^.^.^.^.^.^.^.^.^.^.^.^.^.^.^.^.^.^.^.^.^.^.^.^.^.^.^.^.^.^.^.^.^.. . o o o @ @ # # $ $ % % % * * * * * * % * * * * > 1 1 1 4 4 6 8 8 0 0 q e q e e e e e t t e t u u u u u u p u u u t t e e e e e q q q q 0 q e e q 0 0 0 0 0 0 7 8 8 8 8 7 8 8 7 0 q q q 0 0 0 0 0 0 0 0 0 0 0 q e e t u u u p p f f f k z z v v v x b m m B B D D H H H L P U E E E E E E E E W Q Q Q Q ^ ^ ^ ^ ^ ^ ( ( ( ( ( ( ( ( ( ( ( ( ) ( ( ( ( ( ( ( ^ ^ ^ ^ ^ ^ Q ^ Q Q Q Q Q Q W Q W Q E W E E E E E E E E P K H D B m b v k f p u u e 0 8 4 4 1 * * $ + o o ^.^.^.^.^.^.^.^.^.^.^.^.^.^.^.^.^.^.^.^.^.^.^.^.^.^.^.^.^.^.^.^.^.^.^.^.^.^.^.^.^.^.^.^.^.^.^.^.^.^.^.^.^.^.^.^.^.^.^.^.^.^.^.^.^.^.^.^.^.^.^.^.^.^.^.^.^.^.^.^.^.^.^.^.^.^.^.^.^.^.^.^.^.^.^.^.^.^.^.^.^.^.^.^.^.^.^.^.^.^.^.^.^.^.^.^.^.^.^.^.^.^.^.^.^.^.^.^.^.^.^.^.^.^.^.^.^.^.^.^.^.^.^.^.^.^.^.^.^.^.^.^.^.^.^.^.^.^.^.^.^.^.^.^.^.^.^.^.^.^.^.^.^.^.^.^.^.^.^.^.^.^.^.^.^.^.^.^.^.^.^.^.^.^.^.^.^.^.^.^.^.^.^.^.^.^.^.^.^.^.^.^.^.^.^.^.^.^.^.^.^.^.^.^.^.^.^.^.^.",
"^.^.^.^.^.^.^.^.^.^.^.^.^.^.^.^.^.^.^.^.^.^.^.^.^.^.^.^.^.^.^.^.^.^.^.^.^.^.^.^.^.^.^.^.^.^.^.^.^.^.^.^.^.^.^.^.^.^.^.^.^.^.^.^.^.^.^.^.^.^.^.^.^.^.^.^.^.^.^.^.^.^.^.^.^.^.^.^.^.^.^.^.^.^.^.^.^.^.^.^.^.^.^.^.^.^.^.^.^.^.^.^.^.^.^.^.^.^.^.^.^.^.^.^.^.^.^.^.^.^.^.^.^.^.^.^.^.^.^.^.^.^.^.^.^.^.^.^.^.^.^.^.^.^.^.^.^.^.^.^.^.^.^.^.^.^.^.^.^.^.^.^.^.^.^.^.^.^.^.^.. o o o o @ @ @ + # $ $ % % % % % % % % * * > > > 1 1 4 4 4 6 8 0 0 q q e e e e e e e e e e e t t u u u u t e e e q e e e e q q 0 0 0 q q q 0 7 8 8 0 7 8 8 7 7 8 8 7 7 8 0 7 0 q q q 0 0 0 0 0 0 0 0 0 0 0 q e t u u u u p p p f f k k z z z v v b m m B Z D D H H K P U E E E E E E E E E W Q Q Q Q ^ ^ ^ ^ ^ ^ ^ ^ ^ ^ ^ ^ ^ ^ ^ ^ ^ ( ^ ^ ^ ^ ^ ^ ^ ^ ^ Q ^ ^ Q Q Q Q Q Q Q Q Q E Q E W E W W E E E E E E E P K D D B m b z k f p u t e 0 8 4 4 1 > * % # o o ^.^.^.^.^.^.^.^.^.^.^.^.^.^.^.^.^.^.^.^.^.^.^.^.^.^.^.^.^.^.^.^.^.^.^.^.^.^.^.^.^.^.^.^.^.^.^.^.^.^.^.^.^.^.^.^.^.^.^.^.^.^.^.^.^.^.^.^.^.^.^.^.^.^.^.^.^.^.^.^.^.^.^.^.^.^.^.^.^.^.^.^.^.^.^.^.^.^.^.^.^.^.^.^.^.^.^.^.^.^.^.^.^.^.^.^.^.^.^.^.^.^.^.^.^.^.^.^.^.^.^.^.^.^.^.^.^.^.^.^.^.^.^.^.^.^.^.^.^.^.^.^.^.^.^.^.^.^.^.^.^.^.^.^.^.^.^.^.^.^.^.^.^.^.^.^.^.^.^.^.^.^.^.^.^.^.^.^.^.^.^.^.^.^.^.^.^.^.^.^.^.^.^.^.^.^.^.^.^.^.^.^.^.^.^.^.^.^.^.^.^.^.^.^.^.^.^.^.^.",
"^.^.^.^.^.^.^.^.^.^.^.^.^.^.^.^.^.^.^.^.^.^.^.^.^.^.^.^.^.^.^.^.^.^.^.^.^.^.^.^.^.^.^.^.^.^.^.^.^.^.^.^.^.^.^.^.^.^.^.^.^.^.^.^.^.^.^.^.^.^.^.^.^.^.^.^.^.^.^.^.^.^.^.^.^.^.^.^.^.^.^.^.^.^.^.^.^.^.^.^.^.^.^.^.^.^.^.^.^.^.^.^.^.^.^.^.^.^.^.^.^.^.^.^.^.^.^.^.^.^.^.^.^.^.^.^.^.^.^.^.^.^.^.^.^.^.^.^.^.^.^.^.^.^.^.^.^.^.^.^.^.^.^.^.^.^.^.^.^.^.^.^.^.^.^.^.^.^.^.^.^.^.. . o o o o o o @ # # $ $ $ % % % % * * * > > > 1 1 4 4 4 6 0 0 0 q q e e e q q q e e e e e e e e t e e e 0 0 0 q q q q e e q 0 0 q q 0 0 7 7 0 0 8 8 8 6 8 6 8 8 7 7 7 0 q q q q 0 0 0 7 7 7 0 0 q 0 q q e u u t u u u p p p f f f k z z z x b m m B B B D D H H K P E E E E E E E E E W Q Q Q Q Q ^ Q ^ Q ^ Q Q Q Q ^ ^ ^ ^ ^ ^ ^ ^ Q ^ ^ ^ ^ ^ Q Q Q Q Q Q Q Q Q Q Q W Q W Q E E E E E W E E E E E E E U L H H D B m b v k p u u t e 0 8 4 1 > * * % + o . ^.^.^.^.^.^.^.^.^.^.^.^.^.^.^.^.^.^.^.^.^.^.^.^.^.^.^.^.^.^.^.^.^.^.^.^.^.^.^.^.^.^.^.^.^.^.^.^.^.^.^.^.^.^.^.^.^.^.^.^.^.^.^.^.^.^.^.^.^.^.^.^.^.^.^.^.^.^.^.^.^.^.^.^.^.^.^.^.^.^.^.^.^.^.^.^.^.^.^.^.^.^.^.^.^.^.^.^.^.^.^.^.^.^.^.^.^.^.^.^.^.^.^.^.^.^.^.^.^.^.^.^.^.^.^.^.^.^.^.^.^.^.^.^.^.^.^.^.^.^.^.^.^.^.^.^.^.^.^.^.^.^.^.^.^.^.^.^.^.^.^.^.^.^.^.^.^.^.^.^.^.^.^.^.^.^.^.^.^.^.^.^.^.^.^.^.^.^.^.^.^.^.^.^.^.^.^.^.^.^.^.^.^.^.^.^.^.^.^.^.^.^.^.^.^.^.^.^.^.",
"^.^.^.^.^.^.^.^.^.^.^.^.^.^.^.^.^.^.^.^.^.^.^.^.^.^.^.^.^.^.^.^.^.^.^.^.^.^.^.^.^.^.^.^.^.^.^.^.^.^.^.^.^.^.^.^.^.^.^.^.^.^.^.^.^.^.^.^.^.^.^.^.^.^.^.^.^.^.^.^.^.^.^.^.^.^.^.^.^.^.^.^.^.^.^.^.^.^.^.^.^.^.^.^.^.^.^.^.^.^.^.^.^.^.^.^.^.^.^.^.^.^.^.^.^.^.^.^.^.^.^.^.^.^.^.^.^.^.^.^.^.^.^.^.^.^.^.^.^.^.^.^.^.^.^.^.^.^.^.^.^.^.^.^.^.^.^.^.^.^.^.^.^.^.^.^.^.^.^.^.^.^.^.^.. . . . o o o o @ + + # $ $ $ % * * * * > > > 1 1 4 4 4 4 8 0 0 q e q e q 0 0 q e e e e e e e e e q 0 q 0 0 0 q q q e q 0 0 0 0 0 0 7 8 0 0 0 0 7 8 6 8 8 6 8 8 7 7 0 0 0 0 0 0 7 8 8 8 8 0 0 0 q q e e t t e e e u u u p f f f f k k z v v b b m B B B D D H K L U E E E E E E E E W W Q Q Q Q Q Q Q Q Q Q Q Q ^ Q Q Q Q Q Q Q Q ^ Q ^ Q Q Q Q Q Q Q Q Q Q W Q W Q W Q W E W W E E E E E E E E E E E P L H H D B m v z k p p u e e 0 6 4 1 > * * % + o . ^.^.^.^.^.^.^.^.^.^.^.^.^.^.^.^.^.^.^.^.^.^.^.^.^.^.^.^.^.^.^.^.^.^.^.^.^.^.^.^.^.^.^.^.^.^.^.^.^.^.^.^.^.^.^.^.^.^.^.^.^.^.^.^.^.^.^.^.^.^.^.^.^.^.^.^.^.^.^.^.^.^.^.^.^.^.^.^.^.^.^.^.^.^.^.^.^.^.^.^.^.^.^.^.^.^.^.^.^.^.^.^.^.^.^.^.^.^.^.^.^.^.^.^.^.^.^.^.^.^.^.^.^.^.^.^.^.^.^.^.^.^.^.^.^.^.^.^.^.^.^.^.^.^.^.^.^.^.^.^.^.^.^.^.^.^.^.^.^.^.^.^.^.^.^.^.^.^.^.^.^.^.^.^.^.^.^.^.^.^.^.^.^.^.^.^.^.^.^.^.^.^.^.^.^.^.^.^.^.^.^.^.^.^.^.^.^.^.^.^.^.^.^.^.^.^.^.^.^.",
"^.^.^.^.^.^.^.^.^.^.^.^.^.^.^.^.^.^.^.^.^.^.^.^.^.^.^.^.^.^.^.^.^.^.^.^.^.^.^.^.^.^.^.^.^.^.^.^.^.^.^.^.^.^.^.^.^.^.^.^.^.^.^.^.^.^.^.^.^.^.^.^.^.^.^.^.^.^.^.^.^.^.^.^.^.^.^.^.^.^.^.^.^.^.^.^.^.^.^.^.^.^.^.^.^.^.^.^.^.^.^.^.^.^.^.^.^.^.^.^.^.^.^.^.^.^.^.^.^.^.^.^.^.^.^.^.^.^.^.^.^.^.^.^.^.^.^.^.^.^.^.^.^.^.^.^.^.^.^.^.^.^.^.^.^.^.^.^.^.^.^.^.^.^.^.^.^.^.^.^.^.^.^.^.^.^.^.. . o o o o o @ + # # $ % % % * * * > > 1 1 1 1 4 4 4 8 0 0 e q q 0 0 0 q q q e q e e e e q q q q 0 0 0 0 0 0 q q 0 0 0 7 8 8 7 0 7 0 0 0 7 7 8 8 8 6 8 6 7 7 6 7 0 8 0 8 0 8 8 6 7 0 0 0 q q e e e e e e e u u u p p p f f k k z z x v b m m m B B D D H K P U E E E E E E E E Q E Q Q Q Q Q Q Q Q Q W Q Q Q Q Q Q Q Q Q Q Q Q Q Q Q Q Q Q Q Q W Q W Q W W Q E W E W E E E E E E E E E E E E E U L H D B m b v z k p p u e q 0 8 4 1 > > * % + o . ^.^.^.^.^.^.^.^.^.^.^.^.^.^.^.^.^.^.^.^.^.^.^.^.^.^.^.^.^.^.^.^.^.^.^.^.^.^.^.^.^.^.^.^.^.^.^.^.^.^.^.^.^.^.^.^.^.^.^.^.^.^.^.^.^.^.^.^.^.^.^.^.^.^.^.^.^.^.^.^.^.^.^.^.^.^.^.^.^.^.^.^.^.^.^.^.^.^.^.^.^.^.^.^.^.^.^.^.^.^.^.^.^.^.^.^.^.^.^.^.^.^.^.^.^.^.^.^.^.^.^.^.^.^.^.^.^.^.^.^.^.^.^.^.^.^.^.^.^.^.^.^.^.^.^.^.^.^.^.^.^.^.^.^.^.^.^.^.^.^.^.^.^.^.^.^.^.^.^.^.^.^.^.^.^.^.^.^.^.^.^.^.^.^.^.^.^.^.^.^.^.^.^.^.^.^.^.^.^.^.^.^.^.^.^.^.^.^.^.^.^.^.^.^.^.^.^.^.^.",
"^.^.^.^.^.^.^.^.^.^.^.^.^.^.^.^.^.^.^.^.^.^.^.^.^.^.^.^.^.^.^.^.^.^.^.^.^.^.^.^.^.^.^.^.^.^.^.^.^.^.^.^.^.^.^.^.^.^.^.^.^.^.^.^.^.^.^.^.^.^.^.^.^.^.^.^.^.^.^.^.^.^.^.^.^.^.^.^.^.^.^.^.^.^.^.^.^.^.^.^.^.^.^.^.^.^.^.^.^.^.^.^.^.^.^.^.^.^.^.^.^.^.^.^.^.^.^.^.^.^.^.^.^.^.^.^.^.^.^.^.^.^.^.^.^.^.^.^.^.^.^.^.^.^.^.^.^.^.^.^.^.^.^.^.^.^.^.^.^.^.^.^.^.^.^.^.^.^.^.^.^.^.^.^.^.^.^.^.. . . o o o o @ + + $ $ % % % * * * > > 1 1 1 4 4 4 6 6 8 0 0 0 0 7 7 0 0 q e q e e e q q q 0 0 q q 0 0 0 0 0 0 0 0 0 8 8 8 7 0 0 0 0 7 7 7 0 8 8 8 8 6 6 6 6 4 6 4 6 6 6 8 7 7 0 0 0 0 q q e e e e e e e e e u u p p p f f k k k v x v b m m m B Z D D H L U E E E E E E E E E W E E W W Q E W W E Q W Q W Q W Q Q Q Q W Q W Q W Q E W E Q W E W Q E W E E E E E E E E E E E E E E E E E E E U L H D B m b x z k f p u t q 0 8 4 4 > > * % $ @ o ^.^.^.^.^.^.^.^.^.^.^.^.^.^.^.^.^.^.^.^.^.^.^.^.^.^.^.^.^.^.^.^.^.^.^.^.^.^.^.^.^.^.^.^.^.^.^.^.^.^.^.^.^.^.^.^.^.^.^.^.^.^.^.^.^.^.^.^.^.^.^.^.^.^.^.^.^.^.^.^.^.^.^.^.^.^.^.^.^.^.^.^.^.^.^.^.^.^.^.^.^.^.^.^.^.^.^.^.^.^.^.^.^.^.^.^.^.^.^.^.^.^.^.^.^.^.^.^.^.^.^.^.^.^.^.^.^.^.^.^.^.^.^.^.^.^.^.^.^.^.^.^.^.^.^.^.^.^.^.^.^.^.^.^.^.^.^.^.^.^.^.^.^.^.^.^.^.^.^.^.^.^.^.^.^.^.^.^.^.^.^.^.^.^.^.^.^.^.^.^.^.^.^.^.^.^.^.^.^.^.^.^.^.^.^.^.^.^.^.^.^.^.^.^.^.^.^.^.^.",
"^.^.^.^.^.^.^.^.^.^.^.^.^.^.^.^.^.^.^.^.^.^.^.^.^.^.^.^.^.^.^.^.^.^.^.^.^.^.^.^.^.^.^.^.^.^.^.^.^.^.^.^.^.^.^.^.^.^.^.^.^.^.^.^.^.^.^.^.^.^.^.^.^.^.^.^.^.^.^.^.^.^.^.^.^.^.^.^.^.^.^.^.^.^.^.^.^.^.^.^.^.^.^.^.^.^.^.^.^.^.^.^.^.^.^.^.^.^.^.^.^.^.^.^.^.^.^.^.^.^.^.^.^.^.^.^.^.^.^.^.^.^.^.^.^.^.^.^.^.^.^.^.^.^.^.^.^.^.^.^.^.^.^.^.^.^.^.^.^.^.^.^.^.^.^.^.^.^.^.^.^.^.^.^.^.^.^.^.^.^.^.. o o o @ @ + # $ $ % % % * * * * > 1 1 1 1 4 4 4 6 8 7 8 6 8 8 0 0 q e e e e e q q 0 0 0 0 0 0 0 0 0 0 0 7 0 0 8 6 6 8 8 0 0 0 0 0 0 7 6 6 6 6 4 6 4 4 4 4 4 4 6 6 6 8 0 0 0 0 0 q q e q q e q q e e e e u u u p f f f k k k v x b b m m B B Z D H L U E E E E E E E E E E E E E E E E E E E E E E E E E E W Q E E E E E E E E E E E E W E E E E E E E E E E E E E E E E E E E E E E E U L H D B B b v z k f p u u e q 7 6 4 1 > * % $ + o ^.^.^.^.^.^.^.^.^.^.^.^.^.^.^.^.^.^.^.^.^.^.^.^.^.^.^.^.^.^.^.^.^.^.^.^.^.^.^.^.^.^.^.^.^.^.^.^.^.^.^.^.^.^.^.^.^.^.^.^.^.^.^.^.^.^.^.^.^.^.^.^.^.^.^.^.^.^.^.^.^.^.^.^.^.^.^.^.^.^.^.^.^.^.^.^.^.^.^.^.^.^.^.^.^.^.^.^.^.^.^.^.^.^.^.^.^.^.^.^.^.^.^.^.^.^.^.^.^.^.^.^.^.^.^.^.^.^.^.^.^.^.^.^.^.^.^.^.^.^.^.^.^.^.^.^.^.^.^.^.^.^.^.^.^.^.^.^.^.^.^.^.^.^.^.^.^.^.^.^.^.^.^.^.^.^.^.^.^.^.^.^.^.^.^.^.^.^.^.^.^.^.^.^.^.^.^.^.^.^.^.^.^.^.^.^.^.^.^.^.^.^.^.^.^.^.^.^.^.",
"^.^.^.^.^.^.^.^.^.^.^.^.^.^.^.^.^.^.^.^.^.^.^.^.^.^.^.^.^.^.^.^.^.^.^.^.^.^.^.^.^.^.^.^.^.^.^.^.^.^.^.^.^.^.^.^.^.^.^.^.^.^.^.^.^.^.^.^.^.^.^.^.^.^.^.^.^.^.^.^.^.^.^.^.^.^.^.^.^.^.^.^.^.^.^.^.^.^.^.^.^.^.^.^.^.^.^.^.^.^.^.^.^.^.^.^.^.^.^.^.^.^.^.^.^.^.^.^.^.^.^.^.^.^.^.^.^.^.^.^.^.^.^.^.^.^.^.^.^.^.^.^.^.^.^.^.^.^.^.^.^.^.^.^.^.^.^.^.^.^.^.^.^.^.^.^.^.^.^.^.^.^.^.^.^.^.^.^.^.^.^.^.. o o o @ + # $ $ # $ % % % * * > > > > > 1 1 4 4 4 4 6 4 6 8 8 0 0 q q e e q q q 0 0 0 8 7 8 8 0 0 0 0 0 7 8 4 6 4 6 8 8 0 0 0 7 7 8 6 6 6 4 4 4 4 4 4 4 4 4 4 4 6 6 7 0 0 0 0 0 0 0 q 0 q q q q e e e u u u p p f f f k k k v x b b m m B Z D H K P U E E E E E E E E E E E E E E E E E E E E E E E E E E E E E E E E E E E E E E E E E E E E E E E E E E E E E E E E E E E E E E E P K D D B m m v z k f p p u e e 0 6 4 1 > * * % # o . ^.^.^.^.^.^.^.^.^.^.^.^.^.^.^.^.^.^.^.^.^.^.^.^.^.^.^.^.^.^.^.^.^.^.^.^.^.^.^.^.^.^.^.^.^.^.^.^.^.^.^.^.^.^.^.^.^.^.^.^.^.^.^.^.^.^.^.^.^.^.^.^.^.^.^.^.^.^.^.^.^.^.^.^.^.^.^.^.^.^.^.^.^.^.^.^.^.^.^.^.^.^.^.^.^.^.^.^.^.^.^.^.^.^.^.^.^.^.^.^.^.^.^.^.^.^.^.^.^.^.^.^.^.^.^.^.^.^.^.^.^.^.^.^.^.^.^.^.^.^.^.^.^.^.^.^.^.^.^.^.^.^.^.^.^.^.^.^.^.^.^.^.^.^.^.^.^.^.^.^.^.^.^.^.^.^.^.^.^.^.^.^.^.^.^.^.^.^.^.^.^.^.^.^.^.^.^.^.^.^.^.^.^.^.^.^.^.^.^.^.^.^.^.^.^.^.^.^.",
"^.^.^.^.^.^.^.^.^.^.^.^.^.^.^.^.^.^.^.^.^.^.^.^.^.^.^.^.^.^.^.^.^.^.^.^.^.^.^.^.^.^.^.^.^.^.^.^.^.^.^.^.^.^.^.^.^.^.^.^.^.^.^.^.^.^.^.^.^.^.^.^.^.^.^.^.^.^.^.^.^.^.^.^.^.^.^.^.^.^.^.^.^.^.^.^.^.^.^.^.^.^.^.^.^.^.^.^.^.^.^.^.^.^.^.^.^.^.^.^.^.^.^.^.^.^.^.^.^.^.^.^.^.^.^.^.^.^.^.^.^.^.^.^.^.^.^.^.^.^.^.^.^.^.^.^.^.^.^.^.^.^.^.^.^.^.^.^.^.^.^.^.^.^.^.^.^.^.^.^.^.^.^.^.^.^.^.^.^.^.^.^.. . o o @ # # + # $ $ $ % % * * * > * * > > > 1 4 4 4 4 4 4 6 8 0 0 q q q q q q e 0 0 6 6 6 6 8 7 0 0 0 0 8 6 4 6 6 6 6 6 7 8 8 8 8 6 4 4 4 4 4 4 4 4 4 4 4 4 4 4 4 6 8 7 0 0 0 0 0 0 0 0 0 q q e e e e e e t u u p p f f k z z x v b b m B B D D K L U U E E E E E E E E E E E E E E E E E E E E E E E E E E E E E E E E E E E E E E E E E E E E E E E E E E E E E E E E E E E E E U L H D D B m b v v z k f p u u e 0 8 4 1 > * * % $ o o . ^.^.^.^.^.^.^.^.^.^.^.^.^.^.^.^.^.^.^.^.^.^.^.^.^.^.^.^.^.^.^.^.^.^.^.^.^.^.^.^.^.^.^.^.^.^.^.^.^.^.^.^.^.^.^.^.^.^.^.^.^.^.^.^.^.^.^.^.^.^.^.^.^.^.^.^.^.^.^.^.^.^.^.^.^.^.^.^.^.^.^.^.^.^.^.^.^.^.^.^.^.^.^.^.^.^.^.^.^.^.^.^.^.^.^.^.^.^.^.^.^.^.^.^.^.^.^.^.^.^.^.^.^.^.^.^.^.^.^.^.^.^.^.^.^.^.^.^.^.^.^.^.^.^.^.^.^.^.^.^.^.^.^.^.^.^.^.^.^.^.^.^.^.^.^.^.^.^.^.^.^.^.^.^.^.^.^.^.^.^.^.^.^.^.^.^.^.^.^.^.^.^.^.^.^.^.^.^.^.^.^.^.^.^.^.^.^.^.^.^.^.^.^.^.^.^.^.",
"^.^.^.^.^.^.^.^.^.^.^.^.^.^.^.^.^.^.^.^.^.^.^.^.^.^.^.^.^.^.^.^.^.^.^.^.^.^.^.^.^.^.^.^.^.^.^.^.^.^.^.^.^.^.^.^.^.^.^.^.^.^.^.^.^.^.^.^.^.^.^.^.^.^.^.^.^.^.^.^.^.^.^.^.^.^.^.^.^.^.^.^.^.^.^.^.^.^.^.^.^.^.^.^.^.^.^.^.^.^.^.^.^.^.^.^.^.^.^.^.^.^.^.^.^.^.^.^.^.^.^.^.^.^.^.^.^.^.^.^.^.^.^.^.^.^.^.^.^.^.^.^.^.^.^.^.^.^.^.^.^.^.^.^.^.^.^.^.^.^.^.^.^.^.^.^.^.^.^.^.^.^.^.^.^.^.^.^.^.^.^.^.^.^.o o @ @ + + + + # # $ % % * * * * * * > > 1 1 4 4 4 4 4 4 8 7 0 0 q 0 0 0 0 0 0 0 6 4 4 6 4 6 8 0 8 8 6 4 4 4 6 4 4 4 4 6 8 8 6 6 4 4 6 4 4 4 4 4 4 4 4 4 4 4 4 4 8 8 7 0 0 7 7 7 7 0 0 q q e e q e e e e e u u p p f f k k z v b b m B B D H H L U E E E E E E E E E E E E E E E E E E E E E E E E E E E E E E E E E E E E E E E E E E E E E E E E E E E E E E E E E E E E E U P K H D B B m b v v k k f p p u e q 8 4 1 > * * % $ + o . ^.^.^.^.^.^.^.^.^.^.^.^.^.^.^.^.^.^.^.^.^.^.^.^.^.^.^.^.^.^.^.^.^.^.^.^.^.^.^.^.^.^.^.^.^.^.^.^.^.^.^.^.^.^.^.^.^.^.^.^.^.^.^.^.^.^.^.^.^.^.^.^.^.^.^.^.^.^.^.^.^.^.^.^.^.^.^.^.^.^.^.^.^.^.^.^.^.^.^.^.^.^.^.^.^.^.^.^.^.^.^.^.^.^.^.^.^.^.^.^.^.^.^.^.^.^.^.^.^.^.^.^.^.^.^.^.^.^.^.^.^.^.^.^.^.^.^.^.^.^.^.^.^.^.^.^.^.^.^.^.^.^.^.^.^.^.^.^.^.^.^.^.^.^.^.^.^.^.^.^.^.^.^.^.^.^.^.^.^.^.^.^.^.^.^.^.^.^.^.^.^.^.^.^.^.^.^.^.^.^.^.^.^.^.^.^.^.^.^.^.^.^.^.^.^.^.^.",
"^.^.^.^.^.^.^.^.^.^.^.^.^.^.^.^.^.^.^.^.^.^.^.^.^.^.^.^.^.^.^.^.^.^.^.^.^.^.^.^.^.^.^.^.^.^.^.^.^.^.^.^.^.^.^.^.^.^.^.^.^.^.^.^.^.^.^.^.^.^.^.^.^.^.^.^.^.^.^.^.^.^.^.^.^.^.^.^.^.^.^.^.^.^.^.^.^.^.^.^.^.^.^.^.^.^.^.^.^.^.^.^.^.^.^.^.^.^.^.^.^.^.^.^.^.^.^.^.^.^.^.^.^.^.^.^.^.^.^.^.^.^.^.^.^.^.^.^.^.^.^.^.^.^.^.^.^.^.^.^.^.^.^.^.^.^.^.^.^.^.^.^.^.^.^.^.^.^.^.^.^.^.^.^.^.^.^.^.^.^.^.^.^.^.. o o o o @ @ @ + + @ + # % % * % * * * > > 1 1 4 4 4 4 6 4 8 7 0 0 0 7 0 8 6 4 6 4 4 4 4 4 4 4 4 4 6 4 4 4 4 4 4 4 4 4 4 6 8 6 4 4 4 4 4 4 4 4 4 4 4 4 4 4 4 4 6 8 8 8 7 8 6 8 6 8 8 7 0 q q q q e e e e e t u u p f f k z z x v b m m B D H H K L U E E E E E E E E E E E U U P U U U U U P U U U U U E E E E E E E U U U U P U E E E E E E E E E E E E E E E E E E E E E E U L H D D B B m v x v z k f p p u t e 0 4 4 > > * % $ # @ o . ^.^.^.^.^.^.^.^.^.^.^.^.^.^.^.^.^.^.^.^.^.^.^.^.^.^.^.^.^.^.^.^.^.^.^.^.^.^.^.^.^.^.^.^.^.^.^.^.^.^.^.^.^.^.^.^.^.^.^.^.^.^.^.^.^.^.^.^.^.^.^.^.^.^.^.^.^.^.^.^.^.^.^.^.^.^.^.^.^.^.^.^.^.^.^.^.^.^.^.^.^.^.^.^.^.^.^.^.^.^.^.^.^.^.^.^.^.^.^.^.^.^.^.^.^.^.^.^.^.^.^.^.^.^.^.^.^.^.^.^.^.^.^.^.^.^.^.^.^.^.^.^.^.^.^.^.^.^.^.^.^.^.^.^.^.^.^.^.^.^.^.^.^.^.^.^.^.^.^.^.^.^.^.^.^.^.^.^.^.^.^.^.^.^.^.^.^.^.^.^.^.^.^.^.^.^.^.^.^.^.^.^.^.^.^.^.^.^.^.^.^.^.^.^.^.^.",
"^.^.^.^.^.^.^.^.^.^.^.^.^.^.^.^.^.^.^.^.^.^.^.^.^.^.^.^.^.^.^.^.^.^.^.^.^.^.^.^.^.^.^.^.^.^.^.^.^.^.^.^.^.^.^.^.^.^.^.^.^.^.^.^.^.^.^.^.^.^.^.^.^.^.^.^.^.^.^.^.^.^.^.^.^.^.^.^.^.^.^.^.^.^.^.^.^.^.^.^.^.^.^.^.^.^.^.^.^.^.^.^.^.^.^.^.^.^.^.^.^.^.^.^.^.^.^.^.^.^.^.^.^.^.^.^.^.^.^.^.^.^.^.^.^.^.^.^.^.^.^.^.^.^.^.^.^.^.^.^.^.^.^.^.^.^.^.^.^.^.^.^.^.^.^.^.^.^.^.^.^.^.^.^.^.^.^.^.^.^.^.^.^.^.^.o o o o o o o o o @ @ # # $ % % % * * * * > > 1 1 1 1 4 4 4 8 8 8 8 7 8 4 4 4 4 4 4 4 4 4 4 4 4 4 4 4 4 4 4 4 4 4 4 4 4 6 4 6 4 4 4 4 4 4 4 4 4 4 4 4 4 4 4 4 6 8 7 0 8 8 4 6 4 4 6 8 7 0 q q q q e e e e t u u p p f f k z z x b b m B Z D H H L U E E E E E E E E E E E U L L K K K H K K K K K K K L L U P L P P P L L L L P U U E U E U U U E E E E E E E E E E E E E P K H H D D B B m b v v z k f f p u t e 0 6 4 1 > * * % $ + o . ^.^.^.^.^.^.^.^.^.^.^.^.^.^.^.^.^.^.^.^.^.^.^.^.^.^.^.^.^.^.^.^.^.^.^.^.^.^.^.^.^.^.^.^.^.^.^.^.^.^.^.^.^.^.^.^.^.^.^.^.^.^.^.^.^.^.^.^.^.^.^.^.^.^.^.^.^.^.^.^.^.^.^.^.^.^.^.^.^.^.^.^.^.^.^.^.^.^.^.^.^.^.^.^.^.^.^.^.^.^.^.^.^.^.^.^.^.^.^.^.^.^.^.^.^.^.^.^.^.^.^.^.^.^.^.^.^.^.^.^.^.^.^.^.^.^.^.^.^.^.^.^.^.^.^.^.^.^.^.^.^.^.^.^.^.^.^.^.^.^.^.^.^.^.^.^.^.^.^.^.^.^.^.^.^.^.^.^.^.^.^.^.^.^.^.^.^.^.^.^.^.^.^.^.^.^.^.^.^.^.^.^.^.^.^.^.^.^.^.^.^.^.^.^.^.^.",
"^.^.^.^.^.^.^.^.^.^.^.^.^.^.^.^.^.^.^.^.^.^.^.^.^.^.^.^.^.^.^.^.^.^.^.^.^.^.^.^.^.^.^.^.^.^.^.^.^.^.^.^.^.^.^.^.^.^.^.^.^.^.^.^.^.^.^.^.^.^.^.^.^.^.^.^.^.^.^.^.^.^.^.^.^.^.^.^.^.^.^.^.^.^.^.^.^.^.^.^.^.^.^.^.^.^.^.^.^.^.^.^.^.^.^.^.^.^.^.^.^.^.^.^.^.^.^.^.^.^.^.^.^.^.^.^.^.^.^.^.^.^.^.^.^.^.^.^.^.^.^.^.^.^.^.^.^.^.^.^.^.^.^.^.^.^.^.^.^.^.^.^.^.^.^.^.^.^.^.^.^.^.^.^.^.^.^.^.^.^.^.^.^.^.^.. . o o o o o o o o o @ @ + # $ % % % * * > > > > 1 1 4 4 4 4 4 4 6 6 6 4 4 4 1 1 1 1 1 1 1 1 4 1 4 1 4 4 4 4 4 4 4 4 4 4 6 4 4 4 4 4 1 1 1 1 4 1 1 1 4 4 4 4 6 6 8 0 7 8 6 6 6 4 6 6 8 0 0 0 0 q e e e e t u u p p f f k k z x v b b m B D D H K P E E E E E E E E E E U P K K H D H H H H H H H D D D H H H H H H K K K H K K L P P P P P P P U E E E E E E E E E E U L K H H D D B B m m b v v z z k f p p u e 0 8 4 1 > * * % $ + o . . ^.^.^.^.^.^.^.^.^.^.^.^.^.^.^.^.^.^.^.^.^.^.^.^.^.^.^.^.^.^.^.^.^.^.^.^.^.^.^.^.^.^.^.^.^.^.^.^.^.^.^.^.^.^.^.^.^.^.^.^.^.^.^.^.^.^.^.^.^.^.^.^.^.^.^.^.^.^.^.^.^.^.^.^.^.^.^.^.^.^.^.^.^.^.^.^.^.^.^.^.^.^.^.^.^.^.^.^.^.^.^.^.^.^.^.^.^.^.^.^.^.^.^.^.^.^.^.^.^.^.^.^.^.^.^.^.^.^.^.^.^.^.^.^.^.^.^.^.^.^.^.^.^.^.^.^.^.^.^.^.^.^.^.^.^.^.^.^.^.^.^.^.^.^.^.^.^.^.^.^.^.^.^.^.^.^.^.^.^.^.^.^.^.^.^.^.^.^.^.^.^.^.^.^.^.^.^.^.^.^.^.^.^.^.^.^.^.^.^.^.^.^.^.^.^.",
"^.^.^.^.^.^.^.^.^.^.^.^.^.^.^.^.^.^.^.^.^.^.^.^.^.^.^.^.^.^.^.^.^.^.^.^.^.^.^.^.^.^.^.^.^.^.^.^.^.^.^.^.^.^.^.^.^.^.^.^.^.^.^.^.^.^.^.^.^.^.^.^.^.^.^.^.^.^.^.^.^.^.^.^.^.^.^.^.^.^.^.^.^.^.^.^.^.^.^.^.^.^.^.^.^.^.^.^.^.^.^.^.^.^.^.^.^.^.^.^.^.^.^.^.^.^.^.^.^.^.^.^.^.^.^.^.^.^.^.^.^.^.^.^.^.^.^.^.^.^.^.^.^.^.^.^.^.^.^.^.^.^.^.^.^.^.^.^.^.^.^.^.^.^.^.^.^.^.^.^.^.^.^.^.^.^.^.^.^.^.^.^.^.^.^.^.^.^.. . . . o o o o o o o @ # # $ % * * * * > > > > 1 1 4 4 4 4 4 4 4 4 4 1 1 > 1 > 1 1 1 1 1 1 1 1 1 1 1 1 1 1 1 4 4 4 4 4 4 4 1 1 1 > 1 1 1 1 1 1 1 4 4 4 4 8 7 7 8 8 6 4 6 4 6 6 8 0 0 0 0 0 q e q e t u u u p f f k k z v x v b b m B D D H L U E E E E E E E E E L K H H D D D D D D D D D Z Z Z D D D D D D D H H H H H H K L L K L L P P U E E E E E E E E E L K H H D D Z B B m m b b v z k k f f p u e q 0 6 4 > * * % $ # o o . ^.^.^.^.^.^.^.^.^.^.^.^.^.^.^.^.^.^.^.^.^.^.^.^.^.^.^.^.^.^.^.^.^.^.^.^.^.^.^.^.^.^.^.^.^.^.^.^.^.^.^.^.^.^.^.^.^.^.^.^.^.^.^.^.^.^.^.^.^.^.^.^.^.^.^.^.^.^.^.^.^.^.^.^.^.^.^.^.^.^.^.^.^.^.^.^.^.^.^.^.^.^.^.^.^.^.^.^.^.^.^.^.^.^.^.^.^.^.^.^.^.^.^.^.^.^.^.^.^.^.^.^.^.^.^.^.^.^.^.^.^.^.^.^.^.^.^.^.^.^.^.^.^.^.^.^.^.^.^.^.^.^.^.^.^.^.^.^.^.^.^.^.^.^.^.^.^.^.^.^.^.^.^.^.^.^.^.^.^.^.^.^.^.^.^.^.^.^.^.^.^.^.^.^.^.^.^.^.^.^.^.^.^.^.^.^.^.^.^.^.^.^.^.^.^.",
"^.^.^.^.^.^.^.^.^.^.^.^.^.^.^.^.^.^.^.^.^.^.^.^.^.^.^.^.^.^.^.^.^.^.^.^.^.^.^.^.^.^.^.^.^.^.^.^.^.^.^.^.^.^.^.^.^.^.^.^.^.^.^.^.^.^.^.^.^.^.^.^.^.^.^.^.^.^.^.^.^.^.^.^.^.^.^.^.^.^.^.^.^.^.^.^.^.^.^.^.^.^.^.^.^.^.^.^.^.^.^.^.^.^.^.^.^.^.^.^.^.^.^.^.^.^.^.^.^.^.^.^.^.^.^.^.^.^.^.^.^.^.^.^.^.^.^.^.^.^.^.^.^.^.^.^.^.^.^.^.^.^.^.^.^.^.^.^.^.^.^.^.^.^.^.^.^.^.^.^.^.^.^.^.^.^.^.^.^.^.^.^.^.^.^.^.^.^.^.^.^.^.. . . o o o o o @ @ # % % % * * * * > > > > 1 1 1 1 1 1 1 1 1 1 > > > > > > 1 1 > > 1 1 > 1 1 1 1 1 1 1 1 4 4 4 4 1 1 1 > > > > 1 1 1 1 4 4 4 4 4 4 6 8 8 6 4 4 4 4 6 4 8 8 8 8 7 0 q q q e e u u u p p f k k z z v v x b b m B Z H K P U U U U E E U U L K H H D D Z Z D D Z Z B B B B B B B B B B B Z D D D D D D H H K H K K L P U E E E E E E E U L K H H D D D B B B m b b v x v z k f f p u e e 0 6 4 1 > * % $ # # o o ^.^.^.^.^.^.^.^.^.^.^.^.^.^.^.^.^.^.^.^.^.^.^.^.^.^.^.^.^.^.^.^.^.^.^.^.^.^.^.^.^.^.^.^.^.^.^.^.^.^.^.^.^.^.^.^.^.^.^.^.^.^.^.^.^.^.^.^.^.^.^.^.^.^.^.^.^.^.^.^.^.^.^.^.^.^.^.^.^.^.^.^.^.^.^.^.^.^.^.^.^.^.^.^.^.^.^.^.^.^.^.^.^.^.^.^.^.^.^.^.^.^.^.^.^.^.^.^.^.^.^.^.^.^.^.^.^.^.^.^.^.^.^.^.^.^.^.^.^.^.^.^.^.^.^.^.^.^.^.^.^.^.^.^.^.^.^.^.^.^.^.^.^.^.^.^.^.^.^.^.^.^.^.^.^.^.^.^.^.^.^.^.^.^.^.^.^.^.^.^.^.^.^.^.^.^.^.^.^.^.^.^.^.^.^.^.^.^.^.^.^.^.^.^.^.",
"^.^.^.^.^.^.^.^.^.^.^.^.^.^.^.^.^.^.^.^.^.^.^.^.^.^.^.^.^.^.^.^.^.^.^.^.^.^.^.^.^.^.^.^.^.^.^.^.^.^.^.^.^.^.^.^.^.^.^.^.^.^.^.^.^.^.^.^.^.^.^.^.^.^.^.^.^.^.^.^.^.^.^.^.^.^.^.^.^.^.^.^.^.^.^.^.^.^.^.^.^.^.^.^.^.^.^.^.^.^.^.^.^.^.^.^.^.^.^.^.^.^.^.^.^.^.^.^.^.^.^.^.^.^.^.^.^.^.^.^.^.^.^.^.^.^.^.^.^.^.^.^.^.^.^.^.^.^.^.^.^.^.^.^.^.^.^.^.^.^.^.^.^.^.^.^.^.^.^.^.^.^.^.^.^.^.^.^.^.^.^.^.^.^.^.^.^.^.^.^.^.^.^.^.. . . . o o o @ @ + # $ % % * * * * > > > 1 1 1 > > > > > > > > > > > > > > > > 1 1 1 > > > > > > > 1 1 1 1 1 1 > > > > > > 1 1 1 1 1 1 4 4 4 4 4 4 4 6 4 4 4 4 6 6 4 6 8 8 8 7 0 q q e e t t u p p f f k z z z v v x b b m B D H K L L L L U P L L H H D D Z B B m B B m m m m m m m m m m m m m m B B B B Z D D H H H H H L P U E E E E E E P L K H H D D D D B B m m b b b x v k k f f p u t e 0 6 4 1 > * * % $ + @ o . . ^.^.^.^.^.^.^.^.^.^.^.^.^.^.^.^.^.^.^.^.^.^.^.^.^.^.^.^.^.^.^.^.^.^.^.^.^.^.^.^.^.^.^.^.^.^.^.^.^.^.^.^.^.^.^.^.^.^.^.^.^.^.^.^.^.^.^.^.^.^.^.^.^.^.^.^.^.^.^.^.^.^.^.^.^.^.^.^.^.^.^.^.^.^.^.^.^.^.^.^.^.^.^.^.^.^.^.^.^.^.^.^.^.^.^.^.^.^.^.^.^.^.^.^.^.^.^.^.^.^.^.^.^.^.^.^.^.^.^.^.^.^.^.^.^.^.^.^.^.^.^.^.^.^.^.^.^.^.^.^.^.^.^.^.^.^.^.^.^.^.^.^.^.^.^.^.^.^.^.^.^.^.^.^.^.^.^.^.^.^.^.^.^.^.^.^.^.^.^.^.^.^.^.^.^.^.^.^.^.^.^.^.^.^.^.^.^.^.^.^.^.^.^.",
"^.^.^.^.^.^.^.^.^.^.^.^.^.^.^.^.^.^.^.^.^.^.^.^.^.^.^.^.^.^.^.^.^.^.^.^.^.^.^.^.^.^.^.^.^.^.^.^.^.^.^.^.^.^.^.^.^.^.^.^.^.^.^.^.^.^.^.^.^.^.^.^.^.^.^.^.^.^.^.^.^.^.^.^.^.^.^.^.^.^.^.^.^.^.^.^.^.^.^.^.^.^.^.^.^.^.^.^.^.^.^.^.^.^.^.^.^.^.^.^.^.^.^.^.^.^.^.^.^.^.^.^.^.^.^.^.^.^.^.^.^.^.^.^.^.^.^.^.^.^.^.^.^.^.^.^.^.^.^.^.^.^.^.^.^.^.^.^.^.^.^.^.^.^.^.^.^.^.^.^.^.^.^.^.^.^.^.^.^.^.^.^.^.^.^.^.^.^.^.^.^.^.^.^.^.^.. . . o o o o o @ # % % % * * * * * > > > > > > > * > > > > > > * * * * * > > > > > > > > > > 1 1 1 1 1 1 1 > > > > > > 1 1 1 1 1 1 1 1 1 4 4 4 4 4 4 4 4 4 4 4 6 8 8 6 8 7 0 0 0 q e e e t u p p f f k k k z v v x b m m B D D H H H K K K H K H H D B B B m m m m b b b b m m m m b b b b b b m m m m B B D D H H H H K L L P U U E U P K H H H D D D D B B m m m b b v x v k k f f p u u e 0 8 4 1 > > * % % # @ o o . ^.^.^.^.^.^.^.^.^.^.^.^.^.^.^.^.^.^.^.^.^.^.^.^.^.^.^.^.^.^.^.^.^.^.^.^.^.^.^.^.^.^.^.^.^.^.^.^.^.^.^.^.^.^.^.^.^.^.^.^.^.^.^.^.^.^.^.^.^.^.^.^.^.^.^.^.^.^.^.^.^.^.^.^.^.^.^.^.^.^.^.^.^.^.^.^.^.^.^.^.^.^.^.^.^.^.^.^.^.^.^.^.^.^.^.^.^.^.^.^.^.^.^.^.^.^.^.^.^.^.^.^.^.^.^.^.^.^.^.^.^.^.^.^.^.^.^.^.^.^.^.^.^.^.^.^.^.^.^.^.^.^.^.^.^.^.^.^.^.^.^.^.^.^.^.^.^.^.^.^.^.^.^.^.^.^.^.^.^.^.^.^.^.^.^.^.^.^.^.^.^.^.^.^.^.^.^.^.^.^.^.^.^.^.^.^.^.^.^.^.^.^.^.",
"^.^.^.^.^.^.^.^.^.^.^.^.^.^.^.^.^.^.^.^.^.^.^.^.^.^.^.^.^.^.^.^.^.^.^.^.^.^.^.^.^.^.^.^.^.^.^.^.^.^.^.^.^.^.^.^.^.^.^.^.^.^.^.^.^.^.^.^.^.^.^.^.^.^.^.^.^.^.^.^.^.^.^.^.^.^.^.^.^.^.^.^.^.^.^.^.^.^.^.^.^.^.^.^.^.^.^.^.^.^.^.^.^.^.^.^.^.^.^.^.^.^.^.^.^.^.^.^.^.^.^.^.^.^.^.^.^.^.^.^.^.^.^.^.^.^.^.^.^.^.^.^.^.^.^.^.^.^.^.^.^.^.^.^.^.^.^.^.^.^.^.^.^.^.^.^.^.^.^.^.^.^.^.^.^.^.^.^.^.^.^.^.^.^.^.^.^.^.^.^.^.^.^.^.^.^.^.^.^.. . . o o o + # % $ % % % * * * * * * * * * * * * * > * * * * * * * * * * * * * * * * > > > > 1 1 1 1 > > > * > > > > 1 1 1 1 1 1 1 1 4 4 4 4 4 4 4 4 4 6 6 6 6 8 8 7 0 0 0 q q e e t u u p f f f k k z k z v v v b m B D D D D D D D D D D D B m m m b b b b v v x v v b b b v x v v x x v b b m m B B D D H H H K K K K K P P L K H H D D D D D B B m m b b b b v v z z k f f p p t e 0 8 4 4 1 > * * % $ # + o o . ^.^.^.^.^.^.^.^.^.^.^.^.^.^.^.^.^.^.^.^.^.^.^.^.^.^.^.^.^.^.^.^.^.^.^.^.^.^.^.^.^.^.^.^.^.^.^.^.^.^.^.^.^.^.^.^.^.^.^.^.^.^.^.^.^.^.^.^.^.^.^.^.^.^.^.^.^.^.^.^.^.^.^.^.^.^.^.^.^.^.^.^.^.^.^.^.^.^.^.^.^.^.^.^.^.^.^.^.^.^.^.^.^.^.^.^.^.^.^.^.^.^.^.^.^.^.^.^.^.^.^.^.^.^.^.^.^.^.^.^.^.^.^.^.^.^.^.^.^.^.^.^.^.^.^.^.^.^.^.^.^.^.^.^.^.^.^.^.^.^.^.^.^.^.^.^.^.^.^.^.^.^.^.^.^.^.^.^.^.^.^.^.^.^.^.^.^.^.^.^.^.^.^.^.^.^.^.^.^.^.^.^.^.^.^.^.^.^.^.^.^.^.",
"^.^.^.^.^.^.^.^.^.^.^.^.^.^.^.^.^.^.^.^.^.^.^.^.^.^.^.^.^.^.^.^.^.^.^.^.^.^.^.^.^.^.^.^.^.^.^.^.^.^.^.^.^.^.^.^.^.^.^.^.^.^.^.^.^.^.^.^.^.^.^.^.^.^.^.^.^.^.^.^.^.^.^.^.^.^.^.^.^.^.^.^.^.^.^.^.^.^.^.^.^.^.^.^.^.^.^.^.^.^.^.^.^.^.^.^.^.^.^.^.^.^.^.^.^.^.^.^.^.^.^.^.^.^.^.^.^.^.^.^.^.^.^.^.^.^.^.^.^.^.^.^.^.^.^.^.^.^.^.^.^.^.^.^.^.^.^.^.^.^.^.^.^.^.^.^.^.^.^.^.^.^.^.^.^.^.^.^.^.^.^.^.^.^.^.^.^.^.^.^.^.^.^.^.^.^.^.^.^.^.^.. . . o o # # # $ % $ % % % * * * * % * * * * * * * * * * * * * % * % % * * * * * > > > 1 > 1 > > > * * * * * > > > > > > > 1 1 1 4 4 4 4 4 1 4 4 4 4 6 6 6 8 8 0 7 0 0 0 0 q e e e u u p p p f f k k k k z v x b m B B B Z Z Z Z D D Z B m b b b v x x x z z k v v v x x v z k k z x v x v b b m B D D H H H H H K H K K K H H D D D D D Z Z B B m m b b b v v v z k k f f p u u e 0 8 4 1 1 > * * * % % # @ o o . ^.^.^.^.^.^.^.^.^.^.^.^.^.^.^.^.^.^.^.^.^.^.^.^.^.^.^.^.^.^.^.^.^.^.^.^.^.^.^.^.^.^.^.^.^.^.^.^.^.^.^.^.^.^.^.^.^.^.^.^.^.^.^.^.^.^.^.^.^.^.^.^.^.^.^.^.^.^.^.^.^.^.^.^.^.^.^.^.^.^.^.^.^.^.^.^.^.^.^.^.^.^.^.^.^.^.^.^.^.^.^.^.^.^.^.^.^.^.^.^.^.^.^.^.^.^.^.^.^.^.^.^.^.^.^.^.^.^.^.^.^.^.^.^.^.^.^.^.^.^.^.^.^.^.^.^.^.^.^.^.^.^.^.^.^.^.^.^.^.^.^.^.^.^.^.^.^.^.^.^.^.^.^.^.^.^.^.^.^.^.^.^.^.^.^.^.^.^.^.^.^.^.^.^.^.^.^.^.^.^.^.^.^.^.^.^.^.^.^.^.^.",
"^.^.^.^.^.^.^.^.^.^.^.^.^.^.^.^.^.^.^.^.^.^.^.^.^.^.^.^.^.^.^.^.^.^.^.^.^.^.^.^.^.^.^.^.^.^.^.^.^.^.^.^.^.^.^.^.^.^.^.^.^.^.^.^.^.^.^.^.^.^.^.^.^.^.^.^.^.^.^.^.^.^.^.^.^.^.^.^.^.^.^.^.^.^.^.^.^.^.^.^.^.^.^.^.^.^.^.^.^.^.^.^.^.^.^.^.^.^.^.^.^.^.^.^.^.^.^.^.^.^.^.^.^.^.^.^.^.^.^.^.^.^.^.^.^.^.^.^.^.^.^.^.^.^.^.^.^.^.^.^.^.^.^.^.^.^.^.^.^.^.^.^.^.^.^.^.^.^.^.^.^.^.^.^.^.^.^.^.^.^.^.^.^.^.^.^.^.^.^.^.^.^.^.^.^.^.^.^.^.^.^.^.^.^.. o o o o @ + # # + # % % % % % * % * * * * * * % % % * % % % % % % % * * * * * > > > > > > > * * * * * * > * > > > > > > 1 1 1 4 4 4 1 4 4 4 4 6 6 8 8 8 8 8 7 7 7 0 0 q e e e t u u u p p f f f k k k v x b m m m m m B B B B B m m b b v v k k k k k f k z z z z k k z z k z z v v v v m m B Z D D D D D H H H D D D D D B B B B B B m m m b b v v v v v z k f f f p u u e 0 8 4 1 1 > > * * % $ $ + o o . ^.^.^.^.^.^.^.^.^.^.^.^.^.^.^.^.^.^.^.^.^.^.^.^.^.^.^.^.^.^.^.^.^.^.^.^.^.^.^.^.^.^.^.^.^.^.^.^.^.^.^.^.^.^.^.^.^.^.^.^.^.^.^.^.^.^.^.^.^.^.^.^.^.^.^.^.^.^.^.^.^.^.^.^.^.^.^.^.^.^.^.^.^.^.^.^.^.^.^.^.^.^.^.^.^.^.^.^.^.^.^.^.^.^.^.^.^.^.^.^.^.^.^.^.^.^.^.^.^.^.^.^.^.^.^.^.^.^.^.^.^.^.^.^.^.^.^.^.^.^.^.^.^.^.^.^.^.^.^.^.^.^.^.^.^.^.^.^.^.^.^.^.^.^.^.^.^.^.^.^.^.^.^.^.^.^.^.^.^.^.^.^.^.^.^.^.^.^.^.^.^.^.^.^.^.^.^.^.^.^.^.^.^.^.^.^.^.^.^.^.^.",
"^.^.^.^.^.^.^.^.^.^.^.^.^.^.^.^.^.^.^.^.^.^.^.^.^.^.^.^.^.^.^.^.^.^.^.^.^.^.^.^.^.^.^.^.^.^.^.^.^.^.^.^.^.^.^.^.^.^.^.^.^.^.^.^.^.^.^.^.^.^.^.^.^.^.^.^.^.^.^.^.^.^.^.^.^.^.^.^.^.^.^.^.^.^.^.^.^.^.^.^.^.^.^.^.^.^.^.^.^.^.^.^.^.^.^.^.^.^.^.^.^.^.^.^.^.^.^.^.^.^.^.^.^.^.^.^.^.^.^.^.^.^.^.^.^.^.^.^.^.^.^.^.^.^.^.^.^.^.^.^.^.^.^.^.^.^.^.^.^.^.^.^.^.^.^.^.^.^.^.^.^.^.^.^.^.^.^.^.^.^.^.^.^.^.^.^.^.^.^.^.^.^.^.^.^.^.^.^.^.^.^.^.^.^.^.. . . . o o o o o @ # $ $ # $ % % % % % % % % % $ $ # $ # # $ $ $ $ % % * * * * * > * * * * * * * * * * * * * * > > > > 1 1 1 1 1 4 4 4 4 4 4 4 6 4 6 8 8 6 0 8 7 8 0 0 q e e e e t u u u p p p f f k k v x v b b b b m m m m m m b b v v k k f f f f f f f f k k k k k k k k k k z v x b m m B B Z Z D D D Z Z Z Z Z B B B B B B m m m m b v v x v v v z k k k f p p u t e 0 8 4 4 1 > > * * * % $ + o o . ^.^.^.^.^.^.^.^.^.^.^.^.^.^.^.^.^.^.^.^.^.^.^.^.^.^.^.^.^.^.^.^.^.^.^.^.^.^.^.^.^.^.^.^.^.^.^.^.^.^.^.^.^.^.^.^.^.^.^.^.^.^.^.^.^.^.^.^.^.^.^.^.^.^.^.^.^.^.^.^.^.^.^.^.^.^.^.^.^.^.^.^.^.^.^.^.^.^.^.^.^.^.^.^.^.^.^.^.^.^.^.^.^.^.^.^.^.^.^.^.^.^.^.^.^.^.^.^.^.^.^.^.^.^.^.^.^.^.^.^.^.^.^.^.^.^.^.^.^.^.^.^.^.^.^.^.^.^.^.^.^.^.^.^.^.^.^.^.^.^.^.^.^.^.^.^.^.^.^.^.^.^.^.^.^.^.^.^.^.^.^.^.^.^.^.^.^.^.^.^.^.^.^.^.^.^.^.^.^.^.^.^.^.^.^.^.^.^.^.^.^.",
"^.^.^.^.^.^.^.^.^.^.^.^.^.^.^.^.^.^.^.^.^.^.^.^.^.^.^.^.^.^.^.^.^.^.^.^.^.^.^.^.^.^.^.^.^.^.^.^.^.^.^.^.^.^.^.^.^.^.^.^.^.^.^.^.^.^.^.^.^.^.^.^.^.^.^.^.^.^.^.^.^.^.^.^.^.^.^.^.^.^.^.^.^.^.^.^.^.^.^.^.^.^.^.^.^.^.^.^.^.^.^.^.^.^.^.^.^.^.^.^.^.^.^.^.^.^.^.^.^.^.^.^.^.^.^.^.^.^.^.^.^.^.^.^.^.^.^.^.^.^.^.^.^.^.^.^.^.^.^.^.^.^.^.^.^.^.^.^.^.^.^.^.^.^.^.^.^.^.^.^.^.^.^.^.^.^.^.^.^.^.^.^.^.^.^.^.^.^.^.^.^.^.^.^.^.^.^.^.^.^.^.^.^.^.^.^.^.^.^.^.^.. . . o o o o o @ + # # # $ # # # # + @ @ + + # # # # $ $ % % % * * * * * * * * * * * * * * * * * * * > > > > 1 1 1 1 4 4 4 4 4 4 6 6 4 6 6 8 8 8 8 6 6 8 0 0 q q e e e t t u u u p p f f k z z v x v v v b m m m b b b v v k k f p p p p p p f p p f f f f f f f f k z z z v b b m m B B B B B B B B B B m m m m m m m m m b b v x x v z v z k k f f p u u e q 0 8 4 4 1 > * * * % % $ # @ o . ^.^.^.^.^.^.^.^.^.^.^.^.^.^.^.^.^.^.^.^.^.^.^.^.^.^.^.^.^.^.^.^.^.^.^.^.^.^.^.^.^.^.^.^.^.^.^.^.^.^.^.^.^.^.^.^.^.^.^.^.^.^.^.^.^.^.^.^.^.^.^.^.^.^.^.^.^.^.^.^.^.^.^.^.^.^.^.^.^.^.^.^.^.^.^.^.^.^.^.^.^.^.^.^.^.^.^.^.^.^.^.^.^.^.^.^.^.^.^.^.^.^.^.^.^.^.^.^.^.^.^.^.^.^.^.^.^.^.^.^.^.^.^.^.^.^.^.^.^.^.^.^.^.^.^.^.^.^.^.^.^.^.^.^.^.^.^.^.^.^.^.^.^.^.^.^.^.^.^.^.^.^.^.^.^.^.^.^.^.^.^.^.^.^.^.^.^.^.^.^.^.^.^.^.^.^.^.^.^.^.^.^.^.^.^.^.^.^.^.^.^.",
"^.^.^.^.^.^.^.^.^.^.^.^.^.^.^.^.^.^.^.^.^.^.^.^.^.^.^.^.^.^.^.^.^.^.^.^.^.^.^.^.^.^.^.^.^.^.^.^.^.^.^.^.^.^.^.^.^.^.^.^.^.^.^.^.^.^.^.^.^.^.^.^.^.^.^.^.^.^.^.^.^.^.^.^.^.^.^.^.^.^.^.^.^.^.^.^.^.^.^.^.^.^.^.^.^.^.^.^.^.^.^.^.^.^.^.^.^.^.^.^.^.^.^.^.^.^.^.^.^.^.^.^.^.^.^.^.^.^.^.^.^.^.^.^.^.^.^.^.^.^.^.^.^.^.^.^.^.^.^.^.^.^.^.^.^.^.^.^.^.^.^.^.^.^.^.^.^.^.^.^.^.^.^.^.^.^.^.^.^.^.^.^.^.^.^.^.^.^.^.^.^.^.^.^.^.^.^.^.^.^.^.^.^.^.^.^.^.^.^.^.^.^.^.^.^.. . . o o o @ + + + @ o + @ o o o o @ @ + + + + + % % % % % % * % * * * * * * * * * * * * > > * > > > > 1 1 1 4 4 4 4 4 6 4 4 4 4 4 4 6 6 4 4 6 8 0 0 0 q q q q q e e e t u u p p f f k k k z v v v b v b v v x z z k f p p u u u u u p p p p p p f f p p p f f f k z v v b b m m m m m m m m m m m m m m b b m b b v x v v v z z z z k k f f p u u e e 0 8 4 4 1 > > * % % % $ # @ o . ^.^.^.^.^.^.^.^.^.^.^.^.^.^.^.^.^.^.^.^.^.^.^.^.^.^.^.^.^.^.^.^.^.^.^.^.^.^.^.^.^.^.^.^.^.^.^.^.^.^.^.^.^.^.^.^.^.^.^.^.^.^.^.^.^.^.^.^.^.^.^.^.^.^.^.^.^.^.^.^.^.^.^.^.^.^.^.^.^.^.^.^.^.^.^.^.^.^.^.^.^.^.^.^.^.^.^.^.^.^.^.^.^.^.^.^.^.^.^.^.^.^.^.^.^.^.^.^.^.^.^.^.^.^.^.^.^.^.^.^.^.^.^.^.^.^.^.^.^.^.^.^.^.^.^.^.^.^.^.^.^.^.^.^.^.^.^.^.^.^.^.^.^.^.^.^.^.^.^.^.^.^.^.^.^.^.^.^.^.^.^.^.^.^.^.^.^.^.^.^.^.^.^.^.^.^.^.^.^.^.^.^.^.^.^.^.^.^.^.^.^.",
"^.^.^.^.^.^.^.^.^.^.^.^.^.^.^.^.^.^.^.^.^.^.^.^.^.^.^.^.^.^.^.^.^.^.^.^.^.^.^.^.^.^.^.^.^.^.^.^.^.^.^.^.^.^.^.^.^.^.^.^.^.^.^.^.^.^.^.^.^.^.^.^.^.^.^.^.^.^.^.^.^.^.^.^.^.^.^.^.^.^.^.^.^.^.^.^.^.^.^.^.^.^.^.^.^.^.^.^.^.^.^.^.^.^.^.^.^.^.^.^.^.^.^.^.^.^.^.^.^.^.^.^.^.^.^.^.^.^.^.^.^.^.^.^.^.^.^.^.^.^.^.^.^.^.^.^.^.^.^.^.^.^.^.^.^.^.^.^.^.^.^.^.^.^.^.^.^.^.^.^.^.^.^.^.^.^.^.^.^.^.^.^.^.^.^.^.^.^.^.^.^.^.^.^.^.^.^.^.^.^.^.^.^.^.^.^.^.^.^.^.^.^.^.^.^.^.^.^.. o o o o o o o o o o o o o o o o o o @ @ @ # $ % % % % % % % * * * * * * * * * * * * > * > > > > 1 1 1 1 4 4 4 4 4 4 4 4 4 4 4 4 4 6 6 4 6 8 7 0 0 0 0 q 0 0 0 q q e t u u p f f f k k z z z v x x v v k k f f p u u t e e t t t u u u u u u p u p p p p f f k k v x v b b b b b b b m m b b b b b b b b b v x v v v c z k z z k k f p p u u e q 0 8 4 4 1 > > * * % $ # # @ o . ^.^.^.^.^.^.^.^.^.^.^.^.^.^.^.^.^.^.^.^.^.^.^.^.^.^.^.^.^.^.^.^.^.^.^.^.^.^.^.^.^.^.^.^.^.^.^.^.^.^.^.^.^.^.^.^.^.^.^.^.^.^.^.^.^.^.^.^.^.^.^.^.^.^.^.^.^.^.^.^.^.^.^.^.^.^.^.^.^.^.^.^.^.^.^.^.^.^.^.^.^.^.^.^.^.^.^.^.^.^.^.^.^.^.^.^.^.^.^.^.^.^.^.^.^.^.^.^.^.^.^.^.^.^.^.^.^.^.^.^.^.^.^.^.^.^.^.^.^.^.^.^.^.^.^.^.^.^.^.^.^.^.^.^.^.^.^.^.^.^.^.^.^.^.^.^.^.^.^.^.^.^.^.^.^.^.^.^.^.^.^.^.^.^.^.^.^.^.^.^.^.^.^.^.^.^.^.^.^.^.^.^.^.^.^.^.^.^.^.^.^.",
"^.^.^.^.^.^.^.^.^.^.^.^.^.^.^.^.^.^.^.^.^.^.^.^.^.^.^.^.^.^.^.^.^.^.^.^.^.^.^.^.^.^.^.^.^.^.^.^.^.^.^.^.^.^.^.^.^.^.^.^.^.^.^.^.^.^.^.^.^.^.^.^.^.^.^.^.^.^.^.^.^.^.^.^.^.^.^.^.^.^.^.^.^.^.^.^.^.^.^.^.^.^.^.^.^.^.^.^.^.^.^.^.^.^.^.^.^.^.^.^.^.^.^.^.^.^.^.^.^.^.^.^.^.^.^.^.^.^.^.^.^.^.^.^.^.^.^.^.^.^.^.^.^.^.^.^.^.^.^.^.^.^.^.^.^.^.^.^.^.^.^.^.^.^.^.^.^.^.^.^.^.^.^.^.^.^.^.^.^.^.^.^.^.^.^.^.^.^.^.^.^.^.^.^.^.^.^.^.^.^.^.^.^.^.^.^.^.^.^.^.^.^.^.^.^.^.^.^.^.. . . . . o o o o o o o . . . o o o o o o @ # $ $ % % % % % % % % % % * * % * * * > > > > > > > 1 1 1 1 4 4 4 4 4 4 4 4 4 4 4 4 4 4 4 4 6 6 8 7 8 7 8 7 8 0 7 0 0 q e e u u p p p f f f k k z z k k z k f p p u u e e 0 q q q q q e e e e t u u u u u u p p f k k z z x x v v b b b b b v v v x v b b b x v v v v c c k k k k k f f p p u t e q 0 8 4 4 1 > > * % % $ # + @ o o . ^.^.^.^.^.^.^.^.^.^.^.^.^.^.^.^.^.^.^.^.^.^.^.^.^.^.^.^.^.^.^.^.^.^.^.^.^.^.^.^.^.^.^.^.^.^.^.^.^.^.^.^.^.^.^.^.^.^.^.^.^.^.^.^.^.^.^.^.^.^.^.^.^.^.^.^.^.^.^.^.^.^.^.^.^.^.^.^.^.^.^.^.^.^.^.^.^.^.^.^.^.^.^.^.^.^.^.^.^.^.^.^.^.^.^.^.^.^.^.^.^.^.^.^.^.^.^.^.^.^.^.^.^.^.^.^.^.^.^.^.^.^.^.^.^.^.^.^.^.^.^.^.^.^.^.^.^.^.^.^.^.^.^.^.^.^.^.^.^.^.^.^.^.^.^.^.^.^.^.^.^.^.^.^.^.^.^.^.^.^.^.^.^.^.^.^.^.^.^.^.^.^.^.^.^.^.^.^.^.^.^.^.^.^.^.^.^.^.^.^.",
"^.^.^.^.^.^.^.^.^.^.^.^.^.^.^.^.^.^.^.^.^.^.^.^.^.^.^.^.^.^.^.^.^.^.^.^.^.^.^.^.^.^.^.^.^.^.^.^.^.^.^.^.^.^.^.^.^.^.^.^.^.^.^.^.^.^.^.^.^.^.^.^.^.^.^.^.^.^.^.^.^.^.^.^.^.^.^.^.^.^.^.^.^.^.^.^.^.^.^.^.^.^.^.^.^.^.^.^.^.^.^.^.^.^.^.^.^.^.^.^.^.^.^.^.^.^.^.^.^.^.^.^.^.^.^.^.^.^.^.^.^.^.^.^.^.^.^.^.^.^.^.^.^.^.^.^.^.^.^.^.^.^.^.^.^.^.^.^.^.^.^.^.^.^.^.^.^.^.^.^.^.^.^.^.^.^.^.^.^.^.^.^.^.^.^.^.^.^.^.^.^.^.^.^.^.^.^.^.^.^.^.^.^.^.^.^.^.^.^.^.^.^.^.^.^.^.^.^.^.^.^.^.^.^.^.^.. . . . . . . . . . . o o o o @ # $ $ % % * % % % % % % * * * * * * * > > > > > 1 1 > > 1 1 1 4 4 4 4 4 1 4 4 4 4 4 4 4 4 4 4 4 6 6 6 6 4 4 6 6 6 8 0 0 0 e e u u u p p f f f k k k k f f p u u e q q 0 7 0 8 8 8 8 7 0 0 q e e e e e t u u u p f f k k z z x x v v v v x x v v v v x x v v z z z z z z k k k k f f p p u u t e 0 0 8 4 4 1 > * * % % $ # + @ o o . ^.^.^.^.^.^.^.^.^.^.^.^.^.^.^.^.^.^.^.^.^.^.^.^.^.^.^.^.^.^.^.^.^.^.^.^.^.^.^.^.^.^.^.^.^.^.^.^.^.^.^.^.^.^.^.^.^.^.^.^.^.^.^.^.^.^.^.^.^.^.^.^.^.^.^.^.^.^.^.^.^.^.^.^.^.^.^.^.^.^.^.^.^.^.^.^.^.^.^.^.^.^.^.^.^.^.^.^.^.^.^.^.^.^.^.^.^.^.^.^.^.^.^.^.^.^.^.^.^.^.^.^.^.^.^.^.^.^.^.^.^.^.^.^.^.^.^.^.^.^.^.^.^.^.^.^.^.^.^.^.^.^.^.^.^.^.^.^.^.^.^.^.^.^.^.^.^.^.^.^.^.^.^.^.^.^.^.^.^.^.^.^.^.^.^.^.^.^.^.^.^.^.^.^.^.^.^.^.^.^.^.^.^.^.^.^.^.^.^.^.",
"^.^.^.^.^.^.^.^.^.^.^.^.^.^.^.^.^.^.^.^.^.^.^.^.^.^.^.^.^.^.^.^.^.^.^.^.^.^.^.^.^.^.^.^.^.^.^.^.^.^.^.^.^.^.^.^.^.^.^.^.^.^.^.^.^.^.^.^.^.^.^.^.^.^.^.^.^.^.^.^.^.^.^.^.^.^.^.^.^.^.^.^.^.^.^.^.^.^.^.^.^.^.^.^.^.^.^.^.^.^.^.^.^.^.^.^.^.^.^.^.^.^.^.^.^.^.^.^.^.^.^.^.^.^.^.^.^.^.^.^.^.^.^.^.^.^.^.^.^.^.^.^.^.^.^.^.^.^.^.^.^.^.^.^.^.^.^.^.^.^.^.^.^.^.^.^.^.^.^.^.^.^.^.^.^.^.^.^.^.^.^.^.^.^.^.^.^.^.^.^.^.^.^.^.^.^.^.^.^.^.^.^.^.^.^.^.^.^.^.^.^.^.^.^.^.^.^.^.^.^.^.^.^.^.^.^.^.^.^.^.^.^.. ^.. . . o o o o o + $ # $ % % % % % % % % % % % * * * * > > > > > > > > > > > 1 1 1 1 4 1 1 1 4 4 1 4 4 4 4 4 4 4 4 4 4 4 4 4 4 4 4 4 4 8 0 0 q e t u u u p p f f f f f f p u u e q 0 8 8 6 6 6 4 4 4 6 6 6 8 0 0 0 0 q e e t u u p p f f k k k v v x x x v v z z k z z v z z z z z k k k z k k k f f p u u u e e 0 0 8 4 4 1 > * * % % % $ # @ o o . . ^.^.^.^.^.^.^.^.^.^.^.^.^.^.^.^.^.^.^.^.^.^.^.^.^.^.^.^.^.^.^.^.^.^.^.^.^.^.^.^.^.^.^.^.^.^.^.^.^.^.^.^.^.^.^.^.^.^.^.^.^.^.^.^.^.^.^.^.^.^.^.^.^.^.^.^.^.^.^.^.^.^.^.^.^.^.^.^.^.^.^.^.^.^.^.^.^.^.^.^.^.^.^.^.^.^.^.^.^.^.^.^.^.^.^.^.^.^.^.^.^.^.^.^.^.^.^.^.^.^.^.^.^.^.^.^.^.^.^.^.^.^.^.^.^.^.^.^.^.^.^.^.^.^.^.^.^.^.^.^.^.^.^.^.^.^.^.^.^.^.^.^.^.^.^.^.^.^.^.^.^.^.^.^.^.^.^.^.^.^.^.^.^.^.^.^.^.^.^.^.^.^.^.^.^.^.^.^.^.^.^.^.^.^.^.^.^.^.^.",
"^.^.^.^.^.^.^.^.^.^.^.^.^.^.^.^.^.^.^.^.^.^.^.^.^.^.^.^.^.^.^.^.^.^.^.^.^.^.^.^.^.^.^.^.^.^.^.^.^.^.^.^.^.^.^.^.^.^.^.^.^.^.^.^.^.^.^.^.^.^.^.^.^.^.^.^.^.^.^.^.^.^.^.^.^.^.^.^.^.^.^.^.^.^.^.^.^.^.^.^.^.^.^.^.^.^.^.^.^.^.^.^.^.^.^.^.^.^.^.^.^.^.^.^.^.^.^.^.^.^.^.^.^.^.^.^.^.^.^.^.^.^.^.^.^.^.^.^.^.^.^.^.^.^.^.^.^.^.^.^.^.^.^.^.^.^.^.^.^.^.^.^.^.^.^.^.^.^.^.^.^.^.^.^.^.^.^.^.^.^.^.^.^.^.^.^.^.^.^.^.^.^.^.^.^.^.^.^.^.^.^.^.^.^.^.^.^.^.^.^.^.^.^.^.^.^.^.^.^.^.^.^.^.^.^.^.^.^.^.^.^.^.^.^.^.. . . . o o o o + + # % % % % % % $ % % % % * * * * * * * > > > > > > > > > 1 1 1 1 1 1 1 1 1 1 1 4 4 1 1 4 4 4 6 4 4 4 4 4 4 4 4 4 4 6 7 0 q e e e u u u p p f f p p u e e q 0 6 6 4 4 4 4 4 1 4 4 4 4 4 6 6 8 8 7 0 q e e e u u u p f f k z v v v v z z z k k k k z z z k k k k z z k k k f f p p u u e e q 0 8 6 4 4 1 > * * % % % $ # @ o o o . ^.^.^.^.^.^.^.^.^.^.^.^.^.^.^.^.^.^.^.^.^.^.^.^.^.^.^.^.^.^.^.^.^.^.^.^.^.^.^.^.^.^.^.^.^.^.^.^.^.^.^.^.^.^.^.^.^.^.^.^.^.^.^.^.^.^.^.^.^.^.^.^.^.^.^.^.^.^.^.^.^.^.^.^.^.^.^.^.^.^.^.^.^.^.^.^.^.^.^.^.^.^.^.^.^.^.^.^.^.^.^.^.^.^.^.^.^.^.^.^.^.^.^.^.^.^.^.^.^.^.^.^.^.^.^.^.^.^.^.^.^.^.^.^.^.^.^.^.^.^.^.^.^.^.^.^.^.^.^.^.^.^.^.^.^.^.^.^.^.^.^.^.^.^.^.^.^.^.^.^.^.^.^.^.^.^.^.^.^.^.^.^.^.^.^.^.^.^.^.^.^.^.^.^.^.^.^.^.^.^.^.^.^.^.^.^.^.^.^.",
"^.^.^.^.^.^.^.^.^.^.^.^.^.^.^.^.^.^.^.^.^.^.^.^.^.^.^.^.^.^.^.^.^.^.^.^.^.^.^.^.^.^.^.^.^.^.^.^.^.^.^.^.^.^.^.^.^.^.^.^.^.^.^.^.^.^.^.^.^.^.^.^.^.^.^.^.^.^.^.^.^.^.^.^.^.^.^.^.^.^.^.^.^.^.^.^.^.^.^.^.^.^.^.^.^.^.^.^.^.^.^.^.^.^.^.^.^.^.^.^.^.^.^.^.^.^.^.^.^.^.^.^.^.^.^.^.^.^.^.^.^.^.^.^.^.^.^.^.^.^.^.^.^.^.^.^.^.^.^.^.^.^.^.^.^.^.^.^.^.^.^.^.^.^.^.^.^.^.^.^.^.^.^.^.^.^.^.^.^.^.^.^.^.^.^.^.^.^.^.^.^.^.^.^.^.^.^.^.^.^.^.^.^.^.^.^.^.^.^.^.^.^.^.^.^.^.^.^.^.^.^.^.^.^.^.^.^.^.^.^.^.^.^.^.^.^.^.. ^.. o o o o @ + # $ $ $ % % % $ % % * * * * * * * * * > > > > > > > > 1 1 1 1 1 1 4 4 1 4 1 4 1 1 1 1 1 4 4 4 4 4 1 1 1 1 4 4 4 4 6 0 0 0 e e e u u u u p p u u t e q 0 6 4 4 4 4 1 1 1 1 1 1 1 4 4 6 4 4 4 6 6 7 0 0 e e e t u p f f k z z z k z k k k f f k k k k k k k k k k k f f f p p u u e e e 0 0 8 4 4 4 1 > > * * % % $ # + o o o . ^.^.^.^.^.^.^.^.^.^.^.^.^.^.^.^.^.^.^.^.^.^.^.^.^.^.^.^.^.^.^.^.^.^.^.^.^.^.^.^.^.^.^.^.^.^.^.^.^.^.^.^.^.^.^.^.^.^.^.^.^.^.^.^.^.^.^.^.^.^.^.^.^.^.^.^.^.^.^.^.^.^.^.^.^.^.^.^.^.^.^.^.^.^.^.^.^.^.^.^.^.^.^.^.^.^.^.^.^.^.^.^.^.^.^.^.^.^.^.^.^.^.^.^.^.^.^.^.^.^.^.^.^.^.^.^.^.^.^.^.^.^.^.^.^.^.^.^.^.^.^.^.^.^.^.^.^.^.^.^.^.^.^.^.^.^.^.^.^.^.^.^.^.^.^.^.^.^.^.^.^.^.^.^.^.^.^.^.^.^.^.^.^.^.^.^.^.^.^.^.^.^.^.^.^.^.^.^.^.^.^.^.^.^.^.^.^.^.^.",
"^.^.^.^.^.^.^.^.^.^.^.^.^.^.^.^.^.^.^.^.^.^.^.^.^.^.^.^.^.^.^.^.^.^.^.^.^.^.^.^.^.^.^.^.^.^.^.^.^.^.^.^.^.^.^.^.^.^.^.^.^.^.^.^.^.^.^.^.^.^.^.^.^.^.^.^.^.^.^.^.^.^.^.^.^.^.^.^.^.^.^.^.^.^.^.^.^.^.^.^.^.^.^.^.^.^.^.^.^.^.^.^.^.^.^.^.^.^.^.^.^.^.^.^.^.^.^.^.^.^.^.^.^.^.^.^.^.^.^.^.^.^.^.^.^.^.^.^.^.^.^.^.^.^.^.^.^.^.^.^.^.^.^.^.^.^.^.^.^.^.^.^.^.^.^.^.^.^.^.^.^.^.^.^.^.^.^.^.^.^.^.^.^.^.^.^.^.^.^.^.^.^.^.^.^.^.^.^.^.^.^.^.^.^.^.^.^.^.^.^.^.^.^.^.^.^.^.^.^.^.^.^.^.^.^.^.^.^.^.^.^.^.^.^.^.^.^.^.^.^.. . . o o @ @ # $ $ $ % $ $ % * * * * * * * * * * * > > > > 1 > > 1 1 1 1 1 1 4 1 1 4 1 1 1 1 1 1 1 1 1 4 1 1 1 1 1 1 1 4 4 4 4 8 8 0 q e e e e u u u u u u e e 0 6 4 1 1 1 > > > > > > > > 1 4 4 4 1 4 4 4 6 8 8 0 q e e u u p f k k z k k k k k f f f f f f k f f f k k k f f f p p u u t e e q 0 8 4 4 4 4 1 > > * * % % $ # + o o . . ^.^.^.^.^.^.^.^.^.^.^.^.^.^.^.^.^.^.^.^.^.^.^.^.^.^.^.^.^.^.^.^.^.^.^.^.^.^.^.^.^.^.^.^.^.^.^.^.^.^.^.^.^.^.^.^.^.^.^.^.^.^.^.^.^.^.^.^.^.^.^.^.^.^.^.^.^.^.^.^.^.^.^.^.^.^.^.^.^.^.^.^.^.^.^.^.^.^.^.^.^.^.^.^.^.^.^.^.^.^.^.^.^.^.^.^.^.^.^.^.^.^.^.^.^.^.^.^.^.^.^.^.^.^.^.^.^.^.^.^.^.^.^.^.^.^.^.^.^.^.^.^.^.^.^.^.^.^.^.^.^.^.^.^.^.^.^.^.^.^.^.^.^.^.^.^.^.^.^.^.^.^.^.^.^.^.^.^.^.^.^.^.^.^.^.^.^.^.^.^.^.^.^.^.^.^.^.^.^.^.^.^.^.^.^.^.^.^.^.",
"^.^.^.^.^.^.^.^.^.^.^.^.^.^.^.^.^.^.^.^.^.^.^.^.^.^.^.^.^.^.^.^.^.^.^.^.^.^.^.^.^.^.^.^.^.^.^.^.^.^.^.^.^.^.^.^.^.^.^.^.^.^.^.^.^.^.^.^.^.^.^.^.^.^.^.^.^.^.^.^.^.^.^.^.^.^.^.^.^.^.^.^.^.^.^.^.^.^.^.^.^.^.^.^.^.^.^.^.^.^.^.^.^.^.^.^.^.^.^.^.^.^.^.^.^.^.^.^.^.^.^.^.^.^.^.^.^.^.^.^.^.^.^.^.^.^.^.^.^.^.^.^.^.^.^.^.^.^.^.^.^.^.^.^.^.^.^.^.^.^.^.^.^.^.^.^.^.^.^.^.^.^.^.^.^.^.^.^.^.^.^.^.^.^.^.^.^.^.^.^.^.^.^.^.^.^.^.^.^.^.^.^.^.^.^.^.^.^.^.^.^.^.^.^.^.^.^.^.^.^.^.^.^.^.^.^.^.^.^.^.^.^.^.^.^.^.^.^.^.^.^.^.^.. o o @ + # $ # # $ $ % % * * * * * * * * > > > > > > 1 > > > 1 1 1 1 1 1 4 1 1 4 1 1 1 1 4 1 1 4 4 1 1 1 > > 1 1 1 4 4 4 4 8 7 0 0 q e e t u t t t e e 0 7 4 4 1 > * * > * * * * * * > 1 > 1 1 1 4 4 4 4 6 8 0 0 e e u p f f k k k k f f f f f f f f f f f f f k f f f f p p u u t e e q 0 7 8 4 4 4 1 1 > * * % % % $ + @ o o . ^.^.^.^.^.^.^.^.^.^.^.^.^.^.^.^.^.^.^.^.^.^.^.^.^.^.^.^.^.^.^.^.^.^.^.^.^.^.^.^.^.^.^.^.^.^.^.^.^.^.^.^.^.^.^.^.^.^.^.^.^.^.^.^.^.^.^.^.^.^.^.^.^.^.^.^.^.^.^.^.^.^.^.^.^.^.^.^.^.^.^.^.^.^.^.^.^.^.^.^.^.^.^.^.^.^.^.^.^.^.^.^.^.^.^.^.^.^.^.^.^.^.^.^.^.^.^.^.^.^.^.^.^.^.^.^.^.^.^.^.^.^.^.^.^.^.^.^.^.^.^.^.^.^.^.^.^.^.^.^.^.^.^.^.^.^.^.^.^.^.^.^.^.^.^.^.^.^.^.^.^.^.^.^.^.^.^.^.^.^.^.^.^.^.^.^.^.^.^.^.^.^.^.^.^.^.^.^.^.^.^.^.^.^.^.^.^.^.^.^.",
"^.^.^.^.^.^.^.^.^.^.^.^.^.^.^.^.^.^.^.^.^.^.^.^.^.^.^.^.^.^.^.^.^.^.^.^.^.^.^.^.^.^.^.^.^.^.^.^.^.^.^.^.^.^.^.^.^.^.^.^.^.^.^.^.^.^.^.^.^.^.^.^.^.^.^.^.^.^.^.^.^.^.^.^.^.^.^.^.^.^.^.^.^.^.^.^.^.^.^.^.^.^.^.^.^.^.^.^.^.^.^.^.^.^.^.^.^.^.^.^.^.^.^.^.^.^.^.^.^.^.^.^.^.^.^.^.^.^.^.^.^.^.^.^.^.^.^.^.^.^.^.^.^.^.^.^.^.^.^.^.^.^.^.^.^.^.^.^.^.^.^.^.^.^.^.^.^.^.^.^.^.^.^.^.^.^.^.^.^.^.^.^.^.^.^.^.^.^.^.^.^.^.^.^.^.^.^.^.^.^.^.^.^.^.^.^.^.^.^.^.^.^.^.^.^.^.^.^.^.^.^.^.^.^.^.^.^.^.^.^.^.^.^.^.^.^.^.^.^.^.^.^.^.^.. o o @ + + # # $ # % % * * * * * * * > > > 1 1 1 1 1 1 1 > 1 1 1 1 4 1 1 1 1 1 1 1 1 1 1 1 1 1 1 1 1 > > > > > 1 1 1 4 4 6 6 8 0 0 0 q e e e e q q 0 8 4 4 1 > * * * * * * % % % * * * > > > > 1 4 4 4 4 6 8 0 q e u u p f f f f f f f f f f f f f f f f f f f j f f p p u u t e e q q 0 7 6 4 4 1 1 > > * * % % $ $ + @ o . ^.^.^.^.^.^.^.^.^.^.^.^.^.^.^.^.^.^.^.^.^.^.^.^.^.^.^.^.^.^.^.^.^.^.^.^.^.^.^.^.^.^.^.^.^.^.^.^.^.^.^.^.^.^.^.^.^.^.^.^.^.^.^.^.^.^.^.^.^.^.^.^.^.^.^.^.^.^.^.^.^.^.^.^.^.^.^.^.^.^.^.^.^.^.^.^.^.^.^.^.^.^.^.^.^.^.^.^.^.^.^.^.^.^.^.^.^.^.^.^.^.^.^.^.^.^.^.^.^.^.^.^.^.^.^.^.^.^.^.^.^.^.^.^.^.^.^.^.^.^.^.^.^.^.^.^.^.^.^.^.^.^.^.^.^.^.^.^.^.^.^.^.^.^.^.^.^.^.^.^.^.^.^.^.^.^.^.^.^.^.^.^.^.^.^.^.^.^.^.^.^.^.^.^.^.^.^.^.^.^.^.^.^.^.^.^.^.^.^.^.^.",
"^.^.^.^.^.^.^.^.^.^.^.^.^.^.^.^.^.^.^.^.^.^.^.^.^.^.^.^.^.^.^.^.^.^.^.^.^.^.^.^.^.^.^.^.^.^.^.^.^.^.^.^.^.^.^.^.^.^.^.^.^.^.^.^.^.^.^.^.^.^.^.^.^.^.^.^.^.^.^.^.^.^.^.^.^.^.^.^.^.^.^.^.^.^.^.^.^.^.^.^.^.^.^.^.^.^.^.^.^.^.^.^.^.^.^.^.^.^.^.^.^.^.^.^.^.^.^.^.^.^.^.^.^.^.^.^.^.^.^.^.^.^.^.^.^.^.^.^.^.^.^.^.^.^.^.^.^.^.^.^.^.^.^.^.^.^.^.^.^.^.^.^.^.^.^.^.^.^.^.^.^.^.^.^.^.^.^.^.^.^.^.^.^.^.^.^.^.^.^.^.^.^.^.^.^.^.^.^.^.^.^.^.^.^.^.^.^.^.^.^.^.^.^.^.^.^.^.^.^.^.^.^.^.^.^.^.^.^.^.^.^.^.^.^.^.^.^.^.^.^.^.^.^.^.. o o o @ + + + # # % % % * * * * > > > > > 1 1 1 1 1 1 1 1 1 1 1 4 4 4 4 1 1 1 1 1 1 1 1 4 1 1 1 1 > > > > > > > > 1 1 4 4 4 4 6 7 0 0 0 0 0 0 0 8 6 4 4 1 > * * * * * * % % % % % % * * * > > > 1 1 4 4 4 4 6 0 e e u p f f f f f f f f f f f f f f f f f f f f f p p u u u e e e q 0 8 8 6 4 4 1 > > > * * % % $ # @ o o . ^.^.^.^.^.^.^.^.^.^.^.^.^.^.^.^.^.^.^.^.^.^.^.^.^.^.^.^.^.^.^.^.^.^.^.^.^.^.^.^.^.^.^.^.^.^.^.^.^.^.^.^.^.^.^.^.^.^.^.^.^.^.^.^.^.^.^.^.^.^.^.^.^.^.^.^.^.^.^.^.^.^.^.^.^.^.^.^.^.^.^.^.^.^.^.^.^.^.^.^.^.^.^.^.^.^.^.^.^.^.^.^.^.^.^.^.^.^.^.^.^.^.^.^.^.^.^.^.^.^.^.^.^.^.^.^.^.^.^.^.^.^.^.^.^.^.^.^.^.^.^.^.^.^.^.^.^.^.^.^.^.^.^.^.^.^.^.^.^.^.^.^.^.^.^.^.^.^.^.^.^.^.^.^.^.^.^.^.^.^.^.^.^.^.^.^.^.^.^.^.^.^.^.^.^.^.^.^.^.^.^.^.^.^.^.^.^.^.^.^.^.",
"^.^.^.^.^.^.^.^.^.^.^.^.^.^.^.^.^.^.^.^.^.^.^.^.^.^.^.^.^.^.^.^.^.^.^.^.^.^.^.^.^.^.^.^.^.^.^.^.^.^.^.^.^.^.^.^.^.^.^.^.^.^.^.^.^.^.^.^.^.^.^.^.^.^.^.^.^.^.^.^.^.^.^.^.^.^.^.^.^.^.^.^.^.^.^.^.^.^.^.^.^.^.^.^.^.^.^.^.^.^.^.^.^.^.^.^.^.^.^.^.^.^.^.^.^.^.^.^.^.^.^.^.^.^.^.^.^.^.^.^.^.^.^.^.^.^.^.^.^.^.^.^.^.^.^.^.^.^.^.^.^.^.^.^.^.^.^.^.^.^.^.^.^.^.^.^.^.^.^.^.^.^.^.^.^.^.^.^.^.^.^.^.^.^.^.^.^.^.^.^.^.^.^.^.^.^.^.^.^.^.^.^.^.^.^.^.^.^.^.^.^.^.^.^.^.^.^.^.^.^.^.^.^.^.^.^.^.^.^.^.^.^.^.^.^.^.^.^.^.^.^.^.^.^.. o o o @ + + @ + # % % * * * * * > > > 1 1 1 1 4 4 4 1 1 1 1 4 4 1 4 4 4 4 4 4 4 1 4 1 1 1 1 1 1 > > > > > > > > > > 1 1 1 1 4 4 4 6 8 8 8 8 8 6 4 4 1 1 > * * % % % $ $ $ $ $ % % % % * * * > > > > 1 1 4 4 6 0 0 e t u p p f f f f f f f f f f f f f f f f f f p p p p u u e e q 0 0 6 4 4 4 1 1 > > * * * % $ + @ o o o . ^.^.^.^.^.^.^.^.^.^.^.^.^.^.^.^.^.^.^.^.^.^.^.^.^.^.^.^.^.^.^.^.^.^.^.^.^.^.^.^.^.^.^.^.^.^.^.^.^.^.^.^.^.^.^.^.^.^.^.^.^.^.^.^.^.^.^.^.^.^.^.^.^.^.^.^.^.^.^.^.^.^.^.^.^.^.^.^.^.^.^.^.^.^.^.^.^.^.^.^.^.^.^.^.^.^.^.^.^.^.^.^.^.^.^.^.^.^.^.^.^.^.^.^.^.^.^.^.^.^.^.^.^.^.^.^.^.^.^.^.^.^.^.^.^.^.^.^.^.^.^.^.^.^.^.^.^.^.^.^.^.^.^.^.^.^.^.^.^.^.^.^.^.^.^.^.^.^.^.^.^.^.^.^.^.^.^.^.^.^.^.^.^.^.^.^.^.^.^.^.^.^.^.^.^.^.^.^.^.^.^.^.^.^.^.^.^.^.^.^.^.",
"^.^.^.^.^.^.^.^.^.^.^.^.^.^.^.^.^.^.^.^.^.^.^.^.^.^.^.^.^.^.^.^.^.^.^.^.^.^.^.^.^.^.^.^.^.^.^.^.^.^.^.^.^.^.^.^.^.^.^.^.^.^.^.^.^.^.^.^.^.^.^.^.^.^.^.^.^.^.^.^.^.^.^.^.^.^.^.^.^.^.^.^.^.^.^.^.^.^.^.^.^.^.^.^.^.^.^.^.^.^.^.^.^.^.^.^.^.^.^.^.^.^.^.^.^.^.^.^.^.^.^.^.^.^.^.^.^.^.^.^.^.^.^.^.^.^.^.^.^.^.^.^.^.^.^.^.^.^.^.^.^.^.^.^.^.^.^.^.^.^.^.^.^.^.^.^.^.^.^.^.^.^.^.^.^.^.^.^.^.^.^.^.^.^.^.^.^.^.^.^.^.^.^.^.^.^.^.^.^.^.^.^.^.^.^.^.^.^.^.^.^.^.^.^.^.^.^.^.^.^.^.^.^.^.^.^.^.^.^.^.^.^.^.^.^.^.^.^.^.^.^.^.^.^.^.. o o o @ + @ # # % % * * * * * > > > 1 1 1 4 4 4 4 4 1 1 4 4 4 4 4 4 4 4 4 4 1 1 4 1 1 1 1 1 1 > > > > * > * > > > > > 1 1 1 4 4 4 4 4 4 4 4 4 4 1 > * * % % % $ # + # # # # # # # % % * * * * * > > > 1 4 4 6 0 q e u u p p p f f f p f p f f f f f f f f p p p p p u u u e e q 0 0 6 4 4 4 1 > > > * % % % % # @ o o . . ^.^.^.^.^.^.^.^.^.^.^.^.^.^.^.^.^.^.^.^.^.^.^.^.^.^.^.^.^.^.^.^.^.^.^.^.^.^.^.^.^.^.^.^.^.^.^.^.^.^.^.^.^.^.^.^.^.^.^.^.^.^.^.^.^.^.^.^.^.^.^.^.^.^.^.^.^.^.^.^.^.^.^.^.^.^.^.^.^.^.^.^.^.^.^.^.^.^.^.^.^.^.^.^.^.^.^.^.^.^.^.^.^.^.^.^.^.^.^.^.^.^.^.^.^.^.^.^.^.^.^.^.^.^.^.^.^.^.^.^.^.^.^.^.^.^.^.^.^.^.^.^.^.^.^.^.^.^.^.^.^.^.^.^.^.^.^.^.^.^.^.^.^.^.^.^.^.^.^.^.^.^.^.^.^.^.^.^.^.^.^.^.^.^.^.^.^.^.^.^.^.^.^.^.^.^.^.^.^.^.^.^.^.^.^.^.^.^.^.^.^.",
"^.^.^.^.^.^.^.^.^.^.^.^.^.^.^.^.^.^.^.^.^.^.^.^.^.^.^.^.^.^.^.^.^.^.^.^.^.^.^.^.^.^.^.^.^.^.^.^.^.^.^.^.^.^.^.^.^.^.^.^.^.^.^.^.^.^.^.^.^.^.^.^.^.^.^.^.^.^.^.^.^.^.^.^.^.^.^.^.^.^.^.^.^.^.^.^.^.^.^.^.^.^.^.^.^.^.^.^.^.^.^.^.^.^.^.^.^.^.^.^.^.^.^.^.^.^.^.^.^.^.^.^.^.^.^.^.^.^.^.^.^.^.^.^.^.^.^.^.^.^.^.^.^.^.^.^.^.^.^.^.^.^.^.^.^.^.^.^.^.^.^.^.^.^.^.^.^.^.^.^.^.^.^.^.^.^.^.^.^.^.^.^.^.^.^.^.^.^.^.^.^.^.^.^.^.^.^.^.^.^.^.^.^.^.^.^.^.^.^.^.^.^.^.^.^.^.^.^.^.^.^.^.^.^.^.^.^.^.^.^.^.^.^.^.^.^.^.^.^.^.^.^.^.^.^.^.. o o o @ @ # $ % % * * * > > > > > 1 1 1 4 4 4 4 4 1 1 4 4 4 4 4 4 4 4 4 4 4 1 1 1 1 1 1 1 1 > > > > * > * * > > > > > > > 1 1 4 4 4 4 4 1 > > > * * * % $ $ + @ o @ @ @ @ @ @ + # # % % % * * * > > > 1 4 4 8 0 e e u u p p p f f f f f f f f f f f f p p p p p u u u e e q q 0 0 8 4 4 1 1 1 > * * % % % % + @ o . . . ^.^.^.^.^.^.^.^.^.^.^.^.^.^.^.^.^.^.^.^.^.^.^.^.^.^.^.^.^.^.^.^.^.^.^.^.^.^.^.^.^.^.^.^.^.^.^.^.^.^.^.^.^.^.^.^.^.^.^.^.^.^.^.^.^.^.^.^.^.^.^.^.^.^.^.^.^.^.^.^.^.^.^.^.^.^.^.^.^.^.^.^.^.^.^.^.^.^.^.^.^.^.^.^.^.^.^.^.^.^.^.^.^.^.^.^.^.^.^.^.^.^.^.^.^.^.^.^.^.^.^.^.^.^.^.^.^.^.^.^.^.^.^.^.^.^.^.^.^.^.^.^.^.^.^.^.^.^.^.^.^.^.^.^.^.^.^.^.^.^.^.^.^.^.^.^.^.^.^.^.^.^.^.^.^.^.^.^.^.^.^.^.^.^.^.^.^.^.^.^.^.^.^.^.^.^.^.^.^.^.^.^.^.^.^.^.^.^.^.^.^.",
"^.^.^.^.^.^.^.^.^.^.^.^.^.^.^.^.^.^.^.^.^.^.^.^.^.^.^.^.^.^.^.^.^.^.^.^.^.^.^.^.^.^.^.^.^.^.^.^.^.^.^.^.^.^.^.^.^.^.^.^.^.^.^.^.^.^.^.^.^.^.^.^.^.^.^.^.^.^.^.^.^.^.^.^.^.^.^.^.^.^.^.^.^.^.^.^.^.^.^.^.^.^.^.^.^.^.^.^.^.^.^.^.^.^.^.^.^.^.^.^.^.^.^.^.^.^.^.^.^.^.^.^.^.^.^.^.^.^.^.^.^.^.^.^.^.^.^.^.^.^.^.^.^.^.^.^.^.^.^.^.^.^.^.^.^.^.^.^.^.^.^.^.^.^.^.^.^.^.^.^.^.^.^.^.^.^.^.^.^.^.^.^.^.^.^.^.^.^.^.^.^.^.^.^.^.^.^.^.^.^.^.^.^.^.^.^.^.^.^.^.^.^.^.^.^.^.^.^.^.^.^.^.^.^.^.^.^.^.^.^.^.^.^.^.^.^.^.^.^.^.^.^.^.^.^.^.. o o o @ @ $ $ % * * * * * > > > > 1 1 1 4 4 4 4 4 4 4 4 4 4 4 4 4 4 4 4 1 1 1 4 1 1 1 1 1 > > > > > > > * * * * * * * * > > > > 1 1 1 > > > * * % % % $ # + @ o o o o o o @ @ @ @ + # $ % * * * * * > 1 1 4 6 7 q e t u p p p f f p f f p f f f f f p p p p u p u u t e e q 0 0 0 6 4 4 1 1 1 > * * % % $ # @ o o o . . ^.^.^.^.^.^.^.^.^.^.^.^.^.^.^.^.^.^.^.^.^.^.^.^.^.^.^.^.^.^.^.^.^.^.^.^.^.^.^.^.^.^.^.^.^.^.^.^.^.^.^.^.^.^.^.^.^.^.^.^.^.^.^.^.^.^.^.^.^.^.^.^.^.^.^.^.^.^.^.^.^.^.^.^.^.^.^.^.^.^.^.^.^.^.^.^.^.^.^.^.^.^.^.^.^.^.^.^.^.^.^.^.^.^.^.^.^.^.^.^.^.^.^.^.^.^.^.^.^.^.^.^.^.^.^.^.^.^.^.^.^.^.^.^.^.^.^.^.^.^.^.^.^.^.^.^.^.^.^.^.^.^.^.^.^.^.^.^.^.^.^.^.^.^.^.^.^.^.^.^.^.^.^.^.^.^.^.^.^.^.^.^.^.^.^.^.^.^.^.^.^.^.^.^.^.^.^.^.^.^.^.^.^.^.^.^.^.^.^.^.^.",
"^.^.^.^.^.^.^.^.^.^.^.^.^.^.^.^.^.^.^.^.^.^.^.^.^.^.^.^.^.^.^.^.^.^.^.^.^.^.^.^.^.^.^.^.^.^.^.^.^.^.^.^.^.^.^.^.^.^.^.^.^.^.^.^.^.^.^.^.^.^.^.^.^.^.^.^.^.^.^.^.^.^.^.^.^.^.^.^.^.^.^.^.^.^.^.^.^.^.^.^.^.^.^.^.^.^.^.^.^.^.^.^.^.^.^.^.^.^.^.^.^.^.^.^.^.^.^.^.^.^.^.^.^.^.^.^.^.^.^.^.^.^.^.^.^.^.^.^.^.^.^.^.^.^.^.^.^.^.^.^.^.^.^.^.^.^.^.^.^.^.^.^.^.^.^.^.^.^.^.^.^.^.^.^.^.^.^.^.^.^.^.^.^.^.^.^.^.^.^.^.^.^.^.^.^.^.^.^.^.^.^.^.^.^.^.^.^.^.^.^.^.^.^.^.^.^.^.^.^.^.^.^.^.^.^.^.^.^.^.^.^.^.^.^.^.^.^.^.^.^.^.^.^.^.^.^.^.. o o o @ $ $ % % * * * * > > > > 1 1 4 4 4 4 6 4 4 4 4 4 4 4 4 4 4 4 4 4 1 1 1 1 1 1 1 > > > > > > > * * * * * * * % * * * * * * > > > * * * % % $ $ # @ @ o o o o o o o o o o o o + # $ % % % * * * > > 4 6 6 0 q e u u p p p f f f f f p f f p p p u u u u u u t e e q q 0 0 8 6 4 4 1 1 > > * * * % $ # @ o o . . . ^.^.^.^.^.^.^.^.^.^.^.^.^.^.^.^.^.^.^.^.^.^.^.^.^.^.^.^.^.^.^.^.^.^.^.^.^.^.^.^.^.^.^.^.^.^.^.^.^.^.^.^.^.^.^.^.^.^.^.^.^.^.^.^.^.^.^.^.^.^.^.^.^.^.^.^.^.^.^.^.^.^.^.^.^.^.^.^.^.^.^.^.^.^.^.^.^.^.^.^.^.^.^.^.^.^.^.^.^.^.^.^.^.^.^.^.^.^.^.^.^.^.^.^.^.^.^.^.^.^.^.^.^.^.^.^.^.^.^.^.^.^.^.^.^.^.^.^.^.^.^.^.^.^.^.^.^.^.^.^.^.^.^.^.^.^.^.^.^.^.^.^.^.^.^.^.^.^.^.^.^.^.^.^.^.^.^.^.^.^.^.^.^.^.^.^.^.^.^.^.^.^.^.^.^.^.^.^.^.^.^.^.^.^.^.^.^.^.^.^.^.",
"^.^.^.^.^.^.^.^.^.^.^.^.^.^.^.^.^.^.^.^.^.^.^.^.^.^.^.^.^.^.^.^.^.^.^.^.^.^.^.^.^.^.^.^.^.^.^.^.^.^.^.^.^.^.^.^.^.^.^.^.^.^.^.^.^.^.^.^.^.^.^.^.^.^.^.^.^.^.^.^.^.^.^.^.^.^.^.^.^.^.^.^.^.^.^.^.^.^.^.^.^.^.^.^.^.^.^.^.^.^.^.^.^.^.^.^.^.^.^.^.^.^.^.^.^.^.^.^.^.^.^.^.^.^.^.^.^.^.^.^.^.^.^.^.^.^.^.^.^.^.^.^.^.^.^.^.^.^.^.^.^.^.^.^.^.^.^.^.^.^.^.^.^.^.^.^.^.^.^.^.^.^.^.^.^.^.^.^.^.^.^.^.^.^.^.^.^.^.^.^.^.^.^.^.^.^.^.^.^.^.^.^.^.^.^.^.^.^.^.^.^.^.^.^.^.^.^.^.^.^.^.^.^.^.^.^.^.^.^.^.^.^.^.^.^.^.^.^.^.^.^.^.^.^.^.. . o o o o + # $ $ % * * * * * > > > 1 1 4 4 4 4 6 4 4 4 4 4 4 4 4 6 4 4 4 4 4 4 1 1 1 1 > > > > * * * * * * * * * * % % % % % % % % * * * * * % % $ # + o o o o o . o o o o o . o o o o + # $ $ % % * * > > 1 4 4 0 e e u u p p f f f f p f p p p p p p u p u u u u e e e 0 0 0 8 8 6 4 4 1 1 > > * * % % % # o o o . . . ^.^.^.^.^.^.^.^.^.^.^.^.^.^.^.^.^.^.^.^.^.^.^.^.^.^.^.^.^.^.^.^.^.^.^.^.^.^.^.^.^.^.^.^.^.^.^.^.^.^.^.^.^.^.^.^.^.^.^.^.^.^.^.^.^.^.^.^.^.^.^.^.^.^.^.^.^.^.^.^.^.^.^.^.^.^.^.^.^.^.^.^.^.^.^.^.^.^.^.^.^.^.^.^.^.^.^.^.^.^.^.^.^.^.^.^.^.^.^.^.^.^.^.^.^.^.^.^.^.^.^.^.^.^.^.^.^.^.^.^.^.^.^.^.^.^.^.^.^.^.^.^.^.^.^.^.^.^.^.^.^.^.^.^.^.^.^.^.^.^.^.^.^.^.^.^.^.^.^.^.^.^.^.^.^.^.^.^.^.^.^.^.^.^.^.^.^.^.^.^.^.^.^.^.^.^.^.^.^.^.^.^.^.^.^.^.^.^.^.^.^.",
"^.^.^.^.^.^.^.^.^.^.^.^.^.^.^.^.^.^.^.^.^.^.^.^.^.^.^.^.^.^.^.^.^.^.^.^.^.^.^.^.^.^.^.^.^.^.^.^.^.^.^.^.^.^.^.^.^.^.^.^.^.^.^.^.^.^.^.^.^.^.^.^.^.^.^.^.^.^.^.^.^.^.^.^.^.^.^.^.^.^.^.^.^.^.^.^.^.^.^.^.^.^.^.^.^.^.^.^.^.^.^.^.^.^.^.^.^.^.^.^.^.^.^.^.^.^.^.^.^.^.^.^.^.^.^.^.^.^.^.^.^.^.^.^.^.^.^.^.^.^.^.^.^.^.^.^.^.^.^.^.^.^.^.^.^.^.^.^.^.^.^.^.^.^.^.^.^.^.^.^.^.^.^.^.^.^.^.^.^.^.^.^.^.^.^.^.^.^.^.^.^.^.^.^.^.^.^.^.^.^.^.^.^.^.^.^.^.^.^.^.^.^.^.^.^.^.^.^.^.^.^.^.^.^.^.^.^.^.^.^.^.^.^.^.^.^.^.^.^.^.^.^.^.^.^.. . o o o @ + # $ $ % * * * > > > > > 1 1 4 4 4 4 4 4 4 4 4 4 4 4 4 4 4 1 4 4 1 4 1 1 1 1 > 1 > > * * * * * * % % % % % $ % % $ $ $ $ % % % % % $ + @ @ o o o o . o . . . . . . . . . . . o @ + # $ % % * * > 1 4 4 0 q e u u p p p p p p p p p p p p p p p p u u u t e q q 0 0 7 6 6 6 4 4 1 > > * * % % % $ # o o . . . ^.^.^.^.^.^.^.^.^.^.^.^.^.^.^.^.^.^.^.^.^.^.^.^.^.^.^.^.^.^.^.^.^.^.^.^.^.^.^.^.^.^.^.^.^.^.^.^.^.^.^.^.^.^.^.^.^.^.^.^.^.^.^.^.^.^.^.^.^.^.^.^.^.^.^.^.^.^.^.^.^.^.^.^.^.^.^.^.^.^.^.^.^.^.^.^.^.^.^.^.^.^.^.^.^.^.^.^.^.^.^.^.^.^.^.^.^.^.^.^.^.^.^.^.^.^.^.^.^.^.^.^.^.^.^.^.^.^.^.^.^.^.^.^.^.^.^.^.^.^.^.^.^.^.^.^.^.^.^.^.^.^.^.^.^.^.^.^.^.^.^.^.^.^.^.^.^.^.^.^.^.^.^.^.^.^.^.^.^.^.^.^.^.^.^.^.^.^.^.^.^.^.^.^.^.^.^.^.^.^.^.^.^.^.^.^.^.^.^.^.^.^.",
"^.^.^.^.^.^.^.^.^.^.^.^.^.^.^.^.^.^.^.^.^.^.^.^.^.^.^.^.^.^.^.^.^.^.^.^.^.^.^.^.^.^.^.^.^.^.^.^.^.^.^.^.^.^.^.^.^.^.^.^.^.^.^.^.^.^.^.^.^.^.^.^.^.^.^.^.^.^.^.^.^.^.^.^.^.^.^.^.^.^.^.^.^.^.^.^.^.^.^.^.^.^.^.^.^.^.^.^.^.^.^.^.^.^.^.^.^.^.^.^.^.^.^.^.^.^.^.^.^.^.^.^.^.^.^.^.^.^.^.^.^.^.^.^.^.^.^.^.^.^.^.^.^.^.^.^.^.^.^.^.^.^.^.^.^.^.^.^.^.^.^.^.^.^.^.^.^.^.^.^.^.^.^.^.^.^.^.^.^.^.^.^.^.^.^.^.^.^.^.^.^.^.^.^.^.^.^.^.^.^.^.^.^.^.^.^.^.^.^.^.^.^.^.^.^.^.^.^.^.^.^.^.^.^.^.^.^.^.^.^.^.^.^.^.^.^.^.^.^.^.^.^.^.^.^.^.. o o @ @ + # $ % % * * * * > > > > > 1 4 4 6 6 4 4 4 4 4 4 4 4 4 4 1 1 1 1 4 4 1 1 1 1 > > * * * % % % % % % % $ $ # # $ # # + # # # $ # $ $ + o o o o . . . . . . ^.^.^.^.^.^.^.^.. . o o @ + $ % % * * > 1 4 4 8 0 e t u u p p p p p p p p p p p p p p u p u u t e q 0 0 0 7 8 6 4 4 1 1 > > > * % % $ + o o o . ^.^.^.^.^.^.^.^.^.^.^.^.^.^.^.^.^.^.^.^.^.^.^.^.^.^.^.^.^.^.^.^.^.^.^.^.^.^.^.^.^.^.^.^.^.^.^.^.^.^.^.^.^.^.^.^.^.^.^.^.^.^.^.^.^.^.^.^.^.^.^.^.^.^.^.^.^.^.^.^.^.^.^.^.^.^.^.^.^.^.^.^.^.^.^.^.^.^.^.^.^.^.^.^.^.^.^.^.^.^.^.^.^.^.^.^.^.^.^.^.^.^.^.^.^.^.^.^.^.^.^.^.^.^.^.^.^.^.^.^.^.^.^.^.^.^.^.^.^.^.^.^.^.^.^.^.^.^.^.^.^.^.^.^.^.^.^.^.^.^.^.^.^.^.^.^.^.^.^.^.^.^.^.^.^.^.^.^.^.^.^.^.^.^.^.^.^.^.^.^.^.^.^.^.^.^.^.^.^.^.^.^.^.^.^.^.^.^.^.^.^.^.^.^.",
"^.^.^.^.^.^.^.^.^.^.^.^.^.^.^.^.^.^.^.^.^.^.^.^.^.^.^.^.^.^.^.^.^.^.^.^.^.^.^.^.^.^.^.^.^.^.^.^.^.^.^.^.^.^.^.^.^.^.^.^.^.^.^.^.^.^.^.^.^.^.^.^.^.^.^.^.^.^.^.^.^.^.^.^.^.^.^.^.^.^.^.^.^.^.^.^.^.^.^.^.^.^.^.^.^.^.^.^.^.^.^.^.^.^.^.^.^.^.^.^.^.^.^.^.^.^.^.^.^.^.^.^.^.^.^.^.^.^.^.^.^.^.^.^.^.^.^.^.^.^.^.^.^.^.^.^.^.^.^.^.^.^.^.^.^.^.^.^.^.^.^.^.^.^.^.^.^.^.^.^.^.^.^.^.^.^.^.^.^.^.^.^.^.^.^.^.^.^.^.^.^.^.^.^.^.^.^.^.^.^.^.^.^.^.^.^.^.^.^.^.^.^.^.^.^.^.^.^.^.^.^.^.^.^.^.^.^.^.^.^.^.^.^.^.^.^.^.^.^.^.^.^.^.^.^.^.. o o @ + # # $ % * * * * * * > > > > 1 1 4 4 6 4 4 4 4 4 4 4 1 1 1 1 1 1 1 1 1 1 1 > > > * * * % % % % $ $ $ $ # + @ + + @ o o o @ @ @ + @ @ o o o o . . ^.^.^.^.^.^.^.^.^.^.^.^.^.^.. . o o @ % % % * * > > 1 4 6 0 q e u u p p p p p p p p u p p p p p p p u u t e q 0 0 7 8 4 4 4 4 1 1 > > * * % % # @ o o . ^.. ^.^.^.^.^.^.^.^.^.^.^.^.^.^.^.^.^.^.^.^.^.^.^.^.^.^.^.^.^.^.^.^.^.^.^.^.^.^.^.^.^.^.^.^.^.^.^.^.^.^.^.^.^.^.^.^.^.^.^.^.^.^.^.^.^.^.^.^.^.^.^.^.^.^.^.^.^.^.^.^.^.^.^.^.^.^.^.^.^.^.^.^.^.^.^.^.^.^.^.^.^.^.^.^.^.^.^.^.^.^.^.^.^.^.^.^.^.^.^.^.^.^.^.^.^.^.^.^.^.^.^.^.^.^.^.^.^.^.^.^.^.^.^.^.^.^.^.^.^.^.^.^.^.^.^.^.^.^.^.^.^.^.^.^.^.^.^.^.^.^.^.^.^.^.^.^.^.^.^.^.^.^.^.^.^.^.^.^.^.^.^.^.^.^.^.^.^.^.^.^.^.^.^.^.^.^.^.^.^.^.^.^.^.^.^.^.^.^.^.^.^.^.^.",
"^.^.^.^.^.^.^.^.^.^.^.^.^.^.^.^.^.^.^.^.^.^.^.^.^.^.^.^.^.^.^.^.^.^.^.^.^.^.^.^.^.^.^.^.^.^.^.^.^.^.^.^.^.^.^.^.^.^.^.^.^.^.^.^.^.^.^.^.^.^.^.^.^.^.^.^.^.^.^.^.^.^.^.^.^.^.^.^.^.^.^.^.^.^.^.^.^.^.^.^.^.^.^.^.^.^.^.^.^.^.^.^.^.^.^.^.^.^.^.^.^.^.^.^.^.^.^.^.^.^.^.^.^.^.^.^.^.^.^.^.^.^.^.^.^.^.^.^.^.^.^.^.^.^.^.^.^.^.^.^.^.^.^.^.^.^.^.^.^.^.^.^.^.^.^.^.^.^.^.^.^.^.^.^.^.^.^.^.^.^.^.^.^.^.^.^.^.^.^.^.^.^.^.^.^.^.^.^.^.^.^.^.^.^.^.^.^.^.^.^.^.^.^.^.^.^.^.^.^.^.^.^.^.^.^.^.^.^.^.^.^.^.^.^.^.^.^.^.^.^.^.^.^.^.^.^.. o o + + # $ % % % * * * * * * * > > 1 1 1 4 4 4 4 4 1 4 1 1 1 1 > > 1 > 1 1 1 1 > > > * * * % % $ # + + + + + @ o o o o o o o o o o o o o o o . ^.. ^.^.^.^.^.^.^.^.^.^.^.^.^.^.^.^.. . o o o # % % % * * > 1 4 4 8 0 e e u u u p p p p p p p p p p p p p u u u e e 0 0 7 8 8 4 4 4 1 1 > > * * * % # + o o . . ^.^.^.^.^.^.^.^.^.^.^.^.^.^.^.^.^.^.^.^.^.^.^.^.^.^.^.^.^.^.^.^.^.^.^.^.^.^.^.^.^.^.^.^.^.^.^.^.^.^.^.^.^.^.^.^.^.^.^.^.^.^.^.^.^.^.^.^.^.^.^.^.^.^.^.^.^.^.^.^.^.^.^.^.^.^.^.^.^.^.^.^.^.^.^.^.^.^.^.^.^.^.^.^.^.^.^.^.^.^.^.^.^.^.^.^.^.^.^.^.^.^.^.^.^.^.^.^.^.^.^.^.^.^.^.^.^.^.^.^.^.^.^.^.^.^.^.^.^.^.^.^.^.^.^.^.^.^.^.^.^.^.^.^.^.^.^.^.^.^.^.^.^.^.^.^.^.^.^.^.^.^.^.^.^.^.^.^.^.^.^.^.^.^.^.^.^.^.^.^.^.^.^.^.^.^.^.^.^.^.^.^.^.^.^.^.^.^.^.^.^.^.^.^.^.",
"^.^.^.^.^.^.^.^.^.^.^.^.^.^.^.^.^.^.^.^.^.^.^.^.^.^.^.^.^.^.^.^.^.^.^.^.^.^.^.^.^.^.^.^.^.^.^.^.^.^.^.^.^.^.^.^.^.^.^.^.^.^.^.^.^.^.^.^.^.^.^.^.^.^.^.^.^.^.^.^.^.^.^.^.^.^.^.^.^.^.^.^.^.^.^.^.^.^.^.^.^.^.^.^.^.^.^.^.^.^.^.^.^.^.^.^.^.^.^.^.^.^.^.^.^.^.^.^.^.^.^.^.^.^.^.^.^.^.^.^.^.^.^.^.^.^.^.^.^.^.^.^.^.^.^.^.^.^.^.^.^.^.^.^.^.^.^.^.^.^.^.^.^.^.^.^.^.^.^.^.^.^.^.^.^.^.^.^.^.^.^.^.^.^.^.^.^.^.^.^.^.^.^.^.^.^.^.^.^.^.^.^.^.^.^.^.^.^.^.^.^.^.^.^.^.^.^.^.^.^.^.^.^.^.^.^.^.^.^.^.^.^.^.^.^.^.^.^.^.^.^.^.^.^.^.^.. . o @ + # $ % % * * * * * * * * > > > 1 1 1 1 1 1 1 1 1 1 1 1 > > > > > > > > > * * * * * % % $ # # o o o o o o o o o o o . ^.^.^.^.. . . . ^.^.^.^.^.^.^.^.^.^.^.^.^.^.^.^.^.^.^.^.^.. . o o @ # % % * > > 1 4 4 8 0 q e t u u u u u u u u u p p p p p u u u u e q 0 7 8 6 4 4 4 1 1 > > * * * % $ @ o o . . ^.^.^.^.^.^.^.^.^.^.^.^.^.^.^.^.^.^.^.^.^.^.^.^.^.^.^.^.^.^.^.^.^.^.^.^.^.^.^.^.^.^.^.^.^.^.^.^.^.^.^.^.^.^.^.^.^.^.^.^.^.^.^.^.^.^.^.^.^.^.^.^.^.^.^.^.^.^.^.^.^.^.^.^.^.^.^.^.^.^.^.^.^.^.^.^.^.^.^.^.^.^.^.^.^.^.^.^.^.^.^.^.^.^.^.^.^.^.^.^.^.^.^.^.^.^.^.^.^.^.^.^.^.^.^.^.^.^.^.^.^.^.^.^.^.^.^.^.^.^.^.^.^.^.^.^.^.^.^.^.^.^.^.^.^.^.^.^.^.^.^.^.^.^.^.^.^.^.^.^.^.^.^.^.^.^.^.^.^.^.^.^.^.^.^.^.^.^.^.^.^.^.^.^.^.^.^.^.^.^.^.^.^.^.^.^.^.^.^.^.^.^.^.^.^.^.",
"^.^.^.^.^.^.^.^.^.^.^.^.^.^.^.^.^.^.^.^.^.^.^.^.^.^.^.^.^.^.^.^.^.^.^.^.^.^.^.^.^.^.^.^.^.^.^.^.^.^.^.^.^.^.^.^.^.^.^.^.^.^.^.^.^.^.^.^.^.^.^.^.^.^.^.^.^.^.^.^.^.^.^.^.^.^.^.^.^.^.^.^.^.^.^.^.^.^.^.^.^.^.^.^.^.^.^.^.^.^.^.^.^.^.^.^.^.^.^.^.^.^.^.^.^.^.^.^.^.^.^.^.^.^.^.^.^.^.^.^.^.^.^.^.^.^.^.^.^.^.^.^.^.^.^.^.^.^.^.^.^.^.^.^.^.^.^.^.^.^.^.^.^.^.^.^.^.^.^.^.^.^.^.^.^.^.^.^.^.^.^.^.^.^.^.^.^.^.^.^.^.^.^.^.^.^.^.^.^.^.^.^.^.^.^.^.^.^.^.^.^.^.^.^.^.^.^.^.^.^.^.^.^.^.^.^.^.^.^.^.^.^.^.^.^.^.^.^.^.^.^.^.^.^.^.^.^.. o @ + $ $ % % % % % * % * * * * > > > 1 > > > 1 1 1 > > > > > > > > > * * * * * * * * % % $ # @ o o o . o o . o . . . ^.^.^.^.^.^.^.^.^.^.^.^.^.^.^.^.^.^.^.^.^.^.^.^.^.^.^.^.^.^.^.^.^.. o @ # % % * > > 1 4 4 6 8 0 q e u u u u u u u u u p p p p p u u u e e 0 0 8 6 4 4 4 1 1 > > * * * % $ # @ o o . . ^.^.^.^.^.^.^.^.^.^.^.^.^.^.^.^.^.^.^.^.^.^.^.^.^.^.^.^.^.^.^.^.^.^.^.^.^.^.^.^.^.^.^.^.^.^.^.^.^.^.^.^.^.^.^.^.^.^.^.^.^.^.^.^.^.^.^.^.^.^.^.^.^.^.^.^.^.^.^.^.^.^.^.^.^.^.^.^.^.^.^.^.^.^.^.^.^.^.^.^.^.^.^.^.^.^.^.^.^.^.^.^.^.^.^.^.^.^.^.^.^.^.^.^.^.^.^.^.^.^.^.^.^.^.^.^.^.^.^.^.^.^.^.^.^.^.^.^.^.^.^.^.^.^.^.^.^.^.^.^.^.^.^.^.^.^.^.^.^.^.^.^.^.^.^.^.^.^.^.^.^.^.^.^.^.^.^.^.^.^.^.^.^.^.^.^.^.^.^.^.^.^.^.^.^.^.^.^.^.^.^.^.^.^.^.^.^.^.^.^.^.^.^.^.^.^.",
"^.^.^.^.^.^.^.^.^.^.^.^.^.^.^.^.^.^.^.^.^.^.^.^.^.^.^.^.^.^.^.^.^.^.^.^.^.^.^.^.^.^.^.^.^.^.^.^.^.^.^.^.^.^.^.^.^.^.^.^.^.^.^.^.^.^.^.^.^.^.^.^.^.^.^.^.^.^.^.^.^.^.^.^.^.^.^.^.^.^.^.^.^.^.^.^.^.^.^.^.^.^.^.^.^.^.^.^.^.^.^.^.^.^.^.^.^.^.^.^.^.^.^.^.^.^.^.^.^.^.^.^.^.^.^.^.^.^.^.^.^.^.^.^.^.^.^.^.^.^.^.^.^.^.^.^.^.^.^.^.^.^.^.^.^.^.^.^.^.^.^.^.^.^.^.^.^.^.^.^.^.^.^.^.^.^.^.^.^.^.^.^.^.^.^.^.^.^.^.^.^.^.^.^.^.^.^.^.^.^.^.^.^.^.^.^.^.^.^.^.^.^.^.^.^.^.^.^.^.^.^.^.^.^.^.^.^.^.^.^.^.^.^.^.^.^.^.^.^.^.^.^.^.^.^.^.^.. o o # # $ $ $ % % % % % % * * * * > > > > > > > > > > > > > > > * * * * * * * % % % % $ # @ o o o o . ^.^.^.. . ^.^.^.^.^.^.^.^.^.^.^.^.^.^.^.^.^.^.^.^.^.^.^.^.^.^.^.^.^.^.^.^.^.^.^.^.. o o # % % * > > 1 4 4 4 8 0 0 q e e t t u u u u u p p p p p u u e e 0 0 8 6 4 4 4 1 1 1 > * * * % $ # @ o o o . ^.^.^.^.^.^.^.^.^.^.^.^.^.^.^.^.^.^.^.^.^.^.^.^.^.^.^.^.^.^.^.^.^.^.^.^.^.^.^.^.^.^.^.^.^.^.^.^.^.^.^.^.^.^.^.^.^.^.^.^.^.^.^.^.^.^.^.^.^.^.^.^.^.^.^.^.^.^.^.^.^.^.^.^.^.^.^.^.^.^.^.^.^.^.^.^.^.^.^.^.^.^.^.^.^.^.^.^.^.^.^.^.^.^.^.^.^.^.^.^.^.^.^.^.^.^.^.^.^.^.^.^.^.^.^.^.^.^.^.^.^.^.^.^.^.^.^.^.^.^.^.^.^.^.^.^.^.^.^.^.^.^.^.^.^.^.^.^.^.^.^.^.^.^.^.^.^.^.^.^.^.^.^.^.^.^.^.^.^.^.^.^.^.^.^.^.^.^.^.^.^.^.^.^.^.^.^.^.^.^.^.^.^.^.^.^.^.^.^.^.^.^.^.^.^.^.^.",
"^.^.^.^.^.^.^.^.^.^.^.^.^.^.^.^.^.^.^.^.^.^.^.^.^.^.^.^.^.^.^.^.^.^.^.^.^.^.^.^.^.^.^.^.^.^.^.^.^.^.^.^.^.^.^.^.^.^.^.^.^.^.^.^.^.^.^.^.^.^.^.^.^.^.^.^.^.^.^.^.^.^.^.^.^.^.^.^.^.^.^.^.^.^.^.^.^.^.^.^.^.^.^.^.^.^.^.^.^.^.^.^.^.^.^.^.^.^.^.^.^.^.^.^.^.^.^.^.^.^.^.^.^.^.^.^.^.^.^.^.^.^.^.^.^.^.^.^.^.^.^.^.^.^.^.^.^.^.^.^.^.^.^.^.^.^.^.^.^.^.^.^.^.^.^.^.^.^.^.^.^.^.^.^.^.^.^.^.^.^.^.^.^.^.^.^.^.^.^.^.^.^.^.^.^.^.^.^.^.^.^.^.^.^.^.^.^.^.^.^.^.^.^.^.^.^.^.^.^.^.^.^.^.^.^.^.^.^.^.^.^.^.^.^.^.^.^.^.^.^.^.^.^.^.^.^.^.. o @ + # + # # # % $ % % % % * * * * * > * * > * > > * * * * * * * * * % % % % % % $ # @ @ o o . o ^.^.^.^.^.^.^.^.^.^.^.^.^.^.^.^.^.^.^.^.^.^.^.^.^.^.^.^.^.^.^.^.^.^.^.^.^.^.^.^.^.^.^.. o o + $ % * > > 1 4 4 4 6 7 0 0 q e e e u u u u u p p p p u u e q 0 0 8 6 4 4 4 1 > > > > * * * % $ + @ o o . . ^.^.^.^.^.^.^.^.^.^.^.^.^.^.^.^.^.^.^.^.^.^.^.^.^.^.^.^.^.^.^.^.^.^.^.^.^.^.^.^.^.^.^.^.^.^.^.^.^.^.^.^.^.^.^.^.^.^.^.^.^.^.^.^.^.^.^.^.^.^.^.^.^.^.^.^.^.^.^.^.^.^.^.^.^.^.^.^.^.^.^.^.^.^.^.^.^.^.^.^.^.^.^.^.^.^.^.^.^.^.^.^.^.^.^.^.^.^.^.^.^.^.^.^.^.^.^.^.^.^.^.^.^.^.^.^.^.^.^.^.^.^.^.^.^.^.^.^.^.^.^.^.^.^.^.^.^.^.^.^.^.^.^.^.^.^.^.^.^.^.^.^.^.^.^.^.^.^.^.^.^.^.^.^.^.^.^.^.^.^.^.^.^.^.^.^.^.^.^.^.^.^.^.^.^.^.^.^.^.^.^.^.^.^.^.^.^.^.^.^.^.^.^.^.^.^.^.",
"^.^.^.^.^.^.^.^.^.^.^.^.^.^.^.^.^.^.^.^.^.^.^.^.^.^.^.^.^.^.^.^.^.^.^.^.^.^.^.^.^.^.^.^.^.^.^.^.^.^.^.^.^.^.^.^.^.^.^.^.^.^.^.^.^.^.^.^.^.^.^.^.^.^.^.^.^.^.^.^.^.^.^.^.^.^.^.^.^.^.^.^.^.^.^.^.^.^.^.^.^.^.^.^.^.^.^.^.^.^.^.^.^.^.^.^.^.^.^.^.^.^.^.^.^.^.^.^.^.^.^.^.^.^.^.^.^.^.^.^.^.^.^.^.^.^.^.^.^.^.^.^.^.^.^.^.^.^.^.^.^.^.^.^.^.^.^.^.^.^.^.^.^.^.^.^.^.^.^.^.^.^.^.^.^.^.^.^.^.^.^.^.^.^.^.^.^.^.^.^.^.^.^.^.^.^.^.^.^.^.^.^.^.^.^.^.^.^.^.^.^.^.^.^.^.^.^.^.^.^.^.^.^.^.^.^.^.^.^.^.^.^.^.^.^.^.^.^.^.^.^.^.^.^.^.^.^.. o o + @ # # + # # # $ $ % % % % * * * * * * * * * * * * * * * % * % % % % $ % $ $ + + o o o . . ^.^.^.^.^.^.^.^.^.^.^.^.^.^.^.^.^.^.^.^.^.^.^.^.^.^.^.^.^.^.^.^.^.^.^.^.^.^.^.^.^.^.^.^.^.o o + $ % * * > 1 1 4 4 6 8 8 0 0 q e e t u u u u u u u u u t e q 7 8 4 4 4 4 4 1 1 > > * * % % $ # @ o o o . ^.^.^.^.^.^.^.^.^.^.^.^.^.^.^.^.^.^.^.^.^.^.^.^.^.^.^.^.^.^.^.^.^.^.^.^.^.^.^.^.^.^.^.^.^.^.^.^.^.^.^.^.^.^.^.^.^.^.^.^.^.^.^.^.^.^.^.^.^.^.^.^.^.^.^.^.^.^.^.^.^.^.^.^.^.^.^.^.^.^.^.^.^.^.^.^.^.^.^.^.^.^.^.^.^.^.^.^.^.^.^.^.^.^.^.^.^.^.^.^.^.^.^.^.^.^.^.^.^.^.^.^.^.^.^.^.^.^.^.^.^.^.^.^.^.^.^.^.^.^.^.^.^.^.^.^.^.^.^.^.^.^.^.^.^.^.^.^.^.^.^.^.^.^.^.^.^.^.^.^.^.^.^.^.^.^.^.^.^.^.^.^.^.^.^.^.^.^.^.^.^.^.^.^.^.^.^.^.^.^.^.^.^.^.^.^.^.^.^.^.^.^.^.^.^.^.^.^.",
"^.^.^.^.^.^.^.^.^.^.^.^.^.^.^.^.^.^.^.^.^.^.^.^.^.^.^.^.^.^.^.^.^.^.^.^.^.^.^.^.^.^.^.^.^.^.^.^.^.^.^.^.^.^.^.^.^.^.^.^.^.^.^.^.^.^.^.^.^.^.^.^.^.^.^.^.^.^.^.^.^.^.^.^.^.^.^.^.^.^.^.^.^.^.^.^.^.^.^.^.^.^.^.^.^.^.^.^.^.^.^.^.^.^.^.^.^.^.^.^.^.^.^.^.^.^.^.^.^.^.^.^.^.^.^.^.^.^.^.^.^.^.^.^.^.^.^.^.^.^.^.^.^.^.^.^.^.^.^.^.^.^.^.^.^.^.^.^.^.^.^.^.^.^.^.^.^.^.^.^.^.^.^.^.^.^.^.^.^.^.^.^.^.^.^.^.^.^.^.^.^.^.^.^.^.^.^.^.^.^.^.^.^.^.^.^.^.^.^.^.^.^.^.^.^.^.^.^.^.^.^.^.^.^.^.^.^.^.^.^.^.^.^.^.^.^.^.^.^.^.^.^.^.^.^.^.^.^.. o o @ + + # + + @ + + $ % % % % % * * * * % % % * % % * % * % $ % % $ $ # # # + @ o o o . ^.^.^.^.^.^.^.^.^.^.^.^.^.^.^.^.^.^.^.^.^.^.^.^.^.^.^.^.^.^.^.^.^.^.^.^.^.^.^.^.^.^.^.^.^.^.^.. o @ # % * * > > 1 1 4 4 6 8 0 0 0 0 q e t u u u u u u u t e q 0 8 4 4 4 4 1 1 1 > * * * % % # + @ @ o o . ^.^.^.^.^.^.^.^.^.^.^.^.^.^.^.^.^.^.^.^.^.^.^.^.^.^.^.^.^.^.^.^.^.^.^.^.^.^.^.^.^.^.^.^.^.^.^.^.^.^.^.^.^.^.^.^.^.^.^.^.^.^.^.^.^.^.^.^.^.^.^.^.^.^.^.^.^.^.^.^.^.^.^.^.^.^.^.^.^.^.^.^.^.^.^.^.^.^.^.^.^.^.^.^.^.^.^.^.^.^.^.^.^.^.^.^.^.^.^.^.^.^.^.^.^.^.^.^.^.^.^.^.^.^.^.^.^.^.^.^.^.^.^.^.^.^.^.^.^.^.^.^.^.^.^.^.^.^.^.^.^.^.^.^.^.^.^.^.^.^.^.^.^.^.^.^.^.^.^.^.^.^.^.^.^.^.^.^.^.^.^.^.^.^.^.^.^.^.^.^.^.^.^.^.^.^.^.^.^.^.^.^.^.^.^.^.^.^.^.^.^.^.^.^.^.^.^.^.^.",
"^.^.^.^.^.^.^.^.^.^.^.^.^.^.^.^.^.^.^.^.^.^.^.^.^.^.^.^.^.^.^.^.^.^.^.^.^.^.^.^.^.^.^.^.^.^.^.^.^.^.^.^.^.^.^.^.^.^.^.^.^.^.^.^.^.^.^.^.^.^.^.^.^.^.^.^.^.^.^.^.^.^.^.^.^.^.^.^.^.^.^.^.^.^.^.^.^.^.^.^.^.^.^.^.^.^.^.^.^.^.^.^.^.^.^.^.^.^.^.^.^.^.^.^.^.^.^.^.^.^.^.^.^.^.^.^.^.^.^.^.^.^.^.^.^.^.^.^.^.^.^.^.^.^.^.^.^.^.^.^.^.^.^.^.^.^.^.^.^.^.^.^.^.^.^.^.^.^.^.^.^.^.^.^.^.^.^.^.^.^.^.^.^.^.^.^.^.^.^.^.^.^.^.^.^.^.^.^.^.^.^.^.^.^.^.^.^.^.^.^.^.^.^.^.^.^.^.^.^.^.^.^.^.^.^.^.^.^.^.^.^.^.^.^.^.^.^.^.^.^.^.^.^.^.^.^.^.^.^.. o o o @ @ + @ o @ @ # # $ $ % % % % % % % % % % % $ % % $ $ # $ # $ # @ @ + o o . . ^.^.^.^.^.^.^.^.^.^.^.^.^.^.^.^.^.^.^.^.^.^.^.^.^.^.^.^.^.^.^.^.^.^.^.^.^.^.^.^.^.^.^.^.^.^.^.^.^.. o @ $ % % * > > 1 1 4 4 4 4 8 8 8 0 0 q e t u u t t e e e q 0 7 4 4 4 1 1 1 1 > * * % % $ + @ o o o o ^.^.^.^.^.^.^.^.^.^.^.^.^.^.^.^.^.^.^.^.^.^.^.^.^.^.^.^.^.^.^.^.^.^.^.^.^.^.^.^.^.^.^.^.^.^.^.^.^.^.^.^.^.^.^.^.^.^.^.^.^.^.^.^.^.^.^.^.^.^.^.^.^.^.^.^.^.^.^.^.^.^.^.^.^.^.^.^.^.^.^.^.^.^.^.^.^.^.^.^.^.^.^.^.^.^.^.^.^.^.^.^.^.^.^.^.^.^.^.^.^.^.^.^.^.^.^.^.^.^.^.^.^.^.^.^.^.^.^.^.^.^.^.^.^.^.^.^.^.^.^.^.^.^.^.^.^.^.^.^.^.^.^.^.^.^.^.^.^.^.^.^.^.^.^.^.^.^.^.^.^.^.^.^.^.^.^.^.^.^.^.^.^.^.^.^.^.^.^.^.^.^.^.^.^.^.^.^.^.^.^.^.^.^.^.^.^.^.^.^.^.^.^.^.^.^.^.^.^.^.^.",
"^.^.^.^.^.^.^.^.^.^.^.^.^.^.^.^.^.^.^.^.^.^.^.^.^.^.^.^.^.^.^.^.^.^.^.^.^.^.^.^.^.^.^.^.^.^.^.^.^.^.^.^.^.^.^.^.^.^.^.^.^.^.^.^.^.^.^.^.^.^.^.^.^.^.^.^.^.^.^.^.^.^.^.^.^.^.^.^.^.^.^.^.^.^.^.^.^.^.^.^.^.^.^.^.^.^.^.^.^.^.^.^.^.^.^.^.^.^.^.^.^.^.^.^.^.^.^.^.^.^.^.^.^.^.^.^.^.^.^.^.^.^.^.^.^.^.^.^.^.^.^.^.^.^.^.^.^.^.^.^.^.^.^.^.^.^.^.^.^.^.^.^.^.^.^.^.^.^.^.^.^.^.^.^.^.^.^.^.^.^.^.^.^.^.^.^.^.^.^.^.^.^.^.^.^.^.^.^.^.^.^.^.^.^.^.^.^.^.^.^.^.^.^.^.^.^.^.^.^.^.^.^.^.^.^.^.^.^.^.^.^.^.^.^.^.^.^.^.^.^.^.^.^.^.^.^.^.^.^.^.. o o o o + @ o o o @ @ @ @ # # $ $ $ $ $ # # + # + + + @ @ + @ @ @ o o o o o . ^.^.^.^.^.^.^.^.^.^.^.^.^.^.^.^.^.^.^.^.^.^.^.^.^.^.^.^.^.^.^.^.^.^.^.^.^.^.^.^.^.^.^.^.^.^.^.^.^.^.^.. o o # % % * * > > 1 1 4 4 4 4 4 4 6 0 0 q e e t e e e e q 0 8 6 4 4 1 1 > > > * * % $ # + o o o o . ^.^.^.^.^.^.^.^.^.^.^.^.^.^.^.^.^.^.^.^.^.^.^.^.^.^.^.^.^.^.^.^.^.^.^.^.^.^.^.^.^.^.^.^.^.^.^.^.^.^.^.^.^.^.^.^.^.^.^.^.^.^.^.^.^.^.^.^.^.^.^.^.^.^.^.^.^.^.^.^.^.^.^.^.^.^.^.^.^.^.^.^.^.^.^.^.^.^.^.^.^.^.^.^.^.^.^.^.^.^.^.^.^.^.^.^.^.^.^.^.^.^.^.^.^.^.^.^.^.^.^.^.^.^.^.^.^.^.^.^.^.^.^.^.^.^.^.^.^.^.^.^.^.^.^.^.^.^.^.^.^.^.^.^.^.^.^.^.^.^.^.^.^.^.^.^.^.^.^.^.^.^.^.^.^.^.^.^.^.^.^.^.^.^.^.^.^.^.^.^.^.^.^.^.^.^.^.^.^.^.^.^.^.^.^.^.^.^.^.^.^.^.^.^.^.^.^.^.^.^.^.^.",
"^.^.^.^.^.^.^.^.^.^.^.^.^.^.^.^.^.^.^.^.^.^.^.^.^.^.^.^.^.^.^.^.^.^.^.^.^.^.^.^.^.^.^.^.^.^.^.^.^.^.^.^.^.^.^.^.^.^.^.^.^.^.^.^.^.^.^.^.^.^.^.^.^.^.^.^.^.^.^.^.^.^.^.^.^.^.^.^.^.^.^.^.^.^.^.^.^.^.^.^.^.^.^.^.^.^.^.^.^.^.^.^.^.^.^.^.^.^.^.^.^.^.^.^.^.^.^.^.^.^.^.^.^.^.^.^.^.^.^.^.^.^.^.^.^.^.^.^.^.^.^.^.^.^.^.^.^.^.^.^.^.^.^.^.^.^.^.^.^.^.^.^.^.^.^.^.^.^.^.^.^.^.^.^.^.^.^.^.^.^.^.^.^.^.^.^.^.^.^.^.^.^.^.^.^.^.^.^.^.^.^.^.^.^.^.^.^.^.^.^.^.^.^.^.^.^.^.^.^.^.^.^.^.^.^.^.^.^.^.^.^.^.^.^.^.^.^.^.^.^.^.^.^.^.^.^.^.^.^.^.. . . o o o o o o o o o o o o @ @ @ + + @ @ o o o o o o o o o o o o o . ^.. . ^.^.^.^.^.^.^.^.^.^.^.^.^.^.^.^.^.^.^.^.^.^.^.^.^.^.^.^.^.^.^.^.^.^.^.^.^.^.^.^.^.^.^.^.^.^.^.^.^.^.^.^.. o o + # % * * > > > 1 1 1 4 4 4 4 4 6 7 0 q q e e 0 0 0 7 6 4 4 1 1 1 > > * * * % $ $ + o o o . . ^.^.^.^.^.^.^.^.^.^.^.^.^.^.^.^.^.^.^.^.^.^.^.^.^.^.^.^.^.^.^.^.^.^.^.^.^.^.^.^.^.^.^.^.^.^.^.^.^.^.^.^.^.^.^.^.^.^.^.^.^.^.^.^.^.^.^.^.^.^.^.^.^.^.^.^.^.^.^.^.^.^.^.^.^.^.^.^.^.^.^.^.^.^.^.^.^.^.^.^.^.^.^.^.^.^.^.^.^.^.^.^.^.^.^.^.^.^.^.^.^.^.^.^.^.^.^.^.^.^.^.^.^.^.^.^.^.^.^.^.^.^.^.^.^.^.^.^.^.^.^.^.^.^.^.^.^.^.^.^.^.^.^.^.^.^.^.^.^.^.^.^.^.^.^.^.^.^.^.^.^.^.^.^.^.^.^.^.^.^.^.^.^.^.^.^.^.^.^.^.^.^.^.^.^.^.^.^.^.^.^.^.^.^.^.^.^.^.^.^.^.^.^.^.^.^.^.^.^.^.^.^.^.",
"^.^.^.^.^.^.^.^.^.^.^.^.^.^.^.^.^.^.^.^.^.^.^.^.^.^.^.^.^.^.^.^.^.^.^.^.^.^.^.^.^.^.^.^.^.^.^.^.^.^.^.^.^.^.^.^.^.^.^.^.^.^.^.^.^.^.^.^.^.^.^.^.^.^.^.^.^.^.^.^.^.^.^.^.^.^.^.^.^.^.^.^.^.^.^.^.^.^.^.^.^.^.^.^.^.^.^.^.^.^.^.^.^.^.^.^.^.^.^.^.^.^.^.^.^.^.^.^.^.^.^.^.^.^.^.^.^.^.^.^.^.^.^.^.^.^.^.^.^.^.^.^.^.^.^.^.^.^.^.^.^.^.^.^.^.^.^.^.^.^.^.^.^.^.^.^.^.^.^.^.^.^.^.^.^.^.^.^.^.^.^.^.^.^.^.^.^.^.^.^.^.^.^.^.^.^.^.^.^.^.^.^.^.^.^.^.^.^.^.^.^.^.^.^.^.^.^.^.^.^.^.^.^.^.^.^.^.^.^.^.^.^.^.^.^.^.^.^.^.^.^.^.^.^.^.^.^.^.^.^.^.^.^.. o o o o o . o o o . o o . . o o . . . o . . . . ^.^.^.^.^.. ^.^.^.^.^.^.^.^.^.^.^.^.^.^.^.^.^.^.^.^.^.^.^.^.^.^.^.^.^.^.^.^.^.^.^.^.^.^.^.^.^.^.^.^.^.^.^.^.^.^.^.^.^.^.^.^.^.^.o o @ + $ % * * > > > > 1 1 1 1 1 1 4 4 6 8 7 0 0 7 8 8 6 4 4 1 1 > > > * * * % % $ # @ o . ^.^.^.^.^.^.^.^.^.^.^.^.^.^.^.^.^.^.^.^.^.^.^.^.^.^.^.^.^.^.^.^.^.^.^.^.^.^.^.^.^.^.^.^.^.^.^.^.^.^.^.^.^.^.^.^.^.^.^.^.^.^.^.^.^.^.^.^.^.^.^.^.^.^.^.^.^.^.^.^.^.^.^.^.^.^.^.^.^.^.^.^.^.^.^.^.^.^.^.^.^.^.^.^.^.^.^.^.^.^.^.^.^.^.^.^.^.^.^.^.^.^.^.^.^.^.^.^.^.^.^.^.^.^.^.^.^.^.^.^.^.^.^.^.^.^.^.^.^.^.^.^.^.^.^.^.^.^.^.^.^.^.^.^.^.^.^.^.^.^.^.^.^.^.^.^.^.^.^.^.^.^.^.^.^.^.^.^.^.^.^.^.^.^.^.^.^.^.^.^.^.^.^.^.^.^.^.^.^.^.^.^.^.^.^.^.^.^.^.^.^.^.^.^.^.^.^.^.^.^.^.^.^.^.^.^.",
"^.^.^.^.^.^.^.^.^.^.^.^.^.^.^.^.^.^.^.^.^.^.^.^.^.^.^.^.^.^.^.^.^.^.^.^.^.^.^.^.^.^.^.^.^.^.^.^.^.^.^.^.^.^.^.^.^.^.^.^.^.^.^.^.^.^.^.^.^.^.^.^.^.^.^.^.^.^.^.^.^.^.^.^.^.^.^.^.^.^.^.^.^.^.^.^.^.^.^.^.^.^.^.^.^.^.^.^.^.^.^.^.^.^.^.^.^.^.^.^.^.^.^.^.^.^.^.^.^.^.^.^.^.^.^.^.^.^.^.^.^.^.^.^.^.^.^.^.^.^.^.^.^.^.^.^.^.^.^.^.^.^.^.^.^.^.^.^.^.^.^.^.^.^.^.^.^.^.^.^.^.^.^.^.^.^.^.^.^.^.^.^.^.^.^.^.^.^.^.^.^.^.^.^.^.^.^.^.^.^.^.^.^.^.^.^.^.^.^.^.^.^.^.^.^.^.^.^.^.^.^.^.^.^.^.^.^.^.^.^.^.^.^.^.^.^.^.^.^.^.^.^.^.^.^.^.^.^.^.^.^.^.^.^.^.^.^.^.^.. . . . . ^.^.^.^.^.^.^.^.^.^.^.^.^.^.^.^.^.^.^.^.^.^.^.^.^.^.^.^.^.^.^.^.^.^.^.^.^.^.^.^.^.^.^.^.^.^.^.^.^.^.^.^.^.^.^.^.^.^.^.^.^.^.^.^.^.^.^.^.^.^.^.^.^.^.^.^.^.^.. o o + # $ % * * * > > > > > > > > 1 4 4 4 4 4 6 4 4 4 4 1 1 > > > > * * % % $ $ # @ o . ^.^.^.^.^.^.^.^.^.^.^.^.^.^.^.^.^.^.^.^.^.^.^.^.^.^.^.^.^.^.^.^.^.^.^.^.^.^.^.^.^.^.^.^.^.^.^.^.^.^.^.^.^.^.^.^.^.^.^.^.^.^.^.^.^.^.^.^.^.^.^.^.^.^.^.^.^.^.^.^.^.^.^.^.^.^.^.^.^.^.^.^.^.^.^.^.^.^.^.^.^.^.^.^.^.^.^.^.^.^.^.^.^.^.^.^.^.^.^.^.^.^.^.^.^.^.^.^.^.^.^.^.^.^.^.^.^.^.^.^.^.^.^.^.^.^.^.^.^.^.^.^.^.^.^.^.^.^.^.^.^.^.^.^.^.^.^.^.^.^.^.^.^.^.^.^.^.^.^.^.^.^.^.^.^.^.^.^.^.^.^.^.^.^.^.^.^.^.^.^.^.^.^.^.^.^.^.^.^.^.^.^.^.^.^.^.^.^.^.^.^.^.^.^.^.^.^.^.^.^.^.^.^.^.^.^.^.",
"^.^.^.^.^.^.^.^.^.^.^.^.^.^.^.^.^.^.^.^.^.^.^.^.^.^.^.^.^.^.^.^.^.^.^.^.^.^.^.^.^.^.^.^.^.^.^.^.^.^.^.^.^.^.^.^.^.^.^.^.^.^.^.^.^.^.^.^.^.^.^.^.^.^.^.^.^.^.^.^.^.^.^.^.^.^.^.^.^.^.^.^.^.^.^.^.^.^.^.^.^.^.^.^.^.^.^.^.^.^.^.^.^.^.^.^.^.^.^.^.^.^.^.^.^.^.^.^.^.^.^.^.^.^.^.^.^.^.^.^.^.^.^.^.^.^.^.^.^.^.^.^.^.^.^.^.^.^.^.^.^.^.^.^.^.^.^.^.^.^.^.^.^.^.^.^.^.^.^.^.^.^.^.^.^.^.^.^.^.^.^.^.^.^.^.^.^.^.^.^.^.^.^.^.^.^.^.^.^.^.^.^.^.^.^.^.^.^.^.^.^.^.^.^.^.^.^.^.^.^.^.^.^.^.^.^.^.^.^.^.^.^.^.^.^.^.^.^.^.^.^.^.^.^.^.^.^.^.^.^.^.^.^.^.^.^.^.^.^.^.^.^.^.^.^.^.^.^.^.^.^.^.^.^.^.^.^.^.^.^.^.^.^.^.^.^.^.^.^.^.^.^.^.^.^.^.^.^.^.^.^.^.^.^.^.^.^.^.^.^.^.^.^.^.^.^.^.^.^.^.^.^.^.^.^.^.^.^.^.^.^.^.^.^.^.^.^.^.^.^.^.^.^.. o o @ # $ % * * * * > * * * * * > > 1 1 4 4 4 4 1 1 1 1 > * * * * * % % $ + + o o . ^.^.^.^.^.^.^.^.^.^.^.^.^.^.^.^.^.^.^.^.^.^.^.^.^.^.^.^.^.^.^.^.^.^.^.^.^.^.^.^.^.^.^.^.^.^.^.^.^.^.^.^.^.^.^.^.^.^.^.^.^.^.^.^.^.^.^.^.^.^.^.^.^.^.^.^.^.^.^.^.^.^.^.^.^.^.^.^.^.^.^.^.^.^.^.^.^.^.^.^.^.^.^.^.^.^.^.^.^.^.^.^.^.^.^.^.^.^.^.^.^.^.^.^.^.^.^.^.^.^.^.^.^.^.^.^.^.^.^.^.^.^.^.^.^.^.^.^.^.^.^.^.^.^.^.^.^.^.^.^.^.^.^.^.^.^.^.^.^.^.^.^.^.^.^.^.^.^.^.^.^.^.^.^.^.^.^.^.^.^.^.^.^.^.^.^.^.^.^.^.^.^.^.^.^.^.^.^.^.^.^.^.^.^.^.^.^.^.^.^.^.^.^.^.^.^.^.^.^.^.^.^.^.^.^.^.^.^.",
"^.^.^.^.^.^.^.^.^.^.^.^.^.^.^.^.^.^.^.^.^.^.^.^.^.^.^.^.^.^.^.^.^.^.^.^.^.^.^.^.^.^.^.^.^.^.^.^.^.^.^.^.^.^.^.^.^.^.^.^.^.^.^.^.^.^.^.^.^.^.^.^.^.^.^.^.^.^.^.^.^.^.^.^.^.^.^.^.^.^.^.^.^.^.^.^.^.^.^.^.^.^.^.^.^.^.^.^.^.^.^.^.^.^.^.^.^.^.^.^.^.^.^.^.^.^.^.^.^.^.^.^.^.^.^.^.^.^.^.^.^.^.^.^.^.^.^.^.^.^.^.^.^.^.^.^.^.^.^.^.^.^.^.^.^.^.^.^.^.^.^.^.^.^.^.^.^.^.^.^.^.^.^.^.^.^.^.^.^.^.^.^.^.^.^.^.^.^.^.^.^.^.^.^.^.^.^.^.^.^.^.^.^.^.^.^.^.^.^.^.^.^.^.^.^.^.^.^.^.^.^.^.^.^.^.^.^.^.^.^.^.^.^.^.^.^.^.^.^.^.^.^.^.^.^.^.^.^.^.^.^.^.^.^.^.^.^.^.^.^.^.^.^.^.^.^.^.^.^.^.^.^.^.^.^.^.^.^.^.^.^.^.^.^.^.^.^.^.^.^.^.^.^.^.^.^.^.^.^.^.^.^.^.^.^.^.^.^.^.^.^.^.^.^.^.^.^.^.^.^.^.^.^.^.^.^.^.^.^.^.^.^.^.^.^.^.^.^.^.^.^.^.^.^.o o @ @ # # % % * * * * * * * * * * > > > 1 1 > > > > * * * * * % % $ # @ o o o . ^.^.^.^.^.^.^.^.^.^.^.^.^.^.^.^.^.^.^.^.^.^.^.^.^.^.^.^.^.^.^.^.^.^.^.^.^.^.^.^.^.^.^.^.^.^.^.^.^.^.^.^.^.^.^.^.^.^.^.^.^.^.^.^.^.^.^.^.^.^.^.^.^.^.^.^.^.^.^.^.^.^.^.^.^.^.^.^.^.^.^.^.^.^.^.^.^.^.^.^.^.^.^.^.^.^.^.^.^.^.^.^.^.^.^.^.^.^.^.^.^.^.^.^.^.^.^.^.^.^.^.^.^.^.^.^.^.^.^.^.^.^.^.^.^.^.^.^.^.^.^.^.^.^.^.^.^.^.^.^.^.^.^.^.^.^.^.^.^.^.^.^.^.^.^.^.^.^.^.^.^.^.^.^.^.^.^.^.^.^.^.^.^.^.^.^.^.^.^.^.^.^.^.^.^.^.^.^.^.^.^.^.^.^.^.^.^.^.^.^.^.^.^.^.^.^.^.^.^.^.^.^.^.^.^.^.^.^.^.",
"^.^.^.^.^.^.^.^.^.^.^.^.^.^.^.^.^.^.^.^.^.^.^.^.^.^.^.^.^.^.^.^.^.^.^.^.^.^.^.^.^.^.^.^.^.^.^.^.^.^.^.^.^.^.^.^.^.^.^.^.^.^.^.^.^.^.^.^.^.^.^.^.^.^.^.^.^.^.^.^.^.^.^.^.^.^.^.^.^.^.^.^.^.^.^.^.^.^.^.^.^.^.^.^.^.^.^.^.^.^.^.^.^.^.^.^.^.^.^.^.^.^.^.^.^.^.^.^.^.^.^.^.^.^.^.^.^.^.^.^.^.^.^.^.^.^.^.^.^.^.^.^.^.^.^.^.^.^.^.^.^.^.^.^.^.^.^.^.^.^.^.^.^.^.^.^.^.^.^.^.^.^.^.^.^.^.^.^.^.^.^.^.^.^.^.^.^.^.^.^.^.^.^.^.^.^.^.^.^.^.^.^.^.^.^.^.^.^.^.^.^.^.^.^.^.^.^.^.^.^.^.^.^.^.^.^.^.^.^.^.^.^.^.^.^.^.^.^.^.^.^.^.^.^.^.^.^.^.^.^.^.^.^.^.^.^.^.^.^.^.^.^.^.^.^.^.^.^.^.^.^.^.^.^.^.^.^.^.^.^.^.^.^.^.^.^.^.^.^.^.^.^.^.^.^.^.^.^.^.^.^.^.^.^.^.^.^.^.^.^.^.^.^.^.^.^.^.^.^.^.^.^.^.^.^.^.^.^.^.^.^.^.^.^.^.^.^.^.^.^.^.^.^.^.^.. o o o + # $ % % % % % % % % % * * * * > * * * * * * % % % % % # # o o o . ^.^.^.^.^.^.^.^.^.^.^.^.^.^.^.^.^.^.^.^.^.^.^.^.^.^.^.^.^.^.^.^.^.^.^.^.^.^.^.^.^.^.^.^.^.^.^.^.^.^.^.^.^.^.^.^.^.^.^.^.^.^.^.^.^.^.^.^.^.^.^.^.^.^.^.^.^.^.^.^.^.^.^.^.^.^.^.^.^.^.^.^.^.^.^.^.^.^.^.^.^.^.^.^.^.^.^.^.^.^.^.^.^.^.^.^.^.^.^.^.^.^.^.^.^.^.^.^.^.^.^.^.^.^.^.^.^.^.^.^.^.^.^.^.^.^.^.^.^.^.^.^.^.^.^.^.^.^.^.^.^.^.^.^.^.^.^.^.^.^.^.^.^.^.^.^.^.^.^.^.^.^.^.^.^.^.^.^.^.^.^.^.^.^.^.^.^.^.^.^.^.^.^.^.^.^.^.^.^.^.^.^.^.^.^.^.^.^.^.^.^.^.^.^.^.^.^.^.^.^.^.^.^.^.^.^.^.^.^.^.^.",
"^.^.^.^.^.^.^.^.^.^.^.^.^.^.^.^.^.^.^.^.^.^.^.^.^.^.^.^.^.^.^.^.^.^.^.^.^.^.^.^.^.^.^.^.^.^.^.^.^.^.^.^.^.^.^.^.^.^.^.^.^.^.^.^.^.^.^.^.^.^.^.^.^.^.^.^.^.^.^.^.^.^.^.^.^.^.^.^.^.^.^.^.^.^.^.^.^.^.^.^.^.^.^.^.^.^.^.^.^.^.^.^.^.^.^.^.^.^.^.^.^.^.^.^.^.^.^.^.^.^.^.^.^.^.^.^.^.^.^.^.^.^.^.^.^.^.^.^.^.^.^.^.^.^.^.^.^.^.^.^.^.^.^.^.^.^.^.^.^.^.^.^.^.^.^.^.^.^.^.^.^.^.^.^.^.^.^.^.^.^.^.^.^.^.^.^.^.^.^.^.^.^.^.^.^.^.^.^.^.^.^.^.^.^.^.^.^.^.^.^.^.^.^.^.^.^.^.^.^.^.^.^.^.^.^.^.^.^.^.^.^.^.^.^.^.^.^.^.^.^.^.^.^.^.^.^.^.^.^.^.^.^.^.^.^.^.^.^.^.^.^.^.^.^.^.^.^.^.^.^.^.^.^.^.^.^.^.^.^.^.^.^.^.^.^.^.^.^.^.^.^.^.^.^.^.^.^.^.^.^.^.^.^.^.^.^.^.^.^.^.^.^.^.^.^.^.^.^.^.^.^.^.^.^.^.^.^.^.^.^.^.^.^.^.^.^.^.^.^.^.^.^.^.^.^.^.. o o o @ + # $ # $ # # $ # # $ % % % * * * * % % $ $ $ # # + o o . . ^.^.^.^.^.^.^.^.^.^.^.^.^.^.^.^.^.^.^.^.^.^.^.^.^.^.^.^.^.^.^.^.^.^.^.^.^.^.^.^.^.^.^.^.^.^.^.^.^.^.^.^.^.^.^.^.^.^.^.^.^.^.^.^.^.^.^.^.^.^.^.^.^.^.^.^.^.^.^.^.^.^.^.^.^.^.^.^.^.^.^.^.^.^.^.^.^.^.^.^.^.^.^.^.^.^.^.^.^.^.^.^.^.^.^.^.^.^.^.^.^.^.^.^.^.^.^.^.^.^.^.^.^.^.^.^.^.^.^.^.^.^.^.^.^.^.^.^.^.^.^.^.^.^.^.^.^.^.^.^.^.^.^.^.^.^.^.^.^.^.^.^.^.^.^.^.^.^.^.^.^.^.^.^.^.^.^.^.^.^.^.^.^.^.^.^.^.^.^.^.^.^.^.^.^.^.^.^.^.^.^.^.^.^.^.^.^.^.^.^.^.^.^.^.^.^.^.^.^.^.^.^.^.^.^.^.^.^.^.^.^.^.^.",
"^.^.^.^.^.^.^.^.^.^.^.^.^.^.^.^.^.^.^.^.^.^.^.^.^.^.^.^.^.^.^.^.^.^.^.^.^.^.^.^.^.^.^.^.^.^.^.^.^.^.^.^.^.^.^.^.^.^.^.^.^.^.^.^.^.^.^.^.^.^.^.^.^.^.^.^.^.^.^.^.^.^.^.^.^.^.^.^.^.^.^.^.^.^.^.^.^.^.^.^.^.^.^.^.^.^.^.^.^.^.^.^.^.^.^.^.^.^.^.^.^.^.^.^.^.^.^.^.^.^.^.^.^.^.^.^.^.^.^.^.^.^.^.^.^.^.^.^.^.^.^.^.^.^.^.^.^.^.^.^.^.^.^.^.^.^.^.^.^.^.^.^.^.^.^.^.^.^.^.^.^.^.^.^.^.^.^.^.^.^.^.^.^.^.^.^.^.^.^.^.^.^.^.^.^.^.^.^.^.^.^.^.^.^.^.^.^.^.^.^.^.^.^.^.^.^.^.^.^.^.^.^.^.^.^.^.^.^.^.^.^.^.^.^.^.^.^.^.^.^.^.^.^.^.^.^.^.^.^.^.^.^.^.^.^.^.^.^.^.^.^.^.^.^.^.^.^.^.^.^.^.^.^.^.^.^.^.^.^.^.^.^.^.^.^.^.^.^.^.^.^.^.^.^.^.^.^.^.^.^.^.^.^.^.^.^.^.^.^.^.^.^.^.^.^.^.^.^.^.^.^.^.^.^.^.^.^.^.^.^.^.^.^.^.^.^.^.^.^.^.^.^.^.^.^.^.^.^.. . o o @ @ @ + + @ @ @ @ @ @ + # # % $ # + + @ o o o o o . ^.^.^.^.^.^.^.^.^.^.^.^.^.^.^.^.^.^.^.^.^.^.^.^.^.^.^.^.^.^.^.^.^.^.^.^.^.^.^.^.^.^.^.^.^.^.^.^.^.^.^.^.^.^.^.^.^.^.^.^.^.^.^.^.^.^.^.^.^.^.^.^.^.^.^.^.^.^.^.^.^.^.^.^.^.^.^.^.^.^.^.^.^.^.^.^.^.^.^.^.^.^.^.^.^.^.^.^.^.^.^.^.^.^.^.^.^.^.^.^.^.^.^.^.^.^.^.^.^.^.^.^.^.^.^.^.^.^.^.^.^.^.^.^.^.^.^.^.^.^.^.^.^.^.^.^.^.^.^.^.^.^.^.^.^.^.^.^.^.^.^.^.^.^.^.^.^.^.^.^.^.^.^.^.^.^.^.^.^.^.^.^.^.^.^.^.^.^.^.^.^.^.^.^.^.^.^.^.^.^.^.^.^.^.^.^.^.^.^.^.^.^.^.^.^.^.^.^.^.^.^.^.^.^.^.^.^.^.^.^.^.^.^.^.^.^.",
"^.^.^.^.^.^.^.^.^.^.^.^.^.^.^.^.^.^.^.^.^.^.^.^.^.^.^.^.^.^.^.^.^.^.^.^.^.^.^.^.^.^.^.^.^.^.^.^.^.^.^.^.^.^.^.^.^.^.^.^.^.^.^.^.^.^.^.^.^.^.^.^.^.^.^.^.^.^.^.^.^.^.^.^.^.^.^.^.^.^.^.^.^.^.^.^.^.^.^.^.^.^.^.^.^.^.^.^.^.^.^.^.^.^.^.^.^.^.^.^.^.^.^.^.^.^.^.^.^.^.^.^.^.^.^.^.^.^.^.^.^.^.^.^.^.^.^.^.^.^.^.^.^.^.^.^.^.^.^.^.^.^.^.^.^.^.^.^.^.^.^.^.^.^.^.^.^.^.^.^.^.^.^.^.^.^.^.^.^.^.^.^.^.^.^.^.^.^.^.^.^.^.^.^.^.^.^.^.^.^.^.^.^.^.^.^.^.^.^.^.^.^.^.^.^.^.^.^.^.^.^.^.^.^.^.^.^.^.^.^.^.^.^.^.^.^.^.^.^.^.^.^.^.^.^.^.^.^.^.^.^.^.^.^.^.^.^.^.^.^.^.^.^.^.^.^.^.^.^.^.^.^.^.^.^.^.^.^.^.^.^.^.^.^.^.^.^.^.^.^.^.^.^.^.^.^.^.^.^.^.^.^.^.^.^.^.^.^.^.^.^.^.^.^.^.^.^.^.^.^.^.^.^.^.^.^.^.^.^.^.^.^.^.^.^.^.^.^.^.^.^.^.^.^.^.^.^.^.^.^.^.o o o o o o o o o o o o o o o o o o o o . . . ^.^.^.^.^.^.^.^.^.^.^.^.^.^.^.^.^.^.^.^.^.^.^.^.^.^.^.^.^.^.^.^.^.^.^.^.^.^.^.^.^.^.^.^.^.^.^.^.^.^.^.^.^.^.^.^.^.^.^.^.^.^.^.^.^.^.^.^.^.^.^.^.^.^.^.^.^.^.^.^.^.^.^.^.^.^.^.^.^.^.^.^.^.^.^.^.^.^.^.^.^.^.^.^.^.^.^.^.^.^.^.^.^.^.^.^.^.^.^.^.^.^.^.^.^.^.^.^.^.^.^.^.^.^.^.^.^.^.^.^.^.^.^.^.^.^.^.^.^.^.^.^.^.^.^.^.^.^.^.^.^.^.^.^.^.^.^.^.^.^.^.^.^.^.^.^.^.^.^.^.^.^.^.^.^.^.^.^.^.^.^.^.^.^.^.^.^.^.^.^.^.^.^.^.^.^.^.^.^.^.^.^.^.^.^.^.^.^.^.^.^.^.^.^.^.^.^.^.^.^.^.^.^.^.^.^.^.^.^.^.^.^.^.^.^.^.^.^.^.^.",
"^.^.^.^.^.^.^.^.^.^.^.^.^.^.^.^.^.^.^.^.^.^.^.^.^.^.^.^.^.^.^.^.^.^.^.^.^.^.^.^.^.^.^.^.^.^.^.^.^.^.^.^.^.^.^.^.^.^.^.^.^.^.^.^.^.^.^.^.^.^.^.^.^.^.^.^.^.^.^.^.^.^.^.^.^.^.^.^.^.^.^.^.^.^.^.^.^.^.^.^.^.^.^.^.^.^.^.^.^.^.^.^.^.^.^.^.^.^.^.^.^.^.^.^.^.^.^.^.^.^.^.^.^.^.^.^.^.^.^.^.^.^.^.^.^.^.^.^.^.^.^.^.^.^.^.^.^.^.^.^.^.^.^.^.^.^.^.^.^.^.^.^.^.^.^.^.^.^.^.^.^.^.^.^.^.^.^.^.^.^.^.^.^.^.^.^.^.^.^.^.^.^.^.^.^.^.^.^.^.^.^.^.^.^.^.^.^.^.^.^.^.^.^.^.^.^.^.^.^.^.^.^.^.^.^.^.^.^.^.^.^.^.^.^.^.^.^.^.^.^.^.^.^.^.^.^.^.^.^.^.^.^.^.^.^.^.^.^.^.^.^.^.^.^.^.^.^.^.^.^.^.^.^.^.^.^.^.^.^.^.^.^.^.^.^.^.^.^.^.^.^.^.^.^.^.^.^.^.^.^.^.^.^.^.^.^.^.^.^.^.^.^.^.^.^.^.^.^.^.^.^.^.^.^.^.^.^.^.^.^.^.^.^.^.^.^.^.^.^.^.^.^.^.^.^.^.^.^.^.^.^.^.^.. . . . . ^.. . . ^.. ^.^.^.^.^.^.^.^.^.^.^.^.^.^.^.^.^.^.^.^.^.^.^.^.^.^.^.^.^.^.^.^.^.^.^.^.^.^.^.^.^.^.^.^.^.^.^.^.^.^.^.^.^.^.^.^.^.^.^.^.^.^.^.^.^.^.^.^.^.^.^.^.^.^.^.^.^.^.^.^.^.^.^.^.^.^.^.^.^.^.^.^.^.^.^.^.^.^.^.^.^.^.^.^.^.^.^.^.^.^.^.^.^.^.^.^.^.^.^.^.^.^.^.^.^.^.^.^.^.^.^.^.^.^.^.^.^.^.^.^.^.^.^.^.^.^.^.^.^.^.^.^.^.^.^.^.^.^.^.^.^.^.^.^.^.^.^.^.^.^.^.^.^.^.^.^.^.^.^.^.^.^.^.^.^.^.^.^.^.^.^.^.^.^.^.^.^.^.^.^.^.^.^.^.^.^.^.^.^.^.^.^.^.^.^.^.^.^.^.^.^.^.^.^.^.^.^.^.^.^.^.^.^.^.^.^.^.^.^.^.^.^.^.^.^.^.^.^.^.^.^.^.^.^.^.^.^.^.^.^.",
"^.^.^.^.^.^.^.^.^.^.^.^.^.^.^.^.^.^.^.^.^.^.^.^.^.^.^.^.^.^.^.^.^.^.^.^.^.^.^.^.^.^.^.^.^.^.^.^.^.^.^.^.^.^.^.^.^.^.^.^.^.^.^.^.^.^.^.^.^.^.^.^.^.^.^.^.^.^.^.^.^.^.^.^.^.^.^.^.^.^.^.^.^.^.^.^.^.^.^.^.^.^.^.^.^.^.^.^.^.^.^.^.^.^.^.^.^.^.^.^.^.^.^.^.^.^.^.^.^.^.^.^.^.^.^.^.^.^.^.^.^.^.^.^.^.^.^.^.^.^.^.^.^.^.^.^.^.^.^.^.^.^.^.^.^.^.^.^.^.^.^.^.^.^.^.^.^.^.^.^.^.^.^.^.^.^.^.^.^.^.^.^.^.^.^.^.^.^.^.^.^.^.^.^.^.^.^.^.^.^.^.^.^.^.^.^.^.^.^.^.^.^.^.^.^.^.^.^.^.^.^.^.^.^.^.^.^.^.^.^.^.^.^.^.^.^.^.^.^.^.^.^.^.^.^.^.^.^.^.^.^.^.^.^.^.^.^.^.^.^.^.^.^.^.^.^.^.^.^.^.^.^.^.^.^.^.^.^.^.^.^.^.^.^.^.^.^.^.^.^.^.^.^.^.^.^.^.^.^.^.^.^.^.^.^.^.^.^.^.^.^.^.^.^.^.^.^.^.^.^.^.^.^.^.^.^.^.^.^.^.^.^.^.^.^.^.^.^.^.^.^.^.^.^.^.^.^.^.^.^.^.^.^.^.^.^.^.^.^.^.^.^.^.^.^.^.^.^.^.^.^.^.^.^.^.^.^.^.^.^.^.^.^.^.^.^.^.^.^.^.^.^.^.^.^.^.^.^.^.^.^.^.^.^.^.^.^.^.^.^.^.^.^.^.^.^.^.^.^.^.^.^.^.^.^.^.^.^.^.^.^.^.^.^.^.^.^.^.^.^.^.^.^.^.^.^.^.^.^.^.^.^.^.^.^.^.^.^.^.^.^.^.^.^.^.^.^.^.^.^.^.^.^.^.^.^.^.^.^.^.^.^.^.^.^.^.^.^.^.^.^.^.^.^.^.^.^.^.^.^.^.^.^.^.^.^.^.^.^.^.^.^.^.^.^.^.^.^.^.^.^.^.^.^.^.^.^.^.^.^.^.^.^.^.^.^.^.^.^.^.^.^.^.^.^.^.^.^.^.^.^.^.^.^.^.^.^.^.^.^.^.^.^.^.^.^.^.^.^.^.^.^.^.^.^.^.^.^.^.^.^.^.^.^.^.^.^.^.^.^.^.^.^.^.^.^.^.^.^.^.^.^.^.^.^.^.^.^.^.^.^.^.^.^.^.^.^.^.^.^.^.^.^.^.",
"^.^.^.^.^.^.^.^.^.^.^.^.^.^.^.^.^.^.^.^.^.^.^.^.^.^.^.^.^.^.^.^.^.^.^.^.^.^.^.^.^.^.^.^.^.^.^.^.^.^.^.^.^.^.^.^.^.^.^.^.^.^.^.^.^.^.^.^.^.^.^.^.^.^.^.^.^.^.^.^.^.^.^.^.^.^.^.^.^.^.^.^.^.^.^.^.^.^.^.^.^.^.^.^.^.^.^.^.^.^.^.^.^.^.^.^.^.^.^.^.^.^.^.^.^.^.^.^.^.^.^.^.^.^.^.^.^.^.^.^.^.^.^.^.^.^.^.^.^.^.^.^.^.^.^.^.^.^.^.^.^.^.^.^.^.^.^.^.^.^.^.^.^.^.^.^.^.^.^.^.^.^.^.^.^.^.^.^.^.^.^.^.^.^.^.^.^.^.^.^.^.^.^.^.^.^.^.^.^.^.^.^.^.^.^.^.^.^.^.^.^.^.^.^.^.^.^.^.^.^.^.^.^.^.^.^.^.^.^.^.^.^.^.^.^.^.^.^.^.^.^.^.^.^.^.^.^.^.^.^.^.^.^.^.^.^.^.^.^.^.^.^.^.^.^.^.^.^.^.^.^.^.^.^.^.^.^.^.^.^.^.^.^.^.^.^.^.^.^.^.^.^.^.^.^.^.^.^.^.^.^.^.^.^.^.^.^.^.^.^.^.^.^.^.^.^.^.^.^.^.^.^.^.^.^.^.^.^.^.^.^.^.^.^.^.^.^.^.^.^.^.^.^.^.^.^.^.^.^.^.^.^.^.^.^.^.^.^.^.^.^.^.^.^.^.^.^.^.^.^.^.^.^.^.^.^.^.^.^.^.^.^.^.^.^.^.^.^.^.^.^.^.^.^.^.^.^.^.^.^.^.^.^.^.^.^.^.^.^.^.^.^.^.^.^.^.^.^.^.^.^.^.^.^.^.^.^.^.^.^.^.^.^.^.^.^.^.^.^.^.^.^.^.^.^.^.^.^.^.^.^.^.^.^.^.^.^.^.^.^.^.^.^.^.^.^.^.^.^.^.^.^.^.^.^.^.^.^.^.^.^.^.^.^.^.^.^.^.^.^.^.^.^.^.^.^.^.^.^.^.^.^.^.^.^.^.^.^.^.^.^.^.^.^.^.^.^.^.^.^.^.^.^.^.^.^.^.^.^.^.^.^.^.^.^.^.^.^.^.^.^.^.^.^.^.^.^.^.^.^.^.^.^.^.^.^.^.^.^.^.^.^.^.^.^.^.^.^.^.^.^.^.^.^.^.^.^.^.^.^.^.^.^.^.^.^.^.^.^.^.^.^.^.^.^.^.^.^.^.^.^.^.^.^.^.^.^.^.^.^.^.^.^.^.^.^.^.^.^.^.^.^.^.^.",
"^.^.^.^.^.^.^.^.^.^.^.^.^.^.^.^.^.^.^.^.^.^.^.^.^.^.^.^.^.^.^.^.^.^.^.^.^.^.^.^.^.^.^.^.^.^.^.^.^.^.^.^.^.^.^.^.^.^.^.^.^.^.^.^.^.^.^.^.^.^.^.^.^.^.^.^.^.^.^.^.^.^.^.^.^.^.^.^.^.^.^.^.^.^.^.^.^.^.^.^.^.^.^.^.^.^.^.^.^.^.^.^.^.^.^.^.^.^.^.^.^.^.^.^.^.^.^.^.^.^.^.^.^.^.^.^.^.^.^.^.^.^.^.^.^.^.^.^.^.^.^.^.^.^.^.^.^.^.^.^.^.^.^.^.^.^.^.^.^.^.^.^.^.^.^.^.^.^.^.^.^.^.^.^.^.^.^.^.^.^.^.^.^.^.^.^.^.^.^.^.^.^.^.^.^.^.^.^.^.^.^.^.^.^.^.^.^.^.^.^.^.^.^.^.^.^.^.^.^.^.^.^.^.^.^.^.^.^.^.^.^.^.^.^.^.^.^.^.^.^.^.^.^.^.^.^.^.^.^.^.^.^.^.^.^.^.^.^.^.^.^.^.^.^.^.^.^.^.^.^.^.^.^.^.^.^.^.^.^.^.^.^.^.^.^.^.^.^.^.^.^.^.^.^.^.^.^.^.^.^.^.^.^.^.^.^.^.^.^.^.^.^.^.^.^.^.^.^.^.^.^.^.^.^.^.^.^.^.^.^.^.^.^.^.^.^.^.^.^.^.^.^.^.^.^.^.^.^.^.^.^.^.^.^.^.^.^.^.^.^.^.^.^.^.^.^.^.^.^.^.^.^.^.^.^.^.^.^.^.^.^.^.^.^.^.^.^.^.^.^.^.^.^.^.^.^.^.^.^.^.^.^.^.^.^.^.^.^.^.^.^.^.^.^.^.^.^.^.^.^.^.^.^.^.^.^.^.^.^.^.^.^.^.^.^.^.^.^.^.^.^.^.^.^.^.^.^.^.^.^.^.^.^.^.^.^.^.^.^.^.^.^.^.^.^.^.^.^.^.^.^.^.^.^.^.^.^.^.^.^.^.^.^.^.^.^.^.^.^.^.^.^.^.^.^.^.^.^.^.^.^.^.^.^.^.^.^.^.^.^.^.^.^.^.^.^.^.^.^.^.^.^.^.^.^.^.^.^.^.^.^.^.^.^.^.^.^.^.^.^.^.^.^.^.^.^.^.^.^.^.^.^.^.^.^.^.^.^.^.^.^.^.^.^.^.^.^.^.^.^.^.^.^.^.^.^.^.^.^.^.^.^.^.^.^.^.^.^.^.^.^.^.^.^.^.^.^.^.^.^.^.^.^.^.^.^.^.^.^.^.^.^.^.^.^.^.^.^.^.^.^.^.^.^.",
"^.^.^.^.^.^.^.^.^.^.^.^.^.^.^.^.^.^.^.^.^.^.^.^.^.^.^.^.^.^.^.^.^.^.^.^.^.^.^.^.^.^.^.^.^.^.^.^.^.^.^.^.^.^.^.^.^.^.^.^.^.^.^.^.^.^.^.^.^.^.^.^.^.^.^.^.^.^.^.^.^.^.^.^.^.^.^.^.^.^.^.^.^.^.^.^.^.^.^.^.^.^.^.^.^.^.^.^.^.^.^.^.^.^.^.^.^.^.^.^.^.^.^.^.^.^.^.^.^.^.^.^.^.^.^.^.^.^.^.^.^.^.^.^.^.^.^.^.^.^.^.^.^.^.^.^.^.^.^.^.^.^.^.^.^.^.^.^.^.^.^.^.^.^.^.^.^.^.^.^.^.^.^.^.^.^.^.^.^.^.^.^.^.^.^.^.^.^.^.^.^.^.^.^.^.^.^.^.^.^.^.^.^.^.^.^.^.^.^.^.^.^.^.^.^.^.^.^.^.^.^.^.^.^.^.^.^.^.^.^.^.^.^.^.^.^.^.^.^.^.^.^.^.^.^.^.^.^.^.^.^.^.^.^.^.^.^.^.^.^.^.^.^.^.^.^.^.^.^.^.^.^.^.^.^.^.^.^.^.^.^.^.^.^.^.^.^.^.^.^.^.^.^.^.^.^.^.^.^.^.^.^.^.^.^.^.^.^.^.^.^.^.^.^.^.^.^.^.^.^.^.^.^.^.^.^.^.^.^.^.^.^.^.^.^.^.^.^.^.^.^.^.^.^.^.^.^.^.^.^.^.^.^.^.^.^.^.^.^.^.^.^.^.^.^.^.^.^.^.^.^.^.^.^.^.^.^.^.^.^.^.^.^.^.^.^.^.^.^.^.^.^.^.^.^.^.^.^.^.^.^.^.^.^.^.^.^.^.^.^.^.^.^.^.^.^.^.^.^.^.^.^.^.^.^.^.^.^.^.^.^.^.^.^.^.^.^.^.^.^.^.^.^.^.^.^.^.^.^.^.^.^.^.^.^.^.^.^.^.^.^.^.^.^.^.^.^.^.^.^.^.^.^.^.^.^.^.^.^.^.^.^.^.^.^.^.^.^.^.^.^.^.^.^.^.^.^.^.^.^.^.^.^.^.^.^.^.^.^.^.^.^.^.^.^.^.^.^.^.^.^.^.^.^.^.^.^.^.^.^.^.^.^.^.^.^.^.^.^.^.^.^.^.^.^.^.^.^.^.^.^.^.^.^.^.^.^.^.^.^.^.^.^.^.^.^.^.^.^.^.^.^.^.^.^.^.^.^.^.^.^.^.^.^.^.^.^.^.^.^.^.^.^.^.^.^.^.^.^.^.^.^.^.^.^.^.^.^.^.^.^.^.^.^.^.^.^.^.^.^.^.^.^.^.",
"^.^.^.^.^.^.^.^.^.^.^.^.^.^.^.^.^.^.^.^.^.^.^.^.^.^.^.^.^.^.^.^.^.^.^.^.^.^.^.^.^.^.^.^.^.^.^.^.^.^.^.^.^.^.^.^.^.^.^.^.^.^.^.^.^.^.^.^.^.^.^.^.^.^.^.^.^.^.^.^.^.^.^.^.^.^.^.^.^.^.^.^.^.^.^.^.^.^.^.^.^.^.^.^.^.^.^.^.^.^.^.^.^.^.^.^.^.^.^.^.^.^.^.^.^.^.^.^.^.^.^.^.^.^.^.^.^.^.^.^.^.^.^.^.^.^.^.^.^.^.^.^.^.^.^.^.^.^.^.^.^.^.^.^.^.^.^.^.^.^.^.^.^.^.^.^.^.^.^.^.^.^.^.^.^.^.^.^.^.^.^.^.^.^.^.^.^.^.^.^.^.^.^.^.^.^.^.^.^.^.^.^.^.^.^.^.^.^.^.^.^.^.^.^.^.^.^.^.^.^.^.^.^.^.^.^.^.^.^.^.^.^.^.^.^.^.^.^.^.^.^.^.^.^.^.^.^.^.^.^.^.^.^.^.^.^.^.^.^.^.^.^.^.^.^.^.^.^.^.^.^.^.^.^.^.^.^.^.^.^.^.^.^.^.^.^.^.^.^.^.^.^.^.^.^.^.^.^.^.^.^.^.^.^.^.^.^.^.^.^.^.^.^.^.^.^.^.^.^.^.^.^.^.^.^.^.^.^.^.^.^.^.^.^.^.^.^.^.^.^.^.^.^.^.^.^.^.^.^.^.^.^.^.^.^.^.^.^.^.^.^.^.^.^.^.^.^.^.^.^.^.^.^.^.^.^.^.^.^.^.^.^.^.^.^.^.^.^.^.^.^.^.^.^.^.^.^.^.^.^.^.^.^.^.^.^.^.^.^.^.^.^.^.^.^.^.^.^.^.^.^.^.^.^.^.^.^.^.^.^.^.^.^.^.^.^.^.^.^.^.^.^.^.^.^.^.^.^.^.^.^.^.^.^.^.^.^.^.^.^.^.^.^.^.^.^.^.^.^.^.^.^.^.^.^.^.^.^.^.^.^.^.^.^.^.^.^.^.^.^.^.^.^.^.^.^.^.^.^.^.^.^.^.^.^.^.^.^.^.^.^.^.^.^.^.^.^.^.^.^.^.^.^.^.^.^.^.^.^.^.^.^.^.^.^.^.^.^.^.^.^.^.^.^.^.^.^.^.^.^.^.^.^.^.^.^.^.^.^.^.^.^.^.^.^.^.^.^.^.^.^.^.^.^.^.^.^.^.^.^.^.^.^.^.^.^.^.^.^.^.^.^.^.^.^.^.^.^.^.^.^.^.^.^.^.^.^.^.^.^.^.^.^.^.^.^.^.^.^.^.^.^.^.^.",
"^.^.^.^.^.^.^.^.^.^.^.^.^.^.^.^.^.^.^.^.^.^.^.^.^.^.^.^.^.^.^.^.^.^.^.^.^.^.^.^.^.^.^.^.^.^.^.^.^.^.^.^.^.^.^.^.^.^.^.^.^.^.^.^.^.^.^.^.^.^.^.^.^.^.^.^.^.^.^.^.^.^.^.^.^.^.^.^.^.^.^.^.^.^.^.^.^.^.^.^.^.^.^.^.^.^.^.^.^.^.^.^.^.^.^.^.^.^.^.^.^.^.^.^.^.^.^.^.^.^.^.^.^.^.^.^.^.^.^.^.^.^.^.^.^.^.^.^.^.^.^.^.^.^.^.^.^.^.^.^.^.^.^.^.^.^.^.^.^.^.^.^.^.^.^.^.^.^.^.^.^.^.^.^.^.^.^.^.^.^.^.^.^.^.^.^.^.^.^.^.^.^.^.^.^.^.^.^.^.^.^.^.^.^.^.^.^.^.^.^.^.^.^.^.^.^.^.^.^.^.^.^.^.^.^.^.^.^.^.^.^.^.^.^.^.^.^.^.^.^.^.^.^.^.^.^.^.^.^.^.^.^.^.^.^.^.^.^.^.^.^.^.^.^.^.^.^.^.^.^.^.^.^.^.^.^.^.^.^.^.^.^.^.^.^.^.^.^.^.^.^.^.^.^.^.^.^.^.^.^.^.^.^.^.^.^.^.^.^.^.^.^.^.^.^.^.^.^.^.^.^.^.^.^.^.^.^.^.^.^.^.^.^.^.^.^.^.^.^.^.^.^.^.^.^.^.^.^.^.^.^.^.^.^.^.^.^.^.^.^.^.^.^.^.^.^.^.^.^.^.^.^.^.^.^.^.^.^.^.^.^.^.^.^.^.^.^.^.^.^.^.^.^.^.^.^.^.^.^.^.^.^.^.^.^.^.^.^.^.^.^.^.^.^.^.^.^.^.^.^.^.^.^.^.^.^.^.^.^.^.^.^.^.^.^.^.^.^.^.^.^.^.^.^.^.^.^.^.^.^.^.^.^.^.^.^.^.^.^.^.^.^.^.^.^.^.^.^.^.^.^.^.^.^.^.^.^.^.^.^.^.^.^.^.^.^.^.^.^.^.^.^.^.^.^.^.^.^.^.^.^.^.^.^.^.^.^.^.^.^.^.^.^.^.^.^.^.^.^.^.^.^.^.^.^.^.^.^.^.^.^.^.^.^.^.^.^.^.^.^.^.^.^.^.^.^.^.^.^.^.^.^.^.^.^.^.^.^.^.^.^.^.^.^.^.^.^.^.^.^.^.^.^.^.^.^.^.^.^.^.^.^.^.^.^.^.^.^.^.^.^.^.^.^.^.^.^.^.^.^.^.^.^.^.^.^.^.^.^.^.^.^.^.^.^.^.^.^.^.^.^.^.^.^.",
"^.^.^.^.^.^.^.^.^.^.^.^.^.^.^.^.^.^.^.^.^.^.^.^.^.^.^.^.^.^.^.^.^.^.^.^.^.^.^.^.^.^.^.^.^.^.^.^.^.^.^.^.^.^.^.^.^.^.^.^.^.^.^.^.^.^.^.^.^.^.^.^.^.^.^.^.^.^.^.^.^.^.^.^.^.^.^.^.^.^.^.^.^.^.^.^.^.^.^.^.^.^.^.^.^.^.^.^.^.^.^.^.^.^.^.^.^.^.^.^.^.^.^.^.^.^.^.^.^.^.^.^.^.^.^.^.^.^.^.^.^.^.^.^.^.^.^.^.^.^.^.^.^.^.^.^.^.^.^.^.^.^.^.^.^.^.^.^.^.^.^.^.^.^.^.^.^.^.^.^.^.^.^.^.^.^.^.^.^.^.^.^.^.^.^.^.^.^.^.^.^.^.^.^.^.^.^.^.^.^.^.^.^.^.^.^.^.^.^.^.^.^.^.^.^.^.^.^.^.^.^.^.^.^.^.^.^.^.^.^.^.^.^.^.^.^.^.^.^.^.^.^.^.^.^.^.^.^.^.^.^.^.^.^.^.^.^.^.^.^.^.^.^.^.^.^.^.^.^.^.^.^.^.^.^.^.^.^.^.^.^.^.^.^.^.^.^.^.^.^.^.^.^.^.^.^.^.^.^.^.^.^.^.^.^.^.^.^.^.^.^.^.^.^.^.^.^.^.^.^.^.^.^.^.^.^.^.^.^.^.^.^.^.^.^.^.^.^.^.^.^.^.^.^.^.^.^.^.^.^.^.^.^.^.^.^.^.^.^.^.^.^.^.^.^.^.^.^.^.^.^.^.^.^.^.^.^.^.^.^.^.^.^.^.^.^.^.^.^.^.^.^.^.^.^.^.^.^.^.^.^.^.^.^.^.^.^.^.^.^.^.^.^.^.^.^.^.^.^.^.^.^.^.^.^.^.^.^.^.^.^.^.^.^.^.^.^.^.^.^.^.^.^.^.^.^.^.^.^.^.^.^.^.^.^.^.^.^.^.^.^.^.^.^.^.^.^.^.^.^.^.^.^.^.^.^.^.^.^.^.^.^.^.^.^.^.^.^.^.^.^.^.^.^.^.^.^.^.^.^.^.^.^.^.^.^.^.^.^.^.^.^.^.^.^.^.^.^.^.^.^.^.^.^.^.^.^.^.^.^.^.^.^.^.^.^.^.^.^.^.^.^.^.^.^.^.^.^.^.^.^.^.^.^.^.^.^.^.^.^.^.^.^.^.^.^.^.^.^.^.^.^.^.^.^.^.^.^.^.^.^.^.^.^.^.^.^.^.^.^.^.^.^.^.^.^.^.^.^.^.^.^.^.^.^.^.^.^.^.^.^.^.^.^.^.^.^.^.^.^.^.^.^.^.",
"^.^.^.^.^.^.^.^.^.^.^.^.^.^.^.^.^.^.^.^.^.^.^.^.^.^.^.^.^.^.^.^.^.^.^.^.^.^.^.^.^.^.^.^.^.^.^.^.^.^.^.^.^.^.^.^.^.^.^.^.^.^.^.^.^.^.^.^.^.^.^.^.^.^.^.^.^.^.^.^.^.^.^.^.^.^.^.^.^.^.^.^.^.^.^.^.^.^.^.^.^.^.^.^.^.^.^.^.^.^.^.^.^.^.^.^.^.^.^.^.^.^.^.^.^.^.^.^.^.^.^.^.^.^.^.^.^.^.^.^.^.^.^.^.^.^.^.^.^.^.^.^.^.^.^.^.^.^.^.^.^.^.^.^.^.^.^.^.^.^.^.^.^.^.^.^.^.^.^.^.^.^.^.^.^.^.^.^.^.^.^.^.^.^.^.^.^.^.^.^.^.^.^.^.^.^.^.^.^.^.^.^.^.^.^.^.^.^.^.^.^.^.^.^.^.^.^.^.^.^.^.^.^.^.^.^.^.^.^.^.^.^.^.^.^.^.^.^.^.^.^.^.^.^.^.^.^.^.^.^.^.^.^.^.^.^.^.^.^.^.^.^.^.^.^.^.^.^.^.^.^.^.^.^.^.^.^.^.^.^.^.^.^.^.^.^.^.^.^.^.^.^.^.^.^.^.^.^.^.^.^.^.^.^.^.^.^.^.^.^.^.^.^.^.^.^.^.^.^.^.^.^.^.^.^.^.^.^.^.^.^.^.^.^.^.^.^.^.^.^.^.^.^.^.^.^.^.^.^.^.^.^.^.^.^.^.^.^.^.^.^.^.^.^.^.^.^.^.^.^.^.^.^.^.^.^.^.^.^.^.^.^.^.^.^.^.^.^.^.^.^.^.^.^.^.^.^.^.^.^.^.^.^.^.^.^.^.^.^.^.^.^.^.^.^.^.^.^.^.^.^.^.^.^.^.^.^.^.^.^.^.^.^.^.^.^.^.^.^.^.^.^.^.^.^.^.^.^.^.^.^.^.^.^.^.^.^.^.^.^.^.^.^.^.^.^.^.^.^.^.^.^.^.^.^.^.^.^.^.^.^.^.^.^.^.^.^.^.^.^.^.^.^.^.^.^.^.^.^.^.^.^.^.^.^.^.^.^.^.^.^.^.^.^.^.^.^.^.^.^.^.^.^.^.^.^.^.^.^.^.^.^.^.^.^.^.^.^.^.^.^.^.^.^.^.^.^.^.^.^.^.^.^.^.^.^.^.^.^.^.^.^.^.^.^.^.^.^.^.^.^.^.^.^.^.^.^.^.^.^.^.^.^.^.^.^.^.^.^.^.^.^.^.^.^.^.^.^.^.^.^.^.^.^.^.^.^.^.^.^.^.^.^.^.^.^.^.^.^.^.^.^.^.^.",
"^.^.^.^.^.^.^.^.^.^.^.^.^.^.^.^.^.^.^.^.^.^.^.^.^.^.^.^.^.^.^.^.^.^.^.^.^.^.^.^.^.^.^.^.^.^.^.^.^.^.^.^.^.^.^.^.^.^.^.^.^.^.^.^.^.^.^.^.^.^.^.^.^.^.^.^.^.^.^.^.^.^.^.^.^.^.^.^.^.^.^.^.^.^.^.^.^.^.^.^.^.^.^.^.^.^.^.^.^.^.^.^.^.^.^.^.^.^.^.^.^.^.^.^.^.^.^.^.^.^.^.^.^.^.^.^.^.^.^.^.^.^.^.^.^.^.^.^.^.^.^.^.^.^.^.^.^.^.^.^.^.^.^.^.^.^.^.^.^.^.^.^.^.^.^.^.^.^.^.^.^.^.^.^.^.^.^.^.^.^.^.^.^.^.^.^.^.^.^.^.^.^.^.^.^.^.^.^.^.^.^.^.^.^.^.^.^.^.^.^.^.^.^.^.^.^.^.^.^.^.^.^.^.^.^.^.^.^.^.^.^.^.^.^.^.^.^.^.^.^.^.^.^.^.^.^.^.^.^.^.^.^.^.^.^.^.^.^.^.^.^.^.^.^.^.^.^.^.^.^.^.^.^.^.^.^.^.^.^.^.^.^.^.^.^.^.^.^.^.^.^.^.^.^.^.^.^.^.^.^.^.^.^.^.^.^.^.^.^.^.^.^.^.^.^.^.^.^.^.^.^.^.^.^.^.^.^.^.^.^.^.^.^.^.^.^.^.^.^.^.^.^.^.^.^.^.^.^.^.^.^.^.^.^.^.^.^.^.^.^.^.^.^.^.^.^.^.^.^.^.^.^.^.^.^.^.^.^.^.^.^.^.^.^.^.^.^.^.^.^.^.^.^.^.^.^.^.^.^.^.^.^.^.^.^.^.^.^.^.^.^.^.^.^.^.^.^.^.^.^.^.^.^.^.^.^.^.^.^.^.^.^.^.^.^.^.^.^.^.^.^.^.^.^.^.^.^.^.^.^.^.^.^.^.^.^.^.^.^.^.^.^.^.^.^.^.^.^.^.^.^.^.^.^.^.^.^.^.^.^.^.^.^.^.^.^.^.^.^.^.^.^.^.^.^.^.^.^.^.^.^.^.^.^.^.^.^.^.^.^.^.^.^.^.^.^.^.^.^.^.^.^.^.^.^.^.^.^.^.^.^.^.^.^.^.^.^.^.^.^.^.^.^.^.^.^.^.^.^.^.^.^.^.^.^.^.^.^.^.^.^.^.^.^.^.^.^.^.^.^.^.^.^.^.^.^.^.^.^.^.^.^.^.^.^.^.^.^.^.^.^.^.^.^.^.^.^.^.^.^.^.^.^.^.^.^.^.^.^.^.^.^.^.^.^.^.^.^.^.^.^.^.^.^.",
"^.^.^.^.^.^.^.^.^.^.^.^.^.^.^.^.^.^.^.^.^.^.^.^.^.^.^.^.^.^.^.^.^.^.^.^.^.^.^.^.^.^.^.^.^.^.^.^.^.^.^.^.^.^.^.^.^.^.^.^.^.^.^.^.^.^.^.^.^.^.^.^.^.^.^.^.^.^.^.^.^.^.^.^.^.^.^.^.^.^.^.^.^.^.^.^.^.^.^.^.^.^.^.^.^.^.^.^.^.^.^.^.^.^.^.^.^.^.^.^.^.^.^.^.^.^.^.^.^.^.^.^.^.^.^.^.^.^.^.^.^.^.^.^.^.^.^.^.^.^.^.^.^.^.^.^.^.^.^.^.^.^.^.^.^.^.^.^.^.^.^.^.^.^.^.^.^.^.^.^.^.^.^.^.^.^.^.^.^.^.^.^.^.^.^.^.^.^.^.^.^.^.^.^.^.^.^.^.^.^.^.^.^.^.^.^.^.^.^.^.^.^.^.^.^.^.^.^.^.^.^.^.^.^.^.^.^.^.^.^.^.^.^.^.^.^.^.^.^.^.^.^.^.^.^.^.^.^.^.^.^.^.^.^.^.^.^.^.^.^.^.^.^.^.^.^.^.^.^.^.^.^.^.^.^.^.^.^.^.^.^.^.^.^.^.^.^.^.^.^.^.^.^.^.^.^.^.^.^.^.^.^.^.^.^.^.^.^.^.^.^.^.^.^.^.^.^.^.^.^.^.^.^.^.^.^.^.^.^.^.^.^.^.^.^.^.^.^.^.^.^.^.^.^.^.^.^.^.^.^.^.^.^.^.^.^.^.^.^.^.^.^.^.^.^.^.^.^.^.^.^.^.^.^.^.^.^.^.^.^.^.^.^.^.^.^.^.^.^.^.^.^.^.^.^.^.^.^.^.^.^.^.^.^.^.^.^.^.^.^.^.^.^.^.^.^.^.^.^.^.^.^.^.^.^.^.^.^.^.^.^.^.^.^.^.^.^.^.^.^.^.^.^.^.^.^.^.^.^.^.^.^.^.^.^.^.^.^.^.^.^.^.^.^.^.^.^.^.^.^.^.^.^.^.^.^.^.^.^.^.^.^.^.^.^.^.^.^.^.^.^.^.^.^.^.^.^.^.^.^.^.^.^.^.^.^.^.^.^.^.^.^.^.^.^.^.^.^.^.^.^.^.^.^.^.^.^.^.^.^.^.^.^.^.^.^.^.^.^.^.^.^.^.^.^.^.^.^.^.^.^.^.^.^.^.^.^.^.^.^.^.^.^.^.^.^.^.^.^.^.^.^.^.^.^.^.^.^.^.^.^.^.^.^.^.^.^.^.^.^.^.^.^.^.^.^.^.^.^.^.^.^.^.^.^.^.^.^.^.^.^.^.^.^.^.^.^.^.^.^.^.^.^.^.",
"^.^.^.^.^.^.^.^.^.^.^.^.^.^.^.^.^.^.^.^.^.^.^.^.^.^.^.^.^.^.^.^.^.^.^.^.^.^.^.^.^.^.^.^.^.^.^.^.^.^.^.^.^.^.^.^.^.^.^.^.^.^.^.^.^.^.^.^.^.^.^.^.^.^.^.^.^.^.^.^.^.^.^.^.^.^.^.^.^.^.^.^.^.^.^.^.^.^.^.^.^.^.^.^.^.^.^.^.^.^.^.^.^.^.^.^.^.^.^.^.^.^.^.^.^.^.^.^.^.^.^.^.^.^.^.^.^.^.^.^.^.^.^.^.^.^.^.^.^.^.^.^.^.^.^.^.^.^.^.^.^.^.^.^.^.^.^.^.^.^.^.^.^.^.^.^.^.^.^.^.^.^.^.^.^.^.^.^.^.^.^.^.^.^.^.^.^.^.^.^.^.^.^.^.^.^.^.^.^.^.^.^.^.^.^.^.^.^.^.^.^.^.^.^.^.^.^.^.^.^.^.^.^.^.^.^.^.^.^.^.^.^.^.^.^.^.^.^.^.^.^.^.^.^.^.^.^.^.^.^.^.^.^.^.^.^.^.^.^.^.^.^.^.^.^.^.^.^.^.^.^.^.^.^.^.^.^.^.^.^.^.^.^.^.^.^.^.^.^.^.^.^.^.^.^.^.^.^.^.^.^.^.^.^.^.^.^.^.^.^.^.^.^.^.^.^.^.^.^.^.^.^.^.^.^.^.^.^.^.^.^.^.^.^.^.^.^.^.^.^.^.^.^.^.^.^.^.^.^.^.^.^.^.^.^.^.^.^.^.^.^.^.^.^.^.^.^.^.^.^.^.^.^.^.^.^.^.^.^.^.^.^.^.^.^.^.^.^.^.^.^.^.^.^.^.^.^.^.^.^.^.^.^.^.^.^.^.^.^.^.^.^.^.^.^.^.^.^.^.^.^.^.^.^.^.^.^.^.^.^.^.^.^.^.^.^.^.^.^.^.^.^.^.^.^.^.^.^.^.^.^.^.^.^.^.^.^.^.^.^.^.^.^.^.^.^.^.^.^.^.^.^.^.^.^.^.^.^.^.^.^.^.^.^.^.^.^.^.^.^.^.^.^.^.^.^.^.^.^.^.^.^.^.^.^.^.^.^.^.^.^.^.^.^.^.^.^.^.^.^.^.^.^.^.^.^.^.^.^.^.^.^.^.^.^.^.^.^.^.^.^.^.^.^.^.^.^.^.^.^.^.^.^.^.^.^.^.^.^.^.^.^.^.^.^.^.^.^.^.^.^.^.^.^.^.^.^.^.^.^.^.^.^.^.^.^.^.^.^.^.^.^.^.^.^.^.^.^.^.^.^.^.^.^.^.^.^.^.^.^.^.^.^.^.^.^.^.^.^.^.^.^.^.^.",
"^.^.^.^.^.^.^.^.^.^.^.^.^.^.^.^.^.^.^.^.^.^.^.^.^.^.^.^.^.^.^.^.^.^.^.^.^.^.^.^.^.^.^.^.^.^.^.^.^.^.^.^.^.^.^.^.^.^.^.^.^.^.^.^.^.^.^.^.^.^.^.^.^.^.^.^.^.^.^.^.^.^.^.^.^.^.^.^.^.^.^.^.^.^.^.^.^.^.^.^.^.^.^.^.^.^.^.^.^.^.^.^.^.^.^.^.^.^.^.^.^.^.^.^.^.^.^.^.^.^.^.^.^.^.^.^.^.^.^.^.^.^.^.^.^.^.^.^.^.^.^.^.^.^.^.^.^.^.^.^.^.^.^.^.^.^.^.^.^.^.^.^.^.^.^.^.^.^.^.^.^.^.^.^.^.^.^.^.^.^.^.^.^.^.^.^.^.^.^.^.^.^.^.^.^.^.^.^.^.^.^.^.^.^.^.^.^.^.^.^.^.^.^.^.^.^.^.^.^.^.^.^.^.^.^.^.^.^.^.^.^.^.^.^.^.^.^.^.^.^.^.^.^.^.^.^.^.^.^.^.^.^.^.^.^.^.^.^.^.^.^.^.^.^.^.^.^.^.^.^.^.^.^.^.^.^.^.^.^.^.^.^.^.^.^.^.^.^.^.^.^.^.^.^.^.^.^.^.^.^.^.^.^.^.^.^.^.^.^.^.^.^.^.^.^.^.^.^.^.^.^.^.^.^.^.^.^.^.^.^.^.^.^.^.^.^.^.^.^.^.^.^.^.^.^.^.^.^.^.^.^.^.^.^.^.^.^.^.^.^.^.^.^.^.^.^.^.^.^.^.^.^.^.^.^.^.^.^.^.^.^.^.^.^.^.^.^.^.^.^.^.^.^.^.^.^.^.^.^.^.^.^.^.^.^.^.^.^.^.^.^.^.^.^.^.^.^.^.^.^.^.^.^.^.^.^.^.^.^.^.^.^.^.^.^.^.^.^.^.^.^.^.^.^.^.^.^.^.^.^.^.^.^.^.^.^.^.^.^.^.^.^.^.^.^.^.^.^.^.^.^.^.^.^.^.^.^.^.^.^.^.^.^.^.^.^.^.^.^.^.^.^.^.^.^.^.^.^.^.^.^.^.^.^.^.^.^.^.^.^.^.^.^.^.^.^.^.^.^.^.^.^.^.^.^.^.^.^.^.^.^.^.^.^.^.^.^.^.^.^.^.^.^.^.^.^.^.^.^.^.^.^.^.^.^.^.^.^.^.^.^.^.^.^.^.^.^.^.^.^.^.^.^.^.^.^.^.^.^.^.^.^.^.^.^.^.^.^.^.^.^.^.^.^.^.^.^.^.^.^.^.^.^.^.^.^.^.^.^.^.^.^.^.^.^.^.^.^.^.^.^.^.^.^.",
"^.^.^.^.^.^.^.^.^.^.^.^.^.^.^.^.^.^.^.^.^.^.^.^.^.^.^.^.^.^.^.^.^.^.^.^.^.^.^.^.^.^.^.^.^.^.^.^.^.^.^.^.^.^.^.^.^.^.^.^.^.^.^.^.^.^.^.^.^.^.^.^.^.^.^.^.^.^.^.^.^.^.^.^.^.^.^.^.^.^.^.^.^.^.^.^.^.^.^.^.^.^.^.^.^.^.^.^.^.^.^.^.^.^.^.^.^.^.^.^.^.^.^.^.^.^.^.^.^.^.^.^.^.^.^.^.^.^.^.^.^.^.^.^.^.^.^.^.^.^.^.^.^.^.^.^.^.^.^.^.^.^.^.^.^.^.^.^.^.^.^.^.^.^.^.^.^.^.^.^.^.^.^.^.^.^.^.^.^.^.^.^.^.^.^.^.^.^.^.^.^.^.^.^.^.^.^.^.^.^.^.^.^.^.^.^.^.^.^.^.^.^.^.^.^.^.^.^.^.^.^.^.^.^.^.^.^.^.^.^.^.^.^.^.^.^.^.^.^.^.^.^.^.^.^.^.^.^.^.^.^.^.^.^.^.^.^.^.^.^.^.^.^.^.^.^.^.^.^.^.^.^.^.^.^.^.^.^.^.^.^.^.^.^.^.^.^.^.^.^.^.^.^.^.^.^.^.^.^.^.^.^.^.^.^.^.^.^.^.^.^.^.^.^.^.^.^.^.^.^.^.^.^.^.^.^.^.^.^.^.^.^.^.^.^.^.^.^.^.^.^.^.^.^.^.^.^.^.^.^.^.^.^.^.^.^.^.^.^.^.^.^.^.^.^.^.^.^.^.^.^.^.^.^.^.^.^.^.^.^.^.^.^.^.^.^.^.^.^.^.^.^.^.^.^.^.^.^.^.^.^.^.^.^.^.^.^.^.^.^.^.^.^.^.^.^.^.^.^.^.^.^.^.^.^.^.^.^.^.^.^.^.^.^.^.^.^.^.^.^.^.^.^.^.^.^.^.^.^.^.^.^.^.^.^.^.^.^.^.^.^.^.^.^.^.^.^.^.^.^.^.^.^.^.^.^.^.^.^.^.^.^.^.^.^.^.^.^.^.^.^.^.^.^.^.^.^.^.^.^.^.^.^.^.^.^.^.^.^.^.^.^.^.^.^.^.^.^.^.^.^.^.^.^.^.^.^.^.^.^.^.^.^.^.^.^.^.^.^.^.^.^.^.^.^.^.^.^.^.^.^.^.^.^.^.^.^.^.^.^.^.^.^.^.^.^.^.^.^.^.^.^.^.^.^.^.^.^.^.^.^.^.^.^.^.^.^.^.^.^.^.^.^.^.^.^.^.^.^.^.^.^.^.^.^.^.^.^.^.^.^.^.^.^.^.^.^.^.^.^.^.^.^.^.",
"^.^.^.^.^.^.^.^.^.^.^.^.^.^.^.^.^.^.^.^.^.^.^.^.^.^.^.^.^.^.^.^.^.^.^.^.^.^.^.^.^.^.^.^.^.^.^.^.^.^.^.^.^.^.^.^.^.^.^.^.^.^.^.^.^.^.^.^.^.^.^.^.^.^.^.^.^.^.^.^.^.^.^.^.^.^.^.^.^.^.^.^.^.^.^.^.^.^.^.^.^.^.^.^.^.^.^.^.^.^.^.^.^.^.^.^.^.^.^.^.^.^.^.^.^.^.^.^.^.^.^.^.^.^.^.^.^.^.^.^.^.^.^.^.^.^.^.^.^.^.^.^.^.^.^.^.^.^.^.^.^.^.^.^.^.^.^.^.^.^.^.^.^.^.^.^.^.^.^.^.^.^.^.^.^.^.^.^.^.^.^.^.^.^.^.^.^.^.^.^.^.^.^.^.^.^.^.^.^.^.^.^.^.^.^.^.^.^.^.^.^.^.^.^.^.^.^.^.^.^.^.^.^.^.^.^.^.^.^.^.^.^.^.^.^.^.^.^.^.^.^.^.^.^.^.^.^.^.^.^.^.^.^.^.^.^.^.^.^.^.^.^.^.^.^.^.^.^.^.^.^.^.^.^.^.^.^.^.^.^.^.^.^.^.^.^.^.^.^.^.^.^.^.^.^.^.^.^.^.^.^.^.^.^.^.^.^.^.^.^.^.^.^.^.^.^.^.^.^.^.^.^.^.^.^.^.^.^.^.^.^.^.^.^.^.^.^.^.^.^.^.^.^.^.^.^.^.^.^.^.^.^.^.^.^.^.^.^.^.^.^.^.^.^.^.^.^.^.^.^.^.^.^.^.^.^.^.^.^.^.^.^.^.^.^.^.^.^.^.^.^.^.^.^.^.^.^.^.^.^.^.^.^.^.^.^.^.^.^.^.^.^.^.^.^.^.^.^.^.^.^.^.^.^.^.^.^.^.^.^.^.^.^.^.^.^.^.^.^.^.^.^.^.^.^.^.^.^.^.^.^.^.^.^.^.^.^.^.^.^.^.^.^.^.^.^.^.^.^.^.^.^.^.^.^.^.^.^.^.^.^.^.^.^.^.^.^.^.^.^.^.^.^.^.^.^.^.^.^.^.^.^.^.^.^.^.^.^.^.^.^.^.^.^.^.^.^.^.^.^.^.^.^.^.^.^.^.^.^.^.^.^.^.^.^.^.^.^.^.^.^.^.^.^.^.^.^.^.^.^.^.^.^.^.^.^.^.^.^.^.^.^.^.^.^.^.^.^.^.^.^.^.^.^.^.^.^.^.^.^.^.^.^.^.^.^.^.^.^.^.^.^.^.^.^.^.^.^.^.^.^.^.^.^.^.^.^.^.^.^.^.^.^.^.^.^.^.^.^.^.^.^.^.^.",
"^.^.^.^.^.^.^.^.^.^.^.^.^.^.^.^.^.^.^.^.^.^.^.^.^.^.^.^.^.^.^.^.^.^.^.^.^.^.^.^.^.^.^.^.^.^.^.^.^.^.^.^.^.^.^.^.^.^.^.^.^.^.^.^.^.^.^.^.^.^.^.^.^.^.^.^.^.^.^.^.^.^.^.^.^.^.^.^.^.^.^.^.^.^.^.^.^.^.^.^.^.^.^.^.^.^.^.^.^.^.^.^.^.^.^.^.^.^.^.^.^.^.^.^.^.^.^.^.^.^.^.^.^.^.^.^.^.^.^.^.^.^.^.^.^.^.^.^.^.^.^.^.^.^.^.^.^.^.^.^.^.^.^.^.^.^.^.^.^.^.^.^.^.^.^.^.^.^.^.^.^.^.^.^.^.^.^.^.^.^.^.^.^.^.^.^.^.^.^.^.^.^.^.^.^.^.^.^.^.^.^.^.^.^.^.^.^.^.^.^.^.^.^.^.^.^.^.^.^.^.^.^.^.^.^.^.^.^.^.^.^.^.^.^.^.^.^.^.^.^.^.^.^.^.^.^.^.^.^.^.^.^.^.^.^.^.^.^.^.^.^.^.^.^.^.^.^.^.^.^.^.^.^.^.^.^.^.^.^.^.^.^.^.^.^.^.^.^.^.^.^.^.^.^.^.^.^.^.^.^.^.^.^.^.^.^.^.^.^.^.^.^.^.^.^.^.^.^.^.^.^.^.^.^.^.^.^.^.^.^.^.^.^.^.^.^.^.^.^.^.^.^.^.^.^.^.^.^.^.^.^.^.^.^.^.^.^.^.^.^.^.^.^.^.^.^.^.^.^.^.^.^.^.^.^.^.^.^.^.^.^.^.^.^.^.^.^.^.^.^.^.^.^.^.^.^.^.^.^.^.^.^.^.^.^.^.^.^.^.^.^.^.^.^.^.^.^.^.^.^.^.^.^.^.^.^.^.^.^.^.^.^.^.^.^.^.^.^.^.^.^.^.^.^.^.^.^.^.^.^.^.^.^.^.^.^.^.^.^.^.^.^.^.^.^.^.^.^.^.^.^.^.^.^.^.^.^.^.^.^.^.^.^.^.^.^.^.^.^.^.^.^.^.^.^.^.^.^.^.^.^.^.^.^.^.^.^.^.^.^.^.^.^.^.^.^.^.^.^.^.^.^.^.^.^.^.^.^.^.^.^.^.^.^.^.^.^.^.^.^.^.^.^.^.^.^.^.^.^.^.^.^.^.^.^.^.^.^.^.^.^.^.^.^.^.^.^.^.^.^.^.^.^.^.^.^.^.^.^.^.^.^.^.^.^.^.^.^.^.^.^.^.^.^.^.^.^.^.^.^.^.^.^.^.^.^.^.^.^.^.^.^.^.^.^.^.^.^.^.^.^.^.^.^.",
"^.^.^.^.^.^.^.^.^.^.^.^.^.^.^.^.^.^.^.^.^.^.^.^.^.^.^.^.^.^.^.^.^.^.^.^.^.^.^.^.^.^.^.^.^.^.^.^.^.^.^.^.^.^.^.^.^.^.^.^.^.^.^.^.^.^.^.^.^.^.^.^.^.^.^.^.^.^.^.^.^.^.^.^.^.^.^.^.^.^.^.^.^.^.^.^.^.^.^.^.^.^.^.^.^.^.^.^.^.^.^.^.^.^.^.^.^.^.^.^.^.^.^.^.^.^.^.^.^.^.^.^.^.^.^.^.^.^.^.^.^.^.^.^.^.^.^.^.^.^.^.^.^.^.^.^.^.^.^.^.^.^.^.^.^.^.^.^.^.^.^.^.^.^.^.^.^.^.^.^.^.^.^.^.^.^.^.^.^.^.^.^.^.^.^.^.^.^.^.^.^.^.^.^.^.^.^.^.^.^.^.^.^.^.^.^.^.^.^.^.^.^.^.^.^.^.^.^.^.^.^.^.^.^.^.^.^.^.^.^.^.^.^.^.^.^.^.^.^.^.^.^.^.^.^.^.^.^.^.^.^.^.^.^.^.^.^.^.^.^.^.^.^.^.^.^.^.^.^.^.^.^.^.^.^.^.^.^.^.^.^.^.^.^.^.^.^.^.^.^.^.^.^.^.^.^.^.^.^.^.^.^.^.^.^.^.^.^.^.^.^.^.^.^.^.^.^.^.^.^.^.^.^.^.^.^.^.^.^.^.^.^.^.^.^.^.^.^.^.^.^.^.^.^.^.^.^.^.^.^.^.^.^.^.^.^.^.^.^.^.^.^.^.^.^.^.^.^.^.^.^.^.^.^.^.^.^.^.^.^.^.^.^.^.^.^.^.^.^.^.^.^.^.^.^.^.^.^.^.^.^.^.^.^.^.^.^.^.^.^.^.^.^.^.^.^.^.^.^.^.^.^.^.^.^.^.^.^.^.^.^.^.^.^.^.^.^.^.^.^.^.^.^.^.^.^.^.^.^.^.^.^.^.^.^.^.^.^.^.^.^.^.^.^.^.^.^.^.^.^.^.^.^.^.^.^.^.^.^.^.^.^.^.^.^.^.^.^.^.^.^.^.^.^.^.^.^.^.^.^.^.^.^.^.^.^.^.^.^.^.^.^.^.^.^.^.^.^.^.^.^.^.^.^.^.^.^.^.^.^.^.^.^.^.^.^.^.^.^.^.^.^.^.^.^.^.^.^.^.^.^.^.^.^.^.^.^.^.^.^.^.^.^.^.^.^.^.^.^.^.^.^.^.^.^.^.^.^.^.^.^.^.^.^.^.^.^.^.^.^.^.^.^.^.^.^.^.^.^.^.^.^.^.^.^.^.^.^.^.^.^.^.^.^.^.^.^.^.^.^.^.^.^.^.",
"^.^.^.^.^.^.^.^.^.^.^.^.^.^.^.^.^.^.^.^.^.^.^.^.^.^.^.^.^.^.^.^.^.^.^.^.^.^.^.^.^.^.^.^.^.^.^.^.^.^.^.^.^.^.^.^.^.^.^.^.^.^.^.^.^.^.^.^.^.^.^.^.^.^.^.^.^.^.^.^.^.^.^.^.^.^.^.^.^.^.^.^.^.^.^.^.^.^.^.^.^.^.^.^.^.^.^.^.^.^.^.^.^.^.^.^.^.^.^.^.^.^.^.^.^.^.^.^.^.^.^.^.^.^.^.^.^.^.^.^.^.^.^.^.^.^.^.^.^.^.^.^.^.^.^.^.^.^.^.^.^.^.^.^.^.^.^.^.^.^.^.^.^.^.^.^.^.^.^.^.^.^.^.^.^.^.^.^.^.^.^.^.^.^.^.^.^.^.^.^.^.^.^.^.^.^.^.^.^.^.^.^.^.^.^.^.^.^.^.^.^.^.^.^.^.^.^.^.^.^.^.^.^.^.^.^.^.^.^.^.^.^.^.^.^.^.^.^.^.^.^.^.^.^.^.^.^.^.^.^.^.^.^.^.^.^.^.^.^.^.^.^.^.^.^.^.^.^.^.^.^.^.^.^.^.^.^.^.^.^.^.^.^.^.^.^.^.^.^.^.^.^.^.^.^.^.^.^.^.^.^.^.^.^.^.^.^.^.^.^.^.^.^.^.^.^.^.^.^.^.^.^.^.^.^.^.^.^.^.^.^.^.^.^.^.^.^.^.^.^.^.^.^.^.^.^.^.^.^.^.^.^.^.^.^.^.^.^.^.^.^.^.^.^.^.^.^.^.^.^.^.^.^.^.^.^.^.^.^.^.^.^.^.^.^.^.^.^.^.^.^.^.^.^.^.^.^.^.^.^.^.^.^.^.^.^.^.^.^.^.^.^.^.^.^.^.^.^.^.^.^.^.^.^.^.^.^.^.^.^.^.^.^.^.^.^.^.^.^.^.^.^.^.^.^.^.^.^.^.^.^.^.^.^.^.^.^.^.^.^.^.^.^.^.^.^.^.^.^.^.^.^.^.^.^.^.^.^.^.^.^.^.^.^.^.^.^.^.^.^.^.^.^.^.^.^.^.^.^.^.^.^.^.^.^.^.^.^.^.^.^.^.^.^.^.^.^.^.^.^.^.^.^.^.^.^.^.^.^.^.^.^.^.^.^.^.^.^.^.^.^.^.^.^.^.^.^.^.^.^.^.^.^.^.^.^.^.^.^.^.^.^.^.^.^.^.^.^.^.^.^.^.^.^.^.^.^.^.^.^.^.^.^.^.^.^.^.^.^.^.^.^.^.^.^.^.^.^.^.^.^.^.^.^.^.^.^.^.^.^.^.^.^.^.^.^.^.^.^.^.^.^.^.^.",
"^.^.^.^.^.^.^.^.^.^.^.^.^.^.^.^.^.^.^.^.^.^.^.^.^.^.^.^.^.^.^.^.^.^.^.^.^.^.^.^.^.^.^.^.^.^.^.^.^.^.^.^.^.^.^.^.^.^.^.^.^.^.^.^.^.^.^.^.^.^.^.^.^.^.^.^.^.^.^.^.^.^.^.^.^.^.^.^.^.^.^.^.^.^.^.^.^.^.^.^.^.^.^.^.^.^.^.^.^.^.^.^.^.^.^.^.^.^.^.^.^.^.^.^.^.^.^.^.^.^.^.^.^.^.^.^.^.^.^.^.^.^.^.^.^.^.^.^.^.^.^.^.^.^.^.^.^.^.^.^.^.^.^.^.^.^.^.^.^.^.^.^.^.^.^.^.^.^.^.^.^.^.^.^.^.^.^.^.^.^.^.^.^.^.^.^.^.^.^.^.^.^.^.^.^.^.^.^.^.^.^.^.^.^.^.^.^.^.^.^.^.^.^.^.^.^.^.^.^.^.^.^.^.^.^.^.^.^.^.^.^.^.^.^.^.^.^.^.^.^.^.^.^.^.^.^.^.^.^.^.^.^.^.^.^.^.^.^.^.^.^.^.^.^.^.^.^.^.^.^.^.^.^.^.^.^.^.^.^.^.^.^.^.^.^.^.^.^.^.^.^.^.^.^.^.^.^.^.^.^.^.^.^.^.^.^.^.^.^.^.^.^.^.^.^.^.^.^.^.^.^.^.^.^.^.^.^.^.^.^.^.^.^.^.^.^.^.^.^.^.^.^.^.^.^.^.^.^.^.^.^.^.^.^.^.^.^.^.^.^.^.^.^.^.^.^.^.^.^.^.^.^.^.^.^.^.^.^.^.^.^.^.^.^.^.^.^.^.^.^.^.^.^.^.^.^.^.^.^.^.^.^.^.^.^.^.^.^.^.^.^.^.^.^.^.^.^.^.^.^.^.^.^.^.^.^.^.^.^.^.^.^.^.^.^.^.^.^.^.^.^.^.^.^.^.^.^.^.^.^.^.^.^.^.^.^.^.^.^.^.^.^.^.^.^.^.^.^.^.^.^.^.^.^.^.^.^.^.^.^.^.^.^.^.^.^.^.^.^.^.^.^.^.^.^.^.^.^.^.^.^.^.^.^.^.^.^.^.^.^.^.^.^.^.^.^.^.^.^.^.^.^.^.^.^.^.^.^.^.^.^.^.^.^.^.^.^.^.^.^.^.^.^.^.^.^.^.^.^.^.^.^.^.^.^.^.^.^.^.^.^.^.^.^.^.^.^.^.^.^.^.^.^.^.^.^.^.^.^.^.^.^.^.^.^.^.^.^.^.^.^.^.^.^.^.^.^.^.^.^.^.^.^.^.^.^.^.^.^.^.^.^.^.^.^.^.^.^.^.^.^.^.^.^.",
"^.^.^.^.^.^.^.^.^.^.^.^.^.^.^.^.^.^.^.^.^.^.^.^.^.^.^.^.^.^.^.^.^.^.^.^.^.^.^.^.^.^.^.^.^.^.^.^.^.^.^.^.^.^.^.^.^.^.^.^.^.^.^.^.^.^.^.^.^.^.^.^.^.^.^.^.^.^.^.^.^.^.^.^.^.^.^.^.^.^.^.^.^.^.^.^.^.^.^.^.^.^.^.^.^.^.^.^.^.^.^.^.^.^.^.^.^.^.^.^.^.^.^.^.^.^.^.^.^.^.^.^.^.^.^.^.^.^.^.^.^.^.^.^.^.^.^.^.^.^.^.^.^.^.^.^.^.^.^.^.^.^.^.^.^.^.^.^.^.^.^.^.^.^.^.^.^.^.^.^.^.^.^.^.^.^.^.^.^.^.^.^.^.^.^.^.^.^.^.^.^.^.^.^.^.^.^.^.^.^.^.^.^.^.^.^.^.^.^.^.^.^.^.^.^.^.^.^.^.^.^.^.^.^.^.^.^.^.^.^.^.^.^.^.^.^.^.^.^.^.^.^.^.^.^.^.^.^.^.^.^.^.^.^.^.^.^.^.^.^.^.^.^.^.^.^.^.^.^.^.^.^.^.^.^.^.^.^.^.^.^.^.^.^.^.^.^.^.^.^.^.^.^.^.^.^.^.^.^.^.^.^.^.^.^.^.^.^.^.^.^.^.^.^.^.^.^.^.^.^.^.^.^.^.^.^.^.^.^.^.^.^.^.^.^.^.^.^.^.^.^.^.^.^.^.^.^.^.^.^.^.^.^.^.^.^.^.^.^.^.^.^.^.^.^.^.^.^.^.^.^.^.^.^.^.^.^.^.^.^.^.^.^.^.^.^.^.^.^.^.^.^.^.^.^.^.^.^.^.^.^.^.^.^.^.^.^.^.^.^.^.^.^.^.^.^.^.^.^.^.^.^.^.^.^.^.^.^.^.^.^.^.^.^.^.^.^.^.^.^.^.^.^.^.^.^.^.^.^.^.^.^.^.^.^.^.^.^.^.^.^.^.^.^.^.^.^.^.^.^.^.^.^.^.^.^.^.^.^.^.^.^.^.^.^.^.^.^.^.^.^.^.^.^.^.^.^.^.^.^.^.^.^.^.^.^.^.^.^.^.^.^.^.^.^.^.^.^.^.^.^.^.^.^.^.^.^.^.^.^.^.^.^.^.^.^.^.^.^.^.^.^.^.^.^.^.^.^.^.^.^.^.^.^.^.^.^.^.^.^.^.^.^.^.^.^.^.^.^.^.^.^.^.^.^.^.^.^.^.^.^.^.^.^.^.^.^.^.^.^.^.^.^.^.^.^.^.^.^.^.^.^.^.^.^.^.^.^.^.^.^.^.^.^.^.^.^.^.^.^.^.^.^.^.",
"^.^.^.^.^.^.^.^.^.^.^.^.^.^.^.^.^.^.^.^.^.^.^.^.^.^.^.^.^.^.^.^.^.^.^.^.^.^.^.^.^.^.^.^.^.^.^.^.^.^.^.^.^.^.^.^.^.^.^.^.^.^.^.^.^.^.^.^.^.^.^.^.^.^.^.^.^.^.^.^.^.^.^.^.^.^.^.^.^.^.^.^.^.^.^.^.^.^.^.^.^.^.^.^.^.^.^.^.^.^.^.^.^.^.^.^.^.^.^.^.^.^.^.^.^.^.^.^.^.^.^.^.^.^.^.^.^.^.^.^.^.^.^.^.^.^.^.^.^.^.^.^.^.^.^.^.^.^.^.^.^.^.^.^.^.^.^.^.^.^.^.^.^.^.^.^.^.^.^.^.^.^.^.^.^.^.^.^.^.^.^.^.^.^.^.^.^.^.^.^.^.^.^.^.^.^.^.^.^.^.^.^.^.^.^.^.^.^.^.^.^.^.^.^.^.^.^.^.^.^.^.^.^.^.^.^.^.^.^.^.^.^.^.^.^.^.^.^.^.^.^.^.^.^.^.^.^.^.^.^.^.^.^.^.^.^.^.^.^.^.^.^.^.^.^.^.^.^.^.^.^.^.^.^.^.^.^.^.^.^.^.^.^.^.^.^.^.^.^.^.^.^.^.^.^.^.^.^.^.^.^.^.^.^.^.^.^.^.^.^.^.^.^.^.^.^.^.^.^.^.^.^.^.^.^.^.^.^.^.^.^.^.^.^.^.^.^.^.^.^.^.^.^.^.^.^.^.^.^.^.^.^.^.^.^.^.^.^.^.^.^.^.^.^.^.^.^.^.^.^.^.^.^.^.^.^.^.^.^.^.^.^.^.^.^.^.^.^.^.^.^.^.^.^.^.^.^.^.^.^.^.^.^.^.^.^.^.^.^.^.^.^.^.^.^.^.^.^.^.^.^.^.^.^.^.^.^.^.^.^.^.^.^.^.^.^.^.^.^.^.^.^.^.^.^.^.^.^.^.^.^.^.^.^.^.^.^.^.^.^.^.^.^.^.^.^.^.^.^.^.^.^.^.^.^.^.^.^.^.^.^.^.^.^.^.^.^.^.^.^.^.^.^.^.^.^.^.^.^.^.^.^.^.^.^.^.^.^.^.^.^.^.^.^.^.^.^.^.^.^.^.^.^.^.^.^.^.^.^.^.^.^.^.^.^.^.^.^.^.^.^.^.^.^.^.^.^.^.^.^.^.^.^.^.^.^.^.^.^.^.^.^.^.^.^.^.^.^.^.^.^.^.^.^.^.^.^.^.^.^.^.^.^.^.^.^.^.^.^.^.^.^.^.^.^.^.^.^.^.^.^.^.^.^.^.^.^.^.^.^.^.^.^.^.^.^.^.^.^.^.^.^.^.^.",
"^.^.^.^.^.^.^.^.^.^.^.^.^.^.^.^.^.^.^.^.^.^.^.^.^.^.^.^.^.^.^.^.^.^.^.^.^.^.^.^.^.^.^.^.^.^.^.^.^.^.^.^.^.^.^.^.^.^.^.^.^.^.^.^.^.^.^.^.^.^.^.^.^.^.^.^.^.^.^.^.^.^.^.^.^.^.^.^.^.^.^.^.^.^.^.^.^.^.^.^.^.^.^.^.^.^.^.^.^.^.^.^.^.^.^.^.^.^.^.^.^.^.^.^.^.^.^.^.^.^.^.^.^.^.^.^.^.^.^.^.^.^.^.^.^.^.^.^.^.^.^.^.^.^.^.^.^.^.^.^.^.^.^.^.^.^.^.^.^.^.^.^.^.^.^.^.^.^.^.^.^.^.^.^.^.^.^.^.^.^.^.^.^.^.^.^.^.^.^.^.^.^.^.^.^.^.^.^.^.^.^.^.^.^.^.^.^.^.^.^.^.^.^.^.^.^.^.^.^.^.^.^.^.^.^.^.^.^.^.^.^.^.^.^.^.^.^.^.^.^.^.^.^.^.^.^.^.^.^.^.^.^.^.^.^.^.^.^.^.^.^.^.^.^.^.^.^.^.^.^.^.^.^.^.^.^.^.^.^.^.^.^.^.^.^.^.^.^.^.^.^.^.^.^.^.^.^.^.^.^.^.^.^.^.^.^.^.^.^.^.^.^.^.^.^.^.^.^.^.^.^.^.^.^.^.^.^.^.^.^.^.^.^.^.^.^.^.^.^.^.^.^.^.^.^.^.^.^.^.^.^.^.^.^.^.^.^.^.^.^.^.^.^.^.^.^.^.^.^.^.^.^.^.^.^.^.^.^.^.^.^.^.^.^.^.^.^.^.^.^.^.^.^.^.^.^.^.^.^.^.^.^.^.^.^.^.^.^.^.^.^.^.^.^.^.^.^.^.^.^.^.^.^.^.^.^.^.^.^.^.^.^.^.^.^.^.^.^.^.^.^.^.^.^.^.^.^.^.^.^.^.^.^.^.^.^.^.^.^.^.^.^.^.^.^.^.^.^.^.^.^.^.^.^.^.^.^.^.^.^.^.^.^.^.^.^.^.^.^.^.^.^.^.^.^.^.^.^.^.^.^.^.^.^.^.^.^.^.^.^.^.^.^.^.^.^.^.^.^.^.^.^.^.^.^.^.^.^.^.^.^.^.^.^.^.^.^.^.^.^.^.^.^.^.^.^.^.^.^.^.^.^.^.^.^.^.^.^.^.^.^.^.^.^.^.^.^.^.^.^.^.^.^.^.^.^.^.^.^.^.^.^.^.^.^.^.^.^.^.^.^.^.^.^.^.^.^.^.^.^.^.^.^.^.^.^.^.^.^.^.^.^.^.^.^.^.^.^.^.^.^.^.^.^.",
"^.^.^.^.^.^.^.^.^.^.^.^.^.^.^.^.^.^.^.^.^.^.^.^.^.^.^.^.^.^.^.^.^.^.^.^.^.^.^.^.^.^.^.^.^.^.^.^.^.^.^.^.^.^.^.^.^.^.^.^.^.^.^.^.^.^.^.^.^.^.^.^.^.^.^.^.^.^.^.^.^.^.^.^.^.^.^.^.^.^.^.^.^.^.^.^.^.^.^.^.^.^.^.^.^.^.^.^.^.^.^.^.^.^.^.^.^.^.^.^.^.^.^.^.^.^.^.^.^.^.^.^.^.^.^.^.^.^.^.^.^.^.^.^.^.^.^.^.^.^.^.^.^.^.^.^.^.^.^.^.^.^.^.^.^.^.^.^.^.^.^.^.^.^.^.^.^.^.^.^.^.^.^.^.^.^.^.^.^.^.^.^.^.^.^.^.^.^.^.^.^.^.^.^.^.^.^.^.^.^.^.^.^.^.^.^.^.^.^.^.^.^.^.^.^.^.^.^.^.^.^.^.^.^.^.^.^.^.^.^.^.^.^.^.^.^.^.^.^.^.^.^.^.^.^.^.^.^.^.^.^.^.^.^.^.^.^.^.^.^.^.^.^.^.^.^.^.^.^.^.^.^.^.^.^.^.^.^.^.^.^.^.^.^.^.^.^.^.^.^.^.^.^.^.^.^.^.^.^.^.^.^.^.^.^.^.^.^.^.^.^.^.^.^.^.^.^.^.^.^.^.^.^.^.^.^.^.^.^.^.^.^.^.^.^.^.^.^.^.^.^.^.^.^.^.^.^.^.^.^.^.^.^.^.^.^.^.^.^.^.^.^.^.^.^.^.^.^.^.^.^.^.^.^.^.^.^.^.^.^.^.^.^.^.^.^.^.^.^.^.^.^.^.^.^.^.^.^.^.^.^.^.^.^.^.^.^.^.^.^.^.^.^.^.^.^.^.^.^.^.^.^.^.^.^.^.^.^.^.^.^.^.^.^.^.^.^.^.^.^.^.^.^.^.^.^.^.^.^.^.^.^.^.^.^.^.^.^.^.^.^.^.^.^.^.^.^.^.^.^.^.^.^.^.^.^.^.^.^.^.^.^.^.^.^.^.^.^.^.^.^.^.^.^.^.^.^.^.^.^.^.^.^.^.^.^.^.^.^.^.^.^.^.^.^.^.^.^.^.^.^.^.^.^.^.^.^.^.^.^.^.^.^.^.^.^.^.^.^.^.^.^.^.^.^.^.^.^.^.^.^.^.^.^.^.^.^.^.^.^.^.^.^.^.^.^.^.^.^.^.^.^.^.^.^.^.^.^.^.^.^.^.^.^.^.^.^.^.^.^.^.^.^.^.^.^.^.^.^.^.^.^.^.^.^.^.^.^.^.^.^.^.^.^.^.^.^.^.^.^.^.^.^.^.",
"^.^.^.^.^.^.^.^.^.^.^.^.^.^.^.^.^.^.^.^.^.^.^.^.^.^.^.^.^.^.^.^.^.^.^.^.^.^.^.^.^.^.^.^.^.^.^.^.^.^.^.^.^.^.^.^.^.^.^.^.^.^.^.^.^.^.^.^.^.^.^.^.^.^.^.^.^.^.^.^.^.^.^.^.^.^.^.^.^.^.^.^.^.^.^.^.^.^.^.^.^.^.^.^.^.^.^.^.^.^.^.^.^.^.^.^.^.^.^.^.^.^.^.^.^.^.^.^.^.^.^.^.^.^.^.^.^.^.^.^.^.^.^.^.^.^.^.^.^.^.^.^.^.^.^.^.^.^.^.^.^.^.^.^.^.^.^.^.^.^.^.^.^.^.^.^.^.^.^.^.^.^.^.^.^.^.^.^.^.^.^.^.^.^.^.^.^.^.^.^.^.^.^.^.^.^.^.^.^.^.^.^.^.^.^.^.^.^.^.^.^.^.^.^.^.^.^.^.^.^.^.^.^.^.^.^.^.^.^.^.^.^.^.^.^.^.^.^.^.^.^.^.^.^.^.^.^.^.^.^.^.^.^.^.^.^.^.^.^.^.^.^.^.^.^.^.^.^.^.^.^.^.^.^.^.^.^.^.^.^.^.^.^.^.^.^.^.^.^.^.^.^.^.^.^.^.^.^.^.^.^.^.^.^.^.^.^.^.^.^.^.^.^.^.^.^.^.^.^.^.^.^.^.^.^.^.^.^.^.^.^.^.^.^.^.^.^.^.^.^.^.^.^.^.^.^.^.^.^.^.^.^.^.^.^.^.^.^.^.^.^.^.^.^.^.^.^.^.^.^.^.^.^.^.^.^.^.^.^.^.^.^.^.^.^.^.^.^.^.^.^.^.^.^.^.^.^.^.^.^.^.^.^.^.^.^.^.^.^.^.^.^.^.^.^.^.^.^.^.^.^.^.^.^.^.^.^.^.^.^.^.^.^.^.^.^.^.^.^.^.^.^.^.^.^.^.^.^.^.^.^.^.^.^.^.^.^.^.^.^.^.^.^.^.^.^.^.^.^.^.^.^.^.^.^.^.^.^.^.^.^.^.^.^.^.^.^.^.^.^.^.^.^.^.^.^.^.^.^.^.^.^.^.^.^.^.^.^.^.^.^.^.^.^.^.^.^.^.^.^.^.^.^.^.^.^.^.^.^.^.^.^.^.^.^.^.^.^.^.^.^.^.^.^.^.^.^.^.^.^.^.^.^.^.^.^.^.^.^.^.^.^.^.^.^.^.^.^.^.^.^.^.^.^.^.^.^.^.^.^.^.^.^.^.^.^.^.^.^.^.^.^.^.^.^.^.^.^.^.^.^.^.^.^.^.^.^.^.^.^.^.^.^.^.^.^.^.^.^.^.^.^.^.^.",
"^.^.^.^.^.^.^.^.^.^.^.^.^.^.^.^.^.^.^.^.^.^.^.^.^.^.^.^.^.^.^.^.^.^.^.^.^.^.^.^.^.^.^.^.^.^.^.^.^.^.^.^.^.^.^.^.^.^.^.^.^.^.^.^.^.^.^.^.^.^.^.^.^.^.^.^.^.^.^.^.^.^.^.^.^.^.^.^.^.^.^.^.^.^.^.^.^.^.^.^.^.^.^.^.^.^.^.^.^.^.^.^.^.^.^.^.^.^.^.^.^.^.^.^.^.^.^.^.^.^.^.^.^.^.^.^.^.^.^.^.^.^.^.^.^.^.^.^.^.^.^.^.^.^.^.^.^.^.^.^.^.^.^.^.^.^.^.^.^.^.^.^.^.^.^.^.^.^.^.^.^.^.^.^.^.^.^.^.^.^.^.^.^.^.^.^.^.^.^.^.^.^.^.^.^.^.^.^.^.^.^.^.^.^.^.^.^.^.^.^.^.^.^.^.^.^.^.^.^.^.^.^.^.^.^.^.^.^.^.^.^.^.^.^.^.^.^.^.^.^.^.^.^.^.^.^.^.^.^.^.^.^.^.^.^.^.^.^.^.^.^.^.^.^.^.^.^.^.^.^.^.^.^.^.^.^.^.^.^.^.^.^.^.^.^.^.^.^.^.^.^.^.^.^.^.^.^.^.^.^.^.^.^.^.^.^.^.^.^.^.^.^.^.^.^.^.^.^.^.^.^.^.^.^.^.^.^.^.^.^.^.^.^.^.^.^.^.^.^.^.^.^.^.^.^.^.^.^.^.^.^.^.^.^.^.^.^.^.^.^.^.^.^.^.^.^.^.^.^.^.^.^.^.^.^.^.^.^.^.^.^.^.^.^.^.^.^.^.^.^.^.^.^.^.^.^.^.^.^.^.^.^.^.^.^.^.^.^.^.^.^.^.^.^.^.^.^.^.^.^.^.^.^.^.^.^.^.^.^.^.^.^.^.^.^.^.^.^.^.^.^.^.^.^.^.^.^.^.^.^.^.^.^.^.^.^.^.^.^.^.^.^.^.^.^.^.^.^.^.^.^.^.^.^.^.^.^.^.^.^.^.^.^.^.^.^.^.^.^.^.^.^.^.^.^.^.^.^.^.^.^.^.^.^.^.^.^.^.^.^.^.^.^.^.^.^.^.^.^.^.^.^.^.^.^.^.^.^.^.^.^.^.^.^.^.^.^.^.^.^.^.^.^.^.^.^.^.^.^.^.^.^.^.^.^.^.^.^.^.^.^.^.^.^.^.^.^.^.^.^.^.^.^.^.^.^.^.^.^.^.^.^.^.^.^.^.^.^.^.^.^.^.^.^.^.^.^.^.^.^.^.^.^.^.^.^.^.^.^.^.^.^.^.^.^.^.^.^.^.^.^.^.^.^.",
"^.^.^.^.^.^.^.^.^.^.^.^.^.^.^.^.^.^.^.^.^.^.^.^.^.^.^.^.^.^.^.^.^.^.^.^.^.^.^.^.^.^.^.^.^.^.^.^.^.^.^.^.^.^.^.^.^.^.^.^.^.^.^.^.^.^.^.^.^.^.^.^.^.^.^.^.^.^.^.^.^.^.^.^.^.^.^.^.^.^.^.^.^.^.^.^.^.^.^.^.^.^.^.^.^.^.^.^.^.^.^.^.^.^.^.^.^.^.^.^.^.^.^.^.^.^.^.^.^.^.^.^.^.^.^.^.^.^.^.^.^.^.^.^.^.^.^.^.^.^.^.^.^.^.^.^.^.^.^.^.^.^.^.^.^.^.^.^.^.^.^.^.^.^.^.^.^.^.^.^.^.^.^.^.^.^.^.^.^.^.^.^.^.^.^.^.^.^.^.^.^.^.^.^.^.^.^.^.^.^.^.^.^.^.^.^.^.^.^.^.^.^.^.^.^.^.^.^.^.^.^.^.^.^.^.^.^.^.^.^.^.^.^.^.^.^.^.^.^.^.^.^.^.^.^.^.^.^.^.^.^.^.^.^.^.^.^.^.^.^.^.^.^.^.^.^.^.^.^.^.^.^.^.^.^.^.^.^.^.^.^.^.^.^.^.^.^.^.^.^.^.^.^.^.^.^.^.^.^.^.^.^.^.^.^.^.^.^.^.^.^.^.^.^.^.^.^.^.^.^.^.^.^.^.^.^.^.^.^.^.^.^.^.^.^.^.^.^.^.^.^.^.^.^.^.^.^.^.^.^.^.^.^.^.^.^.^.^.^.^.^.^.^.^.^.^.^.^.^.^.^.^.^.^.^.^.^.^.^.^.^.^.^.^.^.^.^.^.^.^.^.^.^.^.^.^.^.^.^.^.^.^.^.^.^.^.^.^.^.^.^.^.^.^.^.^.^.^.^.^.^.^.^.^.^.^.^.^.^.^.^.^.^.^.^.^.^.^.^.^.^.^.^.^.^.^.^.^.^.^.^.^.^.^.^.^.^.^.^.^.^.^.^.^.^.^.^.^.^.^.^.^.^.^.^.^.^.^.^.^.^.^.^.^.^.^.^.^.^.^.^.^.^.^.^.^.^.^.^.^.^.^.^.^.^.^.^.^.^.^.^.^.^.^.^.^.^.^.^.^.^.^.^.^.^.^.^.^.^.^.^.^.^.^.^.^.^.^.^.^.^.^.^.^.^.^.^.^.^.^.^.^.^.^.^.^.^.^.^.^.^.^.^.^.^.^.^.^.^.^.^.^.^.^.^.^.^.^.^.^.^.^.^.^.^.^.^.^.^.^.^.^.^.^.^.^.^.^.^.^.^.^.^.^.^.^.^.^.^.^.^.^.^.^.^.^.^.^.^.^.^.^.^.^.",
"^.^.^.^.^.^.^.^.^.^.^.^.^.^.^.^.^.^.^.^.^.^.^.^.^.^.^.^.^.^.^.^.^.^.^.^.^.^.^.^.^.^.^.^.^.^.^.^.^.^.^.^.^.^.^.^.^.^.^.^.^.^.^.^.^.^.^.^.^.^.^.^.^.^.^.^.^.^.^.^.^.^.^.^.^.^.^.^.^.^.^.^.^.^.^.^.^.^.^.^.^.^.^.^.^.^.^.^.^.^.^.^.^.^.^.^.^.^.^.^.^.^.^.^.^.^.^.^.^.^.^.^.^.^.^.^.^.^.^.^.^.^.^.^.^.^.^.^.^.^.^.^.^.^.^.^.^.^.^.^.^.^.^.^.^.^.^.^.^.^.^.^.^.^.^.^.^.^.^.^.^.^.^.^.^.^.^.^.^.^.^.^.^.^.^.^.^.^.^.^.^.^.^.^.^.^.^.^.^.^.^.^.^.^.^.^.^.^.^.^.^.^.^.^.^.^.^.^.^.^.^.^.^.^.^.^.^.^.^.^.^.^.^.^.^.^.^.^.^.^.^.^.^.^.^.^.^.^.^.^.^.^.^.^.^.^.^.^.^.^.^.^.^.^.^.^.^.^.^.^.^.^.^.^.^.^.^.^.^.^.^.^.^.^.^.^.^.^.^.^.^.^.^.^.^.^.^.^.^.^.^.^.^.^.^.^.^.^.^.^.^.^.^.^.^.^.^.^.^.^.^.^.^.^.^.^.^.^.^.^.^.^.^.^.^.^.^.^.^.^.^.^.^.^.^.^.^.^.^.^.^.^.^.^.^.^.^.^.^.^.^.^.^.^.^.^.^.^.^.^.^.^.^.^.^.^.^.^.^.^.^.^.^.^.^.^.^.^.^.^.^.^.^.^.^.^.^.^.^.^.^.^.^.^.^.^.^.^.^.^.^.^.^.^.^.^.^.^.^.^.^.^.^.^.^.^.^.^.^.^.^.^.^.^.^.^.^.^.^.^.^.^.^.^.^.^.^.^.^.^.^.^.^.^.^.^.^.^.^.^.^.^.^.^.^.^.^.^.^.^.^.^.^.^.^.^.^.^.^.^.^.^.^.^.^.^.^.^.^.^.^.^.^.^.^.^.^.^.^.^.^.^.^.^.^.^.^.^.^.^.^.^.^.^.^.^.^.^.^.^.^.^.^.^.^.^.^.^.^.^.^.^.^.^.^.^.^.^.^.^.^.^.^.^.^.^.^.^.^.^.^.^.^.^.^.^.^.^.^.^.^.^.^.^.^.^.^.^.^.^.^.^.^.^.^.^.^.^.^.^.^.^.^.^.^.^.^.^.^.^.^.^.^.^.^.^.^.^.^.^.^.^.^.^.^.^.^.^.^.^.^.^.^.^.^.^.^.^.^.^.^.^.^.^.",
"^.^.^.^.^.^.^.^.^.^.^.^.^.^.^.^.^.^.^.^.^.^.^.^.^.^.^.^.^.^.^.^.^.^.^.^.^.^.^.^.^.^.^.^.^.^.^.^.^.^.^.^.^.^.^.^.^.^.^.^.^.^.^.^.^.^.^.^.^.^.^.^.^.^.^.^.^.^.^.^.^.^.^.^.^.^.^.^.^.^.^.^.^.^.^.^.^.^.^.^.^.^.^.^.^.^.^.^.^.^.^.^.^.^.^.^.^.^.^.^.^.^.^.^.^.^.^.^.^.^.^.^.^.^.^.^.^.^.^.^.^.^.^.^.^.^.^.^.^.^.^.^.^.^.^.^.^.^.^.^.^.^.^.^.^.^.^.^.^.^.^.^.^.^.^.^.^.^.^.^.^.^.^.^.^.^.^.^.^.^.^.^.^.^.^.^.^.^.^.^.^.^.^.^.^.^.^.^.^.^.^.^.^.^.^.^.^.^.^.^.^.^.^.^.^.^.^.^.^.^.^.^.^.^.^.^.^.^.^.^.^.^.^.^.^.^.^.^.^.^.^.^.^.^.^.^.^.^.^.^.^.^.^.^.^.^.^.^.^.^.^.^.^.^.^.^.^.^.^.^.^.^.^.^.^.^.^.^.^.^.^.^.^.^.^.^.^.^.^.^.^.^.^.^.^.^.^.^.^.^.^.^.^.^.^.^.^.^.^.^.^.^.^.^.^.^.^.^.^.^.^.^.^.^.^.^.^.^.^.^.^.^.^.^.^.^.^.^.^.^.^.^.^.^.^.^.^.^.^.^.^.^.^.^.^.^.^.^.^.^.^.^.^.^.^.^.^.^.^.^.^.^.^.^.^.^.^.^.^.^.^.^.^.^.^.^.^.^.^.^.^.^.^.^.^.^.^.^.^.^.^.^.^.^.^.^.^.^.^.^.^.^.^.^.^.^.^.^.^.^.^.^.^.^.^.^.^.^.^.^.^.^.^.^.^.^.^.^.^.^.^.^.^.^.^.^.^.^.^.^.^.^.^.^.^.^.^.^.^.^.^.^.^.^.^.^.^.^.^.^.^.^.^.^.^.^.^.^.^.^.^.^.^.^.^.^.^.^.^.^.^.^.^.^.^.^.^.^.^.^.^.^.^.^.^.^.^.^.^.^.^.^.^.^.^.^.^.^.^.^.^.^.^.^.^.^.^.^.^.^.^.^.^.^.^.^.^.^.^.^.^.^.^.^.^.^.^.^.^.^.^.^.^.^.^.^.^.^.^.^.^.^.^.^.^.^.^.^.^.^.^.^.^.^.^.^.^.^.^.^.^.^.^.^.^.^.^.^.^.^.^.^.^.^.^.^.^.^.^.^.^.^.^.^.^.^.^.^.^.^.^.^.^.^.^.^.^.^.^.^.^.^.^.^.",
"^.^.^.^.^.^.^.^.^.^.^.^.^.^.^.^.^.^.^.^.^.^.^.^.^.^.^.^.^.^.^.^.^.^.^.^.^.^.^.^.^.^.^.^.^.^.^.^.^.^.^.^.^.^.^.^.^.^.^.^.^.^.^.^.^.^.^.^.^.^.^.^.^.^.^.^.^.^.^.^.^.^.^.^.^.^.^.^.^.^.^.^.^.^.^.^.^.^.^.^.^.^.^.^.^.^.^.^.^.^.^.^.^.^.^.^.^.^.^.^.^.^.^.^.^.^.^.^.^.^.^.^.^.^.^.^.^.^.^.^.^.^.^.^.^.^.^.^.^.^.^.^.^.^.^.^.^.^.^.^.^.^.^.^.^.^.^.^.^.^.^.^.^.^.^.^.^.^.^.^.^.^.^.^.^.^.^.^.^.^.^.^.^.^.^.^.^.^.^.^.^.^.^.^.^.^.^.^.^.^.^.^.^.^.^.^.^.^.^.^.^.^.^.^.^.^.^.^.^.^.^.^.^.^.^.^.^.^.^.^.^.^.^.^.^.^.^.^.^.^.^.^.^.^.^.^.^.^.^.^.^.^.^.^.^.^.^.^.^.^.^.^.^.^.^.^.^.^.^.^.^.^.^.^.^.^.^.^.^.^.^.^.^.^.^.^.^.^.^.^.^.^.^.^.^.^.^.^.^.^.^.^.^.^.^.^.^.^.^.^.^.^.^.^.^.^.^.^.^.^.^.^.^.^.^.^.^.^.^.^.^.^.^.^.^.^.^.^.^.^.^.^.^.^.^.^.^.^.^.^.^.^.^.^.^.^.^.^.^.^.^.^.^.^.^.^.^.^.^.^.^.^.^.^.^.^.^.^.^.^.^.^.^.^.^.^.^.^.^.^.^.^.^.^.^.^.^.^.^.^.^.^.^.^.^.^.^.^.^.^.^.^.^.^.^.^.^.^.^.^.^.^.^.^.^.^.^.^.^.^.^.^.^.^.^.^.^.^.^.^.^.^.^.^.^.^.^.^.^.^.^.^.^.^.^.^.^.^.^.^.^.^.^.^.^.^.^.^.^.^.^.^.^.^.^.^.^.^.^.^.^.^.^.^.^.^.^.^.^.^.^.^.^.^.^.^.^.^.^.^.^.^.^.^.^.^.^.^.^.^.^.^.^.^.^.^.^.^.^.^.^.^.^.^.^.^.^.^.^.^.^.^.^.^.^.^.^.^.^.^.^.^.^.^.^.^.^.^.^.^.^.^.^.^.^.^.^.^.^.^.^.^.^.^.^.^.^.^.^.^.^.^.^.^.^.^.^.^.^.^.^.^.^.^.^.^.^.^.^.^.^.^.^.^.^.^.^.^.^.^.^.^.^.^.^.^.^.^.^.^.^.^.^.^.^.^.^.^.^.^.^.^.^.^.",
"^.^.^.^.^.^.^.^.^.^.^.^.^.^.^.^.^.^.^.^.^.^.^.^.^.^.^.^.^.^.^.^.^.^.^.^.^.^.^.^.^.^.^.^.^.^.^.^.^.^.^.^.^.^.^.^.^.^.^.^.^.^.^.^.^.^.^.^.^.^.^.^.^.^.^.^.^.^.^.^.^.^.^.^.^.^.^.^.^.^.^.^.^.^.^.^.^.^.^.^.^.^.^.^.^.^.^.^.^.^.^.^.^.^.^.^.^.^.^.^.^.^.^.^.^.^.^.^.^.^.^.^.^.^.^.^.^.^.^.^.^.^.^.^.^.^.^.^.^.^.^.^.^.^.^.^.^.^.^.^.^.^.^.^.^.^.^.^.^.^.^.^.^.^.^.^.^.^.^.^.^.^.^.^.^.^.^.^.^.^.^.^.^.^.^.^.^.^.^.^.^.^.^.^.^.^.^.^.^.^.^.^.^.^.^.^.^.^.^.^.^.^.^.^.^.^.^.^.^.^.^.^.^.^.^.^.^.^.^.^.^.^.^.^.^.^.^.^.^.^.^.^.^.^.^.^.^.^.^.^.^.^.^.^.^.^.^.^.^.^.^.^.^.^.^.^.^.^.^.^.^.^.^.^.^.^.^.^.^.^.^.^.^.^.^.^.^.^.^.^.^.^.^.^.^.^.^.^.^.^.^.^.^.^.^.^.^.^.^.^.^.^.^.^.^.^.^.^.^.^.^.^.^.^.^.^.^.^.^.^.^.^.^.^.^.^.^.^.^.^.^.^.^.^.^.^.^.^.^.^.^.^.^.^.^.^.^.^.^.^.^.^.^.^.^.^.^.^.^.^.^.^.^.^.^.^.^.^.^.^.^.^.^.^.^.^.^.^.^.^.^.^.^.^.^.^.^.^.^.^.^.^.^.^.^.^.^.^.^.^.^.^.^.^.^.^.^.^.^.^.^.^.^.^.^.^.^.^.^.^.^.^.^.^.^.^.^.^.^.^.^.^.^.^.^.^.^.^.^.^.^.^.^.^.^.^.^.^.^.^.^.^.^.^.^.^.^.^.^.^.^.^.^.^.^.^.^.^.^.^.^.^.^.^.^.^.^.^.^.^.^.^.^.^.^.^.^.^.^.^.^.^.^.^.^.^.^.^.^.^.^.^.^.^.^.^.^.^.^.^.^.^.^.^.^.^.^.^.^.^.^.^.^.^.^.^.^.^.^.^.^.^.^.^.^.^.^.^.^.^.^.^.^.^.^.^.^.^.^.^.^.^.^.^.^.^.^.^.^.^.^.^.^.^.^.^.^.^.^.^.^.^.^.^.^.^.^.^.^.^.^.^.^.^.^.^.^.^.^.^.^.^.^.^.^.^.^.^.^.^.^.^.^.^.^.^.^.^.^.^.^.^.^.^.",
"^.^.^.^.^.^.^.^.^.^.^.^.^.^.^.^.^.^.^.^.^.^.^.^.^.^.^.^.^.^.^.^.^.^.^.^.^.^.^.^.^.^.^.^.^.^.^.^.^.^.^.^.^.^.^.^.^.^.^.^.^.^.^.^.^.^.^.^.^.^.^.^.^.^.^.^.^.^.^.^.^.^.^.^.^.^.^.^.^.^.^.^.^.^.^.^.^.^.^.^.^.^.^.^.^.^.^.^.^.^.^.^.^.^.^.^.^.^.^.^.^.^.^.^.^.^.^.^.^.^.^.^.^.^.^.^.^.^.^.^.^.^.^.^.^.^.^.^.^.^.^.^.^.^.^.^.^.^.^.^.^.^.^.^.^.^.^.^.^.^.^.^.^.^.^.^.^.^.^.^.^.^.^.^.^.^.^.^.^.^.^.^.^.^.^.^.^.^.^.^.^.^.^.^.^.^.^.^.^.^.^.^.^.^.^.^.^.^.^.^.^.^.^.^.^.^.^.^.^.^.^.^.^.^.^.^.^.^.^.^.^.^.^.^.^.^.^.^.^.^.^.^.^.^.^.^.^.^.^.^.^.^.^.^.^.^.^.^.^.^.^.^.^.^.^.^.^.^.^.^.^.^.^.^.^.^.^.^.^.^.^.^.^.^.^.^.^.^.^.^.^.^.^.^.^.^.^.^.^.^.^.^.^.^.^.^.^.^.^.^.^.^.^.^.^.^.^.^.^.^.^.^.^.^.^.^.^.^.^.^.^.^.^.^.^.^.^.^.^.^.^.^.^.^.^.^.^.^.^.^.^.^.^.^.^.^.^.^.^.^.^.^.^.^.^.^.^.^.^.^.^.^.^.^.^.^.^.^.^.^.^.^.^.^.^.^.^.^.^.^.^.^.^.^.^.^.^.^.^.^.^.^.^.^.^.^.^.^.^.^.^.^.^.^.^.^.^.^.^.^.^.^.^.^.^.^.^.^.^.^.^.^.^.^.^.^.^.^.^.^.^.^.^.^.^.^.^.^.^.^.^.^.^.^.^.^.^.^.^.^.^.^.^.^.^.^.^.^.^.^.^.^.^.^.^.^.^.^.^.^.^.^.^.^.^.^.^.^.^.^.^.^.^.^.^.^.^.^.^.^.^.^.^.^.^.^.^.^.^.^.^.^.^.^.^.^.^.^.^.^.^.^.^.^.^.^.^.^.^.^.^.^.^.^.^.^.^.^.^.^.^.^.^.^.^.^.^.^.^.^.^.^.^.^.^.^.^.^.^.^.^.^.^.^.^.^.^.^.^.^.^.^.^.^.^.^.^.^.^.^.^.^.^.^.^.^.^.^.^.^.^.^.^.^.^.^.^.^.^.^.^.^.^.^.^.^.^.^.^.^.^.^.^.^.^.^.^.^.^.^.^.^.^.^.",
"^.^.^.^.^.^.^.^.^.^.^.^.^.^.^.^.^.^.^.^.^.^.^.^.^.^.^.^.^.^.^.^.^.^.^.^.^.^.^.^.^.^.^.^.^.^.^.^.^.^.^.^.^.^.^.^.^.^.^.^.^.^.^.^.^.^.^.^.^.^.^.^.^.^.^.^.^.^.^.^.^.^.^.^.^.^.^.^.^.^.^.^.^.^.^.^.^.^.^.^.^.^.^.^.^.^.^.^.^.^.^.^.^.^.^.^.^.^.^.^.^.^.^.^.^.^.^.^.^.^.^.^.^.^.^.^.^.^.^.^.^.^.^.^.^.^.^.^.^.^.^.^.^.^.^.^.^.^.^.^.^.^.^.^.^.^.^.^.^.^.^.^.^.^.^.^.^.^.^.^.^.^.^.^.^.^.^.^.^.^.^.^.^.^.^.^.^.^.^.^.^.^.^.^.^.^.^.^.^.^.^.^.^.^.^.^.^.^.^.^.^.^.^.^.^.^.^.^.^.^.^.^.^.^.^.^.^.^.^.^.^.^.^.^.^.^.^.^.^.^.^.^.^.^.^.^.^.^.^.^.^.^.^.^.^.^.^.^.^.^.^.^.^.^.^.^.^.^.^.^.^.^.^.^.^.^.^.^.^.^.^.^.^.^.^.^.^.^.^.^.^.^.^.^.^.^.^.^.^.^.^.^.^.^.^.^.^.^.^.^.^.^.^.^.^.^.^.^.^.^.^.^.^.^.^.^.^.^.^.^.^.^.^.^.^.^.^.^.^.^.^.^.^.^.^.^.^.^.^.^.^.^.^.^.^.^.^.^.^.^.^.^.^.^.^.^.^.^.^.^.^.^.^.^.^.^.^.^.^.^.^.^.^.^.^.^.^.^.^.^.^.^.^.^.^.^.^.^.^.^.^.^.^.^.^.^.^.^.^.^.^.^.^.^.^.^.^.^.^.^.^.^.^.^.^.^.^.^.^.^.^.^.^.^.^.^.^.^.^.^.^.^.^.^.^.^.^.^.^.^.^.^.^.^.^.^.^.^.^.^.^.^.^.^.^.^.^.^.^.^.^.^.^.^.^.^.^.^.^.^.^.^.^.^.^.^.^.^.^.^.^.^.^.^.^.^.^.^.^.^.^.^.^.^.^.^.^.^.^.^.^.^.^.^.^.^.^.^.^.^.^.^.^.^.^.^.^.^.^.^.^.^.^.^.^.^.^.^.^.^.^.^.^.^.^.^.^.^.^.^.^.^.^.^.^.^.^.^.^.^.^.^.^.^.^.^.^.^.^.^.^.^.^.^.^.^.^.^.^.^.^.^.^.^.^.^.^.^.^.^.^.^.^.^.^.^.^.^.^.^.^.^.^.^.^.^.^.^.^.^.^.^.^.^.^.^.^.^.^.^.^.^.^.^.",
"^.^.^.^.^.^.^.^.^.^.^.^.^.^.^.^.^.^.^.^.^.^.^.^.^.^.^.^.^.^.^.^.^.^.^.^.^.^.^.^.^.^.^.^.^.^.^.^.^.^.^.^.^.^.^.^.^.^.^.^.^.^.^.^.^.^.^.^.^.^.^.^.^.^.^.^.^.^.^.^.^.^.^.^.^.^.^.^.^.^.^.^.^.^.^.^.^.^.^.^.^.^.^.^.^.^.^.^.^.^.^.^.^.^.^.^.^.^.^.^.^.^.^.^.^.^.^.^.^.^.^.^.^.^.^.^.^.^.^.^.^.^.^.^.^.^.^.^.^.^.^.^.^.^.^.^.^.^.^.^.^.^.^.^.^.^.^.^.^.^.^.^.^.^.^.^.^.^.^.^.^.^.^.^.^.^.^.^.^.^.^.^.^.^.^.^.^.^.^.^.^.^.^.^.^.^.^.^.^.^.^.^.^.^.^.^.^.^.^.^.^.^.^.^.^.^.^.^.^.^.^.^.^.^.^.^.^.^.^.^.^.^.^.^.^.^.^.^.^.^.^.^.^.^.^.^.^.^.^.^.^.^.^.^.^.^.^.^.^.^.^.^.^.^.^.^.^.^.^.^.^.^.^.^.^.^.^.^.^.^.^.^.^.^.^.^.^.^.^.^.^.^.^.^.^.^.^.^.^.^.^.^.^.^.^.^.^.^.^.^.^.^.^.^.^.^.^.^.^.^.^.^.^.^.^.^.^.^.^.^.^.^.^.^.^.^.^.^.^.^.^.^.^.^.^.^.^.^.^.^.^.^.^.^.^.^.^.^.^.^.^.^.^.^.^.^.^.^.^.^.^.^.^.^.^.^.^.^.^.^.^.^.^.^.^.^.^.^.^.^.^.^.^.^.^.^.^.^.^.^.^.^.^.^.^.^.^.^.^.^.^.^.^.^.^.^.^.^.^.^.^.^.^.^.^.^.^.^.^.^.^.^.^.^.^.^.^.^.^.^.^.^.^.^.^.^.^.^.^.^.^.^.^.^.^.^.^.^.^.^.^.^.^.^.^.^.^.^.^.^.^.^.^.^.^.^.^.^.^.^.^.^.^.^.^.^.^.^.^.^.^.^.^.^.^.^.^.^.^.^.^.^.^.^.^.^.^.^.^.^.^.^.^.^.^.^.^.^.^.^.^.^.^.^.^.^.^.^.^.^.^.^.^.^.^.^.^.^.^.^.^.^.^.^.^.^.^.^.^.^.^.^.^.^.^.^.^.^.^.^.^.^.^.^.^.^.^.^.^.^.^.^.^.^.^.^.^.^.^.^.^.^.^.^.^.^.^.^.^.^.^.^.^.^.^.^.^.^.^.^.^.^.^.^.^.^.^.^.^.^.^.^.^.^.^.^.^.^.^.^.^.^.^.^.",
"^.^.^.^.^.^.^.^.^.^.^.^.^.^.^.^.^.^.^.^.^.^.^.^.^.^.^.^.^.^.^.^.^.^.^.^.^.^.^.^.^.^.^.^.^.^.^.^.^.^.^.^.^.^.^.^.^.^.^.^.^.^.^.^.^.^.^.^.^.^.^.^.^.^.^.^.^.^.^.^.^.^.^.^.^.^.^.^.^.^.^.^.^.^.^.^.^.^.^.^.^.^.^.^.^.^.^.^.^.^.^.^.^.^.^.^.^.^.^.^.^.^.^.^.^.^.^.^.^.^.^.^.^.^.^.^.^.^.^.^.^.^.^.^.^.^.^.^.^.^.^.^.^.^.^.^.^.^.^.^.^.^.^.^.^.^.^.^.^.^.^.^.^.^.^.^.^.^.^.^.^.^.^.^.^.^.^.^.^.^.^.^.^.^.^.^.^.^.^.^.^.^.^.^.^.^.^.^.^.^.^.^.^.^.^.^.^.^.^.^.^.^.^.^.^.^.^.^.^.^.^.^.^.^.^.^.^.^.^.^.^.^.^.^.^.^.^.^.^.^.^.^.^.^.^.^.^.^.^.^.^.^.^.^.^.^.^.^.^.^.^.^.^.^.^.^.^.^.^.^.^.^.^.^.^.^.^.^.^.^.^.^.^.^.^.^.^.^.^.^.^.^.^.^.^.^.^.^.^.^.^.^.^.^.^.^.^.^.^.^.^.^.^.^.^.^.^.^.^.^.^.^.^.^.^.^.^.^.^.^.^.^.^.^.^.^.^.^.^.^.^.^.^.^.^.^.^.^.^.^.^.^.^.^.^.^.^.^.^.^.^.^.^.^.^.^.^.^.^.^.^.^.^.^.^.^.^.^.^.^.^.^.^.^.^.^.^.^.^.^.^.^.^.^.^.^.^.^.^.^.^.^.^.^.^.^.^.^.^.^.^.^.^.^.^.^.^.^.^.^.^.^.^.^.^.^.^.^.^.^.^.^.^.^.^.^.^.^.^.^.^.^.^.^.^.^.^.^.^.^.^.^.^.^.^.^.^.^.^.^.^.^.^.^.^.^.^.^.^.^.^.^.^.^.^.^.^.^.^.^.^.^.^.^.^.^.^.^.^.^.^.^.^.^.^.^.^.^.^.^.^.^.^.^.^.^.^.^.^.^.^.^.^.^.^.^.^.^.^.^.^.^.^.^.^.^.^.^.^.^.^.^.^.^.^.^.^.^.^.^.^.^.^.^.^.^.^.^.^.^.^.^.^.^.^.^.^.^.^.^.^.^.^.^.^.^.^.^.^.^.^.^.^.^.^.^.^.^.^.^.^.^.^.^.^.^.^.^.^.^.^.^.^.^.^.^.^.^.^.^.^.^.^.^.^.^.^.^.^.^.^.^.^.^.^.^.^.^.^.^.^.^.^.^.",
"^.^.^.^.^.^.^.^.^.^.^.^.^.^.^.^.^.^.^.^.^.^.^.^.^.^.^.^.^.^.^.^.^.^.^.^.^.^.^.^.^.^.^.^.^.^.^.^.^.^.^.^.^.^.^.^.^.^.^.^.^.^.^.^.^.^.^.^.^.^.^.^.^.^.^.^.^.^.^.^.^.^.^.^.^.^.^.^.^.^.^.^.^.^.^.^.^.^.^.^.^.^.^.^.^.^.^.^.^.^.^.^.^.^.^.^.^.^.^.^.^.^.^.^.^.^.^.^.^.^.^.^.^.^.^.^.^.^.^.^.^.^.^.^.^.^.^.^.^.^.^.^.^.^.^.^.^.^.^.^.^.^.^.^.^.^.^.^.^.^.^.^.^.^.^.^.^.^.^.^.^.^.^.^.^.^.^.^.^.^.^.^.^.^.^.^.^.^.^.^.^.^.^.^.^.^.^.^.^.^.^.^.^.^.^.^.^.^.^.^.^.^.^.^.^.^.^.^.^.^.^.^.^.^.^.^.^.^.^.^.^.^.^.^.^.^.^.^.^.^.^.^.^.^.^.^.^.^.^.^.^.^.^.^.^.^.^.^.^.^.^.^.^.^.^.^.^.^.^.^.^.^.^.^.^.^.^.^.^.^.^.^.^.^.^.^.^.^.^.^.^.^.^.^.^.^.^.^.^.^.^.^.^.^.^.^.^.^.^.^.^.^.^.^.^.^.^.^.^.^.^.^.^.^.^.^.^.^.^.^.^.^.^.^.^.^.^.^.^.^.^.^.^.^.^.^.^.^.^.^.^.^.^.^.^.^.^.^.^.^.^.^.^.^.^.^.^.^.^.^.^.^.^.^.^.^.^.^.^.^.^.^.^.^.^.^.^.^.^.^.^.^.^.^.^.^.^.^.^.^.^.^.^.^.^.^.^.^.^.^.^.^.^.^.^.^.^.^.^.^.^.^.^.^.^.^.^.^.^.^.^.^.^.^.^.^.^.^.^.^.^.^.^.^.^.^.^.^.^.^.^.^.^.^.^.^.^.^.^.^.^.^.^.^.^.^.^.^.^.^.^.^.^.^.^.^.^.^.^.^.^.^.^.^.^.^.^.^.^.^.^.^.^.^.^.^.^.^.^.^.^.^.^.^.^.^.^.^.^.^.^.^.^.^.^.^.^.^.^.^.^.^.^.^.^.^.^.^.^.^.^.^.^.^.^.^.^.^.^.^.^.^.^.^.^.^.^.^.^.^.^.^.^.^.^.^.^.^.^.^.^.^.^.^.^.^.^.^.^.^.^.^.^.^.^.^.^.^.^.^.^.^.^.^.^.^.^.^.^.^.^.^.^.^.^.^.^.^.^.^.^.^.^.^.^.^.^.^.^.^.^.^.^.^.^.^.^.^.^.^.^.^.^.^.",
"^.^.^.^.^.^.^.^.^.^.^.^.^.^.^.^.^.^.^.^.^.^.^.^.^.^.^.^.^.^.^.^.^.^.^.^.^.^.^.^.^.^.^.^.^.^.^.^.^.^.^.^.^.^.^.^.^.^.^.^.^.^.^.^.^.^.^.^.^.^.^.^.^.^.^.^.^.^.^.^.^.^.^.^.^.^.^.^.^.^.^.^.^.^.^.^.^.^.^.^.^.^.^.^.^.^.^.^.^.^.^.^.^.^.^.^.^.^.^.^.^.^.^.^.^.^.^.^.^.^.^.^.^.^.^.^.^.^.^.^.^.^.^.^.^.^.^.^.^.^.^.^.^.^.^.^.^.^.^.^.^.^.^.^.^.^.^.^.^.^.^.^.^.^.^.^.^.^.^.^.^.^.^.^.^.^.^.^.^.^.^.^.^.^.^.^.^.^.^.^.^.^.^.^.^.^.^.^.^.^.^.^.^.^.^.^.^.^.^.^.^.^.^.^.^.^.^.^.^.^.^.^.^.^.^.^.^.^.^.^.^.^.^.^.^.^.^.^.^.^.^.^.^.^.^.^.^.^.^.^.^.^.^.^.^.^.^.^.^.^.^.^.^.^.^.^.^.^.^.^.^.^.^.^.^.^.^.^.^.^.^.^.^.^.^.^.^.^.^.^.^.^.^.^.^.^.^.^.^.^.^.^.^.^.^.^.^.^.^.^.^.^.^.^.^.^.^.^.^.^.^.^.^.^.^.^.^.^.^.^.^.^.^.^.^.^.^.^.^.^.^.^.^.^.^.^.^.^.^.^.^.^.^.^.^.^.^.^.^.^.^.^.^.^.^.^.^.^.^.^.^.^.^.^.^.^.^.^.^.^.^.^.^.^.^.^.^.^.^.^.^.^.^.^.^.^.^.^.^.^.^.^.^.^.^.^.^.^.^.^.^.^.^.^.^.^.^.^.^.^.^.^.^.^.^.^.^.^.^.^.^.^.^.^.^.^.^.^.^.^.^.^.^.^.^.^.^.^.^.^.^.^.^.^.^.^.^.^.^.^.^.^.^.^.^.^.^.^.^.^.^.^.^.^.^.^.^.^.^.^.^.^.^.^.^.^.^.^.^.^.^.^.^.^.^.^.^.^.^.^.^.^.^.^.^.^.^.^.^.^.^.^.^.^.^.^.^.^.^.^.^.^.^.^.^.^.^.^.^.^.^.^.^.^.^.^.^.^.^.^.^.^.^.^.^.^.^.^.^.^.^.^.^.^.^.^.^.^.^.^.^.^.^.^.^.^.^.^.^.^.^.^.^.^.^.^.^.^.^.^.^.^.^.^.^.^.^.^.^.^.^.^.^.^.^.^.^.^.^.^.^.^.^.^.^.^.^.^.^.^.^.^.^.^.^.^.^.^.^.^.^.^.^.^.",
"^.^.^.^.^.^.^.^.^.^.^.^.^.^.^.^.^.^.^.^.^.^.^.^.^.^.^.^.^.^.^.^.^.^.^.^.^.^.^.^.^.^.^.^.^.^.^.^.^.^.^.^.^.^.^.^.^.^.^.^.^.^.^.^.^.^.^.^.^.^.^.^.^.^.^.^.^.^.^.^.^.^.^.^.^.^.^.^.^.^.^.^.^.^.^.^.^.^.^.^.^.^.^.^.^.^.^.^.^.^.^.^.^.^.^.^.^.^.^.^.^.^.^.^.^.^.^.^.^.^.^.^.^.^.^.^.^.^.^.^.^.^.^.^.^.^.^.^.^.^.^.^.^.^.^.^.^.^.^.^.^.^.^.^.^.^.^.^.^.^.^.^.^.^.^.^.^.^.^.^.^.^.^.^.^.^.^.^.^.^.^.^.^.^.^.^.^.^.^.^.^.^.^.^.^.^.^.^.^.^.^.^.^.^.^.^.^.^.^.^.^.^.^.^.^.^.^.^.^.^.^.^.^.^.^.^.^.^.^.^.^.^.^.^.^.^.^.^.^.^.^.^.^.^.^.^.^.^.^.^.^.^.^.^.^.^.^.^.^.^.^.^.^.^.^.^.^.^.^.^.^.^.^.^.^.^.^.^.^.^.^.^.^.^.^.^.^.^.^.^.^.^.^.^.^.^.^.^.^.^.^.^.^.^.^.^.^.^.^.^.^.^.^.^.^.^.^.^.^.^.^.^.^.^.^.^.^.^.^.^.^.^.^.^.^.^.^.^.^.^.^.^.^.^.^.^.^.^.^.^.^.^.^.^.^.^.^.^.^.^.^.^.^.^.^.^.^.^.^.^.^.^.^.^.^.^.^.^.^.^.^.^.^.^.^.^.^.^.^.^.^.^.^.^.^.^.^.^.^.^.^.^.^.^.^.^.^.^.^.^.^.^.^.^.^.^.^.^.^.^.^.^.^.^.^.^.^.^.^.^.^.^.^.^.^.^.^.^.^.^.^.^.^.^.^.^.^.^.^.^.^.^.^.^.^.^.^.^.^.^.^.^.^.^.^.^.^.^.^.^.^.^.^.^.^.^.^.^.^.^.^.^.^.^.^.^.^.^.^.^.^.^.^.^.^.^.^.^.^.^.^.^.^.^.^.^.^.^.^.^.^.^.^.^.^.^.^.^.^.^.^.^.^.^.^.^.^.^.^.^.^.^.^.^.^.^.^.^.^.^.^.^.^.^.^.^.^.^.^.^.^.^.^.^.^.^.^.^.^.^.^.^.^.^.^.^.^.^.^.^.^.^.^.^.^.^.^.^.^.^.^.^.^.^.^.^.^.^.^.^.^.^.^.^.^.^.^.^.^.^.^.^.^.^.^.^.^.^.^.^.^.^.^.^.^.^.^.^.^.^.^.^.^.^.",
"^.^.^.^.^.^.^.^.^.^.^.^.^.^.^.^.^.^.^.^.^.^.^.^.^.^.^.^.^.^.^.^.^.^.^.^.^.^.^.^.^.^.^.^.^.^.^.^.^.^.^.^.^.^.^.^.^.^.^.^.^.^.^.^.^.^.^.^.^.^.^.^.^.^.^.^.^.^.^.^.^.^.^.^.^.^.^.^.^.^.^.^.^.^.^.^.^.^.^.^.^.^.^.^.^.^.^.^.^.^.^.^.^.^.^.^.^.^.^.^.^.^.^.^.^.^.^.^.^.^.^.^.^.^.^.^.^.^.^.^.^.^.^.^.^.^.^.^.^.^.^.^.^.^.^.^.^.^.^.^.^.^.^.^.^.^.^.^.^.^.^.^.^.^.^.^.^.^.^.^.^.^.^.^.^.^.^.^.^.^.^.^.^.^.^.^.^.^.^.^.^.^.^.^.^.^.^.^.^.^.^.^.^.^.^.^.^.^.^.^.^.^.^.^.^.^.^.^.^.^.^.^.^.^.^.^.^.^.^.^.^.^.^.^.^.^.^.^.^.^.^.^.^.^.^.^.^.^.^.^.^.^.^.^.^.^.^.^.^.^.^.^.^.^.^.^.^.^.^.^.^.^.^.^.^.^.^.^.^.^.^.^.^.^.^.^.^.^.^.^.^.^.^.^.^.^.^.^.^.^.^.^.^.^.^.^.^.^.^.^.^.^.^.^.^.^.^.^.^.^.^.^.^.^.^.^.^.^.^.^.^.^.^.^.^.^.^.^.^.^.^.^.^.^.^.^.^.^.^.^.^.^.^.^.^.^.^.^.^.^.^.^.^.^.^.^.^.^.^.^.^.^.^.^.^.^.^.^.^.^.^.^.^.^.^.^.^.^.^.^.^.^.^.^.^.^.^.^.^.^.^.^.^.^.^.^.^.^.^.^.^.^.^.^.^.^.^.^.^.^.^.^.^.^.^.^.^.^.^.^.^.^.^.^.^.^.^.^.^.^.^.^.^.^.^.^.^.^.^.^.^.^.^.^.^.^.^.^.^.^.^.^.^.^.^.^.^.^.^.^.^.^.^.^.^.^.^.^.^.^.^.^.^.^.^.^.^.^.^.^.^.^.^.^.^.^.^.^.^.^.^.^.^.^.^.^.^.^.^.^.^.^.^.^.^.^.^.^.^.^.^.^.^.^.^.^.^.^.^.^.^.^.^.^.^.^.^.^.^.^.^.^.^.^.^.^.^.^.^.^.^.^.^.^.^.^.^.^.^.^.^.^.^.^.^.^.^.^.^.^.^.^.^.^.^.^.^.^.^.^.^.^.^.^.^.^.^.^.^.^.^.^.^.^.^.^.^.^.^.^.^.^.^.^.^.^.^.^.^.^.^.^.^.^.^.^.^.^.^.^.^.^.^.^.",
"^.^.^.^.^.^.^.^.^.^.^.^.^.^.^.^.^.^.^.^.^.^.^.^.^.^.^.^.^.^.^.^.^.^.^.^.^.^.^.^.^.^.^.^.^.^.^.^.^.^.^.^.^.^.^.^.^.^.^.^.^.^.^.^.^.^.^.^.^.^.^.^.^.^.^.^.^.^.^.^.^.^.^.^.^.^.^.^.^.^.^.^.^.^.^.^.^.^.^.^.^.^.^.^.^.^.^.^.^.^.^.^.^.^.^.^.^.^.^.^.^.^.^.^.^.^.^.^.^.^.^.^.^.^.^.^.^.^.^.^.^.^.^.^.^.^.^.^.^.^.^.^.^.^.^.^.^.^.^.^.^.^.^.^.^.^.^.^.^.^.^.^.^.^.^.^.^.^.^.^.^.^.^.^.^.^.^.^.^.^.^.^.^.^.^.^.^.^.^.^.^.^.^.^.^.^.^.^.^.^.^.^.^.^.^.^.^.^.^.^.^.^.^.^.^.^.^.^.^.^.^.^.^.^.^.^.^.^.^.^.^.^.^.^.^.^.^.^.^.^.^.^.^.^.^.^.^.^.^.^.^.^.^.^.^.^.^.^.^.^.^.^.^.^.^.^.^.^.^.^.^.^.^.^.^.^.^.^.^.^.^.^.^.^.^.^.^.^.^.^.^.^.^.^.^.^.^.^.^.^.^.^.^.^.^.^.^.^.^.^.^.^.^.^.^.^.^.^.^.^.^.^.^.^.^.^.^.^.^.^.^.^.^.^.^.^.^.^.^.^.^.^.^.^.^.^.^.^.^.^.^.^.^.^.^.^.^.^.^.^.^.^.^.^.^.^.^.^.^.^.^.^.^.^.^.^.^.^.^.^.^.^.^.^.^.^.^.^.^.^.^.^.^.^.^.^.^.^.^.^.^.^.^.^.^.^.^.^.^.^.^.^.^.^.^.^.^.^.^.^.^.^.^.^.^.^.^.^.^.^.^.^.^.^.^.^.^.^.^.^.^.^.^.^.^.^.^.^.^.^.^.^.^.^.^.^.^.^.^.^.^.^.^.^.^.^.^.^.^.^.^.^.^.^.^.^.^.^.^.^.^.^.^.^.^.^.^.^.^.^.^.^.^.^.^.^.^.^.^.^.^.^.^.^.^.^.^.^.^.^.^.^.^.^.^.^.^.^.^.^.^.^.^.^.^.^.^.^.^.^.^.^.^.^.^.^.^.^.^.^.^.^.^.^.^.^.^.^.^.^.^.^.^.^.^.^.^.^.^.^.^.^.^.^.^.^.^.^.^.^.^.^.^.^.^.^.^.^.^.^.^.^.^.^.^.^.^.^.^.^.^.^.^.^.^.^.^.^.^.^.^.^.^.^.^.^.^.^.^.^.^.^.^.^.^.^.^.^.^.^.^.^.^.^.",
"^.^.^.^.^.^.^.^.^.^.^.^.^.^.^.^.^.^.^.^.^.^.^.^.^.^.^.^.^.^.^.^.^.^.^.^.^.^.^.^.^.^.^.^.^.^.^.^.^.^.^.^.^.^.^.^.^.^.^.^.^.^.^.^.^.^.^.^.^.^.^.^.^.^.^.^.^.^.^.^.^.^.^.^.^.^.^.^.^.^.^.^.^.^.^.^.^.^.^.^.^.^.^.^.^.^.^.^.^.^.^.^.^.^.^.^.^.^.^.^.^.^.^.^.^.^.^.^.^.^.^.^.^.^.^.^.^.^.^.^.^.^.^.^.^.^.^.^.^.^.^.^.^.^.^.^.^.^.^.^.^.^.^.^.^.^.^.^.^.^.^.^.^.^.^.^.^.^.^.^.^.^.^.^.^.^.^.^.^.^.^.^.^.^.^.^.^.^.^.^.^.^.^.^.^.^.^.^.^.^.^.^.^.^.^.^.^.^.^.^.^.^.^.^.^.^.^.^.^.^.^.^.^.^.^.^.^.^.^.^.^.^.^.^.^.^.^.^.^.^.^.^.^.^.^.^.^.^.^.^.^.^.^.^.^.^.^.^.^.^.^.^.^.^.^.^.^.^.^.^.^.^.^.^.^.^.^.^.^.^.^.^.^.^.^.^.^.^.^.^.^.^.^.^.^.^.^.^.^.^.^.^.^.^.^.^.^.^.^.^.^.^.^.^.^.^.^.^.^.^.^.^.^.^.^.^.^.^.^.^.^.^.^.^.^.^.^.^.^.^.^.^.^.^.^.^.^.^.^.^.^.^.^.^.^.^.^.^.^.^.^.^.^.^.^.^.^.^.^.^.^.^.^.^.^.^.^.^.^.^.^.^.^.^.^.^.^.^.^.^.^.^.^.^.^.^.^.^.^.^.^.^.^.^.^.^.^.^.^.^.^.^.^.^.^.^.^.^.^.^.^.^.^.^.^.^.^.^.^.^.^.^.^.^.^.^.^.^.^.^.^.^.^.^.^.^.^.^.^.^.^.^.^.^.^.^.^.^.^.^.^.^.^.^.^.^.^.^.^.^.^.^.^.^.^.^.^.^.^.^.^.^.^.^.^.^.^.^.^.^.^.^.^.^.^.^.^.^.^.^.^.^.^.^.^.^.^.^.^.^.^.^.^.^.^.^.^.^.^.^.^.^.^.^.^.^.^.^.^.^.^.^.^.^.^.^.^.^.^.^.^.^.^.^.^.^.^.^.^.^.^.^.^.^.^.^.^.^.^.^.^.^.^.^.^.^.^.^.^.^.^.^.^.^.^.^.^.^.^.^.^.^.^.^.^.^.^.^.^.^.^.^.^.^.^.^.^.^.^.^.^.^.^.^.^.^.^.^.^.^.^.^.^.^.^.^.^.^.^.^.^.^.^.^.",
"^.^.^.^.^.^.^.^.^.^.^.^.^.^.^.^.^.^.^.^.^.^.^.^.^.^.^.^.^.^.^.^.^.^.^.^.^.^.^.^.^.^.^.^.^.^.^.^.^.^.^.^.^.^.^.^.^.^.^.^.^.^.^.^.^.^.^.^.^.^.^.^.^.^.^.^.^.^.^.^.^.^.^.^.^.^.^.^.^.^.^.^.^.^.^.^.^.^.^.^.^.^.^.^.^.^.^.^.^.^.^.^.^.^.^.^.^.^.^.^.^.^.^.^.^.^.^.^.^.^.^.^.^.^.^.^.^.^.^.^.^.^.^.^.^.^.^.^.^.^.^.^.^.^.^.^.^.^.^.^.^.^.^.^.^.^.^.^.^.^.^.^.^.^.^.^.^.^.^.^.^.^.^.^.^.^.^.^.^.^.^.^.^.^.^.^.^.^.^.^.^.^.^.^.^.^.^.^.^.^.^.^.^.^.^.^.^.^.^.^.^.^.^.^.^.^.^.^.^.^.^.^.^.^.^.^.^.^.^.^.^.^.^.^.^.^.^.^.^.^.^.^.^.^.^.^.^.^.^.^.^.^.^.^.^.^.^.^.^.^.^.^.^.^.^.^.^.^.^.^.^.^.^.^.^.^.^.^.^.^.^.^.^.^.^.^.^.^.^.^.^.^.^.^.^.^.^.^.^.^.^.^.^.^.^.^.^.^.^.^.^.^.^.^.^.^.^.^.^.^.^.^.^.^.^.^.^.^.^.^.^.^.^.^.^.^.^.^.^.^.^.^.^.^.^.^.^.^.^.^.^.^.^.^.^.^.^.^.^.^.^.^.^.^.^.^.^.^.^.^.^.^.^.^.^.^.^.^.^.^.^.^.^.^.^.^.^.^.^.^.^.^.^.^.^.^.^.^.^.^.^.^.^.^.^.^.^.^.^.^.^.^.^.^.^.^.^.^.^.^.^.^.^.^.^.^.^.^.^.^.^.^.^.^.^.^.^.^.^.^.^.^.^.^.^.^.^.^.^.^.^.^.^.^.^.^.^.^.^.^.^.^.^.^.^.^.^.^.^.^.^.^.^.^.^.^.^.^.^.^.^.^.^.^.^.^.^.^.^.^.^.^.^.^.^.^.^.^.^.^.^.^.^.^.^.^.^.^.^.^.^.^.^.^.^.^.^.^.^.^.^.^.^.^.^.^.^.^.^.^.^.^.^.^.^.^.^.^.^.^.^.^.^.^.^.^.^.^.^.^.^.^.^.^.^.^.^.^.^.^.^.^.^.^.^.^.^.^.^.^.^.^.^.^.^.^.^.^.^.^.^.^.^.^.^.^.^.^.^.^.^.^.^.^.^.^.^.^.^.^.^.^.^.^.^.^.^.^.^.^.^.^.^.^.^.^.^.^.^.^.^.^.^.^.",
"^.^.^.^.^.^.^.^.^.^.^.^.^.^.^.^.^.^.^.^.^.^.^.^.^.^.^.^.^.^.^.^.^.^.^.^.^.^.^.^.^.^.^.^.^.^.^.^.^.^.^.^.^.^.^.^.^.^.^.^.^.^.^.^.^.^.^.^.^.^.^.^.^.^.^.^.^.^.^.^.^.^.^.^.^.^.^.^.^.^.^.^.^.^.^.^.^.^.^.^.^.^.^.^.^.^.^.^.^.^.^.^.^.^.^.^.^.^.^.^.^.^.^.^.^.^.^.^.^.^.^.^.^.^.^.^.^.^.^.^.^.^.^.^.^.^.^.^.^.^.^.^.^.^.^.^.^.^.^.^.^.^.^.^.^.^.^.^.^.^.^.^.^.^.^.^.^.^.^.^.^.^.^.^.^.^.^.^.^.^.^.^.^.^.^.^.^.^.^.^.^.^.^.^.^.^.^.^.^.^.^.^.^.^.^.^.^.^.^.^.^.^.^.^.^.^.^.^.^.^.^.^.^.^.^.^.^.^.^.^.^.^.^.^.^.^.^.^.^.^.^.^.^.^.^.^.^.^.^.^.^.^.^.^.^.^.^.^.^.^.^.^.^.^.^.^.^.^.^.^.^.^.^.^.^.^.^.^.^.^.^.^.^.^.^.^.^.^.^.^.^.^.^.^.^.^.^.^.^.^.^.^.^.^.^.^.^.^.^.^.^.^.^.^.^.^.^.^.^.^.^.^.^.^.^.^.^.^.^.^.^.^.^.^.^.^.^.^.^.^.^.^.^.^.^.^.^.^.^.^.^.^.^.^.^.^.^.^.^.^.^.^.^.^.^.^.^.^.^.^.^.^.^.^.^.^.^.^.^.^.^.^.^.^.^.^.^.^.^.^.^.^.^.^.^.^.^.^.^.^.^.^.^.^.^.^.^.^.^.^.^.^.^.^.^.^.^.^.^.^.^.^.^.^.^.^.^.^.^.^.^.^.^.^.^.^.^.^.^.^.^.^.^.^.^.^.^.^.^.^.^.^.^.^.^.^.^.^.^.^.^.^.^.^.^.^.^.^.^.^.^.^.^.^.^.^.^.^.^.^.^.^.^.^.^.^.^.^.^.^.^.^.^.^.^.^.^.^.^.^.^.^.^.^.^.^.^.^.^.^.^.^.^.^.^.^.^.^.^.^.^.^.^.^.^.^.^.^.^.^.^.^.^.^.^.^.^.^.^.^.^.^.^.^.^.^.^.^.^.^.^.^.^.^.^.^.^.^.^.^.^.^.^.^.^.^.^.^.^.^.^.^.^.^.^.^.^.^.^.^.^.^.^.^.^.^.^.^.^.^.^.^.^.^.^.^.^.^.^.^.^.^.^.^.^.^.^.^.^.^.^.^.^.^.^.^.^.^.^.^.^.^.^.^.",
"^.^.^.^.^.^.^.^.^.^.^.^.^.^.^.^.^.^.^.^.^.^.^.^.^.^.^.^.^.^.^.^.^.^.^.^.^.^.^.^.^.^.^.^.^.^.^.^.^.^.^.^.^.^.^.^.^.^.^.^.^.^.^.^.^.^.^.^.^.^.^.^.^.^.^.^.^.^.^.^.^.^.^.^.^.^.^.^.^.^.^.^.^.^.^.^.^.^.^.^.^.^.^.^.^.^.^.^.^.^.^.^.^.^.^.^.^.^.^.^.^.^.^.^.^.^.^.^.^.^.^.^.^.^.^.^.^.^.^.^.^.^.^.^.^.^.^.^.^.^.^.^.^.^.^.^.^.^.^.^.^.^.^.^.^.^.^.^.^.^.^.^.^.^.^.^.^.^.^.^.^.^.^.^.^.^.^.^.^.^.^.^.^.^.^.^.^.^.^.^.^.^.^.^.^.^.^.^.^.^.^.^.^.^.^.^.^.^.^.^.^.^.^.^.^.^.^.^.^.^.^.^.^.^.^.^.^.^.^.^.^.^.^.^.^.^.^.^.^.^.^.^.^.^.^.^.^.^.^.^.^.^.^.^.^.^.^.^.^.^.^.^.^.^.^.^.^.^.^.^.^.^.^.^.^.^.^.^.^.^.^.^.^.^.^.^.^.^.^.^.^.^.^.^.^.^.^.^.^.^.^.^.^.^.^.^.^.^.^.^.^.^.^.^.^.^.^.^.^.^.^.^.^.^.^.^.^.^.^.^.^.^.^.^.^.^.^.^.^.^.^.^.^.^.^.^.^.^.^.^.^.^.^.^.^.^.^.^.^.^.^.^.^.^.^.^.^.^.^.^.^.^.^.^.^.^.^.^.^.^.^.^.^.^.^.^.^.^.^.^.^.^.^.^.^.^.^.^.^.^.^.^.^.^.^.^.^.^.^.^.^.^.^.^.^.^.^.^.^.^.^.^.^.^.^.^.^.^.^.^.^.^.^.^.^.^.^.^.^.^.^.^.^.^.^.^.^.^.^.^.^.^.^.^.^.^.^.^.^.^.^.^.^.^.^.^.^.^.^.^.^.^.^.^.^.^.^.^.^.^.^.^.^.^.^.^.^.^.^.^.^.^.^.^.^.^.^.^.^.^.^.^.^.^.^.^.^.^.^.^.^.^.^.^.^.^.^.^.^.^.^.^.^.^.^.^.^.^.^.^.^.^.^.^.^.^.^.^.^.^.^.^.^.^.^.^.^.^.^.^.^.^.^.^.^.^.^.^.^.^.^.^.^.^.^.^.^.^.^.^.^.^.^.^.^.^.^.^.^.^.^.^.^.^.^.^.^.^.^.^.^.^.^.^.^.^.^.^.^.^.^.^.^.^.^.^.^.^.^.^.^.^.^.^.^.^.^.^.^.^.^.^.^.^.",
"^.^.^.^.^.^.^.^.^.^.^.^.^.^.^.^.^.^.^.^.^.^.^.^.^.^.^.^.^.^.^.^.^.^.^.^.^.^.^.^.^.^.^.^.^.^.^.^.^.^.^.^.^.^.^.^.^.^.^.^.^.^.^.^.^.^.^.^.^.^.^.^.^.^.^.^.^.^.^.^.^.^.^.^.^.^.^.^.^.^.^.^.^.^.^.^.^.^.^.^.^.^.^.^.^.^.^.^.^.^.^.^.^.^.^.^.^.^.^.^.^.^.^.^.^.^.^.^.^.^.^.^.^.^.^.^.^.^.^.^.^.^.^.^.^.^.^.^.^.^.^.^.^.^.^.^.^.^.^.^.^.^.^.^.^.^.^.^.^.^.^.^.^.^.^.^.^.^.^.^.^.^.^.^.^.^.^.^.^.^.^.^.^.^.^.^.^.^.^.^.^.^.^.^.^.^.^.^.^.^.^.^.^.^.^.^.^.^.^.^.^.^.^.^.^.^.^.^.^.^.^.^.^.^.^.^.^.^.^.^.^.^.^.^.^.^.^.^.^.^.^.^.^.^.^.^.^.^.^.^.^.^.^.^.^.^.^.^.^.^.^.^.^.^.^.^.^.^.^.^.^.^.^.^.^.^.^.^.^.^.^.^.^.^.^.^.^.^.^.^.^.^.^.^.^.^.^.^.^.^.^.^.^.^.^.^.^.^.^.^.^.^.^.^.^.^.^.^.^.^.^.^.^.^.^.^.^.^.^.^.^.^.^.^.^.^.^.^.^.^.^.^.^.^.^.^.^.^.^.^.^.^.^.^.^.^.^.^.^.^.^.^.^.^.^.^.^.^.^.^.^.^.^.^.^.^.^.^.^.^.^.^.^.^.^.^.^.^.^.^.^.^.^.^.^.^.^.^.^.^.^.^.^.^.^.^.^.^.^.^.^.^.^.^.^.^.^.^.^.^.^.^.^.^.^.^.^.^.^.^.^.^.^.^.^.^.^.^.^.^.^.^.^.^.^.^.^.^.^.^.^.^.^.^.^.^.^.^.^.^.^.^.^.^.^.^.^.^.^.^.^.^.^.^.^.^.^.^.^.^.^.^.^.^.^.^.^.^.^.^.^.^.^.^.^.^.^.^.^.^.^.^.^.^.^.^.^.^.^.^.^.^.^.^.^.^.^.^.^.^.^.^.^.^.^.^.^.^.^.^.^.^.^.^.^.^.^.^.^.^.^.^.^.^.^.^.^.^.^.^.^.^.^.^.^.^.^.^.^.^.^.^.^.^.^.^.^.^.^.^.^.^.^.^.^.^.^.^.^.^.^.^.^.^.^.^.^.^.^.^.^.^.^.^.^.^.^.^.^.^.^.^.^.^.^.^.^.^.^.^.^.^.^.^.^.^.^.^.^.^.^.^.^.^.",
"^.^.^.^.^.^.^.^.^.^.^.^.^.^.^.^.^.^.^.^.^.^.^.^.^.^.^.^.^.^.^.^.^.^.^.^.^.^.^.^.^.^.^.^.^.^.^.^.^.^.^.^.^.^.^.^.^.^.^.^.^.^.^.^.^.^.^.^.^.^.^.^.^.^.^.^.^.^.^.^.^.^.^.^.^.^.^.^.^.^.^.^.^.^.^.^.^.^.^.^.^.^.^.^.^.^.^.^.^.^.^.^.^.^.^.^.^.^.^.^.^.^.^.^.^.^.^.^.^.^.^.^.^.^.^.^.^.^.^.^.^.^.^.^.^.^.^.^.^.^.^.^.^.^.^.^.^.^.^.^.^.^.^.^.^.^.^.^.^.^.^.^.^.^.^.^.^.^.^.^.^.^.^.^.^.^.^.^.^.^.^.^.^.^.^.^.^.^.^.^.^.^.^.^.^.^.^.^.^.^.^.^.^.^.^.^.^.^.^.^.^.^.^.^.^.^.^.^.^.^.^.^.^.^.^.^.^.^.^.^.^.^.^.^.^.^.^.^.^.^.^.^.^.^.^.^.^.^.^.^.^.^.^.^.^.^.^.^.^.^.^.^.^.^.^.^.^.^.^.^.^.^.^.^.^.^.^.^.^.^.^.^.^.^.^.^.^.^.^.^.^.^.^.^.^.^.^.^.^.^.^.^.^.^.^.^.^.^.^.^.^.^.^.^.^.^.^.^.^.^.^.^.^.^.^.^.^.^.^.^.^.^.^.^.^.^.^.^.^.^.^.^.^.^.^.^.^.^.^.^.^.^.^.^.^.^.^.^.^.^.^.^.^.^.^.^.^.^.^.^.^.^.^.^.^.^.^.^.^.^.^.^.^.^.^.^.^.^.^.^.^.^.^.^.^.^.^.^.^.^.^.^.^.^.^.^.^.^.^.^.^.^.^.^.^.^.^.^.^.^.^.^.^.^.^.^.^.^.^.^.^.^.^.^.^.^.^.^.^.^.^.^.^.^.^.^.^.^.^.^.^.^.^.^.^.^.^.^.^.^.^.^.^.^.^.^.^.^.^.^.^.^.^.^.^.^.^.^.^.^.^.^.^.^.^.^.^.^.^.^.^.^.^.^.^.^.^.^.^.^.^.^.^.^.^.^.^.^.^.^.^.^.^.^.^.^.^.^.^.^.^.^.^.^.^.^.^.^.^.^.^.^.^.^.^.^.^.^.^.^.^.^.^.^.^.^.^.^.^.^.^.^.^.^.^.^.^.^.^.^.^.^.^.^.^.^.^.^.^.^.^.^.^.^.^.^.^.^.^.^.^.^.^.^.^.^.^.^.^.^.^.^.^.^.^.^.^.^.^.^.^.^.^.^.^.^.^.^.^.^.^.^.^.^.^.^.^.^.^.^.^.^.^.^.",
"^.^.^.^.^.^.^.^.^.^.^.^.^.^.^.^.^.^.^.^.^.^.^.^.^.^.^.^.^.^.^.^.^.^.^.^.^.^.^.^.^.^.^.^.^.^.^.^.^.^.^.^.^.^.^.^.^.^.^.^.^.^.^.^.^.^.^.^.^.^.^.^.^.^.^.^.^.^.^.^.^.^.^.^.^.^.^.^.^.^.^.^.^.^.^.^.^.^.^.^.^.^.^.^.^.^.^.^.^.^.^.^.^.^.^.^.^.^.^.^.^.^.^.^.^.^.^.^.^.^.^.^.^.^.^.^.^.^.^.^.^.^.^.^.^.^.^.^.^.^.^.^.^.^.^.^.^.^.^.^.^.^.^.^.^.^.^.^.^.^.^.^.^.^.^.^.^.^.^.^.^.^.^.^.^.^.^.^.^.^.^.^.^.^.^.^.^.^.^.^.^.^.^.^.^.^.^.^.^.^.^.^.^.^.^.^.^.^.^.^.^.^.^.^.^.^.^.^.^.^.^.^.^.^.^.^.^.^.^.^.^.^.^.^.^.^.^.^.^.^.^.^.^.^.^.^.^.^.^.^.^.^.^.^.^.^.^.^.^.^.^.^.^.^.^.^.^.^.^.^.^.^.^.^.^.^.^.^.^.^.^.^.^.^.^.^.^.^.^.^.^.^.^.^.^.^.^.^.^.^.^.^.^.^.^.^.^.^.^.^.^.^.^.^.^.^.^.^.^.^.^.^.^.^.^.^.^.^.^.^.^.^.^.^.^.^.^.^.^.^.^.^.^.^.^.^.^.^.^.^.^.^.^.^.^.^.^.^.^.^.^.^.^.^.^.^.^.^.^.^.^.^.^.^.^.^.^.^.^.^.^.^.^.^.^.^.^.^.^.^.^.^.^.^.^.^.^.^.^.^.^.^.^.^.^.^.^.^.^.^.^.^.^.^.^.^.^.^.^.^.^.^.^.^.^.^.^.^.^.^.^.^.^.^.^.^.^.^.^.^.^.^.^.^.^.^.^.^.^.^.^.^.^.^.^.^.^.^.^.^.^.^.^.^.^.^.^.^.^.^.^.^.^.^.^.^.^.^.^.^.^.^.^.^.^.^.^.^.^.^.^.^.^.^.^.^.^.^.^.^.^.^.^.^.^.^.^.^.^.^.^.^.^.^.^.^.^.^.^.^.^.^.^.^.^.^.^.^.^.^.^.^.^.^.^.^.^.^.^.^.^.^.^.^.^.^.^.^.^.^.^.^.^.^.^.^.^.^.^.^.^.^.^.^.^.^.^.^.^.^.^.^.^.^.^.^.^.^.^.^.^.^.^.^.^.^.^.^.^.^.^.^.^.^.^.^.^.^.^.^.^.^.^.^.^.^.^.^.^.^.^.^.^.^.^.^.^.^.^.^.^.^.^.^.",
"^.^.^.^.^.^.^.^.^.^.^.^.^.^.^.^.^.^.^.^.^.^.^.^.^.^.^.^.^.^.^.^.^.^.^.^.^.^.^.^.^.^.^.^.^.^.^.^.^.^.^.^.^.^.^.^.^.^.^.^.^.^.^.^.^.^.^.^.^.^.^.^.^.^.^.^.^.^.^.^.^.^.^.^.^.^.^.^.^.^.^.^.^.^.^.^.^.^.^.^.^.^.^.^.^.^.^.^.^.^.^.^.^.^.^.^.^.^.^.^.^.^.^.^.^.^.^.^.^.^.^.^.^.^.^.^.^.^.^.^.^.^.^.^.^.^.^.^.^.^.^.^.^.^.^.^.^.^.^.^.^.^.^.^.^.^.^.^.^.^.^.^.^.^.^.^.^.^.^.^.^.^.^.^.^.^.^.^.^.^.^.^.^.^.^.^.^.^.^.^.^.^.^.^.^.^.^.^.^.^.^.^.^.^.^.^.^.^.^.^.^.^.^.^.^.^.^.^.^.^.^.^.^.^.^.^.^.^.^.^.^.^.^.^.^.^.^.^.^.^.^.^.^.^.^.^.^.^.^.^.^.^.^.^.^.^.^.^.^.^.^.^.^.^.^.^.^.^.^.^.^.^.^.^.^.^.^.^.^.^.^.^.^.^.^.^.^.^.^.^.^.^.^.^.^.^.^.^.^.^.^.^.^.^.^.^.^.^.^.^.^.^.^.^.^.^.^.^.^.^.^.^.^.^.^.^.^.^.^.^.^.^.^.^.^.^.^.^.^.^.^.^.^.^.^.^.^.^.^.^.^.^.^.^.^.^.^.^.^.^.^.^.^.^.^.^.^.^.^.^.^.^.^.^.^.^.^.^.^.^.^.^.^.^.^.^.^.^.^.^.^.^.^.^.^.^.^.^.^.^.^.^.^.^.^.^.^.^.^.^.^.^.^.^.^.^.^.^.^.^.^.^.^.^.^.^.^.^.^.^.^.^.^.^.^.^.^.^.^.^.^.^.^.^.^.^.^.^.^.^.^.^.^.^.^.^.^.^.^.^.^.^.^.^.^.^.^.^.^.^.^.^.^.^.^.^.^.^.^.^.^.^.^.^.^.^.^.^.^.^.^.^.^.^.^.^.^.^.^.^.^.^.^.^.^.^.^.^.^.^.^.^.^.^.^.^.^.^.^.^.^.^.^.^.^.^.^.^.^.^.^.^.^.^.^.^.^.^.^.^.^.^.^.^.^.^.^.^.^.^.^.^.^.^.^.^.^.^.^.^.^.^.^.^.^.^.^.^.^.^.^.^.^.^.^.^.^.^.^.^.^.^.^.^.^.^.^.^.^.^.^.^.^.^.^.^.^.^.^.^.^.^.^.^.^.^.^.^.^.^.^.^.^.^.^.^.^.^.^.^.^.^.^.^.",
"^.^.^.^.^.^.^.^.^.^.^.^.^.^.^.^.^.^.^.^.^.^.^.^.^.^.^.^.^.^.^.^.^.^.^.^.^.^.^.^.^.^.^.^.^.^.^.^.^.^.^.^.^.^.^.^.^.^.^.^.^.^.^.^.^.^.^.^.^.^.^.^.^.^.^.^.^.^.^.^.^.^.^.^.^.^.^.^.^.^.^.^.^.^.^.^.^.^.^.^.^.^.^.^.^.^.^.^.^.^.^.^.^.^.^.^.^.^.^.^.^.^.^.^.^.^.^.^.^.^.^.^.^.^.^.^.^.^.^.^.^.^.^.^.^.^.^.^.^.^.^.^.^.^.^.^.^.^.^.^.^.^.^.^.^.^.^.^.^.^.^.^.^.^.^.^.^.^.^.^.^.^.^.^.^.^.^.^.^.^.^.^.^.^.^.^.^.^.^.^.^.^.^.^.^.^.^.^.^.^.^.^.^.^.^.^.^.^.^.^.^.^.^.^.^.^.^.^.^.^.^.^.^.^.^.^.^.^.^.^.^.^.^.^.^.^.^.^.^.^.^.^.^.^.^.^.^.^.^.^.^.^.^.^.^.^.^.^.^.^.^.^.^.^.^.^.^.^.^.^.^.^.^.^.^.^.^.^.^.^.^.^.^.^.^.^.^.^.^.^.^.^.^.^.^.^.^.^.^.^.^.^.^.^.^.^.^.^.^.^.^.^.^.^.^.^.^.^.^.^.^.^.^.^.^.^.^.^.^.^.^.^.^.^.^.^.^.^.^.^.^.^.^.^.^.^.^.^.^.^.^.^.^.^.^.^.^.^.^.^.^.^.^.^.^.^.^.^.^.^.^.^.^.^.^.^.^.^.^.^.^.^.^.^.^.^.^.^.^.^.^.^.^.^.^.^.^.^.^.^.^.^.^.^.^.^.^.^.^.^.^.^.^.^.^.^.^.^.^.^.^.^.^.^.^.^.^.^.^.^.^.^.^.^.^.^.^.^.^.^.^.^.^.^.^.^.^.^.^.^.^.^.^.^.^.^.^.^.^.^.^.^.^.^.^.^.^.^.^.^.^.^.^.^.^.^.^.^.^.^.^.^.^.^.^.^.^.^.^.^.^.^.^.^.^.^.^.^.^.^.^.^.^.^.^.^.^.^.^.^.^.^.^.^.^.^.^.^.^.^.^.^.^.^.^.^.^.^.^.^.^.^.^.^.^.^.^.^.^.^.^.^.^.^.^.^.^.^.^.^.^.^.^.^.^.^.^.^.^.^.^.^.^.^.^.^.^.^.^.^.^.^.^.^.^.^.^.^.^.^.^.^.^.^.^.^.^.^.^.^.^.^.^.^.^.^.^.^.^.^.^.^.^.^.^.^.^.^.^.^.^.^.^.^.^.^.^.^.^.^.^.^.^.^.",
"^.^.^.^.^.^.^.^.^.^.^.^.^.^.^.^.^.^.^.^.^.^.^.^.^.^.^.^.^.^.^.^.^.^.^.^.^.^.^.^.^.^.^.^.^.^.^.^.^.^.^.^.^.^.^.^.^.^.^.^.^.^.^.^.^.^.^.^.^.^.^.^.^.^.^.^.^.^.^.^.^.^.^.^.^.^.^.^.^.^.^.^.^.^.^.^.^.^.^.^.^.^.^.^.^.^.^.^.^.^.^.^.^.^.^.^.^.^.^.^.^.^.^.^.^.^.^.^.^.^.^.^.^.^.^.^.^.^.^.^.^.^.^.^.^.^.^.^.^.^.^.^.^.^.^.^.^.^.^.^.^.^.^.^.^.^.^.^.^.^.^.^.^.^.^.^.^.^.^.^.^.^.^.^.^.^.^.^.^.^.^.^.^.^.^.^.^.^.^.^.^.^.^.^.^.^.^.^.^.^.^.^.^.^.^.^.^.^.^.^.^.^.^.^.^.^.^.^.^.^.^.^.^.^.^.^.^.^.^.^.^.^.^.^.^.^.^.^.^.^.^.^.^.^.^.^.^.^.^.^.^.^.^.^.^.^.^.^.^.^.^.^.^.^.^.^.^.^.^.^.^.^.^.^.^.^.^.^.^.^.^.^.^.^.^.^.^.^.^.^.^.^.^.^.^.^.^.^.^.^.^.^.^.^.^.^.^.^.^.^.^.^.^.^.^.^.^.^.^.^.^.^.^.^.^.^.^.^.^.^.^.^.^.^.^.^.^.^.^.^.^.^.^.^.^.^.^.^.^.^.^.^.^.^.^.^.^.^.^.^.^.^.^.^.^.^.^.^.^.^.^.^.^.^.^.^.^.^.^.^.^.^.^.^.^.^.^.^.^.^.^.^.^.^.^.^.^.^.^.^.^.^.^.^.^.^.^.^.^.^.^.^.^.^.^.^.^.^.^.^.^.^.^.^.^.^.^.^.^.^.^.^.^.^.^.^.^.^.^.^.^.^.^.^.^.^.^.^.^.^.^.^.^.^.^.^.^.^.^.^.^.^.^.^.^.^.^.^.^.^.^.^.^.^.^.^.^.^.^.^.^.^.^.^.^.^.^.^.^.^.^.^.^.^.^.^.^.^.^.^.^.^.^.^.^.^.^.^.^.^.^.^.^.^.^.^.^.^.^.^.^.^.^.^.^.^.^.^.^.^.^.^.^.^.^.^.^.^.^.^.^.^.^.^.^.^.^.^.^.^.^.^.^.^.^.^.^.^.^.^.^.^.^.^.^.^.^.^.^.^.^.^.^.^.^.^.^.^.^.^.^.^.^.^.^.^.^.^.^.^.^.^.^.^.^.^.^.^.^.^.^.^.^.^.^.^.^.^.^.^.^.^.^.^.^.^.^.^.^.^.^.^.^.^.",
"^.^.^.^.^.^.^.^.^.^.^.^.^.^.^.^.^.^.^.^.^.^.^.^.^.^.^.^.^.^.^.^.^.^.^.^.^.^.^.^.^.^.^.^.^.^.^.^.^.^.^.^.^.^.^.^.^.^.^.^.^.^.^.^.^.^.^.^.^.^.^.^.^.^.^.^.^.^.^.^.^.^.^.^.^.^.^.^.^.^.^.^.^.^.^.^.^.^.^.^.^.^.^.^.^.^.^.^.^.^.^.^.^.^.^.^.^.^.^.^.^.^.^.^.^.^.^.^.^.^.^.^.^.^.^.^.^.^.^.^.^.^.^.^.^.^.^.^.^.^.^.^.^.^.^.^.^.^.^.^.^.^.^.^.^.^.^.^.^.^.^.^.^.^.^.^.^.^.^.^.^.^.^.^.^.^.^.^.^.^.^.^.^.^.^.^.^.^.^.^.^.^.^.^.^.^.^.^.^.^.^.^.^.^.^.^.^.^.^.^.^.^.^.^.^.^.^.^.^.^.^.^.^.^.^.^.^.^.^.^.^.^.^.^.^.^.^.^.^.^.^.^.^.^.^.^.^.^.^.^.^.^.^.^.^.^.^.^.^.^.^.^.^.^.^.^.^.^.^.^.^.^.^.^.^.^.^.^.^.^.^.^.^.^.^.^.^.^.^.^.^.^.^.^.^.^.^.^.^.^.^.^.^.^.^.^.^.^.^.^.^.^.^.^.^.^.^.^.^.^.^.^.^.^.^.^.^.^.^.^.^.^.^.^.^.^.^.^.^.^.^.^.^.^.^.^.^.^.^.^.^.^.^.^.^.^.^.^.^.^.^.^.^.^.^.^.^.^.^.^.^.^.^.^.^.^.^.^.^.^.^.^.^.^.^.^.^.^.^.^.^.^.^.^.^.^.^.^.^.^.^.^.^.^.^.^.^.^.^.^.^.^.^.^.^.^.^.^.^.^.^.^.^.^.^.^.^.^.^.^.^.^.^.^.^.^.^.^.^.^.^.^.^.^.^.^.^.^.^.^.^.^.^.^.^.^.^.^.^.^.^.^.^.^.^.^.^.^.^.^.^.^.^.^.^.^.^.^.^.^.^.^.^.^.^.^.^.^.^.^.^.^.^.^.^.^.^.^.^.^.^.^.^.^.^.^.^.^.^.^.^.^.^.^.^.^.^.^.^.^.^.^.^.^.^.^.^.^.^.^.^.^.^.^.^.^.^.^.^.^.^.^.^.^.^.^.^.^.^.^.^.^.^.^.^.^.^.^.^.^.^.^.^.^.^.^.^.^.^.^.^.^.^.^.^.^.^.^.^.^.^.^.^.^.^.^.^.^.^.^.^.^.^.^.^.^.^.^.^.^.^.^.^.^.^.^.^.^.^.^.^.^.^.^.^.^.^.^.^.^.^.^.^.^.",
"^.^.^.^.^.^.^.^.^.^.^.^.^.^.^.^.^.^.^.^.^.^.^.^.^.^.^.^.^.^.^.^.^.^.^.^.^.^.^.^.^.^.^.^.^.^.^.^.^.^.^.^.^.^.^.^.^.^.^.^.^.^.^.^.^.^.^.^.^.^.^.^.^.^.^.^.^.^.^.^.^.^.^.^.^.^.^.^.^.^.^.^.^.^.^.^.^.^.^.^.^.^.^.^.^.^.^.^.^.^.^.^.^.^.^.^.^.^.^.^.^.^.^.^.^.^.^.^.^.^.^.^.^.^.^.^.^.^.^.^.^.^.^.^.^.^.^.^.^.^.^.^.^.^.^.^.^.^.^.^.^.^.^.^.^.^.^.^.^.^.^.^.^.^.^.^.^.^.^.^.^.^.^.^.^.^.^.^.^.^.^.^.^.^.^.^.^.^.^.^.^.^.^.^.^.^.^.^.^.^.^.^.^.^.^.^.^.^.^.^.^.^.^.^.^.^.^.^.^.^.^.^.^.^.^.^.^.^.^.^.^.^.^.^.^.^.^.^.^.^.^.^.^.^.^.^.^.^.^.^.^.^.^.^.^.^.^.^.^.^.^.^.^.^.^.^.^.^.^.^.^.^.^.^.^.^.^.^.^.^.^.^.^.^.^.^.^.^.^.^.^.^.^.^.^.^.^.^.^.^.^.^.^.^.^.^.^.^.^.^.^.^.^.^.^.^.^.^.^.^.^.^.^.^.^.^.^.^.^.^.^.^.^.^.^.^.^.^.^.^.^.^.^.^.^.^.^.^.^.^.^.^.^.^.^.^.^.^.^.^.^.^.^.^.^.^.^.^.^.^.^.^.^.^.^.^.^.^.^.^.^.^.^.^.^.^.^.^.^.^.^.^.^.^.^.^.^.^.^.^.^.^.^.^.^.^.^.^.^.^.^.^.^.^.^.^.^.^.^.^.^.^.^.^.^.^.^.^.^.^.^.^.^.^.^.^.^.^.^.^.^.^.^.^.^.^.^.^.^.^.^.^.^.^.^.^.^.^.^.^.^.^.^.^.^.^.^.^.^.^.^.^.^.^.^.^.^.^.^.^.^.^.^.^.^.^.^.^.^.^.^.^.^.^.^.^.^.^.^.^.^.^.^.^.^.^.^.^.^.^.^.^.^.^.^.^.^.^.^.^.^.^.^.^.^.^.^.^.^.^.^.^.^.^.^.^.^.^.^.^.^.^.^.^.^.^.^.^.^.^.^.^.^.^.^.^.^.^.^.^.^.^.^.^.^.^.^.^.^.^.^.^.^.^.^.^.^.^.^.^.^.^.^.^.^.^.^.^.^.^.^.^.^.^.^.^.^.^.^.^.^.^.^.^.^.^.^.^.^.^.^.^.^.^.^.^.^.^.^.^.^.^.^.^.",
"^.^.^.^.^.^.^.^.^.^.^.^.^.^.^.^.^.^.^.^.^.^.^.^.^.^.^.^.^.^.^.^.^.^.^.^.^.^.^.^.^.^.^.^.^.^.^.^.^.^.^.^.^.^.^.^.^.^.^.^.^.^.^.^.^.^.^.^.^.^.^.^.^.^.^.^.^.^.^.^.^.^.^.^.^.^.^.^.^.^.^.^.^.^.^.^.^.^.^.^.^.^.^.^.^.^.^.^.^.^.^.^.^.^.^.^.^.^.^.^.^.^.^.^.^.^.^.^.^.^.^.^.^.^.^.^.^.^.^.^.^.^.^.^.^.^.^.^.^.^.^.^.^.^.^.^.^.^.^.^.^.^.^.^.^.^.^.^.^.^.^.^.^.^.^.^.^.^.^.^.^.^.^.^.^.^.^.^.^.^.^.^.^.^.^.^.^.^.^.^.^.^.^.^.^.^.^.^.^.^.^.^.^.^.^.^.^.^.^.^.^.^.^.^.^.^.^.^.^.^.^.^.^.^.^.^.^.^.^.^.^.^.^.^.^.^.^.^.^.^.^.^.^.^.^.^.^.^.^.^.^.^.^.^.^.^.^.^.^.^.^.^.^.^.^.^.^.^.^.^.^.^.^.^.^.^.^.^.^.^.^.^.^.^.^.^.^.^.^.^.^.^.^.^.^.^.^.^.^.^.^.^.^.^.^.^.^.^.^.^.^.^.^.^.^.^.^.^.^.^.^.^.^.^.^.^.^.^.^.^.^.^.^.^.^.^.^.^.^.^.^.^.^.^.^.^.^.^.^.^.^.^.^.^.^.^.^.^.^.^.^.^.^.^.^.^.^.^.^.^.^.^.^.^.^.^.^.^.^.^.^.^.^.^.^.^.^.^.^.^.^.^.^.^.^.^.^.^.^.^.^.^.^.^.^.^.^.^.^.^.^.^.^.^.^.^.^.^.^.^.^.^.^.^.^.^.^.^.^.^.^.^.^.^.^.^.^.^.^.^.^.^.^.^.^.^.^.^.^.^.^.^.^.^.^.^.^.^.^.^.^.^.^.^.^.^.^.^.^.^.^.^.^.^.^.^.^.^.^.^.^.^.^.^.^.^.^.^.^.^.^.^.^.^.^.^.^.^.^.^.^.^.^.^.^.^.^.^.^.^.^.^.^.^.^.^.^.^.^.^.^.^.^.^.^.^.^.^.^.^.^.^.^.^.^.^.^.^.^.^.^.^.^.^.^.^.^.^.^.^.^.^.^.^.^.^.^.^.^.^.^.^.^.^.^.^.^.^.^.^.^.^.^.^.^.^.^.^.^.^.^.^.^.^.^.^.^.^.^.^.^.^.^.^.^.^.^.^.^.^.^.^.^.^.^.^.^.^.^.^.^.^.^.^.^.^.^.^.^.^.^.^.^.^.",
"^.^.^.^.^.^.^.^.^.^.^.^.^.^.^.^.^.^.^.^.^.^.^.^.^.^.^.^.^.^.^.^.^.^.^.^.^.^.^.^.^.^.^.^.^.^.^.^.^.^.^.^.^.^.^.^.^.^.^.^.^.^.^.^.^.^.^.^.^.^.^.^.^.^.^.^.^.^.^.^.^.^.^.^.^.^.^.^.^.^.^.^.^.^.^.^.^.^.^.^.^.^.^.^.^.^.^.^.^.^.^.^.^.^.^.^.^.^.^.^.^.^.^.^.^.^.^.^.^.^.^.^.^.^.^.^.^.^.^.^.^.^.^.^.^.^.^.^.^.^.^.^.^.^.^.^.^.^.^.^.^.^.^.^.^.^.^.^.^.^.^.^.^.^.^.^.^.^.^.^.^.^.^.^.^.^.^.^.^.^.^.^.^.^.^.^.^.^.^.^.^.^.^.^.^.^.^.^.^.^.^.^.^.^.^.^.^.^.^.^.^.^.^.^.^.^.^.^.^.^.^.^.^.^.^.^.^.^.^.^.^.^.^.^.^.^.^.^.^.^.^.^.^.^.^.^.^.^.^.^.^.^.^.^.^.^.^.^.^.^.^.^.^.^.^.^.^.^.^.^.^.^.^.^.^.^.^.^.^.^.^.^.^.^.^.^.^.^.^.^.^.^.^.^.^.^.^.^.^.^.^.^.^.^.^.^.^.^.^.^.^.^.^.^.^.^.^.^.^.^.^.^.^.^.^.^.^.^.^.^.^.^.^.^.^.^.^.^.^.^.^.^.^.^.^.^.^.^.^.^.^.^.^.^.^.^.^.^.^.^.^.^.^.^.^.^.^.^.^.^.^.^.^.^.^.^.^.^.^.^.^.^.^.^.^.^.^.^.^.^.^.^.^.^.^.^.^.^.^.^.^.^.^.^.^.^.^.^.^.^.^.^.^.^.^.^.^.^.^.^.^.^.^.^.^.^.^.^.^.^.^.^.^.^.^.^.^.^.^.^.^.^.^.^.^.^.^.^.^.^.^.^.^.^.^.^.^.^.^.^.^.^.^.^.^.^.^.^.^.^.^.^.^.^.^.^.^.^.^.^.^.^.^.^.^.^.^.^.^.^.^.^.^.^.^.^.^.^.^.^.^.^.^.^.^.^.^.^.^.^.^.^.^.^.^.^.^.^.^.^.^.^.^.^.^.^.^.^.^.^.^.^.^.^.^.^.^.^.^.^.^.^.^.^.^.^.^.^.^.^.^.^.^.^.^.^.^.^.^.^.^.^.^.^.^.^.^.^.^.^.^.^.^.^.^.^.^.^.^.^.^.^.^.^.^.^.^.^.^.^.^.^.^.^.^.^.^.^.^.^.^.^.^.^.^.^.^.^.^.^.^.^.^.^.^.^.^.^.^.^.^.^.^.^.",
"^.^.^.^.^.^.^.^.^.^.^.^.^.^.^.^.^.^.^.^.^.^.^.^.^.^.^.^.^.^.^.^.^.^.^.^.^.^.^.^.^.^.^.^.^.^.^.^.^.^.^.^.^.^.^.^.^.^.^.^.^.^.^.^.^.^.^.^.^.^.^.^.^.^.^.^.^.^.^.^.^.^.^.^.^.^.^.^.^.^.^.^.^.^.^.^.^.^.^.^.^.^.^.^.^.^.^.^.^.^.^.^.^.^.^.^.^.^.^.^.^.^.^.^.^.^.^.^.^.^.^.^.^.^.^.^.^.^.^.^.^.^.^.^.^.^.^.^.^.^.^.^.^.^.^.^.^.^.^.^.^.^.^.^.^.^.^.^.^.^.^.^.^.^.^.^.^.^.^.^.^.^.^.^.^.^.^.^.^.^.^.^.^.^.^.^.^.^.^.^.^.^.^.^.^.^.^.^.^.^.^.^.^.^.^.^.^.^.^.^.^.^.^.^.^.^.^.^.^.^.^.^.^.^.^.^.^.^.^.^.^.^.^.^.^.^.^.^.^.^.^.^.^.^.^.^.^.^.^.^.^.^.^.^.^.^.^.^.^.^.^.^.^.^.^.^.^.^.^.^.^.^.^.^.^.^.^.^.^.^.^.^.^.^.^.^.^.^.^.^.^.^.^.^.^.^.^.^.^.^.^.^.^.^.^.^.^.^.^.^.^.^.^.^.^.^.^.^.^.^.^.^.^.^.^.^.^.^.^.^.^.^.^.^.^.^.^.^.^.^.^.^.^.^.^.^.^.^.^.^.^.^.^.^.^.^.^.^.^.^.^.^.^.^.^.^.^.^.^.^.^.^.^.^.^.^.^.^.^.^.^.^.^.^.^.^.^.^.^.^.^.^.^.^.^.^.^.^.^.^.^.^.^.^.^.^.^.^.^.^.^.^.^.^.^.^.^.^.^.^.^.^.^.^.^.^.^.^.^.^.^.^.^.^.^.^.^.^.^.^.^.^.^.^.^.^.^.^.^.^.^.^.^.^.^.^.^.^.^.^.^.^.^.^.^.^.^.^.^.^.^.^.^.^.^.^.^.^.^.^.^.^.^.^.^.^.^.^.^.^.^.^.^.^.^.^.^.^.^.^.^.^.^.^.^.^.^.^.^.^.^.^.^.^.^.^.^.^.^.^.^.^.^.^.^.^.^.^.^.^.^.^.^.^.^.^.^.^.^.^.^.^.^.^.^.^.^.^.^.^.^.^.^.^.^.^.^.^.^.^.^.^.^.^.^.^.^.^.^.^.^.^.^.^.^.^.^.^.^.^.^.^.^.^.^.^.^.^.^.^.^.^.^.^.^.^.^.^.^.^.^.^.^.^.^.^.^.^.^.^.^.^.^.^.^.^.^.^.^.^.^.^.^.^.",
"^.^.^.^.^.^.^.^.^.^.^.^.^.^.^.^.^.^.^.^.^.^.^.^.^.^.^.^.^.^.^.^.^.^.^.^.^.^.^.^.^.^.^.^.^.^.^.^.^.^.^.^.^.^.^.^.^.^.^.^.^.^.^.^.^.^.^.^.^.^.^.^.^.^.^.^.^.^.^.^.^.^.^.^.^.^.^.^.^.^.^.^.^.^.^.^.^.^.^.^.^.^.^.^.^.^.^.^.^.^.^.^.^.^.^.^.^.^.^.^.^.^.^.^.^.^.^.^.^.^.^.^.^.^.^.^.^.^.^.^.^.^.^.^.^.^.^.^.^.^.^.^.^.^.^.^.^.^.^.^.^.^.^.^.^.^.^.^.^.^.^.^.^.^.^.^.^.^.^.^.^.^.^.^.^.^.^.^.^.^.^.^.^.^.^.^.^.^.^.^.^.^.^.^.^.^.^.^.^.^.^.^.^.^.^.^.^.^.^.^.^.^.^.^.^.^.^.^.^.^.^.^.^.^.^.^.^.^.^.^.^.^.^.^.^.^.^.^.^.^.^.^.^.^.^.^.^.^.^.^.^.^.^.^.^.^.^.^.^.^.^.^.^.^.^.^.^.^.^.^.^.^.^.^.^.^.^.^.^.^.^.^.^.^.^.^.^.^.^.^.^.^.^.^.^.^.^.^.^.^.^.^.^.^.^.^.^.^.^.^.^.^.^.^.^.^.^.^.^.^.^.^.^.^.^.^.^.^.^.^.^.^.^.^.^.^.^.^.^.^.^.^.^.^.^.^.^.^.^.^.^.^.^.^.^.^.^.^.^.^.^.^.^.^.^.^.^.^.^.^.^.^.^.^.^.^.^.^.^.^.^.^.^.^.^.^.^.^.^.^.^.^.^.^.^.^.^.^.^.^.^.^.^.^.^.^.^.^.^.^.^.^.^.^.^.^.^.^.^.^.^.^.^.^.^.^.^.^.^.^.^.^.^.^.^.^.^.^.^.^.^.^.^.^.^.^.^.^.^.^.^.^.^.^.^.^.^.^.^.^.^.^.^.^.^.^.^.^.^.^.^.^.^.^.^.^.^.^.^.^.^.^.^.^.^.^.^.^.^.^.^.^.^.^.^.^.^.^.^.^.^.^.^.^.^.^.^.^.^.^.^.^.^.^.^.^.^.^.^.^.^.^.^.^.^.^.^.^.^.^.^.^.^.^.^.^.^.^.^.^.^.^.^.^.^.^.^.^.^.^.^.^.^.^.^.^.^.^.^.^.^.^.^.^.^.^.^.^.^.^.^.^.^.^.^.^.^.^.^.^.^.^.^.^.^.^.^.^.^.^.^.^.^.^.^.^.^.^.^.^.^.^.^.^.^.^.^.^.^.^.^.^.^.^.^.^.^.^.^.^.^.^.^.^.",
"^.^.^.^.^.^.^.^.^.^.^.^.^.^.^.^.^.^.^.^.^.^.^.^.^.^.^.^.^.^.^.^.^.^.^.^.^.^.^.^.^.^.^.^.^.^.^.^.^.^.^.^.^.^.^.^.^.^.^.^.^.^.^.^.^.^.^.^.^.^.^.^.^.^.^.^.^.^.^.^.^.^.^.^.^.^.^.^.^.^.^.^.^.^.^.^.^.^.^.^.^.^.^.^.^.^.^.^.^.^.^.^.^.^.^.^.^.^.^.^.^.^.^.^.^.^.^.^.^.^.^.^.^.^.^.^.^.^.^.^.^.^.^.^.^.^.^.^.^.^.^.^.^.^.^.^.^.^.^.^.^.^.^.^.^.^.^.^.^.^.^.^.^.^.^.^.^.^.^.^.^.^.^.^.^.^.^.^.^.^.^.^.^.^.^.^.^.^.^.^.^.^.^.^.^.^.^.^.^.^.^.^.^.^.^.^.^.^.^.^.^.^.^.^.^.^.^.^.^.^.^.^.^.^.^.^.^.^.^.^.^.^.^.^.^.^.^.^.^.^.^.^.^.^.^.^.^.^.^.^.^.^.^.^.^.^.^.^.^.^.^.^.^.^.^.^.^.^.^.^.^.^.^.^.^.^.^.^.^.^.^.^.^.^.^.^.^.^.^.^.^.^.^.^.^.^.^.^.^.^.^.^.^.^.^.^.^.^.^.^.^.^.^.^.^.^.^.^.^.^.^.^.^.^.^.^.^.^.^.^.^.^.^.^.^.^.^.^.^.^.^.^.^.^.^.^.^.^.^.^.^.^.^.^.^.^.^.^.^.^.^.^.^.^.^.^.^.^.^.^.^.^.^.^.^.^.^.^.^.^.^.^.^.^.^.^.^.^.^.^.^.^.^.^.^.^.^.^.^.^.^.^.^.^.^.^.^.^.^.^.^.^.^.^.^.^.^.^.^.^.^.^.^.^.^.^.^.^.^.^.^.^.^.^.^.^.^.^.^.^.^.^.^.^.^.^.^.^.^.^.^.^.^.^.^.^.^.^.^.^.^.^.^.^.^.^.^.^.^.^.^.^.^.^.^.^.^.^.^.^.^.^.^.^.^.^.^.^.^.^.^.^.^.^.^.^.^.^.^.^.^.^.^.^.^.^.^.^.^.^.^.^.^.^.^.^.^.^.^.^.^.^.^.^.^.^.^.^.^.^.^.^.^.^.^.^.^.^.^.^.^.^.^.^.^.^.^.^.^.^.^.^.^.^.^.^.^.^.^.^.^.^.^.^.^.^.^.^.^.^.^.^.^.^.^.^.^.^.^.^.^.^.^.^.^.^.^.^.^.^.^.^.^.^.^.^.^.^.^.^.^.^.^.^.^.^.^.^.^.^.^.^.^.^.^.^.^.^.^.^.^.^.^.^.",
"^.^.^.^.^.^.^.^.^.^.^.^.^.^.^.^.^.^.^.^.^.^.^.^.^.^.^.^.^.^.^.^.^.^.^.^.^.^.^.^.^.^.^.^.^.^.^.^.^.^.^.^.^.^.^.^.^.^.^.^.^.^.^.^.^.^.^.^.^.^.^.^.^.^.^.^.^.^.^.^.^.^.^.^.^.^.^.^.^.^.^.^.^.^.^.^.^.^.^.^.^.^.^.^.^.^.^.^.^.^.^.^.^.^.^.^.^.^.^.^.^.^.^.^.^.^.^.^.^.^.^.^.^.^.^.^.^.^.^.^.^.^.^.^.^.^.^.^.^.^.^.^.^.^.^.^.^.^.^.^.^.^.^.^.^.^.^.^.^.^.^.^.^.^.^.^.^.^.^.^.^.^.^.^.^.^.^.^.^.^.^.^.^.^.^.^.^.^.^.^.^.^.^.^.^.^.^.^.^.^.^.^.^.^.^.^.^.^.^.^.^.^.^.^.^.^.^.^.^.^.^.^.^.^.^.^.^.^.^.^.^.^.^.^.^.^.^.^.^.^.^.^.^.^.^.^.^.^.^.^.^.^.^.^.^.^.^.^.^.^.^.^.^.^.^.^.^.^.^.^.^.^.^.^.^.^.^.^.^.^.^.^.^.^.^.^.^.^.^.^.^.^.^.^.^.^.^.^.^.^.^.^.^.^.^.^.^.^.^.^.^.^.^.^.^.^.^.^.^.^.^.^.^.^.^.^.^.^.^.^.^.^.^.^.^.^.^.^.^.^.^.^.^.^.^.^.^.^.^.^.^.^.^.^.^.^.^.^.^.^.^.^.^.^.^.^.^.^.^.^.^.^.^.^.^.^.^.^.^.^.^.^.^.^.^.^.^.^.^.^.^.^.^.^.^.^.^.^.^.^.^.^.^.^.^.^.^.^.^.^.^.^.^.^.^.^.^.^.^.^.^.^.^.^.^.^.^.^.^.^.^.^.^.^.^.^.^.^.^.^.^.^.^.^.^.^.^.^.^.^.^.^.^.^.^.^.^.^.^.^.^.^.^.^.^.^.^.^.^.^.^.^.^.^.^.^.^.^.^.^.^.^.^.^.^.^.^.^.^.^.^.^.^.^.^.^.^.^.^.^.^.^.^.^.^.^.^.^.^.^.^.^.^.^.^.^.^.^.^.^.^.^.^.^.^.^.^.^.^.^.^.^.^.^.^.^.^.^.^.^.^.^.^.^.^.^.^.^.^.^.^.^.^.^.^.^.^.^.^.^.^.^.^.^.^.^.^.^.^.^.^.^.^.^.^.^.^.^.^.^.^.^.^.^.^.^.^.^.^.^.^.^.^.^.^.^.^.^.^.^.^.^.^.^.^.^.^.^.^.^.^.^.^.^.^.^.^.^.^.^.^.^.^.^.",
"^.^.^.^.^.^.^.^.^.^.^.^.^.^.^.^.^.^.^.^.^.^.^.^.^.^.^.^.^.^.^.^.^.^.^.^.^.^.^.^.^.^.^.^.^.^.^.^.^.^.^.^.^.^.^.^.^.^.^.^.^.^.^.^.^.^.^.^.^.^.^.^.^.^.^.^.^.^.^.^.^.^.^.^.^.^.^.^.^.^.^.^.^.^.^.^.^.^.^.^.^.^.^.^.^.^.^.^.^.^.^.^.^.^.^.^.^.^.^.^.^.^.^.^.^.^.^.^.^.^.^.^.^.^.^.^.^.^.^.^.^.^.^.^.^.^.^.^.^.^.^.^.^.^.^.^.^.^.^.^.^.^.^.^.^.^.^.^.^.^.^.^.^.^.^.^.^.^.^.^.^.^.^.^.^.^.^.^.^.^.^.^.^.^.^.^.^.^.^.^.^.^.^.^.^.^.^.^.^.^.^.^.^.^.^.^.^.^.^.^.^.^.^.^.^.^.^.^.^.^.^.^.^.^.^.^.^.^.^.^.^.^.^.^.^.^.^.^.^.^.^.^.^.^.^.^.^.^.^.^.^.^.^.^.^.^.^.^.^.^.^.^.^.^.^.^.^.^.^.^.^.^.^.^.^.^.^.^.^.^.^.^.^.^.^.^.^.^.^.^.^.^.^.^.^.^.^.^.^.^.^.^.^.^.^.^.^.^.^.^.^.^.^.^.^.^.^.^.^.^.^.^.^.^.^.^.^.^.^.^.^.^.^.^.^.^.^.^.^.^.^.^.^.^.^.^.^.^.^.^.^.^.^.^.^.^.^.^.^.^.^.^.^.^.^.^.^.^.^.^.^.^.^.^.^.^.^.^.^.^.^.^.^.^.^.^.^.^.^.^.^.^.^.^.^.^.^.^.^.^.^.^.^.^.^.^.^.^.^.^.^.^.^.^.^.^.^.^.^.^.^.^.^.^.^.^.^.^.^.^.^.^.^.^.^.^.^.^.^.^.^.^.^.^.^.^.^.^.^.^.^.^.^.^.^.^.^.^.^.^.^.^.^.^.^.^.^.^.^.^.^.^.^.^.^.^.^.^.^.^.^.^.^.^.^.^.^.^.^.^.^.^.^.^.^.^.^.^.^.^.^.^.^.^.^.^.^.^.^.^.^.^.^.^.^.^.^.^.^.^.^.^.^.^.^.^.^.^.^.^.^.^.^.^.^.^.^.^.^.^.^.^.^.^.^.^.^.^.^.^.^.^.^.^.^.^.^.^.^.^.^.^.^.^.^.^.^.^.^.^.^.^.^.^.^.^.^.^.^.^.^.^.^.^.^.^.^.^.^.^.^.^.^.^.^.^.^.^.^.^.^.^.^.^.^.^.^.^.^.^.^.^.^.^.^.^.^.^.^.^.^.^.^.^.",
"^.^.^.^.^.^.^.^.^.^.^.^.^.^.^.^.^.^.^.^.^.^.^.^.^.^.^.^.^.^.^.^.^.^.^.^.^.^.^.^.^.^.^.^.^.^.^.^.^.^.^.^.^.^.^.^.^.^.^.^.^.^.^.^.^.^.^.^.^.^.^.^.^.^.^.^.^.^.^.^.^.^.^.^.^.^.^.^.^.^.^.^.^.^.^.^.^.^.^.^.^.^.^.^.^.^.^.^.^.^.^.^.^.^.^.^.^.^.^.^.^.^.^.^.^.^.^.^.^.^.^.^.^.^.^.^.^.^.^.^.^.^.^.^.^.^.^.^.^.^.^.^.^.^.^.^.^.^.^.^.^.^.^.^.^.^.^.^.^.^.^.^.^.^.^.^.^.^.^.^.^.^.^.^.^.^.^.^.^.^.^.^.^.^.^.^.^.^.^.^.^.^.^.^.^.^.^.^.^.^.^.^.^.^.^.^.^.^.^.^.^.^.^.^.^.^.^.^.^.^.^.^.^.^.^.^.^.^.^.^.^.^.^.^.^.^.^.^.^.^.^.^.^.^.^.^.^.^.^.^.^.^.^.^.^.^.^.^.^.^.^.^.^.^.^.^.^.^.^.^.^.^.^.^.^.^.^.^.^.^.^.^.^.^.^.^.^.^.^.^.^.^.^.^.^.^.^.^.^.^.^.^.^.^.^.^.^.^.^.^.^.^.^.^.^.^.^.^.^.^.^.^.^.^.^.^.^.^.^.^.^.^.^.^.^.^.^.^.^.^.^.^.^.^.^.^.^.^.^.^.^.^.^.^.^.^.^.^.^.^.^.^.^.^.^.^.^.^.^.^.^.^.^.^.^.^.^.^.^.^.^.^.^.^.^.^.^.^.^.^.^.^.^.^.^.^.^.^.^.^.^.^.^.^.^.^.^.^.^.^.^.^.^.^.^.^.^.^.^.^.^.^.^.^.^.^.^.^.^.^.^.^.^.^.^.^.^.^.^.^.^.^.^.^.^.^.^.^.^.^.^.^.^.^.^.^.^.^.^.^.^.^.^.^.^.^.^.^.^.^.^.^.^.^.^.^.^.^.^.^.^.^.^.^.^.^.^.^.^.^.^.^.^.^.^.^.^.^.^.^.^.^.^.^.^.^.^.^.^.^.^.^.^.^.^.^.^.^.^.^.^.^.^.^.^.^.^.^.^.^.^.^.^.^.^.^.^.^.^.^.^.^.^.^.^.^.^.^.^.^.^.^.^.^.^.^.^.^.^.^.^.^.^.^.^.^.^.^.^.^.^.^.^.^.^.^.^.^.^.^.^.^.^.^.^.^.^.^.^.^.^.^.^.^.^.^.^.^.^.^.^.^.^.^.^.^.^.^.^.^.^.^.^.^.^.^.^.^.^.^.^.^.^.^.",
"^.^.^.^.^.^.^.^.^.^.^.^.^.^.^.^.^.^.^.^.^.^.^.^.^.^.^.^.^.^.^.^.^.^.^.^.^.^.^.^.^.^.^.^.^.^.^.^.^.^.^.^.^.^.^.^.^.^.^.^.^.^.^.^.^.^.^.^.^.^.^.^.^.^.^.^.^.^.^.^.^.^.^.^.^.^.^.^.^.^.^.^.^.^.^.^.^.^.^.^.^.^.^.^.^.^.^.^.^.^.^.^.^.^.^.^.^.^.^.^.^.^.^.^.^.^.^.^.^.^.^.^.^.^.^.^.^.^.^.^.^.^.^.^.^.^.^.^.^.^.^.^.^.^.^.^.^.^.^.^.^.^.^.^.^.^.^.^.^.^.^.^.^.^.^.^.^.^.^.^.^.^.^.^.^.^.^.^.^.^.^.^.^.^.^.^.^.^.^.^.^.^.^.^.^.^.^.^.^.^.^.^.^.^.^.^.^.^.^.^.^.^.^.^.^.^.^.^.^.^.^.^.^.^.^.^.^.^.^.^.^.^.^.^.^.^.^.^.^.^.^.^.^.^.^.^.^.^.^.^.^.^.^.^.^.^.^.^.^.^.^.^.^.^.^.^.^.^.^.^.^.^.^.^.^.^.^.^.^.^.^.^.^.^.^.^.^.^.^.^.^.^.^.^.^.^.^.^.^.^.^.^.^.^.^.^.^.^.^.^.^.^.^.^.^.^.^.^.^.^.^.^.^.^.^.^.^.^.^.^.^.^.^.^.^.^.^.^.^.^.^.^.^.^.^.^.^.^.^.^.^.^.^.^.^.^.^.^.^.^.^.^.^.^.^.^.^.^.^.^.^.^.^.^.^.^.^.^.^.^.^.^.^.^.^.^.^.^.^.^.^.^.^.^.^.^.^.^.^.^.^.^.^.^.^.^.^.^.^.^.^.^.^.^.^.^.^.^.^.^.^.^.^.^.^.^.^.^.^.^.^.^.^.^.^.^.^.^.^.^.^.^.^.^.^.^.^.^.^.^.^.^.^.^.^.^.^.^.^.^.^.^.^.^.^.^.^.^.^.^.^.^.^.^.^.^.^.^.^.^.^.^.^.^.^.^.^.^.^.^.^.^.^.^.^.^.^.^.^.^.^.^.^.^.^.^.^.^.^.^.^.^.^.^.^.^.^.^.^.^.^.^.^.^.^.^.^.^.^.^.^.^.^.^.^.^.^.^.^.^.^.^.^.^.^.^.^.^.^.^.^.^.^.^.^.^.^.^.^.^.^.^.^.^.^.^.^.^.^.^.^.^.^.^.^.^.^.^.^.^.^.^.^.^.^.^.^.^.^.^.^.^.^.^.^.^.^.^.^.^.^.^.^.^.^.^.^.^.^.^.^.^.^.^.^.^.^.^.^.^.^.^.^.^.",
"^.^.^.^.^.^.^.^.^.^.^.^.^.^.^.^.^.^.^.^.^.^.^.^.^.^.^.^.^.^.^.^.^.^.^.^.^.^.^.^.^.^.^.^.^.^.^.^.^.^.^.^.^.^.^.^.^.^.^.^.^.^.^.^.^.^.^.^.^.^.^.^.^.^.^.^.^.^.^.^.^.^.^.^.^.^.^.^.^.^.^.^.^.^.^.^.^.^.^.^.^.^.^.^.^.^.^.^.^.^.^.^.^.^.^.^.^.^.^.^.^.^.^.^.^.^.^.^.^.^.^.^.^.^.^.^.^.^.^.^.^.^.^.^.^.^.^.^.^.^.^.^.^.^.^.^.^.^.^.^.^.^.^.^.^.^.^.^.^.^.^.^.^.^.^.^.^.^.^.^.^.^.^.^.^.^.^.^.^.^.^.^.^.^.^.^.^.^.^.^.^.^.^.^.^.^.^.^.^.^.^.^.^.^.^.^.^.^.^.^.^.^.^.^.^.^.^.^.^.^.^.^.^.^.^.^.^.^.^.^.^.^.^.^.^.^.^.^.^.^.^.^.^.^.^.^.^.^.^.^.^.^.^.^.^.^.^.^.^.^.^.^.^.^.^.^.^.^.^.^.^.^.^.^.^.^.^.^.^.^.^.^.^.^.^.^.^.^.^.^.^.^.^.^.^.^.^.^.^.^.^.^.^.^.^.^.^.^.^.^.^.^.^.^.^.^.^.^.^.^.^.^.^.^.^.^.^.^.^.^.^.^.^.^.^.^.^.^.^.^.^.^.^.^.^.^.^.^.^.^.^.^.^.^.^.^.^.^.^.^.^.^.^.^.^.^.^.^.^.^.^.^.^.^.^.^.^.^.^.^.^.^.^.^.^.^.^.^.^.^.^.^.^.^.^.^.^.^.^.^.^.^.^.^.^.^.^.^.^.^.^.^.^.^.^.^.^.^.^.^.^.^.^.^.^.^.^.^.^.^.^.^.^.^.^.^.^.^.^.^.^.^.^.^.^.^.^.^.^.^.^.^.^.^.^.^.^.^.^.^.^.^.^.^.^.^.^.^.^.^.^.^.^.^.^.^.^.^.^.^.^.^.^.^.^.^.^.^.^.^.^.^.^.^.^.^.^.^.^.^.^.^.^.^.^.^.^.^.^.^.^.^.^.^.^.^.^.^.^.^.^.^.^.^.^.^.^.^.^.^.^.^.^.^.^.^.^.^.^.^.^.^.^.^.^.^.^.^.^.^.^.^.^.^.^.^.^.^.^.^.^.^.^.^.^.^.^.^.^.^.^.^.^.^.^.^.^.^.^.^.^.^.^.^.^.^.^.^.^.^.^.^.^.^.^.^.^.^.^.^.^.^.^.^.^.^.^.^.^.^.^.^.^.^.^.^.^.^.^.^.^.^.^.^.",
"^.^.^.^.^.^.^.^.^.^.^.^.^.^.^.^.^.^.^.^.^.^.^.^.^.^.^.^.^.^.^.^.^.^.^.^.^.^.^.^.^.^.^.^.^.^.^.^.^.^.^.^.^.^.^.^.^.^.^.^.^.^.^.^.^.^.^.^.^.^.^.^.^.^.^.^.^.^.^.^.^.^.^.^.^.^.^.^.^.^.^.^.^.^.^.^.^.^.^.^.^.^.^.^.^.^.^.^.^.^.^.^.^.^.^.^.^.^.^.^.^.^.^.^.^.^.^.^.^.^.^.^.^.^.^.^.^.^.^.^.^.^.^.^.^.^.^.^.^.^.^.^.^.^.^.^.^.^.^.^.^.^.^.^.^.^.^.^.^.^.^.^.^.^.^.^.^.^.^.^.^.^.^.^.^.^.^.^.^.^.^.^.^.^.^.^.^.^.^.^.^.^.^.^.^.^.^.^.^.^.^.^.^.^.^.^.^.^.^.^.^.^.^.^.^.^.^.^.^.^.^.^.^.^.^.^.^.^.^.^.^.^.^.^.^.^.^.^.^.^.^.^.^.^.^.^.^.^.^.^.^.^.^.^.^.^.^.^.^.^.^.^.^.^.^.^.^.^.^.^.^.^.^.^.^.^.^.^.^.^.^.^.^.^.^.^.^.^.^.^.^.^.^.^.^.^.^.^.^.^.^.^.^.^.^.^.^.^.^.^.^.^.^.^.^.^.^.^.^.^.^.^.^.^.^.^.^.^.^.^.^.^.^.^.^.^.^.^.^.^.^.^.^.^.^.^.^.^.^.^.^.^.^.^.^.^.^.^.^.^.^.^.^.^.^.^.^.^.^.^.^.^.^.^.^.^.^.^.^.^.^.^.^.^.^.^.^.^.^.^.^.^.^.^.^.^.^.^.^.^.^.^.^.^.^.^.^.^.^.^.^.^.^.^.^.^.^.^.^.^.^.^.^.^.^.^.^.^.^.^.^.^.^.^.^.^.^.^.^.^.^.^.^.^.^.^.^.^.^.^.^.^.^.^.^.^.^.^.^.^.^.^.^.^.^.^.^.^.^.^.^.^.^.^.^.^.^.^.^.^.^.^.^.^.^.^.^.^.^.^.^.^.^.^.^.^.^.^.^.^.^.^.^.^.^.^.^.^.^.^.^.^.^.^.^.^.^.^.^.^.^.^.^.^.^.^.^.^.^.^.^.^.^.^.^.^.^.^.^.^.^.^.^.^.^.^.^.^.^.^.^.^.^.^.^.^.^.^.^.^.^.^.^.^.^.^.^.^.^.^.^.^.^.^.^.^.^.^.^.^.^.^.^.^.^.^.^.^.^.^.^.^.^.^.^.^.^.^.^.^.^.^.^.^.^.^.^.^.^.^.^.^.^.^.^.^.^.^.^.^.^.^.^.^.",
"^.^.^.^.^.^.^.^.^.^.^.^.^.^.^.^.^.^.^.^.^.^.^.^.^.^.^.^.^.^.^.^.^.^.^.^.^.^.^.^.^.^.^.^.^.^.^.^.^.^.^.^.^.^.^.^.^.^.^.^.^.^.^.^.^.^.^.^.^.^.^.^.^.^.^.^.^.^.^.^.^.^.^.^.^.^.^.^.^.^.^.^.^.^.^.^.^.^.^.^.^.^.^.^.^.^.^.^.^.^.^.^.^.^.^.^.^.^.^.^.^.^.^.^.^.^.^.^.^.^.^.^.^.^.^.^.^.^.^.^.^.^.^.^.^.^.^.^.^.^.^.^.^.^.^.^.^.^.^.^.^.^.^.^.^.^.^.^.^.^.^.^.^.^.^.^.^.^.^.^.^.^.^.^.^.^.^.^.^.^.^.^.^.^.^.^.^.^.^.^.^.^.^.^.^.^.^.^.^.^.^.^.^.^.^.^.^.^.^.^.^.^.^.^.^.^.^.^.^.^.^.^.^.^.^.^.^.^.^.^.^.^.^.^.^.^.^.^.^.^.^.^.^.^.^.^.^.^.^.^.^.^.^.^.^.^.^.^.^.^.^.^.^.^.^.^.^.^.^.^.^.^.^.^.^.^.^.^.^.^.^.^.^.^.^.^.^.^.^.^.^.^.^.^.^.^.^.^.^.^.^.^.^.^.^.^.^.^.^.^.^.^.^.^.^.^.^.^.^.^.^.^.^.^.^.^.^.^.^.^.^.^.^.^.^.^.^.^.^.^.^.^.^.^.^.^.^.^.^.^.^.^.^.^.^.^.^.^.^.^.^.^.^.^.^.^.^.^.^.^.^.^.^.^.^.^.^.^.^.^.^.^.^.^.^.^.^.^.^.^.^.^.^.^.^.^.^.^.^.^.^.^.^.^.^.^.^.^.^.^.^.^.^.^.^.^.^.^.^.^.^.^.^.^.^.^.^.^.^.^.^.^.^.^.^.^.^.^.^.^.^.^.^.^.^.^.^.^.^.^.^.^.^.^.^.^.^.^.^.^.^.^.^.^.^.^.^.^.^.^.^.^.^.^.^.^.^.^.^.^.^.^.^.^.^.^.^.^.^.^.^.^.^.^.^.^.^.^.^.^.^.^.^.^.^.^.^.^.^.^.^.^.^.^.^.^.^.^.^.^.^.^.^.^.^.^.^.^.^.^.^.^.^.^.^.^.^.^.^.^.^.^.^.^.^.^.^.^.^.^.^.^.^.^.^.^.^.^.^.^.^.^.^.^.^.^.^.^.^.^.^.^.^.^.^.^.^.^.^.^.^.^.^.^.^.^.^.^.^.^.^.^.^.^.^.^.^.^.^.^.^.^.^.^.^.^.^.^.^.^.^.^.^.^.^.^.^.^.^.^.^.^.^.^.",
"^.^.^.^.^.^.^.^.^.^.^.^.^.^.^.^.^.^.^.^.^.^.^.^.^.^.^.^.^.^.^.^.^.^.^.^.^.^.^.^.^.^.^.^.^.^.^.^.^.^.^.^.^.^.^.^.^.^.^.^.^.^.^.^.^.^.^.^.^.^.^.^.^.^.^.^.^.^.^.^.^.^.^.^.^.^.^.^.^.^.^.^.^.^.^.^.^.^.^.^.^.^.^.^.^.^.^.^.^.^.^.^.^.^.^.^.^.^.^.^.^.^.^.^.^.^.^.^.^.^.^.^.^.^.^.^.^.^.^.^.^.^.^.^.^.^.^.^.^.^.^.^.^.^.^.^.^.^.^.^.^.^.^.^.^.^.^.^.^.^.^.^.^.^.^.^.^.^.^.^.^.^.^.^.^.^.^.^.^.^.^.^.^.^.^.^.^.^.^.^.^.^.^.^.^.^.^.^.^.^.^.^.^.^.^.^.^.^.^.^.^.^.^.^.^.^.^.^.^.^.^.^.^.^.^.^.^.^.^.^.^.^.^.^.^.^.^.^.^.^.^.^.^.^.^.^.^.^.^.^.^.^.^.^.^.^.^.^.^.^.^.^.^.^.^.^.^.^.^.^.^.^.^.^.^.^.^.^.^.^.^.^.^.^.^.^.^.^.^.^.^.^.^.^.^.^.^.^.^.^.^.^.^.^.^.^.^.^.^.^.^.^.^.^.^.^.^.^.^.^.^.^.^.^.^.^.^.^.^.^.^.^.^.^.^.^.^.^.^.^.^.^.^.^.^.^.^.^.^.^.^.^.^.^.^.^.^.^.^.^.^.^.^.^.^.^.^.^.^.^.^.^.^.^.^.^.^.^.^.^.^.^.^.^.^.^.^.^.^.^.^.^.^.^.^.^.^.^.^.^.^.^.^.^.^.^.^.^.^.^.^.^.^.^.^.^.^.^.^.^.^.^.^.^.^.^.^.^.^.^.^.^.^.^.^.^.^.^.^.^.^.^.^.^.^.^.^.^.^.^.^.^.^.^.^.^.^.^.^.^.^.^.^.^.^.^.^.^.^.^.^.^.^.^.^.^.^.^.^.^.^.^.^.^.^.^.^.^.^.^.^.^.^.^.^.^.^.^.^.^.^.^.^.^.^.^.^.^.^.^.^.^.^.^.^.^.^.^.^.^.^.^.^.^.^.^.^.^.^.^.^.^.^.^.^.^.^.^.^.^.^.^.^.^.^.^.^.^.^.^.^.^.^.^.^.^.^.^.^.^.^.^.^.^.^.^.^.^.^.^.^.^.^.^.^.^.^.^.^.^.^.^.^.^.^.^.^.^.^.^.^.^.^.^.^.^.^.^.^.^.^.^.^.^.^.^.^.^.^.^.^.^.^.^.^.^.^.^.^.^.^.^.^.^.",
"^.^.^.^.^.^.^.^.^.^.^.^.^.^.^.^.^.^.^.^.^.^.^.^.^.^.^.^.^.^.^.^.^.^.^.^.^.^.^.^.^.^.^.^.^.^.^.^.^.^.^.^.^.^.^.^.^.^.^.^.^.^.^.^.^.^.^.^.^.^.^.^.^.^.^.^.^.^.^.^.^.^.^.^.^.^.^.^.^.^.^.^.^.^.^.^.^.^.^.^.^.^.^.^.^.^.^.^.^.^.^.^.^.^.^.^.^.^.^.^.^.^.^.^.^.^.^.^.^.^.^.^.^.^.^.^.^.^.^.^.^.^.^.^.^.^.^.^.^.^.^.^.^.^.^.^.^.^.^.^.^.^.^.^.^.^.^.^.^.^.^.^.^.^.^.^.^.^.^.^.^.^.^.^.^.^.^.^.^.^.^.^.^.^.^.^.^.^.^.^.^.^.^.^.^.^.^.^.^.^.^.^.^.^.^.^.^.^.^.^.^.^.^.^.^.^.^.^.^.^.^.^.^.^.^.^.^.^.^.^.^.^.^.^.^.^.^.^.^.^.^.^.^.^.^.^.^.^.^.^.^.^.^.^.^.^.^.^.^.^.^.^.^.^.^.^.^.^.^.^.^.^.^.^.^.^.^.^.^.^.^.^.^.^.^.^.^.^.^.^.^.^.^.^.^.^.^.^.^.^.^.^.^.^.^.^.^.^.^.^.^.^.^.^.^.^.^.^.^.^.^.^.^.^.^.^.^.^.^.^.^.^.^.^.^.^.^.^.^.^.^.^.^.^.^.^.^.^.^.^.^.^.^.^.^.^.^.^.^.^.^.^.^.^.^.^.^.^.^.^.^.^.^.^.^.^.^.^.^.^.^.^.^.^.^.^.^.^.^.^.^.^.^.^.^.^.^.^.^.^.^.^.^.^.^.^.^.^.^.^.^.^.^.^.^.^.^.^.^.^.^.^.^.^.^.^.^.^.^.^.^.^.^.^.^.^.^.^.^.^.^.^.^.^.^.^.^.^.^.^.^.^.^.^.^.^.^.^.^.^.^.^.^.^.^.^.^.^.^.^.^.^.^.^.^.^.^.^.^.^.^.^.^.^.^.^.^.^.^.^.^.^.^.^.^.^.^.^.^.^.^.^.^.^.^.^.^.^.^.^.^.^.^.^.^.^.^.^.^.^.^.^.^.^.^.^.^.^.^.^.^.^.^.^.^.^.^.^.^.^.^.^.^.^.^.^.^.^.^.^.^.^.^.^.^.^.^.^.^.^.^.^.^.^.^.^.^.^.^.^.^.^.^.^.^.^.^.^.^.^.^.^.^.^.^.^.^.^.^.^.^.^.^.^.^.^.^.^.^.^.^.^.^.^.^.^.^.^.^.^.^.^.^.^.^.^.^.^.^.^.^.^.^.^.",
"^.^.^.^.^.^.^.^.^.^.^.^.^.^.^.^.^.^.^.^.^.^.^.^.^.^.^.^.^.^.^.^.^.^.^.^.^.^.^.^.^.^.^.^.^.^.^.^.^.^.^.^.^.^.^.^.^.^.^.^.^.^.^.^.^.^.^.^.^.^.^.^.^.^.^.^.^.^.^.^.^.^.^.^.^.^.^.^.^.^.^.^.^.^.^.^.^.^.^.^.^.^.^.^.^.^.^.^.^.^.^.^.^.^.^.^.^.^.^.^.^.^.^.^.^.^.^.^.^.^.^.^.^.^.^.^.^.^.^.^.^.^.^.^.^.^.^.^.^.^.^.^.^.^.^.^.^.^.^.^.^.^.^.^.^.^.^.^.^.^.^.^.^.^.^.^.^.^.^.^.^.^.^.^.^.^.^.^.^.^.^.^.^.^.^.^.^.^.^.^.^.^.^.^.^.^.^.^.^.^.^.^.^.^.^.^.^.^.^.^.^.^.^.^.^.^.^.^.^.^.^.^.^.^.^.^.^.^.^.^.^.^.^.^.^.^.^.^.^.^.^.^.^.^.^.^.^.^.^.^.^.^.^.^.^.^.^.^.^.^.^.^.^.^.^.^.^.^.^.^.^.^.^.^.^.^.^.^.^.^.^.^.^.^.^.^.^.^.^.^.^.^.^.^.^.^.^.^.^.^.^.^.^.^.^.^.^.^.^.^.^.^.^.^.^.^.^.^.^.^.^.^.^.^.^.^.^.^.^.^.^.^.^.^.^.^.^.^.^.^.^.^.^.^.^.^.^.^.^.^.^.^.^.^.^.^.^.^.^.^.^.^.^.^.^.^.^.^.^.^.^.^.^.^.^.^.^.^.^.^.^.^.^.^.^.^.^.^.^.^.^.^.^.^.^.^.^.^.^.^.^.^.^.^.^.^.^.^.^.^.^.^.^.^.^.^.^.^.^.^.^.^.^.^.^.^.^.^.^.^.^.^.^.^.^.^.^.^.^.^.^.^.^.^.^.^.^.^.^.^.^.^.^.^.^.^.^.^.^.^.^.^.^.^.^.^.^.^.^.^.^.^.^.^.^.^.^.^.^.^.^.^.^.^.^.^.^.^.^.^.^.^.^.^.^.^.^.^.^.^.^.^.^.^.^.^.^.^.^.^.^.^.^.^.^.^.^.^.^.^.^.^.^.^.^.^.^.^.^.^.^.^.^.^.^.^.^.^.^.^.^.^.^.^.^.^.^.^.^.^.^.^.^.^.^.^.^.^.^.^.^.^.^.^.^.^.^.^.^.^.^.^.^.^.^.^.^.^.^.^.^.^.^.^.^.^.^.^.^.^.^.^.^.^.^.^.^.^.^.^.^.^.^.^.^.^.^.^.^.^.^.^.^.^.^.^.^.^.^.^.^.^.^.^.",
"^.^.^.^.^.^.^.^.^.^.^.^.^.^.^.^.^.^.^.^.^.^.^.^.^.^.^.^.^.^.^.^.^.^.^.^.^.^.^.^.^.^.^.^.^.^.^.^.^.^.^.^.^.^.^.^.^.^.^.^.^.^.^.^.^.^.^.^.^.^.^.^.^.^.^.^.^.^.^.^.^.^.^.^.^.^.^.^.^.^.^.^.^.^.^.^.^.^.^.^.^.^.^.^.^.^.^.^.^.^.^.^.^.^.^.^.^.^.^.^.^.^.^.^.^.^.^.^.^.^.^.^.^.^.^.^.^.^.^.^.^.^.^.^.^.^.^.^.^.^.^.^.^.^.^.^.^.^.^.^.^.^.^.^.^.^.^.^.^.^.^.^.^.^.^.^.^.^.^.^.^.^.^.^.^.^.^.^.^.^.^.^.^.^.^.^.^.^.^.^.^.^.^.^.^.^.^.^.^.^.^.^.^.^.^.^.^.^.^.^.^.^.^.^.^.^.^.^.^.^.^.^.^.^.^.^.^.^.^.^.^.^.^.^.^.^.^.^.^.^.^.^.^.^.^.^.^.^.^.^.^.^.^.^.^.^.^.^.^.^.^.^.^.^.^.^.^.^.^.^.^.^.^.^.^.^.^.^.^.^.^.^.^.^.^.^.^.^.^.^.^.^.^.^.^.^.^.^.^.^.^.^.^.^.^.^.^.^.^.^.^.^.^.^.^.^.^.^.^.^.^.^.^.^.^.^.^.^.^.^.^.^.^.^.^.^.^.^.^.^.^.^.^.^.^.^.^.^.^.^.^.^.^.^.^.^.^.^.^.^.^.^.^.^.^.^.^.^.^.^.^.^.^.^.^.^.^.^.^.^.^.^.^.^.^.^.^.^.^.^.^.^.^.^.^.^.^.^.^.^.^.^.^.^.^.^.^.^.^.^.^.^.^.^.^.^.^.^.^.^.^.^.^.^.^.^.^.^.^.^.^.^.^.^.^.^.^.^.^.^.^.^.^.^.^.^.^.^.^.^.^.^.^.^.^.^.^.^.^.^.^.^.^.^.^.^.^.^.^.^.^.^.^.^.^.^.^.^.^.^.^.^.^.^.^.^.^.^.^.^.^.^.^.^.^.^.^.^.^.^.^.^.^.^.^.^.^.^.^.^.^.^.^.^.^.^.^.^.^.^.^.^.^.^.^.^.^.^.^.^.^.^.^.^.^.^.^.^.^.^.^.^.^.^.^.^.^.^.^.^.^.^.^.^.^.^.^.^.^.^.^.^.^.^.^.^.^.^.^.^.^.^.^.^.^.^.^.^.^.^.^.^.^.^.^.^.^.^.^.^.^.^.^.^.^.^.^.^.^.^.^.^.^.^.^.^.^.^.^.^.^.^.^.^.^.^.^.^.^.^.^.^.^.^.",
"^.^.^.^.^.^.^.^.^.^.^.^.^.^.^.^.^.^.^.^.^.^.^.^.^.^.^.^.^.^.^.^.^.^.^.^.^.^.^.^.^.^.^.^.^.^.^.^.^.^.^.^.^.^.^.^.^.^.^.^.^.^.^.^.^.^.^.^.^.^.^.^.^.^.^.^.^.^.^.^.^.^.^.^.^.^.^.^.^.^.^.^.^.^.^.^.^.^.^.^.^.^.^.^.^.^.^.^.^.^.^.^.^.^.^.^.^.^.^.^.^.^.^.^.^.^.^.^.^.^.^.^.^.^.^.^.^.^.^.^.^.^.^.^.^.^.^.^.^.^.^.^.^.^.^.^.^.^.^.^.^.^.^.^.^.^.^.^.^.^.^.^.^.^.^.^.^.^.^.^.^.^.^.^.^.^.^.^.^.^.^.^.^.^.^.^.^.^.^.^.^.^.^.^.^.^.^.^.^.^.^.^.^.^.^.^.^.^.^.^.^.^.^.^.^.^.^.^.^.^.^.^.^.^.^.^.^.^.^.^.^.^.^.^.^.^.^.^.^.^.^.^.^.^.^.^.^.^.^.^.^.^.^.^.^.^.^.^.^.^.^.^.^.^.^.^.^.^.^.^.^.^.^.^.^.^.^.^.^.^.^.^.^.^.^.^.^.^.^.^.^.^.^.^.^.^.^.^.^.^.^.^.^.^.^.^.^.^.^.^.^.^.^.^.^.^.^.^.^.^.^.^.^.^.^.^.^.^.^.^.^.^.^.^.^.^.^.^.^.^.^.^.^.^.^.^.^.^.^.^.^.^.^.^.^.^.^.^.^.^.^.^.^.^.^.^.^.^.^.^.^.^.^.^.^.^.^.^.^.^.^.^.^.^.^.^.^.^.^.^.^.^.^.^.^.^.^.^.^.^.^.^.^.^.^.^.^.^.^.^.^.^.^.^.^.^.^.^.^.^.^.^.^.^.^.^.^.^.^.^.^.^.^.^.^.^.^.^.^.^.^.^.^.^.^.^.^.^.^.^.^.^.^.^.^.^.^.^.^.^.^.^.^.^.^.^.^.^.^.^.^.^.^.^.^.^.^.^.^.^.^.^.^.^.^.^.^.^.^.^.^.^.^.^.^.^.^.^.^.^.^.^.^.^.^.^.^.^.^.^.^.^.^.^.^.^.^.^.^.^.^.^.^.^.^.^.^.^.^.^.^.^.^.^.^.^.^.^.^.^.^.^.^.^.^.^.^.^.^.^.^.^.^.^.^.^.^.^.^.^.^.^.^.^.^.^.^.^.^.^.^.^.^.^.^.^.^.^.^.^.^.^.^.^.^.^.^.^.^.^.^.^.^.^.^.^.^.^.^.^.^.^.^.^.^.^.^.^.^.^.^.^.^.^.^.^.^.^.^.^.^.^.^.^.",
"^.^.^.^.^.^.^.^.^.^.^.^.^.^.^.^.^.^.^.^.^.^.^.^.^.^.^.^.^.^.^.^.^.^.^.^.^.^.^.^.^.^.^.^.^.^.^.^.^.^.^.^.^.^.^.^.^.^.^.^.^.^.^.^.^.^.^.^.^.^.^.^.^.^.^.^.^.^.^.^.^.^.^.^.^.^.^.^.^.^.^.^.^.^.^.^.^.^.^.^.^.^.^.^.^.^.^.^.^.^.^.^.^.^.^.^.^.^.^.^.^.^.^.^.^.^.^.^.^.^.^.^.^.^.^.^.^.^.^.^.^.^.^.^.^.^.^.^.^.^.^.^.^.^.^.^.^.^.^.^.^.^.^.^.^.^.^.^.^.^.^.^.^.^.^.^.^.^.^.^.^.^.^.^.^.^.^.^.^.^.^.^.^.^.^.^.^.^.^.^.^.^.^.^.^.^.^.^.^.^.^.^.^.^.^.^.^.^.^.^.^.^.^.^.^.^.^.^.^.^.^.^.^.^.^.^.^.^.^.^.^.^.^.^.^.^.^.^.^.^.^.^.^.^.^.^.^.^.^.^.^.^.^.^.^.^.^.^.^.^.^.^.^.^.^.^.^.^.^.^.^.^.^.^.^.^.^.^.^.^.^.^.^.^.^.^.^.^.^.^.^.^.^.^.^.^.^.^.^.^.^.^.^.^.^.^.^.^.^.^.^.^.^.^.^.^.^.^.^.^.^.^.^.^.^.^.^.^.^.^.^.^.^.^.^.^.^.^.^.^.^.^.^.^.^.^.^.^.^.^.^.^.^.^.^.^.^.^.^.^.^.^.^.^.^.^.^.^.^.^.^.^.^.^.^.^.^.^.^.^.^.^.^.^.^.^.^.^.^.^.^.^.^.^.^.^.^.^.^.^.^.^.^.^.^.^.^.^.^.^.^.^.^.^.^.^.^.^.^.^.^.^.^.^.^.^.^.^.^.^.^.^.^.^.^.^.^.^.^.^.^.^.^.^.^.^.^.^.^.^.^.^.^.^.^.^.^.^.^.^.^.^.^.^.^.^.^.^.^.^.^.^.^.^.^.^.^.^.^.^.^.^.^.^.^.^.^.^.^.^.^.^.^.^.^.^.^.^.^.^.^.^.^.^.^.^.^.^.^.^.^.^.^.^.^.^.^.^.^.^.^.^.^.^.^.^.^.^.^.^.^.^.^.^.^.^.^.^.^.^.^.^.^.^.^.^.^.^.^.^.^.^.^.^.^.^.^.^.^.^.^.^.^.^.^.^.^.^.^.^.^.^.^.^.^.^.^.^.^.^.^.^.^.^.^.^.^.^.^.^.^.^.^.^.^.^.^.^.^.^.^.^.^.^.^.^.^.^.^.^.^.^.^.^.^.^.^.^.^.^.^.^.^.^.",
"^.^.^.^.^.^.^.^.^.^.^.^.^.^.^.^.^.^.^.^.^.^.^.^.^.^.^.^.^.^.^.^.^.^.^.^.^.^.^.^.^.^.^.^.^.^.^.^.^.^.^.^.^.^.^.^.^.^.^.^.^.^.^.^.^.^.^.^.^.^.^.^.^.^.^.^.^.^.^.^.^.^.^.^.^.^.^.^.^.^.^.^.^.^.^.^.^.^.^.^.^.^.^.^.^.^.^.^.^.^.^.^.^.^.^.^.^.^.^.^.^.^.^.^.^.^.^.^.^.^.^.^.^.^.^.^.^.^.^.^.^.^.^.^.^.^.^.^.^.^.^.^.^.^.^.^.^.^.^.^.^.^.^.^.^.^.^.^.^.^.^.^.^.^.^.^.^.^.^.^.^.^.^.^.^.^.^.^.^.^.^.^.^.^.^.^.^.^.^.^.^.^.^.^.^.^.^.^.^.^.^.^.^.^.^.^.^.^.^.^.^.^.^.^.^.^.^.^.^.^.^.^.^.^.^.^.^.^.^.^.^.^.^.^.^.^.^.^.^.^.^.^.^.^.^.^.^.^.^.^.^.^.^.^.^.^.^.^.^.^.^.^.^.^.^.^.^.^.^.^.^.^.^.^.^.^.^.^.^.^.^.^.^.^.^.^.^.^.^.^.^.^.^.^.^.^.^.^.^.^.^.^.^.^.^.^.^.^.^.^.^.^.^.^.^.^.^.^.^.^.^.^.^.^.^.^.^.^.^.^.^.^.^.^.^.^.^.^.^.^.^.^.^.^.^.^.^.^.^.^.^.^.^.^.^.^.^.^.^.^.^.^.^.^.^.^.^.^.^.^.^.^.^.^.^.^.^.^.^.^.^.^.^.^.^.^.^.^.^.^.^.^.^.^.^.^.^.^.^.^.^.^.^.^.^.^.^.^.^.^.^.^.^.^.^.^.^.^.^.^.^.^.^.^.^.^.^.^.^.^.^.^.^.^.^.^.^.^.^.^.^.^.^.^.^.^.^.^.^.^.^.^.^.^.^.^.^.^.^.^.^.^.^.^.^.^.^.^.^.^.^.^.^.^.^.^.^.^.^.^.^.^.^.^.^.^.^.^.^.^.^.^.^.^.^.^.^.^.^.^.^.^.^.^.^.^.^.^.^.^.^.^.^.^.^.^.^.^.^.^.^.^.^.^.^.^.^.^.^.^.^.^.^.^.^.^.^.^.^.^.^.^.^.^.^.^.^.^.^.^.^.^.^.^.^.^.^.^.^.^.^.^.^.^.^.^.^.^.^.^.^.^.^.^.^.^.^.^.^.^.^.^.^.^.^.^.^.^.^.^.^.^.^.^.^.^.^.^.^.^.^.^.^.^.^.^.^.^.^.^.^.^.^.^.^.^.^.^.^.^.^.^.^.^.",
"^.^.^.^.^.^.^.^.^.^.^.^.^.^.^.^.^.^.^.^.^.^.^.^.^.^.^.^.^.^.^.^.^.^.^.^.^.^.^.^.^.^.^.^.^.^.^.^.^.^.^.^.^.^.^.^.^.^.^.^.^.^.^.^.^.^.^.^.^.^.^.^.^.^.^.^.^.^.^.^.^.^.^.^.^.^.^.^.^.^.^.^.^.^.^.^.^.^.^.^.^.^.^.^.^.^.^.^.^.^.^.^.^.^.^.^.^.^.^.^.^.^.^.^.^.^.^.^.^.^.^.^.^.^.^.^.^.^.^.^.^.^.^.^.^.^.^.^.^.^.^.^.^.^.^.^.^.^.^.^.^.^.^.^.^.^.^.^.^.^.^.^.^.^.^.^.^.^.^.^.^.^.^.^.^.^.^.^.^.^.^.^.^.^.^.^.^.^.^.^.^.^.^.^.^.^.^.^.^.^.^.^.^.^.^.^.^.^.^.^.^.^.^.^.^.^.^.^.^.^.^.^.^.^.^.^.^.^.^.^.^.^.^.^.^.^.^.^.^.^.^.^.^.^.^.^.^.^.^.^.^.^.^.^.^.^.^.^.^.^.^.^.^.^.^.^.^.^.^.^.^.^.^.^.^.^.^.^.^.^.^.^.^.^.^.^.^.^.^.^.^.^.^.^.^.^.^.^.^.^.^.^.^.^.^.^.^.^.^.^.^.^.^.^.^.^.^.^.^.^.^.^.^.^.^.^.^.^.^.^.^.^.^.^.^.^.^.^.^.^.^.^.^.^.^.^.^.^.^.^.^.^.^.^.^.^.^.^.^.^.^.^.^.^.^.^.^.^.^.^.^.^.^.^.^.^.^.^.^.^.^.^.^.^.^.^.^.^.^.^.^.^.^.^.^.^.^.^.^.^.^.^.^.^.^.^.^.^.^.^.^.^.^.^.^.^.^.^.^.^.^.^.^.^.^.^.^.^.^.^.^.^.^.^.^.^.^.^.^.^.^.^.^.^.^.^.^.^.^.^.^.^.^.^.^.^.^.^.^.^.^.^.^.^.^.^.^.^.^.^.^.^.^.^.^.^.^.^.^.^.^.^.^.^.^.^.^.^.^.^.^.^.^.^.^.^.^.^.^.^.^.^.^.^.^.^.^.^.^.^.^.^.^.^.^.^.^.^.^.^.^.^.^.^.^.^.^.^.^.^.^.^.^.^.^.^.^.^.^.^.^.^.^.^.^.^.^.^.^.^.^.^.^.^.^.^.^.^.^.^.^.^.^.^.^.^.^.^.^.^.^.^.^.^.^.^.^.^.^.^.^.^.^.^.^.^.^.^.^.^.^.^.^.^.^.^.^.^.^.^.^.^.^.^.^.^.^.^.^.^.^.^.^.^.^.^.^.^.^.^.^.^.^.^.",
"^.^.^.^.^.^.^.^.^.^.^.^.^.^.^.^.^.^.^.^.^.^.^.^.^.^.^.^.^.^.^.^.^.^.^.^.^.^.^.^.^.^.^.^.^.^.^.^.^.^.^.^.^.^.^.^.^.^.^.^.^.^.^.^.^.^.^.^.^.^.^.^.^.^.^.^.^.^.^.^.^.^.^.^.^.^.^.^.^.^.^.^.^.^.^.^.^.^.^.^.^.^.^.^.^.^.^.^.^.^.^.^.^.^.^.^.^.^.^.^.^.^.^.^.^.^.^.^.^.^.^.^.^.^.^.^.^.^.^.^.^.^.^.^.^.^.^.^.^.^.^.^.^.^.^.^.^.^.^.^.^.^.^.^.^.^.^.^.^.^.^.^.^.^.^.^.^.^.^.^.^.^.^.^.^.^.^.^.^.^.^.^.^.^.^.^.^.^.^.^.^.^.^.^.^.^.^.^.^.^.^.^.^.^.^.^.^.^.^.^.^.^.^.^.^.^.^.^.^.^.^.^.^.^.^.^.^.^.^.^.^.^.^.^.^.^.^.^.^.^.^.^.^.^.^.^.^.^.^.^.^.^.^.^.^.^.^.^.^.^.^.^.^.^.^.^.^.^.^.^.^.^.^.^.^.^.^.^.^.^.^.^.^.^.^.^.^.^.^.^.^.^.^.^.^.^.^.^.^.^.^.^.^.^.^.^.^.^.^.^.^.^.^.^.^.^.^.^.^.^.^.^.^.^.^.^.^.^.^.^.^.^.^.^.^.^.^.^.^.^.^.^.^.^.^.^.^.^.^.^.^.^.^.^.^.^.^.^.^.^.^.^.^.^.^.^.^.^.^.^.^.^.^.^.^.^.^.^.^.^.^.^.^.^.^.^.^.^.^.^.^.^.^.^.^.^.^.^.^.^.^.^.^.^.^.^.^.^.^.^.^.^.^.^.^.^.^.^.^.^.^.^.^.^.^.^.^.^.^.^.^.^.^.^.^.^.^.^.^.^.^.^.^.^.^.^.^.^.^.^.^.^.^.^.^.^.^.^.^.^.^.^.^.^.^.^.^.^.^.^.^.^.^.^.^.^.^.^.^.^.^.^.^.^.^.^.^.^.^.^.^.^.^.^.^.^.^.^.^.^.^.^.^.^.^.^.^.^.^.^.^.^.^.^.^.^.^.^.^.^.^.^.^.^.^.^.^.^.^.^.^.^.^.^.^.^.^.^.^.^.^.^.^.^.^.^.^.^.^.^.^.^.^.^.^.^.^.^.^.^.^.^.^.^.^.^.^.^.^.^.^.^.^.^.^.^.^.^.^.^.^.^.^.^.^.^.^.^.^.^.^.^.^.^.^.^.^.^.^.^.^.^.^.^.^.^.^.^.^.^.^.^.^.^.^.^.^.^.^.^.^.^.^.^.",
"^.^.^.^.^.^.^.^.^.^.^.^.^.^.^.^.^.^.^.^.^.^.^.^.^.^.^.^.^.^.^.^.^.^.^.^.^.^.^.^.^.^.^.^.^.^.^.^.^.^.^.^.^.^.^.^.^.^.^.^.^.^.^.^.^.^.^.^.^.^.^.^.^.^.^.^.^.^.^.^.^.^.^.^.^.^.^.^.^.^.^.^.^.^.^.^.^.^.^.^.^.^.^.^.^.^.^.^.^.^.^.^.^.^.^.^.^.^.^.^.^.^.^.^.^.^.^.^.^.^.^.^.^.^.^.^.^.^.^.^.^.^.^.^.^.^.^.^.^.^.^.^.^.^.^.^.^.^.^.^.^.^.^.^.^.^.^.^.^.^.^.^.^.^.^.^.^.^.^.^.^.^.^.^.^.^.^.^.^.^.^.^.^.^.^.^.^.^.^.^.^.^.^.^.^.^.^.^.^.^.^.^.^.^.^.^.^.^.^.^.^.^.^.^.^.^.^.^.^.^.^.^.^.^.^.^.^.^.^.^.^.^.^.^.^.^.^.^.^.^.^.^.^.^.^.^.^.^.^.^.^.^.^.^.^.^.^.^.^.^.^.^.^.^.^.^.^.^.^.^.^.^.^.^.^.^.^.^.^.^.^.^.^.^.^.^.^.^.^.^.^.^.^.^.^.^.^.^.^.^.^.^.^.^.^.^.^.^.^.^.^.^.^.^.^.^.^.^.^.^.^.^.^.^.^.^.^.^.^.^.^.^.^.^.^.^.^.^.^.^.^.^.^.^.^.^.^.^.^.^.^.^.^.^.^.^.^.^.^.^.^.^.^.^.^.^.^.^.^.^.^.^.^.^.^.^.^.^.^.^.^.^.^.^.^.^.^.^.^.^.^.^.^.^.^.^.^.^.^.^.^.^.^.^.^.^.^.^.^.^.^.^.^.^.^.^.^.^.^.^.^.^.^.^.^.^.^.^.^.^.^.^.^.^.^.^.^.^.^.^.^.^.^.^.^.^.^.^.^.^.^.^.^.^.^.^.^.^.^.^.^.^.^.^.^.^.^.^.^.^.^.^.^.^.^.^.^.^.^.^.^.^.^.^.^.^.^.^.^.^.^.^.^.^.^.^.^.^.^.^.^.^.^.^.^.^.^.^.^.^.^.^.^.^.^.^.^.^.^.^.^.^.^.^.^.^.^.^.^.^.^.^.^.^.^.^.^.^.^.^.^.^.^.^.^.^.^.^.^.^.^.^.^.^.^.^.^.^.^.^.^.^.^.^.^.^.^.^.^.^.^.^.^.^.^.^.^.^.^.^.^.^.^.^.^.^.^.^.^.^.^.^.^.^.^.^.^.^.^.^.^.^.^.^.^.^.^.^.^.^.^.^.^.^.^.^.^.^.^.^.^.^.^.^."
};
